;Fusion 360 CAM 2.0.7046
; Posts processor: DIYCNC_Marlin20.cps
; Gcode generated: Sat Dec 21 14:55:53 2019 GMT
; Document: computerAcrylic v7
; Setup: Setup1
; 
; Ranges table:
; X: Min=21.289 Max=448.711 Size=427.422
; Y: Min=37.605 Max=432.395 Size=394.789
; Z: Min=-1 Max=5 Size=6
; 
; Tools table:
; T1 D=3.175 CR=0 TAPER=45deg - ZMIN=-1 - chamfer mill 

; *** START begin ***
G90
G21
M84 S0
G92 X0 Y0 Z0
; *** START end ***

; *** SECTION begin ***
;Engrave1 - Milling - Tool: 1 -  chamfer mill
; X Min: 21.289 - X Max: 448.711
; Y Min: 37.605 - Y Max: 432.395
; Z Min: -1 - Z Max: 5
; COMMAND_START_SPINDLE
; COMMAND_SPINDLE_CLOCKWISE
;M0 Turn ON 24000RPM
; COMMAND_COOLANT_ON
;M117  Engrave1
G0 Z5 F300
G0 X210.287 Y122.925 F2500
G0 Z2.5 F300
; MOVEMENT_LEAD_IN
G1 Z-1 F3
; MOVEMENT_CUTTING
G1 X210.583 Y122.553 F15
G1 X210.886 Y122.2
G1 X211.194 Y121.866
G1 X211.505 Y121.552
G1 X211.822 Y121.257
G1 X212.145 Y120.979
G1 X212.472 Y120.72
G1 X212.806 Y120.479
G1 X213.141 Y120.256
G1 X213.188 Y120.228
G1 Y135.595
G2 X214.638 Y137.045 I1.45
G1 X226.512
G2 X227.962 Y135.595 J-1.45
G1 Y111.856
G1 X227.967 Y111.466
G1 X227.98 Y111.088
G1 X228.002 Y110.713
G1 X228.032 Y110.339
G1 X228.071 Y109.965
G1 X228.117 Y109.596
G1 X228.171 Y109.233
G1 X228.235 Y108.869
G1 X228.306 Y108.508
G1 X228.385 Y108.15
G1 X228.471 Y107.796
G1 X228.565 Y107.445
G1 X228.667 Y107.095
G1 X228.776 Y106.751
G1 X228.894 Y106.408
G1 X229.018 Y106.069
G1 X229.149 Y105.734
G1 X229.288 Y105.402
G1 X229.433 Y105.076
G1 X229.586 Y104.752
G1 X229.624 Y104.674
G1 X229.688 Y104.709
G1 X229.917 Y104.836
G1 X230.15 Y104.969
G1 X230.385 Y105.107
G1 X230.625 Y105.253
G1 X230.868 Y105.405
G1 X231.112 Y105.563
G1 X231.36 Y105.728
G1 X231.609 Y105.899
G1 X231.862 Y106.079
G1 X232.115 Y106.263
G1 X232.367 Y106.455
G1 X232.621 Y106.654
G1 X232.878 Y106.862
G1 X233.134 Y107.076
G1 X233.388 Y107.296
G1 X233.643 Y107.524
G1 X233.897 Y107.761
G1 X234.15 Y108.005
G1 X234.468 Y108.322
G1 X234.775 Y108.645
G1 X235.076 Y108.973
G1 X235.368 Y109.309
G1 X235.654 Y109.651
G1 X235.932 Y109.998
G1 X236.202 Y110.352
G1 X236.465 Y110.714
G1 X236.721 Y111.081
G1 X236.967 Y111.454
G1 X237.208 Y111.834
G1 X237.441 Y112.222
G1 X237.666 Y112.614
G1 X237.883 Y113.014
G1 X238.094 Y113.421
G1 X238.297 Y113.833
G1 X238.492 Y114.253
G1 X238.68 Y114.679
G1 X238.86 Y115.113
G1 X239.031 Y115.547
G1 X239.356 Y116.453
G1 X239.649 Y117.381
G1 X239.912 Y118.335
G1 X240.144 Y119.317
G1 X240.345 Y120.327
G1 X240.515 Y121.363
G1 X240.654 Y122.429
G1 X240.763 Y123.52
G1 X240.839 Y124.638
G1 X240.883 Y125.785
G1 X240.896 Y126.958
G1 X240.876 Y128.159
G1 X240.825 Y129.385
G1 X240.74 Y130.656
G2 X242.073 Y132.199 I1.447 J0.097
G1 X253.911 Y133.133
G2 X255.472 Y131.786 I0.114 J-1.446
G1 X255.558 Y130.524
G2 X255.559 Y130.494 I-1.447 J-0.099
G1 X255.621 Y129.195
G2 X255.623 Y129.163 I-1.448 J-0.069
G1 X255.657 Y127.829
G2 Y127.795 I-1.45 J-0.037
G1 X255.66 Y126.429
G2 Y126.393 I-1.45 J-0.003
G1 X255.628 Y125
G2 X255.626 Y124.962 I-1.45 J0.033
G1 X255.557 Y123.545
G2 X255.556 Y123.517 I-1.448 J0.071
G1 X255.507 Y122.8
G2 X255.505 Y122.779 I-1.447 J0.099
G1 X255.445 Y122.058
G2 X255.443 Y122.037 I-1.445 J0.12
G1 X255.372 Y121.311
G2 X255.37 Y121.29 I-1.443 J0.141
G1 X255.288 Y120.561
G2 X255.285 Y120.539 I-1.441 J0.162
G1 X255.191 Y119.806
G2 X255.188 Y119.783 I-1.438 J0.184
G1 X255.082 Y119.047
G2 X255.079 Y119.023 I-1.435 J0.207
G1 X254.96 Y118.284
G2 X254.956 Y118.262 I-1.432 J0.231
G1 X254.825 Y117.522
G2 X254.82 Y117.497 I-1.428 J0.253
G1 X254.675 Y116.754
G2 X254.67 Y116.731 I-1.423 J0.278
G1 X254.512 Y115.987
G2 X254.506 Y115.96 I-1.418 J0.301
G1 X254.333 Y115.216
G2 X254.327 Y115.191 I-1.412 J0.328
G1 X254.14 Y114.446
G2 X254.134 Y114.421 I-1.406 J0.353
G1 X253.933 Y113.676
G2 X253.925 Y113.648 I-1.4 J0.378
G1 X253.708 Y112.904
G2 X253.7 Y112.877 I-1.392 J0.406
G1 X253.467 Y112.133
G2 X253.458 Y112.105 I-1.384 J0.433
G1 X253.209 Y111.363
G2 X253.199 Y111.336 I-1.375 J0.461
G1 X252.934 Y110.595
G2 X252.923 Y110.565 I-1.365 J0.488
G1 X252.641 Y109.827
G2 X252.63 Y109.799 I-1.354 J0.518
G1 X252.331 Y109.064
G2 X252.32 Y109.036 I-1.343 J0.546
G1 X252.004 Y108.303
G2 X251.99 Y108.272 I-1.332 J0.574
G1 X251.655 Y107.543
G2 X251.641 Y107.513 I-1.318 J0.605
G1 X251.288 Y106.788
G2 X251.273 Y106.758 I-1.304 J0.635
G1 X250.901 Y106.037
G2 X250.885 Y106.007 I-1.289 J0.665
G1 X250.494 Y105.291
G2 X250.476 Y105.26 I-1.273 J0.695
G1 X250.065 Y104.549
G2 X250.048 Y104.52 I-1.255 J0.726
G1 X249.618 Y103.815
G2 X249.598 Y103.784 I-1.238 J0.755
G1 X249.147 Y103.085
G2 X249.127 Y103.054 I-1.218 J0.786
G1 X248.655 Y102.362
G2 X248.634 Y102.333 I-1.198 J0.817
G1 X248.141 Y101.647
G2 X248.119 Y101.617 I-1.177 J0.846
G1 X247.605 Y100.939
G2 X247.581 Y100.908 I-1.155 J0.876
G1 X247.044 Y100.238
G2 X247.022 Y100.21 I-1.131 J0.907
G1 X246.464 Y99.548
G2 X246.437 Y99.518 I-1.109 J0.935
G1 X245.855 Y98.865
G2 X245.831 Y98.838 I-1.082 J0.965
G1 X245.227 Y98.194
G2 X245.2 Y98.166 I-1.058 J0.992
G1 X244.572 Y97.531
G2 X244.544 Y97.504 I-1.031 J1.02
G1 X243.892 Y96.88
G2 X243.875 Y96.864 I-1.003 J1.047
G1 X243.714 Y96.714
G1 X243.707 Y96.708
G1 X243.546 Y96.56
G1 X243.539 Y96.555
G1 X243.378 Y96.409
G1 X243.372 Y96.403
G1 X243.211 Y96.259
G2 X243.2 Y96.25 I-0.966 J1.082
G1 X243.038 Y96.108
G1 X243.034 Y96.105
G1 X242.873 Y95.965
G1 X242.866 Y95.959
G1 X242.705 Y95.821
G1 X242.699 Y95.815
G1 X242.538 Y95.679
G2 X242.527 Y95.669 I-0.938 J1.106
G1 X242.435 Y95.593
G1 X242.449 Y95.592
G1 X242.655 Y95.569
G1 X242.861 Y95.55
G1 X243.067 Y95.533
G1 X243.275 Y95.518
G1 X243.484 Y95.506
G1 X243.692 Y95.497
G1 X243.903 Y95.49
G1 X244.112 Y95.486
G1 X244.333 Y95.485
G2 X244.344 I-0.009 J-1.45
G1 X245.176 Y95.473
G2 X245.216 Y95.472 I-0.02 J-1.45
G1 X246.042 Y95.438
G2 X246.082 Y95.436 I-0.06 J-1.449
G1 X246.903 Y95.379
G2 X246.943 Y95.376 I-0.1 J-1.447
G1 X247.757 Y95.297
G2 X247.797 Y95.292 I-0.14 J-1.443
G1 X248.605 Y95.191
G2 X248.644 Y95.186 I-0.18 J-1.439
G1 X249.445 Y95.063
G2 X249.484 Y95.057 I-0.219 J-1.433
G1 X250.278 Y94.913
G2 X250.318 Y94.905 I-0.258 J-1.427
G1 X251.104 Y94.741
G2 X251.142 Y94.732 I-0.298 J-1.419
G1 X251.921 Y94.547
G2 X251.959 Y94.537 I-0.336 J-1.411
G1 X252.73 Y94.331
G2 X252.768 Y94.321 I-0.374 J-1.401
G1 X253.53 Y94.095
G2 X253.567 Y94.083 I-0.412 J-1.39
G1 X254.321 Y93.838
G2 X254.358 Y93.825 I-0.449 J-1.379
G1 X255.103 Y93.56
G2 X255.14 Y93.546 I-0.486 J-1.366
G1 X255.875 Y93.262
G2 X255.911 Y93.248 I-0.523 J-1.352
G1 X256.637 Y92.945
G2 X256.671 Y92.93 I-0.559 J-1.338
G1 X257.388 Y92.608
G2 X257.424 Y92.592 I-0.593 J-1.323
G1 X258.13 Y92.252
G2 X258.164 Y92.235 I-0.629 J-1.306
G1 X258.86 Y91.877
G2 X258.894 Y91.859 I-0.663 J-1.29
G1 X259.579 Y91.484
G2 X259.612 Y91.465 I-0.697 J-1.272
G1 X260.286 Y91.072
G2 X260.319 Y91.052 I-0.73 J-1.253
G1 X260.685 Y90.826
G1 Y93.376
G2 Y93.395 I1.45
G1 X260.693 Y93.99
G2 X260.694 Y94.03 I1.45 J-0.019
G1 X260.718 Y94.621
G2 X260.72 Y94.661 I1.449 J-0.059
G1 X260.76 Y95.248
G2 X260.763 Y95.286 I1.447 J-0.099
G1 X260.818 Y95.869
G2 X260.823 Y95.909 I1.444 J-0.136
G1 X260.894 Y96.488
G2 X260.899 Y96.524 I1.439 J-0.177
G1 X260.984 Y97.098
G2 X260.99 Y97.139 I1.434 J-0.212
G1 X261.091 Y97.707
G2 X261.098 Y97.744 I1.428 J-0.254
G1 X261.213 Y98.307
G2 X261.221 Y98.344 I1.421 J-0.29
G1 X261.35 Y98.902
G2 X261.36 Y98.942 I1.413 J-0.326
G1 X261.504 Y99.494
G2 X261.514 Y99.531 I1.403 J-0.366
G1 X261.672 Y100.078
G2 X261.683 Y100.115 I1.393 J-0.402
G1 X261.855 Y100.656
G2 X261.867 Y100.693 I1.382 J-0.439
G1 X262.053 Y101.228
G2 X262.065 Y101.261 I1.37 J-0.476
G1 X262.263 Y101.789
G2 X262.278 Y101.828 I1.358 J-0.509
G1 X262.491 Y102.35
G2 X262.505 Y102.383 I1.343 J-0.548
G1 X262.73 Y102.898
G2 X262.746 Y102.932 I1.329 J-0.581
G1 X262.984 Y103.44
G2 X263 Y103.472 I1.313 J-0.615
G1 X263.25 Y103.973
G2 X263.267 Y104.007 I1.297 J-0.647
G1 X263.53 Y104.501
G2 X263.549 Y104.536 I1.28 J-0.681
G1 X263.825 Y105.022
G2 X263.843 Y105.052 I1.261 J-0.716
G1 X264.13 Y105.53
G2 X264.15 Y105.562 I1.243 J-0.746
G1 X264.449 Y106.032
G2 X264.469 Y106.064 I1.223 J-0.778
G1 X264.78 Y106.526
G2 X264.801 Y106.556 I1.203 J-0.81
G1 X265.123 Y107.009
G2 X265.144 Y107.038 I1.182 J-0.84
G1 X265.477 Y107.483
G2 X265.5 Y107.512 I1.161 J-0.869
G1 X265.844 Y107.948
G2 X265.868 Y107.978 I1.138 J-0.898
G1 X266.223 Y108.404
G2 X266.245 Y108.43 I1.114 J-0.928
G1 X266.61 Y108.848
G2 X266.636 Y108.877 I1.092 J-0.954
G1 X267.012 Y109.285
G2 X267.036 Y109.31 I1.066 J-0.983
G1 X267.422 Y109.709
G2 X267.449 Y109.737 I1.042 J-1.008
G1 X267.845 Y110.125
G2 X267.871 Y110.149 I1.015 J-1.036
G1 X268.277 Y110.528
G2 X268.304 Y110.553 I0.989 J-1.06
G1 X268.719 Y110.921
G2 X268.746 Y110.944 I0.962 J-1.085
G1 X269.17 Y111.302
G2 X269.2 Y111.327 I0.935 J-1.108
G1 X269.634 Y111.674
G2 X269.661 Y111.695 I0.905 J-1.133
G1 X270.103 Y112.031
G2 X270.133 Y112.053 I0.878 J-1.154
G1 X270.584 Y112.378
G2 X270.615 Y112.4 I0.848 J-1.176
G1 X271.075 Y112.714
G2 X271.106 Y112.734 I0.817 J-1.198
G1 X271.574 Y113.036
G2 X271.606 Y113.056 I0.786 J-1.218
G1 X272.082 Y113.346
G2 X272.112 Y113.364 I0.754 J-1.238
G1 X272.596 Y113.643
G2 X272.629 Y113.662 I0.724 J-1.256
G1 X273.12 Y113.928
G2 X273.153 Y113.945 I0.691 J-1.275
G1 X273.652 Y114.199
G2 X273.685 Y114.216 I0.658 J-1.292
G1 X274.143 Y114.434
G1 X273.624 Y114.904
G2 X273.598 Y114.928 I0.973 J1.075
G1 X272.88 Y115.61
G2 X272.857 Y115.632 I0.999 J1.051
G1 X272.164 Y116.32
G2 X272.14 Y116.345 I1.022 J1.029
G1 X271.473 Y117.04
G2 X271.452 Y117.062 I1.046 J1.004
G1 X270.809 Y117.761
G2 X270.786 Y117.786 I1.067 J0.982
G1 X270.168 Y118.49
G2 X270.148 Y118.514 I1.09 J0.957
G1 X269.554 Y119.221
G2 X269.534 Y119.245 I1.11 J0.933
G1 X268.963 Y119.955
G2 X268.943 Y119.981 I1.13 J0.909
G1 X268.396 Y120.693
G2 X268.38 Y120.714 I1.15 J0.883
G1 X267.854 Y121.426
G2 X267.836 Y121.451 I1.166 J0.862
G1 X267.333 Y122.162
G2 X267.317 Y122.185 I1.184 J0.837
G1 X266.835 Y122.896
G2 X266.819 Y122.921 I1.2 J0.814
G1 X266.359 Y123.63
G2 X266.344 Y123.652 I1.216 J0.789
G1 X265.904 Y124.358
G2 X265.891 Y124.381 I1.231 J0.767
G1 X265.471 Y125.083
G2 X265.457 Y125.105 I1.244 J0.744
G1 X265.057 Y125.802
G2 X265.044 Y125.826 I1.258 J0.722
G1 X264.664 Y126.518
G2 X264.653 Y126.539 I1.271 J0.698
G1 X264.291 Y127.225
G2 X264.279 Y127.247 I1.282 J0.677
G1 X263.936 Y127.925
G2 X263.926 Y127.946 I1.294 J0.655
G1 X263.6 Y128.616
G2 X263.59 Y128.637 I1.304 J0.634
G1 X263.282 Y129.297
G2 X263.271 Y129.32 I1.314 J0.613
G1 X262.981 Y129.971
G2 X262.971 Y129.996 I1.325 J0.59
G1 X262.506 Y131.094
G2 X262.491 Y131.129 I1.335 J0.565
G1 X262.065 Y132.213
G2 X262.053 Y132.245 I1.35 J0.53
G1 X261.663 Y133.311
G2 X261.652 Y133.342 I1.362 J0.498
G1 X261.366 Y134.183
G1 X261.296 Y134.389
G2 X261.286 Y134.419 I1.373 J0.467
G1 X260.962 Y135.444
G2 X260.953 Y135.474 I1.383 J0.437
G1 X260.661 Y136.473
G2 X260.653 Y136.502 I1.392 J0.407
G1 X260.391 Y137.473
G2 X260.384 Y137.501 I1.4 J0.378
G1 X260.15 Y138.442
G2 X260.144 Y138.468 I1.407 J0.35
G1 X259.936 Y139.375
G2 X259.93 Y139.402 I1.413 J0.324
G1 X259.748 Y140.273
G2 X259.743 Y140.296 I1.419 J0.297
G1 X259.583 Y141.128
G2 X259.578 Y141.154 I1.424 J0.274
G1 X259.441 Y141.944
G2 X259.438 Y141.965 I1.429 J0.248
G1 X259.32 Y142.711
G2 X259.316 Y142.735 I1.432 J0.227
G1 X259.217 Y143.434
G2 X259.214 Y143.456 I1.436 J0.203
G1 X259.132 Y144.106
G2 X259.13 Y144.125 I1.439 J0.181
G1 X259.063 Y144.721
G2 X259.061 Y144.742 I1.441 J0.162
G1 X259.008 Y145.284
G2 X259.006 Y145.303 I1.443 J0.141
G1 X258.965 Y145.787
G2 X258.964 Y145.806 I1.445 J0.122
G1 X258.934 Y146.228
G2 X258.932 Y146.247 I1.446 J0.103
G1 X258.911 Y146.607
G2 Y146.622 I1.448 J0.084
G1 X258.897 Y146.915
G2 X258.896 Y146.932 I1.448 J0.069
G1 X258.888 Y147.157
G2 X258.887 Y147.181 I1.449 J0.052
G1 X258.884 Y147.329
G1 X258.882 Y147.403
G2 X260.321 Y148.89 I1.45 J0.037
G1 X266.255 Y148.936
G1 X272.188 Y149.011
G2 X273.655 Y147.608 I0.018 J-1.45
G1 X273.662 Y147.407
G1 X273.681 Y147.031
G1 X273.722 Y146.481
G1 X273.796 Y145.769
G1 X273.906 Y144.908
G1 X274.064 Y143.915
G1 X274.28 Y142.796
G1 X274.408 Y142.206
G1 X274.555 Y141.586
G1 X274.719 Y140.944
G1 X274.903 Y140.281
G1 X275.106 Y139.6
G1 X275.33 Y138.901
G1 X275.577 Y138.187
G1 X275.845 Y137.459
G1 X276.138 Y136.719
G1 X276.455 Y135.97
G1 X276.798 Y135.214
G1 X277.169 Y134.449
G1 X277.566 Y133.681
G1 X277.992 Y132.91
G1 X278.448 Y132.137
G1 X278.934 Y131.365
G1 X279.452 Y130.595
G1 X280.004 Y129.829
G1 X280.589 Y129.068
G1 X281.207 Y128.314
G1 X281.862 Y127.569
G1 X282.554 Y126.834
G1 X283.284 Y126.111
G1 X284.058 Y125.398
G1 X284.453 Y125.053
G1 X284.863 Y124.707
G1 X285.282 Y124.367
G1 X285.712 Y124.031
G1 X286.153 Y123.699
G1 X286.604 Y123.371
G1 X287.067 Y123.05
G1 X287.542 Y122.732
G1 X288.026 Y122.42
G1 X288.523 Y122.115
G1 X289.031 Y121.814
G1 X289.551 Y121.521
G1 X290.082 Y121.232
G1 X290.625 Y120.951
G1 X291.182 Y120.677
G1 X291.749 Y120.408
G1 X292.329 Y120.148
G1 X292.923 Y119.895
G1 X293.449 Y119.681
G1 X293.93 Y120.04
G1 X294.446 Y120.459
G1 X294.946 Y120.899
G1 X295.427 Y121.358
G1 X295.889 Y121.835
G1 X296.331 Y122.331
G1 X296.755 Y122.846
G1 X297.158 Y123.376
G1 X297.537 Y123.923
G1 X297.896 Y124.486
G1 X298.231 Y125.064
G1 X298.543 Y125.657
G1 X298.832 Y126.263
G1 X299.096 Y126.883
G1 X299.335 Y127.515
G1 X299.548 Y128.16
G1 X299.735 Y128.815
G1 X299.895 Y129.48
G1 X300.026 Y130.157
G1 X300.131 Y130.844
G1 X300.205 Y131.539
G1 X300.251 Y132.244
G1 X300.266 Y132.986
G2 X301.716 Y134.406 I1.45 J-0.03
G1 X313.591
G2 X315.041 Y132.93 J-1.45
G1 X315.023 Y131.911
G2 X315.021 Y131.864 I-1.45 J0.026
G1 X314.97 Y130.854
G2 X314.967 Y130.804 I-1.448 J0.073
G1 X314.882 Y129.803
G2 X314.877 Y129.755 I-1.445 J0.123
G1 X314.759 Y128.763
G2 X314.752 Y128.715 I-1.44 J0.171
G1 X314.602 Y127.733
G2 X314.594 Y127.683 I-1.433 J0.219
G1 X314.411 Y126.712
G2 X314.402 Y126.667 I-1.425 J0.269
G1 X314.189 Y125.708
G2 X314.177 Y125.659 I-1.415 J0.314
G1 X313.932 Y124.711
G2 X313.919 Y124.666 I-1.404 J0.363
G1 X313.645 Y123.731
G2 X313.631 Y123.685 I-1.391 J0.408
G1 X313.327 Y122.762
G2 X313.311 Y122.716 I-1.377 J0.454
G1 X312.977 Y121.807
G2 X312.96 Y121.763 I-1.361 J0.5
G1 X312.598 Y120.869
G2 X312.58 Y120.826 I-1.344 J0.544
G1 X312.19 Y119.945
G2 X312.17 Y119.902 I-1.326 J0.587
G1 X311.753 Y119.037
G2 X311.732 Y118.995 I-1.306 J0.63
G1 X311.288 Y118.146
G2 X311.265 Y118.104 I-1.285 J0.672
G1 X310.794 Y117.271
G2 X310.771 Y117.232 I-1.262 J0.714
G1 X310.275 Y116.416
G2 X310.25 Y116.376 I-1.239 J0.753
G1 X309.728 Y115.577
G2 X309.702 Y115.538 I-1.214 J0.793
G1 X309.156 Y114.758
G2 X309.128 Y114.72 I-1.188 J0.832
G1 X308.557 Y113.958
G2 X308.531 Y113.924 I-1.16 J0.87
G1 X307.938 Y113.18
G2 X307.907 Y113.143 I-1.134 J0.904
G1 X307.29 Y112.42
G2 X307.259 Y112.385 I-1.103 J0.941
G1 X306.619 Y111.682
G2 X306.589 Y111.65 I-1.072 J0.976
G1 X306.181 Y111.228
G1 X305.928 Y110.967
G2 X305.895 Y110.934 I-1.042 J1.008
G1 X305.213 Y110.273
G2 X305.179 Y110.24 I-1.009 J1.041
G1 X304.475 Y109.601
G2 X304.441 Y109.572 I-0.975 J1.074
G1 X303.718 Y108.955
G2 X303.682 Y108.925 I-0.941 J1.103
G1 X302.939 Y108.331
G2 X302.903 Y108.303 I-0.905 J1.133
G1 X302.141 Y107.733
G2 X302.103 Y107.706 I-0.869 J1.161
G1 X301.322 Y107.16
G2 X301.284 Y107.134 I-0.831 J1.188
G1 X300.485 Y106.612
G2 X300.445 Y106.587 I-0.793 J1.214
G1 X299.629 Y106.091
G2 X299.59 Y106.068 I-0.753 J1.239
G1 X298.757 Y105.597
G2 X298.715 Y105.574 I-0.714 J1.262
G1 X297.866 Y105.13
G2 X297.825 Y105.109 I-0.672 J1.285
G1 X296.96 Y104.691
G2 X296.917 Y104.671 I-0.631 J1.306
G1 X296.036 Y104.281
G2 X295.993 Y104.263 I-0.587 J1.326
G1 X295.098 Y103.901
G2 X295.053 Y103.883 I-0.544 J1.344
G1 X294.144 Y103.55
G2 X294.099 Y103.535 I-0.499 J1.362
G1 X293.177 Y103.231
G2 X293.132 Y103.217 I-0.454 J1.377
G1 X292.197 Y102.942
G2 X292.149 Y102.929 I-0.409 J1.391
G1 X291.201 Y102.685
G2 X291.155 Y102.674 I-0.361 J1.404
G1 X290.195 Y102.46
G2 X290.147 Y102.45 I-0.315 J1.415
G1 X289.176 Y102.268
G2 X289.13 Y102.26 I-0.267 J1.425
G1 X288.149 Y102.109
G2 X288.099 Y102.102 I-0.221 J1.433
G1 X287.107 Y101.984
G2 X287.059 Y101.979 I-0.171 J1.44
G1 X286.057 Y101.894
G2 X286.007 Y101.891 I-0.123 J1.445
G1 X285.389 Y101.86
G1 X284.997 Y101.84
G2 X284.948 Y101.838 I-0.073 J1.448
G1 X283.93 Y101.821
G1 X283.614 Y101.816
G1 X283.325 Y101.801
G1 X283.043 Y101.777
G1 X282.761 Y101.743
G1 X282.481 Y101.7
G1 X282.204 Y101.648
G1 X281.93 Y101.588
G1 X281.663 Y101.519
G1 X281.398 Y101.441
G1 X281.133 Y101.354
G1 X280.877 Y101.26
G1 X280.624 Y101.157
G1 X280.372 Y101.046
G1 X280.125 Y100.927
G1 X279.885 Y100.801
G1 X279.648 Y100.668
G1 X279.417 Y100.526
G1 X279.189 Y100.377
G1 X278.966 Y100.221
G1 X278.749 Y100.059
G1 X278.536 Y99.889
G1 X278.331 Y99.714
G1 X278.132 Y99.533
G1 X277.936 Y99.344
G1 X277.749 Y99.15
G1 X277.566 Y98.949
G1 X277.39 Y98.742
G1 X277.221 Y98.531
G1 X277.059 Y98.314
G1 X276.903 Y98.092
G1 X276.827 Y97.976
G1 X276.755 Y97.865
G1 X276.614 Y97.633
G1 X276.48 Y97.395
G1 X276.353 Y97.153
G1 X276.233 Y96.906
G1 X276.124 Y96.659
G1 X276.022 Y96.405
G1 X275.926 Y96.144
G1 X275.84 Y95.883
G1 X275.762 Y95.618
G1 X275.692 Y95.348
G1 X275.632 Y95.076
G1 X275.58 Y94.8
G1 X275.537 Y94.522
G1 X275.504 Y94.24
G1 X275.48 Y93.953
G1 X275.464 Y93.666
G1 X275.46 Y93.365
G1 Y79.652
G1 X284.434
G1 Y92.056
G2 X285.884 Y93.506 I1.45
G1 X297.758
G2 X299.208 Y92.056 J-1.45
G1 Y81.421
G1 X299.564 Y81.608
G1 X299.927 Y81.809
G1 X300.284 Y82.021
G1 X300.637 Y82.241
G1 X300.983 Y82.469
G1 X301.322 Y82.705
G1 X301.656 Y82.951
G1 X301.983 Y83.203
G1 X302.302 Y83.464
G1 X302.616 Y83.734
G1 X302.924 Y84.011
G1 X303.223 Y84.295
G1 X303.515 Y84.586
G1 X303.8 Y84.885
G1 X304.078 Y85.192
G1 X304.348 Y85.504
G1 X304.61 Y85.823
G1 X304.864 Y86.15
G1 X305.11 Y86.483
G1 X305.347 Y86.822
G1 X305.577 Y87.167
G1 X305.797 Y87.517
G1 X306.008 Y87.874
G1 X306.212 Y88.239
G1 X306.407 Y88.607
G1 X306.591 Y88.979
G1 X306.766 Y89.357
G1 X306.932 Y89.742
G1 X307.089 Y90.131
G1 X307.234 Y90.524
G1 X307.371 Y90.923
G1 X307.498 Y91.324
G1 X307.614 Y91.732
G1 X307.72 Y92.144
G1 X307.815 Y92.558
G1 X307.9 Y92.978
G1 X307.974 Y93.401
G1 X308.037 Y93.828
G1 X308.089 Y94.259
G1 X308.13 Y94.693
G1 X308.159 Y95.13
G1 X308.176 Y95.571
G1 X308.183 Y96.024
G1 Y107.888
G2 X309.633 Y109.338 I1.45
G1 X321.507
G2 X322.957 Y107.888 J-1.45
G1 Y96.014
G1 Y95.882
G2 Y95.871 I-1.45
G1 X322.956 Y95.74
G2 Y95.729 I-1.45 J0.011
G1 X322.954 Y95.598
G1 X322.952 Y95.467
G2 Y95.456 I-1.45 J0.022
G1 X322.949 Y95.325
G1 X322.946 Y95.208
G1 X323.003 Y95.242
G1 X323.34 Y95.465
G1 X323.673 Y95.706
G1 X324 Y95.964
G1 X324.321 Y96.241
G1 X324.639 Y96.538
G1 X324.952 Y96.852
G1 X325.258 Y97.186
G1 X325.561 Y97.539
G1 X325.858 Y97.911
G1 X326.15 Y98.303
G1 X326.435 Y98.714
G1 X326.716 Y99.146
G1 X326.991 Y99.597
G1 X327.258 Y100.066
G1 X327.52 Y100.557
G1 X327.775 Y101.068
G1 X328.024 Y101.598
G1 X328.267 Y102.148
G1 X328.508 Y102.732
G2 X330.387 Y103.523 I1.34 J-0.555
G1 X341.412 Y99.113
G2 X342.213 Y97.212 I-0.539 J-1.346
G1 X341.864 Y96.37
G2 X341.851 Y96.341 I-1.34 J0.555
G1 X341.492 Y95.524
G2 X341.478 Y95.492 I-1.327 J0.584
G1 X341.107 Y94.701
G2 X341.091 Y94.669 I-1.313 J0.616
G1 X340.709 Y93.904
G2 X340.693 Y93.873 I-1.297 J0.648
G1 X340.301 Y93.133
G2 X340.284 Y93.101 I-1.281 J0.678
G1 X339.926 Y92.462
G1 X339.882 Y92.385
G2 X339.864 Y92.355 I-1.264 J0.71
G1 X339.453 Y91.663
G2 X339.434 Y91.632 I-1.246 J0.741
G1 X339.014 Y90.964
G2 X338.994 Y90.932 I-1.227 J0.772
G1 X338.565 Y90.288
G2 X338.544 Y90.258 I-1.207 J0.804
G1 X338.107 Y89.637
G2 X338.084 Y89.606 I-1.186 J0.835
G1 X337.639 Y89.008
G2 X337.615 Y88.977 I-1.163 J0.866
G1 X337.162 Y88.401
G2 X337.139 Y88.372 I-1.139 J0.897
G1 X336.68 Y87.819
G2 X336.654 Y87.789 I-1.116 J0.926
G1 X336.188 Y87.257
G2 X336.163 Y87.23 I-1.09 J0.956
G1 X335.692 Y86.72
G2 X335.664 Y86.69 I-1.065 J0.984
G1 X335.186 Y86.201
G2 X335.158 Y86.173 I-1.037 J1.014
G1 X334.675 Y85.705
G2 X334.647 Y85.678 I-1.009 J1.041
G1 X334.159 Y85.23
G2 X334.13 Y85.204 I-0.981 J1.068
G1 X333.638 Y84.776
G2 X333.608 Y84.75 I-0.952 J1.094
G1 X333.112 Y84.342
G2 X333.081 Y84.317 I-0.922 J1.119
G1 X332.581 Y83.928
G2 X332.549 Y83.904 I-0.891 J1.144
G1 X332.046 Y83.534
G2 X332.015 Y83.511 I-0.859 J1.168
G1 X331.509 Y83.16
G2 X331.477 Y83.138 I-0.828 J1.191
G1 X330.969 Y82.805
G2 X330.936 Y82.784 I-0.796 J1.212
G1 X330.426 Y82.468
G2 X330.394 Y82.449 I-0.763 J1.233
G1 X329.883 Y82.151
G2 X329.849 Y82.131 I-0.731 J1.252
G1 X329.336 Y81.85
G2 X329.302 Y81.832 I-0.697 J1.272
G1 X328.788 Y81.568
G2 X328.756 Y81.552 I-0.663 J1.289
G1 X328.243 Y81.304
G2 X328.208 Y81.288 I-0.631 J1.306
G1 X327.694 Y81.056
G2 X327.661 Y81.042 I-0.596 J1.322
G1 X327.148 Y80.825
G2 X327.116 Y80.812 I-0.563 J1.336
G1 X326.605 Y80.611
G2 X326.57 Y80.598 I-0.531 J1.349
G1 X326.059 Y80.412
G2 X326.025 Y80.4 I-0.496 J1.363
G1 X325.517 Y80.229
G2 X325.484 Y80.218 I-0.463 J1.374
G1 X324.978 Y80.061
G2 X324.944 Y80.051 I-0.43 J1.385
G1 X324.44 Y79.908
G2 X324.408 Y79.899 I-0.396 J1.395
G1 X323.907 Y79.769
G2 X323.874 Y79.761 I-0.364 J1.404
G1 X323.377 Y79.645
G2 X323.345 Y79.638 I-0.331 J1.412
G1 X322.852 Y79.534
G2 X322.819 Y79.527 I-0.299 J1.419
G1 X322.33 Y79.436
G2 X322.298 Y79.43 I-0.266 J1.425
G1 X321.814 Y79.351
G2 X321.782 Y79.346 I-0.234 J1.431
G1 X321.303 Y79.279
G2 X321.272 Y79.275 I-0.202 J1.436
G1 X320.798 Y79.218
G2 X320.766 Y79.215 I-0.171 J1.44
G1 X320.299 Y79.17
G2 X320.253 Y79.166 I-0.139 J1.443
G1 X319.337 Y79.108
G2 X319.275 Y79.105 I-0.093 J1.447
G1 X318.389 Y79.086
G2 X318.358 I-0.031 J1.45
G1 X318.307
G1 X318.301
G1 X318.25
G1 X318.247
G1 X318.196
G1 X318.191
G1 X318.14 Y79.087
G1 X318.137
G1 X318.087 Y79.088
G1 X318.084
G1 X318.033
G1 X318.03
G1 X317.98 Y79.089
G1 X317.977
G1 X317.942 Y79.09
G1 X317.92 Y79.055
G2 X317.897 Y79.019 I-1.225 J0.775
G1 X317.407 Y78.293
G2 X317.383 Y78.258 I-1.202 J0.811
G1 X316.873 Y77.547
G2 X316.847 Y77.512 I-1.178 J0.845
G1 X316.316 Y76.817
G2 X316.291 Y76.785 I-1.152 J0.88
G1 X315.741 Y76.106
G2 X315.713 Y76.072 I-1.127 J0.913
G1 X315.143 Y75.41
G2 X315.116 Y75.379 I-1.099 J0.946
G1 X314.528 Y74.734
G2 X314.498 Y74.703 I-1.072 J0.977
G1 X313.891 Y74.075
G2 X313.861 Y74.045 I-1.042 J1.008
G1 X313.235 Y73.435
G2 X313.205 Y73.407 I-1.012 J1.039
G1 X312.563 Y72.816
G2 X312.531 Y72.787 I-0.982 J1.067
G1 X311.871 Y72.215
G2 X311.838 Y72.188 I-0.95 J1.096
G1 X311.161 Y71.635
G2 X311.128 Y71.608 I-0.917 J1.123
G1 X310.435 Y71.075
G2 X310.401 Y71.05 I-0.884 J1.149
G1 X309.692 Y70.536
G2 X309.658 Y70.512 I-0.85 J1.175
G1 X308.934 Y70.019
G2 X308.898 Y69.996 I-0.816 J1.199
G1 X308.159 Y69.524
G2 X308.122 Y69.502 I-0.78 J1.222
G1 X307.368 Y69.051
G2 X307.331 Y69.03 I-0.743 J1.245
G1 X306.563 Y68.601
G2 X306.525 Y68.581 I-0.706 J1.266
G1 X305.743 Y68.175
G2 X305.705 Y68.156 I-0.668 J1.287
G1 X304.91 Y67.772
G2 X304.871 Y67.754 I-0.63 J1.306
G1 X304.063 Y67.393
G2 X304.023 Y67.376 I-0.591 J1.324
G1 X303.572 Y67.191
G1 X303.646 Y67.124
G1 X303.971 Y66.844
G1 X304.3 Y66.577
G1 X304.629 Y66.322
G1 X304.962 Y66.078
G1 X305.297 Y65.846
G1 X305.632 Y65.625
G1 X305.962 Y65.42
G1 X306.643 Y65.027
G1 X307.313 Y64.68
G1 X307.978 Y64.37
G1 X308.631 Y64.097
G1 X309.27 Y63.858
G1 X309.89 Y63.65
G1 X310.487 Y63.473
G1 X311.058 Y63.322
G1 X311.596 Y63.197
G1 X312.099 Y63.096
G1 X312.562 Y63.014
G1 X312.981 Y62.951
G1 X313.351 Y62.905
G1 X313.669 Y62.872
G1 X313.928 Y62.85
G1 X314.128 Y62.838
G1 X314.261 Y62.832
G1 X314.337 Y62.83
G2 X315.7 Y61.014 I-0.04 J-1.449
G1 Y49.507
G2 X314.241 Y48.057 I-1.45
G1 X314.149
G2 X314.134 I0.009 J1.45
G1 X313.996 Y48.06
G2 X313.979 I0.024 J1.45
G1 X313.798 Y48.065
G2 X313.781 Y48.066 I0.041 J1.449
G1 X313.558 Y48.075
G2 X313.54 Y48.076 I0.058 J1.449
G1 X313.277 Y48.089
G2 X313.259 Y48.09 I0.076 J1.448
G1 X312.957 Y48.11
G2 X312.938 Y48.112 I0.094 J1.447
G1 X312.598 Y48.138
G2 X312.577 Y48.14 I0.113 J1.446
G1 X312.203 Y48.174
G2 X312.184 Y48.176 I0.134 J1.444
G1 X311.775 Y48.22
G2 X311.753 Y48.222 I0.153 J1.442
G1 X311.312 Y48.276
G2 X311.291 Y48.279 I0.175 J1.439
G1 X310.819 Y48.343
G2 X310.796 Y48.346 I0.196 J1.437
G1 X310.294 Y48.423
G2 X310.27 Y48.427 I0.219 J1.433
G1 X309.742 Y48.517
G2 X309.719 Y48.521 I0.243 J1.43
G1 X309.164 Y48.625
G2 X309.139 Y48.629 I0.266 J1.425
G1 X308.559 Y48.748
G2 X308.533 Y48.754 I0.291 J1.42
G1 X307.93 Y48.889
G2 X307.904 Y48.895 I0.318 J1.415
G1 X307.281 Y49.048
G2 X307.253 Y49.055 I0.344 J1.409
G1 X306.61 Y49.225
G2 X306.582 Y49.233 I0.372 J1.402
G1 X305.921 Y49.423
G2 X305.892 Y49.431 I0.4 J1.394
G1 X305.214 Y49.641
G2 X305.183 Y49.651 I0.429 J1.385
G1 X304.491 Y49.882
G2 X304.461 Y49.893 I0.46 J1.375
G1 X303.755 Y50.146
G2 X303.723 Y50.158 I0.49 J1.365
G1 X303.005 Y50.435
G2 X302.972 Y50.448 I0.522 J1.353
G1 X302.245 Y50.75
G2 X302.21 Y50.765 I0.555 J1.34
G1 X301.382 Y51.134
G2 X301.344 Y51.151 I0.59 J1.324
G1 X300.533 Y51.541
G2 X300.494 Y51.56 I0.628 J1.307
G1 X299.7 Y51.97
G2 X299.663 Y51.99 I0.666 J1.288
G1 X298.886 Y52.421
G2 X298.849 Y52.442 I0.703 J1.268
G1 X298.089 Y52.893
G2 X298.052 Y52.916 I0.74 J1.247
G1 X297.309 Y53.387
G2 X297.273 Y53.411 I0.777 J1.225
G1 X296.548 Y53.902
G2 X296.513 Y53.927 I0.813 J1.201
G1 X295.805 Y54.438
G2 X295.769 Y54.464 I0.849 J1.176
G1 X295.079 Y54.994
G2 X295.045 Y55.022 I0.884 J1.15
G1 X294.373 Y55.572
G2 X294.339 Y55.6 I0.918 J1.122
G1 X293.685 Y56.169
G2 X293.653 Y56.198 I0.952 J1.094
G1 X293.017 Y56.786
G2 X292.984 Y56.817 I0.984 J1.065
G1 X292.367 Y57.424
G2 X292.337 Y57.455 I1.017 J1.034
G1 X291.738 Y58.081
G2 X291.707 Y58.113 I1.047 J1.003
G1 X291.127 Y58.757
G2 X291.098 Y58.791 I1.078 J0.97
G1 X290.537 Y59.453
G2 X290.51 Y59.487 I1.107 J0.937
G1 X289.968 Y60.168
G2 X289.941 Y60.202 I1.134 J0.903
G1 X289.418 Y60.9
G2 X289.393 Y60.935 I1.161 J0.869
G1 X288.889 Y61.651
G2 X288.864 Y61.688 I1.186 J0.834
G1 X288.38 Y62.422
G2 X288.358 Y62.457 I1.211 J0.798
G1 X287.893 Y63.208
G2 X287.871 Y63.245 I1.233 J0.763
G1 X287.426 Y64.014
G2 X287.406 Y64.05 I1.255 J0.726
G1 X286.981 Y64.836
G2 X286.962 Y64.871 I1.275 J0.69
G1 X286.958 Y64.879
G1 X275.833
G1 X281.36 Y40.927
G2 X279.947 Y39.151 I-1.413 J-0.326
G1 X256.198
G2 X254.785 Y40.927 J1.45
G1 X256.838 Y49.824
G1 X255.725 Y49.983
G2 X255.701 Y49.986 I0.204 J1.436
G1 X254.365 Y50.199
G2 X254.341 Y50.203 I0.228 J1.432
G1 X253.01 Y50.438
G2 X252.987 Y50.442 I0.252 J1.428
G1 X251.66 Y50.699
G2 X251.636 Y50.704 I0.275 J1.424
G1 X250.314 Y50.982
G2 X250.29 Y50.988 I0.299 J1.419
G1 X248.974 Y51.288
G2 X248.951 Y51.293 I0.323 J1.414
G1 X247.64 Y51.615
G2 X247.617 Y51.621 I0.346 J1.408
G1 X246.311 Y51.965
G2 X246.288 Y51.971 I0.369 J1.402
G1 X244.989 Y52.336
G2 X244.966 Y52.343 I0.392 J1.396
G1 X243.673 Y52.729
G2 X243.65 Y52.736 I0.415 J1.389
G1 X242.364 Y53.144
G2 X242.341 Y53.152 I0.438 J1.382
G1 X241.062 Y53.581
G2 X241.039 Y53.589 I0.461 J1.375
G1 X239.767 Y54.04
G2 X239.744 Y54.048 I0.484 J1.367
G1 X238.48 Y54.52
G2 X238.457 Y54.528 I0.507 J1.358
G1 X237.201 Y55.021
G2 X237.179 Y55.03 I0.53 J1.35
G1 X235.931 Y55.544
G2 X235.909 Y55.553 I0.552 J1.341
G1 X234.669 Y56.088
G2 X234.646 Y56.098 I0.574 J1.331
G1 X233.416 Y56.654
G2 X233.394 Y56.664 I0.597 J1.321
G1 X232.172 Y57.241
G2 X232.15 Y57.252 I0.619 J1.311
G1 X230.938 Y57.849
G2 X230.916 Y57.86 I0.641 J1.301
G1 X229.714 Y58.478
G2 X229.693 Y58.489 I0.663 J1.29
G1 X228.5 Y59.128
G2 X228.478 Y59.14 I0.684 J1.278
G1 X228.221 Y59.283
G1 X228.11 Y59.121
G2 X228.082 Y59.081 I-1.195 J0.822
G1 X227.643 Y58.487
G2 X227.613 Y58.447 I-1.167 J0.861
G1 X227.162 Y57.878
G2 X227.131 Y57.841 I-1.137 J0.9
G1 X226.67 Y57.297
G2 X226.639 Y57.261 I-1.106 J0.937
G1 X226.168 Y56.741
G2 X226.135 Y56.706 I-1.075 J0.973
G1 X225.655 Y56.21
G2 X225.622 Y56.176 I-1.042 J1.008
G1 X225.134 Y55.704
G2 X225.102 Y55.673 I-1.009 J1.041
G1 X224.608 Y55.223
G2 X224.573 Y55.192 I-0.977 J1.072
G1 X224.072 Y54.764
G2 X224.039 Y54.737 I-0.942 J1.102
G1 X223.534 Y54.331
G2 X223.499 Y54.304 I-0.909 J1.13
G1 X222.989 Y53.918
G2 X222.955 Y53.893 I-0.874 J1.157
G1 X222.442 Y53.529
G2 X222.408 Y53.505 I-0.84 J1.182
G1 X221.892 Y53.16
G2 X221.86 Y53.139 I-0.806 J1.205
G1 X221.344 Y52.813
G2 X221.309 Y52.792 I-0.774 J1.226
G1 X220.791 Y52.485
G2 X220.759 Y52.467 I-0.739 J1.248
G1 X220.242 Y52.178
G2 X220.21 Y52.161 I-0.707 J1.266
G1 X219.695 Y51.89
G2 X219.662 Y51.873 I-0.675 J1.283
G1 X219.148 Y51.619
G2 X219.117 Y51.605 I-0.642 J1.3
G1 X218.607 Y51.367
G2 X218.577 Y51.354 I-0.611 J1.315
G1 X218.071 Y51.132
G2 X218.041 Y51.12 I-0.581 J1.328
G1 X217.54 Y50.914
G2 X217.51 Y50.902 I-0.551 J1.341
G1 X217.014 Y50.711
G2 X216.986 Y50.701 I-0.521 J1.353
G1 X216.498 Y50.524
G2 X216.457 Y50.51 I-0.493 J1.363
G1 X215.504 Y50.197
G2 X215.451 Y50.181 I-0.452 J1.378
G1 X214.536 Y49.919
G2 X214.486 Y49.906 I-0.399 J1.394
G1 X213.617 Y49.69
G2 X213.57 Y49.68 I-0.349 J1.407
G1 X212.754 Y49.506
G2 X212.71 Y49.497 I-0.302 J1.418
G1 X211.954 Y49.36
G2 X211.912 Y49.353 I-0.258 J1.427
G1 X211.223 Y49.249
G2 X211.184 Y49.244 I-0.216 J1.434
G1 X210.57 Y49.168
G2 X210.534 Y49.164 I-0.177 J1.439
G1 X210.002 Y49.112
G2 X209.968 Y49.109 I-0.141 J1.443
G1 X209.526 Y49.077
G2 X209.493 Y49.075 I-0.107 J1.446
G1 X209.147 Y49.057
G2 X209.117 Y49.056 I-0.074 J1.448
G1 X208.875 Y49.048
G2 X208.847 I-0.044 J1.449
G1 X208.717 Y49.046
G2 X207.251 Y50.496 I-0.016 J1.45
G1 Y61.928
G2 X208.582 Y63.819 I1.381 J0.442
G1 X208.679 Y63.823
G1 X208.806 Y63.83
G1 X208.978 Y63.843
G1 X209.188 Y63.865
G1 X209.432 Y63.896
G1 X209.71 Y63.939
G1 X210.017 Y63.995
G1 X210.349 Y64.066
G1 X210.703 Y64.155
G1 X211.076 Y64.262
G1 X211.465 Y64.388
G1 X211.866 Y64.537
G1 X212.276 Y64.709
G1 X212.693 Y64.905
G1 X213.113 Y65.128
G1 X213.535 Y65.379
G1 X213.953 Y65.66
G1 X214.367 Y65.971
G1 X214.773 Y66.316
G1 X215.179 Y66.705
G1 X215.367 Y66.901
G1 X215.558 Y67.113
G1 X215.745 Y67.337
G1 X215.929 Y67.57
G1 X215.942 Y67.588
G1 X215.122 Y68.263
G2 X215.106 Y68.277 I0.923 J1.119
G1 X214.206 Y69.041
G2 X214.191 Y69.054 I0.939 J1.105
G1 X213.302 Y69.831
G2 X213.286 Y69.846 I0.954 J1.092
G1 X212.409 Y70.636
G2 X212.394 Y70.649 I0.97 J1.077
G1 X211.528 Y71.451
G2 X211.513 Y71.465 I0.985 J1.064
G1 X210.658 Y72.28
G2 X210.642 Y72.295 I1 J1.05
G1 X209.8 Y73.122
G2 X209.786 Y73.136 I1.016 J1.035
G1 X208.955 Y73.975
G2 X208.94 Y73.99 I1.03 J1.02
G1 X208.121 Y74.841
G2 X208.106 Y74.857 I1.045 J1.006
G1 X207.3 Y75.719
G2 X207.287 Y75.734 I1.06 J0.99
G1 X206.493 Y76.609
G2 X206.478 Y76.624 I1.073 J0.975
G1 X205.697 Y77.51
G2 X205.684 Y77.525 I1.088 J0.959
G1 X204.915 Y78.423
G2 X204.901 Y78.439 I1.101 J0.944
G1 X204.146 Y79.347
G2 X204.133 Y79.363 I1.115 J0.927
G1 X203.39 Y80.282
G2 X203.377 Y80.299 I1.128 J0.912
G1 X202.648 Y81.229
G2 X202.635 Y81.246 I1.141 J0.894
G1 X201.919 Y82.186
G2 X201.906 Y82.204 I1.154 J0.878
G1 X201.204 Y83.155
G2 X201.192 Y83.172 I1.167 J0.861
G1 X200.504 Y84.134
G2 X200.492 Y84.151 I1.179 J0.844
G1 X199.817 Y85.123
G2 X199.804 Y85.141 I1.191 J0.827
G1 X199.144 Y86.123
G2 X199.133 Y86.141 I1.204 J0.809
G1 X198.487 Y87.133
G2 X198.476 Y87.151 I1.215 J0.791
G1 X197.844 Y88.153
G2 X198.306 Y90.158 I1.226 J0.774
G1 X208.397 Y96.417
G2 X210.385 Y95.962 I0.764 J-1.232
G1 X211.153 Y94.753
G1 X211.937 Y93.573
G1 X212.746 Y92.41
G1 X213.577 Y91.266
G1 X214.433 Y90.139
G1 X215.229 Y89.134
G1 X215.311 Y89.03
G1 X215.85 Y88.378
G1 X216.212 Y87.94
G1 X217.135 Y86.869
G1 X218.08 Y85.818
G1 X219.045 Y84.787
G1 X220.032 Y83.776
G1 X221.04 Y82.785
G1 X222.068 Y81.816
G1 X223.116 Y80.867
G1 X224.182 Y79.941
G1 X225.268 Y79.037
G1 X226.373 Y78.155
G1 X227.496 Y77.296
G1 X228.636 Y76.461
G1 X229.794 Y75.649
G1 X230.969 Y74.861
G1 X232.16 Y74.098
G1 X233.367 Y73.36
G1 X234.592 Y72.646
G1 X235.655 Y72.054
G1 X236.728 Y71.482
G1 X237.812 Y70.93
G1 X238.904 Y70.397
G1 X240.006 Y69.885
G1 X241.117 Y69.393
G1 X242.236 Y68.921
G1 X243.364 Y68.47
G1 X244.499 Y68.039
G1 X245.643 Y67.628
G1 X246.793 Y67.238
G1 X247.95 Y66.869
G1 X249.114 Y66.521
G1 X250.284 Y66.193
G1 X251.46 Y65.886
G1 X252.641 Y65.6
G1 X253.828 Y65.335
G1 X255.021 Y65.092
G1 X256.217 Y64.869
G1 X257.418 Y64.668
G1 X258.623 Y64.488
G1 X259.832 Y64.33
G1 X260.685 Y64.234
G1 Y64.338
G1 X260.676 Y64.912
G1 X260.647 Y65.469
G1 X260.6 Y66.021
G1 X260.535 Y66.568
G1 X260.452 Y67.109
G1 X260.352 Y67.644
G1 X260.235 Y68.172
G1 X260.1 Y68.693
G1 X259.948 Y69.209
G1 X259.781 Y69.718
G1 X259.598 Y70.217
G1 X259.398 Y70.71
G1 X259.183 Y71.196
G1 X258.953 Y71.672
G1 X258.708 Y72.14
G1 X258.449 Y72.599
G1 X258.175 Y73.048
G1 X257.887 Y73.49
G1 X257.587 Y73.919
G1 X257.272 Y74.339
G1 X256.944 Y74.75
G1 X256.605 Y75.148
G1 X256.251 Y75.537
G1 X255.887 Y75.913
G1 X255.511 Y76.277
G1 X255.123 Y76.63
G1 X254.724 Y76.97
G1 X254.314 Y77.298
G1 X253.893 Y77.613
G1 X253.464 Y77.913
G1 X253.023 Y78.201
G1 X252.573 Y78.475
G1 X252.115 Y78.734
G1 X251.646 Y78.979
G1 X251.169 Y79.209
G1 X250.684 Y79.424
G1 X250.191 Y79.623
G1 X249.691 Y79.807
G1 X249.184 Y79.974
G1 X248.668 Y80.126
G1 X248.146 Y80.26
G1 X247.618 Y80.378
G1 X247.082 Y80.478
G1 X246.542 Y80.561
G1 X245.995 Y80.626
G1 X245.444 Y80.673
G1 X244.886 Y80.701
G1 X244.301 Y80.711
G1 X243.415 Y80.724
G2 X243.372 Y80.726 I0.021 J1.45
G1 X242.49 Y80.765
G2 X242.447 Y80.767 I0.064 J1.449
G1 X241.572 Y80.832
G2 X241.53 Y80.836 I0.107 J1.446
G1 X240.662 Y80.925
G2 X240.62 Y80.93 I0.149 J1.442
G1 X239.759 Y81.045
G2 X239.716 Y81.051 I0.191 J1.437
G1 X238.864 Y81.191
G2 X238.823 Y81.198 I0.234 J1.431
G1 X237.978 Y81.361
G2 X237.936 Y81.37 I0.275 J1.424
G1 X237.101 Y81.557
G2 X237.06 Y81.567 I0.317 J1.415
G1 X236.233 Y81.777
G2 X236.193 Y81.788 I0.358 J1.405
G1 X235.375 Y82.022
G2 X235.334 Y82.034 I0.398 J1.394
G1 X234.527 Y82.29
G2 X234.488 Y82.303 I0.439 J1.382
G1 X233.69 Y82.582
G2 X233.651 Y82.596 I0.478 J1.369
G1 X232.864 Y82.896
G2 X232.825 Y82.912 I0.517 J1.355
G1 X232.049 Y83.234
G2 X232.012 Y83.25 I0.556 J1.339
G1 X231.247 Y83.593
G2 X231.21 Y83.61 I0.593 J1.323
G1 X230.456 Y83.974
G2 X230.418 Y83.993 I0.63 J1.306
G1 X229.677 Y84.377
G2 X229.642 Y84.396 I0.668 J1.287
G1 X228.913 Y84.801
G2 X228.878 Y84.82 I0.703 J1.268
G1 X228.161 Y85.244
G2 X228.126 Y85.266 I0.738 J1.248
G1 X227.422 Y85.709
G2 X227.388 Y85.731 I0.773 J1.227
G1 X226.698 Y86.194
G2 X226.664 Y86.217 I0.807 J1.205
G1 X225.988 Y86.698
G2 X225.956 Y86.721 I0.841 J1.182
G1 X225.294 Y87.221
G2 X225.263 Y87.245 I0.873 J1.158
G1 X224.615 Y87.762
G2 X224.584 Y87.788 I0.904 J1.133
G1 X223.951 Y88.322
G2 X223.92 Y88.348 I0.935 J1.108
G1 X223.302 Y88.9
G2 X223.273 Y88.927 I0.966 J1.082
G1 X222.671 Y89.496
G2 X222.642 Y89.523 I0.995 J1.054
G1 X222.056 Y90.108
G2 X222.027 Y90.138 I1.024 J1.026
G1 X221.458 Y90.738
G2 X221.432 Y90.767 I1.053 J0.997
G1 X220.879 Y91.384
G2 X220.852 Y91.414 I1.079 J0.968
G1 X220.316 Y92.045
G2 X220.291 Y92.076 I1.106 J0.938
G1 X219.772 Y92.722
G2 X219.747 Y92.755 I1.131 J0.908
G1 X219.247 Y93.417
G2 X219.224 Y93.448 I1.156 J0.875
G1 X218.741 Y94.123
G2 X218.717 Y94.157 I1.179 J0.844
G1 X218.253 Y94.846
G2 X218.231 Y94.88 I1.203 J0.81
G1 X217.786 Y95.582
G2 X217.764 Y95.618 I1.225 J0.776
G1 X217.339 Y96.333
G2 X217.32 Y96.368 I1.247 J0.74
G1 X216.913 Y97.096
G2 X216.894 Y97.132 I1.266 J0.706
G1 X216.508 Y97.873
G2 X216.49 Y97.908 I1.286 J0.67
G1 X216.124 Y98.661
G2 X216.107 Y98.698 I1.304 J0.634
G1 X215.762 Y99.462
G2 X215.744 Y99.502 I1.321 J0.597
G1 X215.421 Y100.278
G2 X215.407 Y100.313 I1.339 J0.557
G1 X215.104 Y101.099
G2 X215.089 Y101.14 I1.353 J0.522
G1 X214.809 Y101.937
G2 X214.796 Y101.976 I1.368 J0.481
G1 X214.538 Y102.783
G2 X214.526 Y102.822 I1.381 J0.442
G1 X214.29 Y103.638
G2 X214.279 Y103.681 I1.393 J0.403
G1 X214.092 Y104.407
G1 X213.316 Y104.546
G2 X213.257 Y104.557 I0.255 J1.427
G1 X212.381 Y104.751
G2 X212.326 Y104.765 I0.314 J1.416
G1 X211.727 Y104.923
G1 X211.438 Y104.999
G2 X211.379 Y105.016 I0.369 J1.402
G1 X210.482 Y105.293
G2 X210.435 Y105.308 I0.428 J1.385
G1 X209.985 Y105.464
G2 X209.958 Y105.474 I0.475 J1.37
G1 X209.505 Y105.641
G2 X209.477 Y105.651 I0.502 J1.36
G1 X209.024 Y105.829
G2 X208.992 Y105.842 I0.53 J1.35
G1 X208.538 Y106.033
G2 X208.509 Y106.046 I0.562 J1.337
G1 X208.054 Y106.249
G2 X208.022 Y106.264 I0.591 J1.324
G1 X207.568 Y106.48
G2 X207.541 Y106.493 I0.623 J1.309
G1 X207.086 Y106.721
G2 X207.056 Y106.736 I0.65 J1.296
G1 X206.602 Y106.977
G2 X206.574 Y106.993 I0.68 J1.281
G1 X206.12 Y107.247
G2 X206.09 Y107.264 I0.708 J1.265
G1 X205.637 Y107.532
G2 X205.606 Y107.551 I0.738 J1.248
G1 X205.155 Y107.833
G2 X205.127 Y107.851 I0.769 J1.229
G1 X204.677 Y108.147
G2 X204.649 Y108.166 I0.797 J1.211
G1 X204.201 Y108.476
G2 X204.172 Y108.496 I0.825 J1.192
G1 X203.726 Y108.821
G2 X203.699 Y108.841 I0.854 J1.172
G1 X203.256 Y109.18
G2 X203.229 Y109.201 I0.881 J1.152
G1 X202.788 Y109.555
G2 X202.76 Y109.578 I0.908 J1.131
G1 X202.322 Y109.948
G2 X202.296 Y109.971 I0.936 J1.108
G1 X201.862 Y110.356
G2 X201.838 Y110.378 I0.962 J1.085
G1 X201.407 Y110.778
G2 X201.38 Y110.804 I0.986 J1.063
G1 X200.953 Y111.221
G2 X200.929 Y111.245 I1.013 J1.037
G1 X200.506 Y111.678
G2 X200.481 Y111.704 I1.037 J1.013
G1 X200.063 Y112.154
G2 X200.041 Y112.178 I1.062 J0.987
G1 X199.627 Y112.644
G2 X199.603 Y112.671 I1.084 J0.963
G1 X199.195 Y113.154
G2 X199.174 Y113.18 I1.108 J0.936
G1 X198.77 Y113.681
G2 X198.748 Y113.709 I1.129 J0.91
G1 X198.351 Y114.227
G2 X198.332 Y114.253 I1.151 J0.882
G1 X197.94 Y114.789
G2 X197.92 Y114.816 I1.17 J0.856
G1 X197.534 Y115.37
G2 X197.515 Y115.398 I1.19 J0.829
G1 X197.136 Y115.97
G2 X197.118 Y115.998 I1.209 J0.801
G1 X196.746 Y116.588
G2 X196.73 Y116.615 I1.227 J0.773
G1 X196.364 Y117.225
G2 X196.346 Y117.254 I1.243 J0.746
G1 X195.989 Y117.882
G2 X195.975 Y117.908 I1.261 J0.717
G1 X195.624 Y118.555
G2 X195.609 Y118.584 I1.275 J0.691
G1 X195.267 Y119.251
G2 X195.253 Y119.279 I1.29 J0.662
G1 X194.919 Y119.966
G2 X194.906 Y119.993 I1.304 J0.634
G1 X194.58 Y120.7
G2 X194.568 Y120.727 I1.317 J0.607
G1 X194.251 Y121.454
G2 X194.239 Y121.481 I1.329 J0.58
G1 X193.931 Y122.228
G2 X194.733 Y124.127 I1.341 J0.553
G1 X205.758 Y128.538
G2 X207.637 Y127.746 I0.539 J-1.346
G1 X207.879 Y127.161
G1 X208.121 Y126.612
G1 X208.37 Y126.082
G1 X208.625 Y125.571
G1 X208.887 Y125.081
G1 X209.154 Y124.611
G1 X209.429 Y124.161
G1 X209.71 Y123.729
G1 X209.996 Y123.317
G1 X210.287 Y122.925
; MOVEMENT_RAPID
G0 Z5 F300
G0 X166.823 Y108.366 F2500
G0 Z2.5 F300
; MOVEMENT_LEAD_IN
G1 Z-1 F3
; MOVEMENT_CUTTING
G2 X166.898 Y107.879 I-1.375 J-0.461 F15
G1 X166.886 Y107.198
G2 X166.884 Y107.151 I-1.45 J0.026
G1 X166.85 Y106.476
G2 X166.847 Y106.428 I-1.448 J0.073
G1 X166.791 Y105.76
G2 X166.786 Y105.709 I-1.445 J0.121
G1 X166.707 Y105.047
G2 X166.7 Y105 I-1.44 J0.172
G1 X166.6 Y104.345
G2 X166.592 Y104.298 I-1.433 J0.219
G1 X166.471 Y103.65
G2 X166.461 Y103.6 I-1.425 J0.266
G1 X166.318 Y102.959
G2 X166.308 Y102.915 I-1.415 J0.316
G1 X166.146 Y102.283
G2 X166.132 Y102.235 I-1.405 J0.36
G1 X165.949 Y101.611
G2 X165.935 Y101.565 I-1.391 J0.408
G1 X165.732 Y100.949
G2 X165.717 Y100.904 I-1.377 J0.454
G1 X165.495 Y100.298
G2 X165.478 Y100.254 I-1.362 J0.499
G1 X165.237 Y99.657
G2 X165.219 Y99.615 I-1.345 J0.543
G1 X164.96 Y99.028
G2 X164.939 Y98.984 I-1.327 J0.585
G1 X164.661 Y98.407
G2 X164.64 Y98.365 I-1.306 J0.629
G1 X164.344 Y97.798
G2 X164.321 Y97.756 I-1.285 J0.672
G1 X164.007 Y97.201
G2 X163.985 Y97.163 I-1.262 J0.714
G1 X163.655 Y96.619
G2 X163.629 Y96.577 I-1.24 J0.752
G1 X163.281 Y96.045
G2 X163.256 Y96.009 I-1.214 J0.793
G1 X162.893 Y95.488
G2 X162.865 Y95.449 I-1.189 J0.83
G1 X162.485 Y94.941
G2 X162.456 Y94.904 I-1.161 J0.868
G1 X162.06 Y94.409
G2 X162.032 Y94.374 I-1.132 J0.906
G1 X161.621 Y93.892
G2 X161.59 Y93.857 I-1.104 J0.941
G1 X161.164 Y93.388
G2 X161.133 Y93.355 I-1.073 J0.975
G1 X160.693 Y92.901
G2 X160.66 Y92.867 I-1.042 J1.008
G1 X160.205 Y92.427
G2 X160.171 Y92.395 I-1.009 J1.042
G1 X159.702 Y91.969
G2 X159.668 Y91.939 I-0.975 J1.073
G1 X159.186 Y91.528
G2 X159.15 Y91.499 I-0.941 J1.103
G1 X158.655 Y91.103
G2 X158.619 Y91.075 I-0.905 J1.133
G1 X158.111 Y90.695
G2 X158.072 Y90.667 I-0.869 J1.161
G1 X157.551 Y90.303
G2 X157.514 Y90.278 I-0.83 J1.189
G1 X156.982 Y89.93
G2 X156.942 Y89.905 I-0.793 J1.214
G1 X156.398 Y89.575
G2 X156.357 Y89.551 I-0.753 J1.239
G1 X155.801 Y89.237
G2 X155.761 Y89.215 I-0.712 J1.263
G1 X155.195 Y88.92
G2 X155.152 Y88.898 I-0.672 J1.285
G1 X154.575 Y88.62
G2 X154.532 Y88.6 I-0.629 J1.306
G1 X153.945 Y88.341
G2 X153.902 Y88.322 I-0.586 J1.326
G1 X153.305 Y88.081
G2 X153.261 Y88.064 I-0.543 J1.345
G1 X152.655 Y87.842
G2 X152.61 Y87.827 I-0.499 J1.362
G1 X151.995 Y87.624
G2 X151.948 Y87.61 I-0.454 J1.377
G1 X151.323 Y87.427
G2 X151.277 Y87.414 I-0.407 J1.392
G1 X150.645 Y87.252
G2 X150.598 Y87.24 I-0.361 J1.404
G1 X149.958 Y87.098
G2 X149.934 Y87.093 I-0.314 J1.415
G1 X149.981 Y86.984
G2 X149.99 Y86.962 I-1.335 J-0.567
G1 X150.22 Y86.396
G2 X150.23 Y86.369 I-1.344 J-0.545
G1 X150.453 Y85.787
G2 X150.464 Y85.758 I-1.354 J-0.519
G1 X150.679 Y85.16
G2 X150.689 Y85.13 I-1.365 J-0.49
G1 X150.896 Y84.513
G2 X150.906 Y84.48 I-1.375 J-0.461
G1 X151.103 Y83.842
G2 X151.113 Y83.809 I-1.385 J-0.428
G1 X151.3 Y83.149
G2 X151.309 Y83.115 I-1.395 J-0.395
G1 X151.485 Y82.431
G2 X151.494 Y82.395 I-1.404 J-0.361
G1 X151.657 Y81.685
G2 X151.665 Y81.65 I-1.413 J-0.325
G1 X151.815 Y80.913
G2 X151.822 Y80.876 I-1.421 J-0.289
G1 X151.957 Y80.11
G2 X151.963 Y80.076 I-1.428 J-0.252
G1 X152.084 Y79.279
G2 X152.089 Y79.244 I-1.434 J-0.218
G1 X152.194 Y78.415
G2 X152.198 Y78.378 I-1.439 J-0.182
G1 X152.285 Y77.515
G2 X152.288 Y77.482 I-1.443 J-0.145
G1 X152.358 Y76.583
G2 X152.36 Y76.549 I-1.446 J-0.113
G1 X152.411 Y75.613
G2 X152.412 Y75.581 I-1.448 J-0.079
G1 X152.444 Y74.605
G2 X152.445 Y74.572 I-1.449 J-0.048
G1 X152.455 Y73.555
G2 Y73.527 I-1.45 J-0.014
G1 X152.445 Y72.509
G2 X152.444 Y72.476 I-1.45 J0.014
G1 X152.412 Y71.5
G2 X152.411 Y71.469 I-1.449 J0.048
G1 X152.36 Y70.532
G2 X152.358 Y70.499 I-1.448 J0.079
G1 X152.288 Y69.599
G2 X152.285 Y69.567 I-1.446 J0.113
G1 X152.198 Y68.703
G2 X152.194 Y68.667 I-1.443 J0.145
G1 X152.089 Y67.838
G2 X152.084 Y67.802 I-1.439 J0.182
G1 X151.963 Y67.006
G2 X151.957 Y66.972 I-1.434 J0.218
G1 X151.822 Y66.206
G2 X151.815 Y66.168 I-1.428 J0.252
G1 X151.665 Y65.432
G2 X151.657 Y65.396 I-1.421 J0.289
G1 X151.494 Y64.687
G2 X151.485 Y64.65 I-1.413 J0.325
G1 X151.309 Y63.966
G2 X151.3 Y63.932 I-1.404 J0.361
G1 X151.113 Y63.272
G2 X151.103 Y63.24 I-1.395 J0.395
G1 X150.906 Y62.602
G2 X150.896 Y62.569 I-1.385 J0.428
G1 X150.689 Y61.951
G2 X150.679 Y61.922 I-1.375 J0.461
G1 X150.464 Y61.323
G2 X150.453 Y61.294 I-1.365 J0.49
G1 X150.23 Y60.712
G2 X150.22 Y60.686 I-1.354 J0.519
G1 X149.99 Y60.119
G2 X149.981 Y60.098 I-1.344 J0.545
G1 X149.746 Y59.544
G2 X149.736 Y59.522 I-1.335 J0.567
G1 X149.495 Y58.98
G2 X149.488 Y58.965 I-1.325 J0.59
G1 X149.244 Y58.433
G2 X149.236 Y58.417 I-1.318 J0.605
G1 X148.988 Y57.894
G1 X148.984 Y57.886
G1 X148.735 Y57.369
G1 X148.731 Y57.36
G1 X148.48 Y56.849
G1 X148.479 Y56.847
G1 X148.229 Y56.339
G1 X148.228 Y56.337
G1 X147.994 Y55.863
G1 X147.764 Y55.394
G1 X147.538 Y54.926
G1 X147.317 Y54.459
G1 X147.101 Y53.99
G1 X146.891 Y53.518
G1 X146.687 Y53.041
G1 X146.49 Y52.557
G1 X146.301 Y52.064
G1 X146.12 Y51.56
G1 X145.946 Y51.043
G1 X145.781 Y50.511
G1 X145.626 Y49.962
G1 X145.482 Y49.394
G1 X145.347 Y48.804
G1 X145.223 Y48.19
G1 X145.11 Y47.551
G1 X145.011 Y46.885
G1 X144.924 Y46.189
G1 X144.852 Y45.462
G1 X144.794 Y44.702
G1 X144.752 Y43.906
G1 X144.726 Y43.074
G1 X144.717 Y42.188
G2 X143.267 Y40.752 I-1.45 J0.014
G1 X139.235
G2 X137.785 Y42.216 J1.45
G1 X137.795 Y43.234
G2 X137.796 Y43.267 I1.45 J-0.014
G1 X137.828 Y44.243
G2 X137.829 Y44.274 I1.449 J-0.048
G1 X137.88 Y45.211
G2 X137.882 Y45.244 I1.448 J-0.079
G1 X137.952 Y46.144
G2 X137.955 Y46.176 I1.446 J-0.113
G1 X138.042 Y47.04
G2 X138.046 Y47.076 I1.443 J-0.145
G1 X138.151 Y47.905
G2 X138.156 Y47.941 I1.439 J-0.182
G1 X138.277 Y48.737
G2 X138.283 Y48.771 I1.434 J-0.218
G1 X138.418 Y49.537
G2 X138.425 Y49.575 I1.428 J-0.252
G1 X138.575 Y50.311
G2 X138.583 Y50.347 I1.421 J-0.289
G1 X138.746 Y51.056
G2 X138.755 Y51.093 I1.413 J-0.325
G1 X138.931 Y51.777
G2 X138.94 Y51.811 I1.404 J-0.361
G1 X139.127 Y52.471
G2 X139.137 Y52.503 I1.395 J-0.395
G1 X139.334 Y53.141
G2 X139.344 Y53.174 I1.385 J-0.428
G1 X139.551 Y53.792
G2 X139.561 Y53.821 I1.375 J-0.461
G1 X139.776 Y54.42
G2 X139.787 Y54.449 I1.365 J-0.49
G1 X140.01 Y55.031
G2 X140.02 Y55.057 I1.354 J-0.519
G1 X140.25 Y55.624
G2 X140.259 Y55.645 I1.344 J-0.545
G1 X140.494 Y56.199
G2 X140.504 Y56.221 I1.335 J-0.567
G1 X140.745 Y56.763
G2 X140.752 Y56.778 I1.325 J-0.59
G1 X140.996 Y57.31
G2 X141.004 Y57.326 I1.318 J-0.605
G1 X141.252 Y57.849
G1 X141.256 Y57.858
G1 X141.505 Y58.374
G2 X141.509 Y58.383 I1.306 J-0.63
G1 X141.76 Y58.895
G1 X141.761 Y58.896
G1 X142.011 Y59.404
G1 X142.012 Y59.407
G1 X142.246 Y59.88
G1 X142.476 Y60.35
G1 X142.702 Y60.817
G1 X142.709 Y60.833
G1 X142.644 Y60.843
G2 X142.596 Y60.851 I0.219 J1.433
G1 X141.948 Y60.973
G2 X141.9 Y60.982 I0.267 J1.425
G1 X141.26 Y61.125
G2 X141.214 Y61.136 I0.314 J1.415
G1 X140.581 Y61.298
G2 X140.534 Y61.311 I0.361 J1.404
G1 X139.91 Y61.494
G2 X139.864 Y61.508 I0.408 J1.392
G1 X139.249 Y61.711
G2 X139.204 Y61.727 I0.454 J1.377
G1 X138.598 Y61.949
G2 X138.554 Y61.966 I0.499 J1.362
G1 X137.957 Y62.207
G2 X137.914 Y62.225 I0.543 J1.345
G1 X137.327 Y62.485
G2 X137.284 Y62.504 I0.586 J1.326
G1 X136.707 Y62.782
G2 X136.664 Y62.804 I0.629 J1.306
G1 X136.098 Y63.1
G2 X136.058 Y63.121 I0.672 J1.285
G1 X135.502 Y63.435
G2 X135.461 Y63.459 I0.712 J1.263
G1 X134.917 Y63.789
G2 X134.877 Y63.815 I0.753 J1.239
G1 X134.345 Y64.162
G2 X134.308 Y64.187 I0.793 J1.214
G1 X133.787 Y64.551
G2 X133.748 Y64.579 I0.83 J1.189
G1 X133.24 Y64.959
G2 X133.204 Y64.987 I0.869 J1.161
G1 X132.709 Y65.383
G2 X132.673 Y65.412 I0.905 J1.133
G1 X132.191 Y65.823
G2 X132.157 Y65.853 I0.941 J1.103
G1 X131.688 Y66.279
G2 X131.654 Y66.311 I0.975 J1.073
G1 X131.199 Y66.751
G2 X131.166 Y66.785 I1.009 J1.042
G1 X130.726 Y67.239
G2 X130.695 Y67.272 I1.042 J1.008
G1 X130.269 Y67.741
G2 X130.238 Y67.776 I1.073 J0.975
G1 X129.827 Y68.258
G2 X129.799 Y68.293 I1.104 J0.941
G1 X129.403 Y68.788
G2 X129.374 Y68.825 I1.132 J0.906
G1 X128.994 Y69.333
G2 X128.967 Y69.371 I1.161 J0.868
G1 X128.603 Y69.891
G2 X128.576 Y69.931 I1.188 J0.831
G1 X128.229 Y70.463
G2 X128.205 Y70.501 I1.215 J0.792
G1 X127.874 Y71.045
G2 X127.85 Y71.087 I1.239 J0.754
G1 X127.537 Y71.642
G2 X127.515 Y71.683 I1.263 J0.712
G1 X127.219 Y72.249
G2 X127.198 Y72.291 I1.285 J0.672
G1 X126.92 Y72.868
G2 X126.9 Y72.91 I1.306 J0.63
G1 X126.64 Y73.497
G2 X126.621 Y73.541 I1.326 J0.587
G1 X126.38 Y74.138
G2 X126.363 Y74.183 I1.345 J0.543
G1 X126.141 Y74.789
G2 X126.125 Y74.835 I1.362 J0.499
G1 X125.923 Y75.451
G2 X125.91 Y75.495 I1.378 J0.452
G1 X125.727 Y76.119
G2 X125.714 Y76.165 I1.391 J0.408
G1 X125.551 Y76.798
G2 X125.539 Y76.845 I1.404 J0.362
G1 X125.397 Y77.486
G2 X125.388 Y77.534 I1.416 J0.314
G1 X125.267 Y78.182
G2 X125.259 Y78.229 I1.425 J0.266
G1 X125.159 Y78.884
G2 X125.152 Y78.931 I1.433 J0.219
G1 X125.073 Y79.593
G2 X125.068 Y79.644 I1.44 J0.172
G1 X125.012 Y80.313
G2 X125.009 Y80.358 I1.445 J0.121
G1 X124.974 Y81.033
G2 X124.972 Y81.085 I1.448 J0.075
G1 X124.961 Y81.765
G2 X126.436 Y83.239 I1.45 J0.023
G1 X127.116 Y83.227
G2 X127.164 Y83.225 I-0.025 J-1.45
G1 X127.839 Y83.191
G2 X127.888 Y83.188 I-0.073 J-1.448
G1 X128.557 Y83.131
G2 X128.606 Y83.127 I-0.122 J-1.445
G1 X129.268 Y83.048
G2 X129.316 Y83.041 I-0.171 J-1.44
G1 X129.971 Y82.941
G2 X130.019 Y82.933 I-0.219 J-1.433
G1 X130.667 Y82.812
G2 X130.715 Y82.802 I-0.267 J-1.425
G1 X131.355 Y82.66
G2 X131.401 Y82.649 I-0.315 J-1.415
G1 X132.034 Y82.486
G2 X132.081 Y82.473 I-0.361 J-1.404
G1 X132.705 Y82.29
G2 X132.751 Y82.276 I-0.408 J-1.392
G1 X133.366 Y82.073
G2 X133.41 Y82.058 I-0.454 J-1.377
G1 X134.017 Y81.836
G2 X134.063 Y81.819 I-0.498 J-1.362
G1 X134.659 Y81.578
G2 X134.701 Y81.559 I-0.544 J-1.344
G1 X135.288 Y81.3
G2 X135.331 Y81.28 I-0.586 J-1.326
G1 X135.908 Y81.002
G2 X135.95 Y80.981 I-0.629 J-1.306
G1 X136.517 Y80.685
G2 X136.559 Y80.662 I-0.671 J-1.286
G1 X137.114 Y80.349
G2 X137.154 Y80.326 I-0.713 J-1.263
G1 X137.698 Y79.995
G2 X137.737 Y79.971 I-0.753 J-1.239
G1 X138.27 Y79.623
G2 X138.309 Y79.597 I-0.792 J-1.215
G1 X138.829 Y79.233
G2 X138.866 Y79.206 I-0.831 J-1.188
G1 X139.374 Y78.826
G2 X139.411 Y78.797 I-0.868 J-1.161
G1 X139.906 Y78.402
G2 X139.942 Y78.372 I-0.905 J-1.133
G1 X140.424 Y77.961
G2 X140.458 Y77.931 I-0.941 J-1.103
G1 X140.927 Y77.506
G2 X140.961 Y77.474 I-0.975 J-1.073
G1 X141.416 Y77.033
G2 X141.449 Y77 I-1.009 J-1.042
G1 X141.889 Y76.545
G2 X141.92 Y76.512 I-1.042 J-1.008
G1 X142.346 Y76.043
G2 X142.376 Y76.009 I-1.073 J-0.975
G1 X142.787 Y75.527
G2 X142.817 Y75.491 I-1.103 J-0.941
G1 X143.213 Y74.996
G2 X143.241 Y74.959 I-1.133 J-0.905
G1 X143.621 Y74.451
G2 X143.648 Y74.414 I-1.161 J-0.868
G1 X144.012 Y73.893
G2 X144.039 Y73.854 I-1.188 J-0.831
G1 X144.386 Y73.322
G2 X144.41 Y73.283 I-1.215 J-0.792
G1 X144.741 Y72.739
G2 X144.765 Y72.698 I-1.239 J-0.754
G1 X145.078 Y72.142
G2 X145.1 Y72.102 I-1.263 J-0.712
G1 X145.396 Y71.536
G2 X145.417 Y71.493 I-1.285 J-0.672
G1 X145.465 Y71.395
G1 X145.488 Y71.837
G1 X145.514 Y72.669
G1 X145.523 Y73.541
G1 X145.514 Y74.412
G1 X145.488 Y75.245
G1 X145.446 Y76.04
G1 X145.388 Y76.801
G1 X145.316 Y77.528
G1 X145.229 Y78.223
G1 X145.13 Y78.889
G1 X145.017 Y79.528
G1 X144.893 Y80.142
G1 X144.758 Y80.732
G1 X144.614 Y81.301
G1 X144.459 Y81.849
G1 X144.294 Y82.381
G1 X144.12 Y82.899
G1 X143.939 Y83.403
G1 X143.75 Y83.895
G1 X143.553 Y84.379
G1 X143.349 Y84.857
G1 X143.139 Y85.328
G1 X142.923 Y85.797
G1 X142.702 Y86.264
G1 X142.476 Y86.732
G1 X142.246 Y87.201
G1 X142.012 Y87.675
G1 X142.011 Y87.677
G1 X141.761 Y88.186
G1 X141.76 Y88.187
G1 X141.509 Y88.699
G1 X141.505 Y88.707
G1 X141.256 Y89.224
G1 X141.252 Y89.232
G1 X141.004 Y89.756
G2 X140.996 Y89.772 I1.31 J0.621
G1 X140.752 Y90.303
G2 X140.745 Y90.318 I1.318 J0.605
G1 X140.504 Y90.86
G2 X140.494 Y90.883 I1.325 J0.59
G1 X140.259 Y91.436
G2 X140.25 Y91.457 I1.335 J0.567
G1 X140.02 Y92.024
G2 X140.01 Y92.051 I1.344 J0.545
G1 X139.787 Y92.633
G2 X139.776 Y92.661 I1.354 J0.519
G1 X139.561 Y93.26
G2 X139.551 Y93.289 I1.365 J0.49
G1 X139.344 Y93.907
G2 X139.334 Y93.94 I1.375 J0.461
G1 X139.137 Y94.578
G2 X139.127 Y94.611 I1.385 J0.428
G1 X138.94 Y95.271
G2 X138.931 Y95.304 I1.395 J0.395
G1 X138.755 Y95.988
G2 X138.746 Y96.025 I1.404 J0.361
G1 X138.583 Y96.735
G2 X138.575 Y96.77 I1.413 J0.325
G1 X138.425 Y97.507
G2 X138.418 Y97.544 I1.421 J0.289
G1 X138.283 Y98.31
G2 X138.277 Y98.344 I1.428 J0.252
G1 X138.156 Y99.14
G2 X138.152 Y99.176 I1.434 J0.218
G1 X138.046 Y100.005
G2 X138.042 Y100.042 I1.439 J0.182
G1 X137.955 Y100.905
G2 X137.952 Y100.937 I1.443 J0.145
G1 X137.882 Y101.836
G2 X137.88 Y101.87 I1.446 J0.113
G1 X137.829 Y102.807
G2 X137.828 Y102.838 I1.448 J0.079
G1 X137.796 Y103.814
G2 X137.795 Y103.848 I1.449 J0.048
G1 X137.785 Y104.865
G2 Y104.893 I1.45 J0.014
G1 X137.795 Y105.91
G2 X137.796 Y105.944 I1.45 J-0.014
G1 X137.828 Y106.92
G2 X137.829 Y106.951 I1.449 J-0.048
G1 X137.88 Y107.888
G2 X137.882 Y107.922 I1.448 J-0.079
G1 X137.952 Y108.821
G2 X137.955 Y108.853 I1.446 J-0.113
G1 X138.042 Y109.716
G2 X138.046 Y109.753 I1.443 J-0.145
G1 X138.077 Y109.992
G1 X137.696 Y110.051
G2 X137.647 Y110.059 I0.219 J1.433
G1 X136.999 Y110.181
G2 X136.953 Y110.19 I0.268 J1.425
G1 X136.313 Y110.332
G2 X136.265 Y110.344 I0.314 J1.416
G1 X135.632 Y110.507
G2 X135.586 Y110.52 I0.362 J1.404
G1 X134.962 Y110.703
G2 X134.918 Y110.716 I0.408 J1.391
G1 X134.303 Y110.918
G2 X134.257 Y110.934 I0.452 J1.378
G1 X133.65 Y111.156
G2 X133.604 Y111.174 I0.498 J1.362
G1 X133.008 Y111.415
G2 X132.966 Y111.433 I0.544 J1.344
G1 X132.378 Y111.693
G2 X132.334 Y111.713 I0.586 J1.326
G1 X131.758 Y111.991
G2 X131.717 Y112.012 I0.63 J1.306
G1 X131.15 Y112.308
G2 X131.109 Y112.33 I0.671 J1.285
G1 X130.554 Y112.643
G2 X130.512 Y112.667 I0.712 J1.263
G1 X129.968 Y112.998
G2 X129.931 Y113.022 I0.754 J1.239
G1 X129.398 Y113.369
G2 X129.357 Y113.396 I0.791 J1.215
G1 X128.837 Y113.76
G2 X128.8 Y113.787 I0.832 J1.188
G1 X128.292 Y114.167
G2 X128.257 Y114.195 I0.869 J1.161
G1 X127.762 Y114.59
G2 X127.726 Y114.619 I0.904 J1.133
G1 X127.243 Y115.03
G2 X127.207 Y115.062 I0.94 J1.104
G1 X126.739 Y115.488
G2 X126.706 Y115.519 I0.976 J1.072
G1 X126.251 Y115.96
G2 X126.218 Y115.993 I1.009 J1.041
G1 X125.778 Y116.448
G2 X125.748 Y116.48 I1.042 J1.008
G1 X125.322 Y116.948
G2 X125.291 Y116.983 I1.072 J0.976
G1 X124.88 Y117.465
G2 X124.85 Y117.501 I1.103 J0.941
G1 X124.454 Y117.997
G2 X124.426 Y118.033 I1.133 J0.905
G1 X124.046 Y118.541
G2 X124.019 Y118.578 I1.161 J0.869
G1 X123.655 Y119.098
G2 X123.628 Y119.139 I1.188 J0.832
G1 X123.281 Y119.672
G2 X123.257 Y119.709 I1.215 J0.791
G1 X122.926 Y120.253
G2 X122.902 Y120.295 I1.239 J0.754
G1 X122.589 Y120.85
G2 X122.567 Y120.89 I1.263 J0.712
G1 X122.271 Y121.456
G2 X122.25 Y121.499 I1.285 J0.672
G1 X121.972 Y122.076
G2 X121.952 Y122.118 I1.306 J0.629
G1 X121.692 Y122.705
G2 X121.673 Y122.749 I1.326 J0.587
G1 X121.432 Y123.346
G2 X121.415 Y123.391 I1.345 J0.543
G1 X121.193 Y123.998
G2 X121.177 Y124.044 I1.362 J0.498
G1 X120.975 Y124.659
G2 X120.962 Y124.703 I1.378 J0.452
G1 X120.779 Y125.327
G2 X120.766 Y125.373 I1.391 J0.408
G1 X120.603 Y126.005
G2 X120.591 Y126.053 I1.404 J0.362
G1 X120.449 Y126.694
G2 X120.44 Y126.742 I1.416 J0.314
G1 X120.319 Y127.39
G2 X120.311 Y127.437 I1.425 J0.266
G1 X120.211 Y128.092
G2 X120.204 Y128.139 I1.433 J0.219
G1 X120.125 Y128.801
G2 X120.12 Y128.85 I1.44 J0.172
G1 X120.063 Y129.519
G2 X120.06 Y129.569 I1.445 J0.123
G1 X120.026 Y130.243
G2 X120.024 Y130.293 I1.448 J0.073
G1 X120.013 Y130.974
G2 X121.489 Y132.447 I1.45 J0.023
G1 X122.169 Y132.435
G2 X122.216 Y132.433 I-0.026 J-1.45
G1 X122.891 Y132.399
G2 X122.939 Y132.396 I-0.073 J-1.448
G1 X123.608 Y132.34
G2 X123.659 Y132.335 I-0.121 J-1.445
G1 X124.321 Y132.256
G2 X124.368 Y132.249 I-0.172 J-1.44
G1 X125.023 Y132.149
G2 X125.07 Y132.141 I-0.219 J-1.433
G1 X125.718 Y132.02
G2 X125.768 Y132.01 I-0.266 J-1.425
G1 X126.408 Y131.867
G2 X126.451 Y131.857 I-0.316 J-1.415
G1 X127.085 Y131.695
G2 X127.133 Y131.681 I-0.36 J-1.405
G1 X127.757 Y131.498
G2 X127.803 Y131.484 I-0.408 J-1.391
G1 X128.419 Y131.281
G2 X128.463 Y131.266 I-0.455 J-1.377
G1 X129.069 Y131.044
G2 X129.113 Y131.027 I-0.499 J-1.362
G1 X129.71 Y130.786
G2 X129.752 Y130.768 I-0.543 J-1.345
G1 X130.339 Y130.509
G2 X130.383 Y130.488 I-0.585 J-1.327
G1 X130.96 Y130.21
G2 X131.003 Y130.189 I-0.629 J-1.306
G1 X131.569 Y129.893
G2 X131.61 Y129.871 I-0.672 J-1.285
G1 X132.166 Y129.557
G2 X132.205 Y129.534 I-0.713 J-1.263
G1 X132.749 Y129.204
G2 X132.791 Y129.177 I-0.752 J-1.24
G1 X133.323 Y128.829
G2 X133.358 Y128.806 I-0.794 J-1.213
G1 X133.879 Y128.443
G2 X133.919 Y128.414 I-0.829 J-1.19
G1 X134.427 Y128.034
G2 X134.464 Y128.005 I-0.869 J-1.161
G1 X134.959 Y127.609
G2 X134.994 Y127.58 I-0.906 J-1.132
G1 X135.476 Y127.169
G2 X135.51 Y127.139 I-0.941 J-1.103
G1 X135.979 Y126.713
G2 X136.012 Y126.682 I-0.975 J-1.073
G1 X136.467 Y126.242
G2 X136.501 Y126.208 I-1.008 J-1.042
G1 X136.941 Y125.753
G2 X136.972 Y125.72 I-1.042 J-1.008
G1 X137.398 Y125.251
G2 X137.428 Y125.217 I-1.073 J-0.975
G1 X137.839 Y124.735
G2 X137.868 Y124.7 I-1.103 J-0.941
G1 X138.264 Y124.205
G2 X138.293 Y124.168 I-1.132 J-0.906
G1 X138.673 Y123.66
G2 X138.701 Y123.621 I-1.161 J-0.869
G1 X139.065 Y123.1
G2 X139.09 Y123.062 I-1.189 J-0.83
G1 X139.437 Y122.53
G2 X139.462 Y122.492 I-1.214 J-0.792
G1 X139.793 Y121.948
G2 X139.818 Y121.905 I-1.239 J-0.754
G1 X140.131 Y121.349
G2 X140.152 Y121.31 I-1.264 J-0.711
G1 X140.448 Y120.744
G2 X140.469 Y120.701 I-1.285 J-0.672
G1 X140.747 Y120.124
G2 X140.767 Y120.082 I-1.306 J-0.629
G1 X140.901 Y119.779
G1 X140.996 Y119.986
G2 X141.004 Y120.003 I1.318 J-0.604
G1 X141.252 Y120.526
G1 X141.256 Y120.535
G1 X141.505 Y121.051
G1 X141.509 Y121.059
G1 X141.76 Y121.571
G1 X141.761 Y121.573
G1 X142.011 Y122.081
G1 X142.012 Y122.083
G1 X142.246 Y122.557
G1 X142.476 Y123.026
G1 X142.702 Y123.494
G1 X142.923 Y123.962
G1 X143.139 Y124.431
G1 X143.35 Y124.902
G1 X143.552 Y125.378
G1 X143.75 Y125.863
G1 X143.939 Y126.356
G1 X144.12 Y126.86
G1 X144.294 Y127.377
G1 X144.459 Y127.91
G1 X144.614 Y128.458
G1 X144.758 Y129.026
G1 X144.893 Y129.616
G1 X145.017 Y130.23
G1 X145.13 Y130.869
G1 X145.229 Y131.535
G1 X145.316 Y132.232
G1 X145.388 Y132.958
G1 X145.446 Y133.718
G1 X145.488 Y134.514
G1 X145.514 Y135.347
G1 X145.523 Y136.232
G2 X146.973 Y137.668 I1.45 J-0.014
G1 X151.005
G2 X152.455 Y136.204 J-1.45
G1 X152.445 Y135.187
G2 X152.444 Y135.153 I-1.45 J0.014
G1 X152.412 Y134.177
G2 X152.411 Y134.146 I-1.449 J0.048
G1 X152.36 Y133.209
G2 X152.358 Y133.175 I-1.448 J0.079
G1 X152.288 Y132.276
G2 X152.285 Y132.244 I-1.446 J0.113
G1 X152.198 Y131.381
G2 X152.194 Y131.344 I-1.443 J0.145
G1 X152.089 Y130.515
G2 X152.084 Y130.479 I-1.439 J0.182
G1 X151.963 Y129.683
G2 X151.957 Y129.649 I-1.434 J0.218
G1 X151.822 Y128.883
G2 X151.815 Y128.846 I-1.428 J0.252
G1 X151.665 Y128.109
G2 X151.657 Y128.073 I-1.421 J0.289
G1 X151.494 Y127.364
G2 X151.485 Y127.328 I-1.413 J0.325
G1 X151.309 Y126.644
G2 X151.3 Y126.61 I-1.404 J0.361
G1 X151.113 Y125.95
G2 X151.103 Y125.917 I-1.395 J0.395
G1 X150.906 Y125.279
G2 X150.896 Y125.246 I-1.385 J0.428
G1 X150.689 Y124.628
G2 X150.679 Y124.599 I-1.375 J0.461
G1 X150.464 Y124
G2 X150.453 Y123.971 I-1.365 J0.49
G1 X150.23 Y123.389
G2 X150.22 Y123.363 I-1.354 J0.519
G1 X149.99 Y122.796
G2 X149.98 Y122.774 I-1.344 J0.545
G1 X149.745 Y122.221
G2 X149.736 Y122.198 I-1.335 J0.567
G1 X149.495 Y121.657
G2 X149.488 Y121.643 I-1.325 J0.59
G1 X149.244 Y121.111
G2 X149.236 Y121.094 I-1.318 J0.604
G1 X148.988 Y120.571
G1 X148.984 Y120.562
G1 X148.735 Y120.046
G1 X148.731 Y120.038
G1 X148.48 Y119.526
G1 X148.479 Y119.524
G1 X148.229 Y119.016
G1 X148.228 Y119.014
G1 X147.994 Y118.54
G1 X147.764 Y118.071
G1 X147.538 Y117.603
G1 X147.317 Y117.135
G1 X147.101 Y116.666
G1 X146.89 Y116.195
G1 X146.688 Y115.719
G1 X146.49 Y115.234
G1 X146.301 Y114.741
G1 X146.12 Y114.237
G1 X145.946 Y113.72
G1 X145.781 Y113.188
G1 X145.626 Y112.64
G1 X145.482 Y112.071
G1 X145.347 Y111.481
G1 X145.223 Y110.867
G1 X145.11 Y110.228
G1 X145.011 Y109.562
G1 X144.924 Y108.866
G1 X144.852 Y108.139
G1 X144.794 Y107.379
G1 X144.752 Y106.583
G1 X144.726 Y105.75
G1 X144.717 Y104.879
G1 X144.726 Y104.008
G1 X144.752 Y103.175
G1 X144.794 Y102.379
G1 X144.852 Y101.619
G1 X144.924 Y100.893
G1 X145.011 Y100.196
G1 X145.11 Y99.531
G1 X145.223 Y98.892
G1 X145.347 Y98.278
G1 X145.482 Y97.687
G1 X145.626 Y97.119
G1 X145.781 Y96.571
G1 X145.855 Y96.333
G1 X145.865 Y96.359
G2 X145.884 Y96.403 I1.345 J-0.543
G1 X146.144 Y96.99
G2 X146.164 Y97.033 I1.326 J-0.587
G1 X146.442 Y97.609
G2 X146.463 Y97.652 I1.306 J-0.63
G1 X146.759 Y98.218
G2 X146.781 Y98.258 I1.285 J-0.672
G1 X147.094 Y98.813
G2 X147.118 Y98.855 I1.263 J-0.712
G1 X147.449 Y99.399
G2 X147.473 Y99.437 I1.239 J-0.754
G1 X147.82 Y99.97
G2 X147.847 Y100.009 I1.215 J-0.792
G1 X148.211 Y100.53
G2 X148.238 Y100.567 I1.188 J-0.831
G1 X148.618 Y101.075
G2 X148.646 Y101.111 I1.161 J-0.868
G1 X149.041 Y101.606
G2 X149.071 Y101.643 I1.133 J-0.904
G1 X149.482 Y102.125
G2 X149.512 Y102.159 I1.103 J-0.941
G1 X149.938 Y102.628
G2 X149.97 Y102.662 I1.073 J-0.975
G1 X150.411 Y103.117
G2 X150.444 Y103.15 I1.041 J-1.009
G1 X150.899 Y103.59
G2 X150.931 Y103.62 I1.008 J-1.042
G1 X151.399 Y104.046
G2 X151.434 Y104.077 I0.976 J-1.072
G1 X151.916 Y104.488
G2 X151.952 Y104.518 I0.941 J-1.103
G1 X152.448 Y104.914
G2 X152.484 Y104.942 I0.905 J-1.133
G1 X152.992 Y105.322
G2 X153.031 Y105.35 I0.869 J-1.161
G1 X153.551 Y105.713
G2 X153.588 Y105.738 I0.83 J-1.189
G1 X154.121 Y106.086
G2 X154.162 Y106.112 I0.793 J-1.214
G1 X154.706 Y106.442
G2 X154.744 Y106.464 I0.752 J-1.24
G1 X155.299 Y106.778
G2 X155.341 Y106.801 I0.714 J-1.262
G1 X155.907 Y107.097
G2 X155.95 Y107.118 I0.672 J-1.285
G1 X156.527 Y107.396
G2 X156.571 Y107.417 I0.629 J-1.306
G1 X157.158 Y107.676
G2 X157.2 Y107.694 I0.585 J-1.327
G1 X157.797 Y107.935
G2 X157.841 Y107.952 I0.543 J-1.345
G1 X158.447 Y108.174
G2 X158.492 Y108.189 I0.499 J-1.362
G1 X159.108 Y108.392
G2 X159.154 Y108.406 I0.454 J-1.377
G1 X159.778 Y108.589
G2 X159.826 Y108.603 I0.408 J-1.391
G1 X160.458 Y108.765
G2 X160.502 Y108.775 I0.36 J-1.405
G1 X161.143 Y108.918
G2 X161.193 Y108.928 I0.316 J-1.415
G1 X161.841 Y109.049
G2 X161.888 Y109.057 I0.266 J-1.425
G1 X162.543 Y109.157
G2 X162.59 Y109.164 I0.219 J-1.433
G1 X163.252 Y109.243
G2 X163.303 Y109.248 I0.172 J-1.44
G1 X163.972 Y109.304
G2 X164.02 Y109.307 I0.121 J-1.445
G1 X164.694 Y109.341
G2 X164.741 Y109.343 I0.073 J-1.448
G1 X165.422 Y109.355
G2 X166.823 Y108.366 I0.026 J-1.45
; MOVEMENT_RAPID
G0 Z5 F300
G0 X116.814 Y112.474 F2500
G0 Z2.5 F300
; MOVEMENT_LEAD_IN
G1 Z-1 F3
; MOVEMENT_CUTTING
G1 X116.757 Y111.806 F15
G2 X116.752 Y111.759 I-1.445 J0.123
G1 X116.674 Y111.097
G2 X116.667 Y111.048 I-1.44 J0.17
G1 X116.567 Y110.392
G2 X116.559 Y110.343 I-1.433 J0.219
G1 X116.437 Y109.695
G2 X116.428 Y109.649 I-1.425 J0.268
G1 X116.286 Y109.009
G2 X116.275 Y108.963 I-1.416 J0.314
G1 X116.113 Y108.331
G2 X116.099 Y108.283 I-1.405 J0.36
G1 X115.916 Y107.659
G2 X115.902 Y107.613 I-1.391 J0.408
G1 X115.699 Y106.997
G2 X115.684 Y106.952 I-1.377 J0.454
G1 X115.462 Y106.346
G2 X115.445 Y106.302 I-1.362 J0.499
G1 X115.204 Y105.705
G2 X115.186 Y105.663 I-1.345 J0.543
G1 X114.927 Y105.076
G2 X114.906 Y105.032 I-1.327 J0.585
G1 X114.628 Y104.455
G2 X114.607 Y104.412 I-1.306 J0.629
G1 X114.311 Y103.846
G2 X114.288 Y103.804 I-1.285 J0.672
G1 X113.974 Y103.249
G2 X113.952 Y103.212 I-1.262 J0.714
G1 X113.622 Y102.667
G2 X113.595 Y102.624 I-1.24 J0.751
G1 X113.247 Y102.092
G2 X113.222 Y102.054 I-1.213 J0.794
G1 X112.858 Y101.534
G2 X112.832 Y101.499 I-1.188 J0.832
G1 X112.452 Y100.99
G2 X112.423 Y100.953 I-1.162 J0.867
G1 X112.028 Y100.458
G2 X111.998 Y100.421 I-1.133 J0.904
G1 X111.587 Y99.939
G2 X111.557 Y99.905 I-1.103 J0.941
G1 X111.131 Y99.436
G2 X111.099 Y99.401 I-1.073 J0.975
G1 X110.658 Y98.947
G2 X110.627 Y98.916 I-1.041 J1.01
G1 X110.197 Y98.499
G1 X110.173 Y98.475
G2 X110.138 Y98.443 I-1.01 J1.041
G1 X109.669 Y98.017
G2 X109.635 Y97.987 I-0.975 J1.073
G1 X109.153 Y97.576
G2 X109.117 Y97.547 I-0.941 J1.103
G1 X108.622 Y97.151
G2 X108.584 Y97.121 I-0.905 J1.133
G1 X108.075 Y96.742
G2 X108.039 Y96.716 I-0.867 J1.162
G1 X107.519 Y96.352
G2 X107.481 Y96.326 I-0.831 J1.188
G1 X106.949 Y95.978
G2 X106.909 Y95.953 I-0.793 J1.214
G1 X106.365 Y95.623
G2 X106.324 Y95.599 I-0.753 J1.239
G1 X105.768 Y95.285
G2 X105.728 Y95.263 I-0.712 J1.263
G1 X105.162 Y94.967
G2 X105.119 Y94.946 I-0.672 J1.285
G1 X104.542 Y94.668
G2 X104.5 Y94.648 I-0.629 J1.306
G1 X103.913 Y94.389
G2 X103.869 Y94.37 I-0.587 J1.326
G1 X103.272 Y94.129
G2 X103.228 Y94.112 I-0.543 J1.345
G1 X102.622 Y93.89
G2 X102.576 Y93.874 I-0.499 J1.362
G1 X101.96 Y93.672
G2 X101.915 Y93.658 I-0.453 J1.377
G1 X101.291 Y93.475
G2 X101.244 Y93.462 I-0.408 J1.391
G1 X100.612 Y93.299
G2 X100.565 Y93.288 I-0.361 J1.404
G1 X99.925 Y93.146
G2 X99.877 Y93.136 I-0.314 J1.416
G1 X99.229 Y93.015
G2 X99.181 Y93.007 I-0.267 J1.425
G1 X98.526 Y92.907
G2 X98.478 Y92.9 I-0.219 J1.433
G1 X98.267 Y92.875
G1 X98.384 Y92.623
G1 X98.605 Y92.156
G1 X98.831 Y91.688
G1 X99.061 Y91.218
G1 X99.295 Y90.744
G1 X99.546 Y90.236
G1 X99.548 Y90.232
G1 X99.798 Y89.721
G1 X99.802 Y89.713
G1 X100.051 Y89.197
G2 X100.056 Y89.186 I-1.306 J-0.631
G1 X100.304 Y88.663
G2 X100.31 Y88.649 I-1.311 J-0.62
G1 X100.554 Y88.118
G2 X100.562 Y88.1 I-1.317 J-0.606
G1 X100.803 Y87.559
G2 X100.812 Y87.538 I-1.325 J-0.588
G1 X101.047 Y86.985
G2 X101.057 Y86.962 I-1.334 J-0.568
G1 X101.287 Y86.395
G2 X101.296 Y86.37 I-1.344 J-0.545
G1 X101.52 Y85.788
G2 X101.531 Y85.758 I-1.354 J-0.519
G1 X101.746 Y85.16
G2 X101.756 Y85.13 I-1.365 J-0.49
G1 X101.963 Y84.513
G2 X101.973 Y84.48 I-1.375 J-0.461
G1 X102.17 Y83.842
G2 X102.18 Y83.809 I-1.385 J-0.428
G1 X102.367 Y83.149
G2 X102.377 Y83.113 I-1.395 J-0.395
G1 X102.552 Y82.43
G2 X102.56 Y82.397 I-1.405 J-0.359
G1 X102.724 Y81.687
G2 X102.732 Y81.65 I-1.413 J-0.327
G1 X102.882 Y80.913
G2 X102.889 Y80.876 I-1.421 J-0.289
G1 X103.024 Y80.11
G2 X103.03 Y80.076 I-1.428 J-0.252
G1 X103.151 Y79.279
G2 X103.156 Y79.244 I-1.434 J-0.218
G1 X103.261 Y78.415
G2 X103.265 Y78.378 I-1.439 J-0.182
G1 X103.352 Y77.515
G2 X103.355 Y77.482 I-1.443 J-0.145
G1 X103.425 Y76.583
G2 X103.427 Y76.549 I-1.446 J-0.113
G1 X103.478 Y75.613
G2 X103.479 Y75.581 I-1.448 J-0.079
G1 X103.511 Y74.605
G2 X103.512 Y74.572 I-1.449 J-0.048
G1 X103.522 Y73.555
G2 Y73.527 I-1.45 J-0.014
G1 X103.512 Y72.509
G2 X103.511 Y72.476 I-1.45 J0.014
G1 X103.479 Y71.5
G2 X103.478 Y71.469 I-1.449 J0.048
G1 X103.427 Y70.532
G2 X103.425 Y70.499 I-1.448 J0.079
G1 X103.355 Y69.599
G2 X103.352 Y69.567 I-1.446 J0.113
G1 X103.265 Y68.703
G2 X103.261 Y68.667 I-1.443 J0.145
G1 X103.156 Y67.838
G2 X103.151 Y67.802 I-1.438 J0.182
G1 X103.03 Y67.006
G2 X103.024 Y66.972 I-1.434 J0.218
G1 X102.889 Y66.206
G2 X102.882 Y66.168 I-1.428 J0.252
G1 X102.732 Y65.432
G2 X102.724 Y65.394 I-1.421 J0.289
G1 X102.56 Y64.685
G2 X102.552 Y64.652 I-1.413 J0.327
G1 X102.377 Y63.968
G2 X102.367 Y63.932 I-1.405 J0.359
G1 X102.18 Y63.272
G2 X102.17 Y63.24 I-1.395 J0.395
G1 X101.973 Y62.602
G2 X101.963 Y62.569 I-1.385 J0.428
G1 X101.756 Y61.951
G2 X101.746 Y61.922 I-1.375 J0.461
G1 X101.531 Y61.323
G2 X101.52 Y61.294 I-1.365 J0.49
G1 X101.296 Y60.712
G2 X101.287 Y60.687 I-1.354 J0.519
G1 X101.057 Y60.12
G2 X101.047 Y60.097 I-1.344 J0.545
G1 X100.812 Y59.543
G2 X100.803 Y59.523 I-1.334 J0.568
G1 X100.562 Y58.981
G2 X100.554 Y58.964 I-1.325 J0.588
G1 X100.31 Y58.433
G2 X100.304 Y58.419 I-1.317 J0.606
G1 X100.056 Y57.896
G2 X100.051 Y57.885 I-1.311 J0.62
G1 X99.802 Y57.368
G1 X99.798 Y57.361
G1 X99.548 Y56.849
G1 X99.546 Y56.846
G1 X99.295 Y56.337
G1 X99.061 Y55.864
G1 X98.831 Y55.394
G1 X98.605 Y54.926
G1 X98.384 Y54.458
G1 X98.168 Y53.99
G1 X97.958 Y53.518
G1 X97.754 Y53.041
G1 X97.557 Y52.557
G1 X97.368 Y52.064
G1 X97.187 Y51.56
G1 X97.013 Y51.043
G1 X96.849 Y50.511
G1 X96.694 Y49.962
G1 X96.548 Y49.394
G1 X96.413 Y48.804
G1 X96.29 Y48.19
G1 X96.177 Y47.551
G1 X96.078 Y46.885
G1 X95.991 Y46.189
G1 X95.919 Y45.462
G1 X95.861 Y44.702
G1 X95.819 Y43.906
G1 X95.793 Y43.073
G1 X95.784 Y42.188
G2 X94.334 Y40.752 I-1.45 J0.015
G1 X90.302
G2 X88.852 Y42.217 J1.45
G1 X88.862 Y43.235
G2 X88.863 Y43.266 I1.45 J-0.015
G1 X88.894 Y44.242
G2 X88.896 Y44.274 I1.449 J-0.046
G1 X88.947 Y45.211
G2 X88.949 Y45.244 I1.448 J-0.079
G1 X89.019 Y46.143
G2 X89.022 Y46.178 I1.446 J-0.112
G1 X89.11 Y47.041
G2 X89.114 Y47.076 I1.443 J-0.147
G1 X89.218 Y47.905
G2 X89.223 Y47.94 I1.439 J-0.182
G1 X89.344 Y48.737
G2 X89.35 Y48.773 I1.434 J-0.217
G1 X89.486 Y49.539
G2 X89.492 Y49.575 I1.428 J-0.253
G1 X89.642 Y50.311
G2 X89.65 Y50.347 I1.421 J-0.289
G1 X89.813 Y51.057
G2 X89.822 Y51.092 I1.413 J-0.325
G1 X89.997 Y51.776
G2 X90.007 Y51.811 I1.405 J-0.36
G1 X90.194 Y52.471
G2 X90.203 Y52.504 I1.395 J-0.395
G1 X90.401 Y53.142
G2 X90.411 Y53.174 I1.385 J-0.428
G1 X90.618 Y53.792
G2 X90.628 Y53.822 I1.375 J-0.46
G1 X90.844 Y54.421
G2 X90.854 Y54.449 I1.364 J-0.491
G1 X91.077 Y55.031
G2 X91.087 Y55.057 I1.354 J-0.519
G1 X91.317 Y55.623
G2 X91.327 Y55.647 I1.344 J-0.545
G1 X91.562 Y56.2
G2 X91.571 Y56.22 I1.334 J-0.568
G1 X91.812 Y56.762
G2 X91.819 Y56.779 I1.325 J-0.588
G1 X92.064 Y57.311
G2 X92.07 Y57.325 I1.317 J-0.606
G1 X92.318 Y57.848
G2 X92.323 Y57.859 I1.311 J-0.62
G1 X92.572 Y58.375
G1 X92.576 Y58.382
G1 X92.826 Y58.894
G1 X92.828 Y58.897
G1 X93.079 Y59.406
G1 X93.313 Y59.88
G1 X93.543 Y60.35
G1 X93.769 Y60.818
G1 X93.99 Y61.285
G1 X94.152 Y61.635
G1 X93.977 Y61.674
G2 X93.93 Y61.686 I0.314 J1.416
G1 X93.297 Y61.848
G2 X93.251 Y61.861 I0.361 J1.404
G1 X92.627 Y62.044
G2 X92.581 Y62.058 I0.408 J1.391
G1 X91.966 Y62.261
G2 X91.921 Y62.276 I0.453 J1.377
G1 X91.314 Y62.498
G2 X91.27 Y62.515 I0.499 J1.362
G1 X90.673 Y62.756
G2 X90.629 Y62.775 I0.543 J1.345
G1 X90.042 Y63.035
G2 X90 Y63.054 I0.587 J1.326
G1 X89.423 Y63.332
G2 X89.381 Y63.353 I0.629 J1.306
G1 X88.814 Y63.649
G2 X88.773 Y63.672 I0.672 J1.285
G1 X88.218 Y63.985
G2 X88.178 Y64.009 I0.713 J1.263
G1 X87.633 Y64.339
G2 X87.594 Y64.364 I0.753 J1.239
G1 X87.062 Y64.711
G2 X87.023 Y64.738 I0.792 J1.214
G1 X86.503 Y65.101
G2 X86.465 Y65.128 I0.831 J1.188
G1 X85.957 Y65.508
G2 X85.92 Y65.537 I0.868 J1.161
G1 X85.425 Y65.932
G2 X85.39 Y65.962 I0.905 J1.133
G1 X84.908 Y66.373
G2 X84.873 Y66.403 I0.941 J1.104
G1 X84.404 Y66.829
G2 X84.37 Y66.861 I0.975 J1.073
G1 X83.916 Y67.301
G2 X83.883 Y67.334 I1.009 J1.041
G1 X83.443 Y67.789
G2 X83.411 Y67.822 I1.041 J1.009
G1 X82.985 Y68.291
G2 X82.955 Y68.325 I1.073 J0.975
G1 X82.544 Y68.808
G2 X82.514 Y68.843 I1.103 J0.941
G1 X82.119 Y69.339
G2 X82.09 Y69.375 I1.133 J0.905
G1 X81.71 Y69.883
G2 X81.683 Y69.921 I1.161 J0.868
G1 X81.319 Y70.441
G2 X81.293 Y70.48 I1.188 J0.831
G1 X80.946 Y71.012
G2 X80.921 Y71.052 I1.214 J0.792
G1 X80.591 Y71.596
G2 X80.567 Y71.636 I1.239 J0.753
G1 X80.253 Y72.191
G2 X80.231 Y72.233 I1.263 J0.713
G1 X79.935 Y72.799
G2 X79.914 Y72.841 I1.285 J0.671
G1 X79.636 Y73.418
G2 X79.616 Y73.461 I1.306 J0.629
G1 X79.357 Y74.048
G2 X79.338 Y74.091 I1.326 J0.586
G1 X79.097 Y74.688
G2 X79.08 Y74.732 I1.345 J0.543
G1 X78.858 Y75.339
G2 X78.843 Y75.384 I1.362 J0.499
G1 X78.64 Y75.999
G2 X78.626 Y76.045 I1.377 J0.453
G1 X78.443 Y76.669
G2 X78.43 Y76.716 I1.392 J0.408
G1 X78.268 Y77.348
G2 X78.256 Y77.395 I1.404 J0.361
G1 X78.114 Y78.035
G2 X78.104 Y78.083 I1.416 J0.314
G1 X77.983 Y78.731
G2 X77.975 Y78.779 I1.425 J0.267
G1 X77.875 Y79.434
G2 X77.868 Y79.482 I1.433 J0.219
G1 X77.79 Y80.144
G2 X77.785 Y80.193 I1.44 J0.171
G1 X77.728 Y80.861
G2 X77.725 Y80.91 I1.445 J0.122
G1 X77.691 Y81.585
G2 X77.689 Y81.634 I1.448 J0.073
G1 X77.678 Y82.314
G2 X79.152 Y83.788 I1.45 J0.024
G1 X79.832 Y83.777
G2 X79.881 Y83.775 I-0.024 J-1.45
G1 X80.556 Y83.741
G2 X80.605 Y83.738 I-0.073 J-1.448
G1 X81.273 Y83.681
G2 X81.322 Y83.676 I-0.122 J-1.445
G1 X81.984 Y83.598
G2 X82.032 Y83.591 I-0.171 J-1.44
G1 X82.687 Y83.491
G2 X82.735 Y83.483 I-0.219 J-1.433
G1 X83.383 Y83.362
G2 X83.431 Y83.352 I-0.267 J-1.425
G1 X84.071 Y83.21
G2 X84.118 Y83.199 I-0.314 J-1.416
G1 X84.751 Y83.036
G2 X84.797 Y83.023 I-0.361 J-1.404
G1 X85.421 Y82.84
G2 X85.467 Y82.826 I-0.408 J-1.392
G1 X86.082 Y82.623
G2 X86.127 Y82.608 I-0.453 J-1.377
G1 X86.734 Y82.386
G2 X86.778 Y82.369 I-0.499 J-1.362
G1 X87.375 Y82.128
G2 X87.418 Y82.109 I-0.543 J-1.345
G1 X88.005 Y81.85
G2 X88.048 Y81.83 I-0.587 J-1.326
G1 X88.625 Y81.552
G2 X88.667 Y81.531 I-0.629 J-1.306
G1 X89.234 Y81.235
G2 X89.275 Y81.213 I-0.672 J-1.285
G1 X89.83 Y80.899
G2 X89.87 Y80.875 I-0.713 J-1.263
G1 X90.414 Y80.545
G2 X90.454 Y80.52 I-0.753 J-1.239
G1 X90.986 Y80.173
G2 X91.025 Y80.147 I-0.792 J-1.214
G1 X91.545 Y79.783
G2 X91.583 Y79.756 I-0.831 J-1.188
G1 X92.091 Y79.376
G2 X92.128 Y79.347 I-0.868 J-1.161
G1 X92.623 Y78.952
G2 X92.658 Y78.922 I-0.905 J-1.133
G1 X93.14 Y78.511
G2 X93.175 Y78.481 I-0.941 J-1.104
G1 X93.644 Y78.055
G2 X93.677 Y78.023 I-0.975 J-1.073
G1 X94.132 Y77.583
G2 X94.165 Y77.55 I-1.009 J-1.042
G1 X94.605 Y77.096
G2 X94.637 Y77.062 I-1.041 J-1.009
G1 X95.063 Y76.593
G2 X95.093 Y76.559 I-1.073 J-0.975
G1 X95.504 Y76.076
G2 X95.534 Y76.041 I-1.103 J-0.941
G1 X95.929 Y75.545
G2 X95.957 Y75.509 I-1.133 J-0.905
G1 X96.337 Y75.001
G2 X96.365 Y74.963 I-1.161 J-0.869
G1 X96.573 Y74.665
G1 X96.555 Y75.245
G1 X96.513 Y76.04
G1 X96.455 Y76.8
G1 X96.383 Y77.528
G1 X96.296 Y78.224
G1 X96.196 Y78.89
G1 X96.084 Y79.529
G1 X95.96 Y80.142
G1 X95.826 Y80.732
G1 X95.68 Y81.3
G1 X95.525 Y81.85
G1 X95.36 Y82.382
G1 X95.187 Y82.899
G1 X95.006 Y83.403
G1 X94.816 Y83.896
G1 X94.62 Y84.379
G1 X94.416 Y84.856
G1 X94.206 Y85.328
G1 X93.99 Y85.797
G1 X93.769 Y86.264
G1 X93.543 Y86.732
G1 X93.313 Y87.202
G1 X93.079 Y87.676
G1 X92.828 Y88.184
G1 X92.826 Y88.188
G1 X92.576 Y88.7
G1 X92.572 Y88.706
G1 X92.323 Y89.223
G2 X92.318 Y89.234 I1.306 J0.631
G1 X92.07 Y89.757
G2 X92.064 Y89.771 I1.311 J0.62
G1 X91.819 Y90.302
G2 X91.812 Y90.32 I1.317 J0.606
G1 X91.571 Y90.861
G2 X91.562 Y90.881 I1.325 J0.588
G1 X91.327 Y91.435
G2 X91.317 Y91.458 I1.334 J0.568
G1 X91.087 Y92.025
G2 X91.077 Y92.051 I1.344 J0.545
G1 X90.854 Y92.633
G2 X90.844 Y92.661 I1.354 J0.519
G1 X90.628 Y93.26
G2 X90.618 Y93.29 I1.364 J0.491
G1 X90.411 Y93.907
G2 X90.401 Y93.94 I1.375 J0.46
G1 X90.203 Y94.578
G2 X90.194 Y94.611 I1.385 J0.428
G1 X90.007 Y95.271
G2 X89.997 Y95.306 I1.395 J0.395
G1 X89.822 Y95.989
G2 X89.813 Y96.025 I1.405 J0.36
G1 X89.65 Y96.734
G2 X89.642 Y96.77 I1.413 J0.325
G1 X89.492 Y97.507
G2 X89.486 Y97.543 I1.421 J0.289
G1 X89.35 Y98.308
G2 X89.344 Y98.344 I1.428 J0.253
G1 X89.223 Y99.141
G2 X89.218 Y99.177 I1.434 J0.217
G1 X89.114 Y100.005
G2 X89.11 Y100.04 I1.439 J0.182
G1 X89.022 Y100.903
G2 X89.019 Y100.938 I1.443 J0.147
G1 X88.949 Y101.837
G2 X88.947 Y101.87 I1.446 J0.112
G1 X88.896 Y102.807
G2 X88.894 Y102.84 I1.448 J0.079
G1 X88.863 Y103.816
G2 X88.862 Y103.847 I1.449 J0.046
G1 X88.852 Y104.864
G2 Y104.894 I1.45 J0.015
G1 X88.862 Y105.911
G2 X88.863 Y105.942 I1.45 J-0.015
G1 X88.894 Y106.918
G2 X88.896 Y106.951 I1.449 J-0.046
G1 X88.947 Y107.888
G2 X88.949 Y107.921 I1.448 J-0.079
G1 X89.019 Y108.82
G2 X89.022 Y108.855 I1.446 J-0.112
G1 X89.11 Y109.718
G2 X89.114 Y109.753 I1.443 J-0.147
G1 X89.144 Y109.992
G1 X88.763 Y110.051
G2 X88.714 Y110.059 I0.219 J1.433
G1 X88.066 Y110.181
G2 X88.02 Y110.19 I0.268 J1.425
G1 X87.38 Y110.332
G2 X87.331 Y110.344 I0.314 J1.416
G1 X86.699 Y110.507
G2 X86.653 Y110.52 I0.362 J1.404
G1 X86.029 Y110.703
G2 X85.985 Y110.716 I0.408 J1.391
G1 X85.369 Y110.918
G2 X85.323 Y110.934 I0.452 J1.378
G1 X84.717 Y111.156
G2 X84.672 Y111.173 I0.499 J1.362
G1 X84.076 Y111.414
G2 X84.031 Y111.433 I0.543 J1.345
G1 X83.444 Y111.693
G2 X83.402 Y111.713 I0.587 J1.326
G1 X82.825 Y111.991
G2 X82.783 Y112.012 I0.629 J1.306
G1 X82.217 Y112.308
G2 X82.176 Y112.33 I0.672 J1.285
G1 X81.621 Y112.643
G2 X81.579 Y112.667 I0.712 J1.263
G1 X81.035 Y112.998
G2 X80.997 Y113.022 I0.754 J1.239
G1 X80.465 Y113.369
G2 X80.425 Y113.396 I0.792 J1.215
G1 X79.905 Y113.76
G2 X79.867 Y113.787 I0.831 J1.188
G1 X79.359 Y114.167
G2 X79.324 Y114.194 I0.868 J1.161
G1 X78.828 Y114.589
G2 X78.792 Y114.62 I0.904 J1.134
G1 X78.31 Y115.031
G2 X78.275 Y115.061 I0.941 J1.103
G1 X77.806 Y115.487
G2 X77.772 Y115.519 I0.975 J1.073
G1 X77.317 Y115.96
G2 X77.285 Y115.992 I1.01 J1.041
G1 X76.845 Y116.447
G2 X76.814 Y116.48 I1.042 J1.009
G1 X76.388 Y116.948
G2 X76.357 Y116.983 I1.072 J0.976
G1 X75.946 Y117.465
G2 X75.916 Y117.502 I1.103 J0.941
G1 X75.52 Y117.998
G2 X75.493 Y118.034 I1.133 J0.904
G1 X75.113 Y118.542
G2 X75.086 Y118.579 I1.161 J0.868
G1 X74.722 Y119.099
G2 X74.695 Y119.138 I1.188 J0.831
G1 X74.362 Y119.65
G1 X74.348 Y119.671
G2 X74.323 Y119.71 I1.215 J0.792
G1 X73.993 Y120.254
G2 X73.97 Y120.294 I1.239 J0.753
G1 X73.656 Y120.849
G2 X73.634 Y120.89 I1.263 J0.713
G1 X73.338 Y121.456
G2 X73.317 Y121.499 I1.285 J0.672
G1 X73.039 Y122.076
G2 X73.019 Y122.119 I1.306 J0.629
G1 X72.759 Y122.706
G2 X72.741 Y122.749 I1.326 J0.586
G1 X72.5 Y123.346
G2 X72.482 Y123.391 I1.345 J0.543
G1 X72.26 Y123.998
G2 X72.245 Y124.042 I1.362 J0.498
G1 X72.042 Y124.657
G2 X72.028 Y124.703 I1.377 J0.454
G1 X71.845 Y125.327
G2 X71.833 Y125.374 I1.392 J0.408
G1 X71.67 Y126.006
G2 X71.659 Y126.053 I1.404 J0.361
G1 X71.516 Y126.694
G2 X71.507 Y126.741 I1.416 J0.314
G1 X71.385 Y127.389
G2 X71.377 Y127.437 I1.425 J0.267
G1 X71.277 Y128.092
G2 X71.27 Y128.14 I1.433 J0.219
G1 X71.192 Y128.802
G2 X71.187 Y128.851 I1.44 J0.171
G1 X71.131 Y129.52
G2 X71.127 Y129.569 I1.445 J0.122
G1 X71.093 Y130.243
G2 X71.091 Y130.292 I1.448 J0.073
G1 X71.08 Y130.973
G2 X72.555 Y132.447 I1.45 J0.024
G1 X73.236 Y132.435
G2 X73.283 Y132.433 I-0.026 J-1.45
G1 X73.958 Y132.399
G2 X74.006 Y132.396 I-0.073 J-1.448
G1 X74.674 Y132.34
G2 X74.725 Y132.335 I-0.121 J-1.445
G1 X75.387 Y132.256
G2 X75.434 Y132.249 I-0.172 J-1.44
G1 X76.089 Y132.149
G2 X76.137 Y132.141 I-0.219 J-1.433
G1 X76.785 Y132.02
G2 X76.835 Y132.01 I-0.266 J-1.425
G1 X77.475 Y131.867
G2 X77.519 Y131.857 I-0.316 J-1.415
G1 X78.151 Y131.695
G2 X78.199 Y131.681 I-0.36 J-1.405
G1 X78.823 Y131.498
G2 X78.87 Y131.484 I-0.408 J-1.391
G1 X79.485 Y131.281
G2 X79.53 Y131.266 I-0.454 J-1.377
G1 X80.136 Y131.044
G2 X80.18 Y131.027 I-0.499 J-1.362
G1 X80.777 Y130.786
G2 X80.819 Y130.768 I-0.543 J-1.345
G1 X81.406 Y130.509
G2 X81.45 Y130.488 I-0.585 J-1.327
G1 X82.027 Y130.21
G2 X82.07 Y130.189 I-0.629 J-1.306
G1 X82.636 Y129.893
G2 X82.678 Y129.87 I-0.672 J-1.285
G1 X83.233 Y129.556
G2 X83.272 Y129.534 I-0.714 J-1.262
G1 X83.816 Y129.204
G2 X83.857 Y129.178 I-0.752 J-1.24
G1 X84.389 Y128.83
G2 X84.426 Y128.805 I-0.793 J-1.214
G1 X84.946 Y128.442
G2 X84.985 Y128.414 I-0.829 J-1.189
G1 X85.493 Y128.034
G2 X85.53 Y128.006 I-0.869 J-1.161
G1 X86.025 Y127.61
G2 X86.061 Y127.58 I-0.905 J-1.133
G1 X86.543 Y127.169
G2 X86.577 Y127.139 I-0.941 J-1.103
G1 X87.046 Y126.713
G2 X87.079 Y126.682 I-0.975 J-1.073
G1 X87.534 Y126.242
G2 X87.567 Y126.209 I-1.008 J-1.042
G1 X88.008 Y125.754
G2 X88.039 Y125.72 I-1.042 J-1.009
G1 X88.465 Y125.251
G2 X88.495 Y125.217 I-1.073 J-0.975
G1 X88.906 Y124.735
G2 X88.936 Y124.699 I-1.103 J-0.941
G1 X89.331 Y124.204
G2 X89.36 Y124.168 I-1.133 J-0.905
G1 X89.74 Y123.66
G2 X89.767 Y123.621 I-1.161 J-0.869
G1 X90.131 Y123.1
G2 X90.156 Y123.063 I-1.189 J-0.83
G1 X90.504 Y122.531
G2 X90.529 Y122.491 I-1.214 J-0.793
G1 X90.86 Y121.947
G2 X90.883 Y121.906 I-1.239 J-0.753
G1 X91.197 Y121.35
G2 X91.219 Y121.31 I-1.263 J-0.712
G1 X91.515 Y120.744
G2 X91.536 Y120.701 I-1.285 J-0.672
G1 X91.814 Y120.124
G2 X91.834 Y120.082 I-1.306 J-0.629
G1 X91.968 Y119.779
G1 X92.063 Y119.987
G2 X92.07 Y120.002 I1.318 J-0.605
G1 X92.318 Y120.525
G2 X92.323 Y120.536 I1.311 J-0.62
G1 X92.572 Y121.052
G1 X92.575 Y121.058
G1 X92.826 Y121.57
G1 X92.828 Y121.575
G1 X93.079 Y122.083
G1 X93.313 Y122.557
G1 X93.543 Y123.026
G1 X93.769 Y123.495
G1 X93.99 Y123.962
G1 X94.206 Y124.43
G1 X94.416 Y124.903
G1 X94.62 Y125.379
G1 X94.816 Y125.863
G1 X95.006 Y126.356
G1 X95.187 Y126.86
G1 X95.361 Y127.376
G1 X95.525 Y127.909
G1 X95.68 Y128.458
G1 X95.826 Y129.026
G1 X95.961 Y129.616
G1 X96.084 Y130.23
G1 X96.196 Y130.869
G1 X96.296 Y131.535
G1 X96.383 Y132.231
G1 X96.455 Y132.958
G1 X96.513 Y133.718
G1 X96.555 Y134.514
G1 X96.581 Y135.347
G1 X96.59 Y136.218
G1 X96.581 Y137.089
G1 X96.555 Y137.922
G1 X96.513 Y138.718
G1 X96.455 Y139.478
G1 X96.383 Y140.206
G1 X96.296 Y140.901
G1 X96.196 Y141.567
G1 X96.084 Y142.206
G1 X95.96 Y142.82
G1 X95.826 Y143.41
G1 X95.68 Y143.978
G1 X95.525 Y144.528
G1 X95.36 Y145.059
G1 X95.187 Y145.577
G1 X95.006 Y146.08
G1 X94.816 Y146.574
G1 X94.62 Y147.057
G1 X94.416 Y147.534
G1 X94.206 Y148.006
G1 X93.99 Y148.476
G1 X93.769 Y148.942
G1 X93.543 Y149.411
G1 X93.313 Y149.88
G1 X93.079 Y150.354
G1 X92.828 Y150.862
G1 X92.826 Y150.867
G1 X92.575 Y151.379
G1 X92.572 Y151.385
G1 X92.323 Y151.901
G2 X92.318 Y151.912 I1.305 J0.631
G1 X92.07 Y152.435
G2 X92.063 Y152.45 I1.311 J0.62
G1 X91.819 Y152.982
G2 X91.812 Y152.998 I1.318 J0.605
G1 X91.571 Y153.539
G2 X91.562 Y153.56 I1.325 J0.589
G1 X91.327 Y154.113
G2 X91.317 Y154.137 I1.334 J0.568
G1 X91.087 Y154.704
G2 X91.077 Y154.729 I1.344 J0.544
G1 X90.854 Y155.311
G2 X90.844 Y155.339 I1.354 J0.519
G1 X90.628 Y155.938
G2 X90.618 Y155.969 I1.364 J0.491
G1 X90.411 Y156.587
G2 X90.401 Y156.619 I1.375 J0.46
G1 X90.203 Y157.257
G2 X90.194 Y157.29 I1.385 J0.428
G1 X90.007 Y157.95
G2 X89.997 Y157.985 I1.395 J0.395
G1 X89.822 Y158.669
G2 X89.813 Y158.704 I1.405 J0.36
G1 X89.65 Y159.413
G2 X89.642 Y159.449 I1.413 J0.325
G1 X89.492 Y160.186
G2 X89.486 Y160.222 I1.421 J0.289
G1 X89.35 Y160.988
G2 X89.344 Y161.024 I1.428 J0.253
G1 X89.223 Y161.82
G2 X89.218 Y161.855 I1.434 J0.217
G1 X89.114 Y162.684
G2 X89.11 Y162.72 I1.439 J0.182
G1 X89.022 Y163.584
G2 X89.019 Y163.618 I1.443 J0.146
G1 X88.949 Y164.517
G2 X88.947 Y164.55 I1.446 J0.112
G1 X88.896 Y165.486
G2 X88.894 Y165.519 I1.448 J0.079
G1 X88.863 Y166.495
G2 X88.862 Y166.526 I1.449 J0.046
G1 X88.852 Y167.543
G2 Y167.573 I1.45 J0.015
G1 X88.862 Y168.591
G2 X88.863 Y168.622 I1.45 J-0.015
G1 X88.894 Y169.598
G2 X88.896 Y169.631 I1.449 J-0.046
G1 X88.899 Y169.685
G1 X88.763 Y169.706
G2 X88.716 Y169.714 I0.219 J1.433
G1 X88.068 Y169.835
G2 X88.018 Y169.845 I0.266 J1.425
G1 X87.377 Y169.988
G2 X87.334 Y169.998 I0.316 J1.415
G1 X86.701 Y170.16
G2 X86.653 Y170.174 I0.36 J1.405
G1 X86.029 Y170.357
G2 X85.983 Y170.371 I0.408 J1.391
G1 X85.367 Y170.574
G2 X85.323 Y170.589 I0.454 J1.377
G1 X84.717 Y170.811
G2 X84.672 Y170.828 I0.499 J1.362
G1 X84.076 Y171.069
G2 X84.033 Y171.087 I0.543 J1.345
G1 X83.446 Y171.346
G2 X83.402 Y171.367 I0.585 J1.327
G1 X82.825 Y171.645
G2 X82.783 Y171.666 I0.629 J1.306
G1 X82.217 Y171.962
G2 X82.175 Y171.985 I0.672 J1.285
G1 X81.619 Y172.299
G2 X81.581 Y172.321 I0.714 J1.262
G1 X81.037 Y172.651
G2 X80.995 Y172.677 I0.752 J1.24
G1 X80.463 Y173.025
G2 X80.427 Y173.05 I0.793 J1.214
G1 X79.906 Y173.413
G2 X79.867 Y173.441 I0.83 J1.189
G1 X79.359 Y173.821
G2 X79.322 Y173.849 I0.868 J1.161
G1 X78.827 Y174.245
G2 X78.792 Y174.275 I0.905 J1.133
G1 X78.31 Y174.686
G2 X78.275 Y174.716 I0.941 J1.103
G1 X77.806 Y175.142
G2 X77.773 Y175.173 I0.975 J1.073
G1 X77.319 Y175.613
G2 X77.285 Y175.646 I1.008 J1.042
G1 X76.845 Y176.101
G2 X76.813 Y176.135 I1.042 J1.009
G1 X76.387 Y176.604
G2 X76.357 Y176.638 I1.073 J0.975
G1 X75.946 Y177.12
G2 X75.917 Y177.156 I1.103 J0.941
G1 X75.521 Y177.651
G2 X75.493 Y177.688 I1.133 J0.905
G1 X75.113 Y178.196
G2 X75.085 Y178.234 I1.161 J0.868
G1 X74.721 Y178.755
G2 X74.696 Y178.792 I1.189 J0.83
G1 X74.357 Y179.311
G1 X74.349 Y179.324
G2 X74.323 Y179.364 I1.214 J0.793
G1 X73.993 Y179.908
G2 X73.969 Y179.949 I1.239 J0.753
G1 X73.656 Y180.505
G2 X73.634 Y180.545 I1.263 J0.712
G1 X73.338 Y181.111
G2 X73.317 Y181.154 I1.285 J0.672
G1 X73.039 Y181.731
G2 X73.019 Y181.774 I1.306 J0.629
G1 X72.759 Y182.361
G2 X72.741 Y182.404 I1.326 J0.586
G1 X72.5 Y183.001
G2 X72.483 Y183.045 I1.345 J0.543
G1 X72.261 Y183.651
G2 X72.245 Y183.696 I1.362 J0.499
G1 X72.042 Y184.311
G2 X72.028 Y184.358 I1.377 J0.454
G1 X71.845 Y184.983
G2 X71.833 Y185.029 I1.392 J0.407
G1 X71.67 Y185.661
G2 X71.659 Y185.708 I1.404 J0.361
G1 X71.516 Y186.348
G2 X71.507 Y186.395 I1.415 J0.314
G1 X71.385 Y187.043
G2 X71.377 Y187.091 I1.425 J0.267
G1 X71.277 Y187.747
G2 X71.27 Y187.795 I1.433 J0.219
G1 X71.192 Y188.457
G2 X71.187 Y188.506 I1.44 J0.171
G1 X71.131 Y189.174
G2 X71.127 Y189.223 I1.445 J0.122
G1 X71.093 Y189.898
G2 X71.091 Y189.946 I1.448 J0.073
G1 X71.08 Y190.626
G2 X72.553 Y192.101 I1.45 J0.025
G1 X73.234 Y192.09
G2 X73.283 Y192.088 I-0.023 J-1.45
G1 X73.958 Y192.054
G2 X74.008 Y192.051 I-0.073 J-1.448
G1 X74.677 Y191.994
G2 X74.723 Y191.989 I-0.123 J-1.445
G1 X75.385 Y191.911
G2 X75.434 Y191.904 I-0.17 J-1.44
G1 X76.089 Y191.804
G2 X76.139 Y191.796 I-0.219 J-1.433
G1 X76.787 Y191.674
G2 X76.833 Y191.665 I-0.268 J-1.425
G1 X77.473 Y191.523
G2 X77.521 Y191.511 I-0.314 J-1.416
G1 X78.153 Y191.348
G2 X78.197 Y191.336 I-0.362 J-1.404
G1 X78.821 Y191.154
G2 X78.87 Y191.139 I-0.406 J-1.392
G1 X79.485 Y190.936
G2 X79.53 Y190.921 I-0.454 J-1.377
G1 X80.136 Y190.699
G2 X80.18 Y190.682 I-0.499 J-1.362
G1 X80.777 Y190.441
G2 X80.821 Y190.422 I-0.543 J-1.345
G1 X81.408 Y190.162
G2 X81.45 Y190.142 I-0.587 J-1.326
G1 X82.027 Y189.864
G2 X82.07 Y189.843 I-0.629 J-1.306
G1 X82.636 Y189.547
G2 X82.676 Y189.525 I-0.672 J-1.285
G1 X83.231 Y189.212
G2 X83.273 Y189.188 I-0.712 J-1.263
G1 X83.817 Y188.857
G2 X83.855 Y188.833 I-0.754 J-1.239
G1 X84.388 Y188.486
G2 X84.427 Y188.459 I-0.792 J-1.215
G1 X84.948 Y188.095
G2 X84.985 Y188.068 I-0.831 J-1.188
G1 X85.493 Y187.688
G2 X85.529 Y187.661 I-0.869 J-1.161
G1 X86.024 Y187.266
G2 X86.061 Y187.235 I-0.904 J-1.134
G1 X86.543 Y186.824
G2 X86.577 Y186.794 I-0.941 J-1.103
G1 X87.046 Y186.368
G2 X87.08 Y186.336 I-0.975 J-1.073
G1 X87.535 Y185.895
G2 X87.567 Y185.863 I-1.009 J-1.041
G1 X88.008 Y185.408
G2 X88.038 Y185.375 I-1.042 J-1.009
G1 X88.464 Y184.907
G2 X88.495 Y184.872 I-1.072 J-0.976
G1 X88.906 Y184.39
G2 X88.937 Y184.353 I-1.103 J-0.941
G1 X89.332 Y183.857
G2 X89.36 Y183.822 I-1.134 J-0.904
G1 X89.74 Y183.314
G2 X89.767 Y183.276 I-1.161 J-0.869
G1 X90.131 Y182.756
G2 X90.157 Y182.717 I-1.188 J-0.831
G1 X90.505 Y182.184
G2 X90.529 Y182.145 I-1.215 J-0.792
G1 X90.86 Y181.601
G2 X90.883 Y181.561 I-1.239 J-0.753
G1 X91.196 Y181.006
G2 X91.219 Y180.965 I-1.263 J-0.713
G1 X91.271 Y180.866
G1 X91.317 Y180.98
G2 X91.327 Y181.004 I1.344 J-0.544
G1 X91.562 Y181.557
G2 X91.571 Y181.578 I1.334 J-0.568
G1 X91.812 Y182.119
G2 X91.819 Y182.135 I1.325 J-0.589
G1 X92.063 Y182.667
G2 X92.07 Y182.682 I1.318 J-0.605
G1 X92.318 Y183.205
G2 X92.323 Y183.216 I1.311 J-0.62
G1 X92.572 Y183.732
G1 X92.575 Y183.738
G1 X92.826 Y184.25
G1 X92.828 Y184.255
G1 X93.079 Y184.763
G1 X93.313 Y185.237
G1 X93.543 Y185.706
G1 X93.769 Y186.175
G1 X93.99 Y186.641
G1 X94.206 Y187.111
G1 X94.416 Y187.583
G1 X94.62 Y188.06
G1 X94.816 Y188.543
G1 X95.006 Y189.037
G1 X95.187 Y189.54
G1 X95.361 Y190.057
G1 X95.525 Y190.589
G1 X95.68 Y191.139
G1 X95.826 Y191.707
G1 X95.961 Y192.297
G1 X96.084 Y192.911
G1 X96.196 Y193.55
G1 X96.296 Y194.216
G1 X96.383 Y194.911
G1 X96.455 Y195.639
G1 X96.513 Y196.399
G1 X96.555 Y197.195
G1 X96.581 Y198.027
G1 X96.59 Y198.914
G2 X98.04 Y200.349 I1.45 J-0.015
G1 X102.072
G2 X103.522 Y198.885 J-1.45
G1 X103.512 Y197.867
G2 X103.511 Y197.833 I-1.45 J0.014
G1 X103.479 Y196.857
G2 X103.478 Y196.826 I-1.449 J0.048
G1 X103.427 Y195.89
G2 X103.425 Y195.856 I-1.448 J0.079
G1 X103.355 Y194.957
G2 X103.352 Y194.925 I-1.446 J0.113
G1 X103.265 Y194.061
G2 X103.261 Y194.024 I-1.443 J0.145
G1 X103.156 Y193.195
G2 X103.151 Y193.159 I-1.439 J0.182
G1 X103.03 Y192.363
G2 X103.024 Y192.329 I-1.434 J0.218
G1 X102.889 Y191.563
G2 X102.882 Y191.526 I-1.428 J0.252
G1 X102.732 Y190.789
G2 X102.724 Y190.751 I-1.421 J0.289
G1 X102.56 Y190.042
G2 X102.552 Y190.01 I-1.413 J0.327
G1 X102.377 Y189.326
G2 X102.367 Y189.29 I-1.405 J0.359
G1 X102.18 Y188.63
G2 X102.17 Y188.597 I-1.395 J0.395
G1 X101.973 Y187.959
G2 X101.963 Y187.926 I-1.385 J0.428
G1 X101.756 Y187.308
G2 X101.746 Y187.279 I-1.375 J0.461
G1 X101.531 Y186.68
G2 X101.52 Y186.651 I-1.365 J0.49
G1 X101.296 Y186.069
G2 X101.286 Y186.043 I-1.354 J0.519
G1 X101.057 Y185.477
G2 X101.047 Y185.455 I-1.344 J0.545
G1 X100.812 Y184.901
G2 X100.803 Y184.879 I-1.334 J0.567
G1 X100.562 Y184.338
G2 X100.555 Y184.322 I-1.325 J0.589
G1 X100.31 Y183.79
G2 X100.304 Y183.775 I-1.318 J0.605
G1 X100.056 Y183.252
G2 X100.051 Y183.241 I-1.311 J0.62
G1 X99.802 Y182.725
G1 X99.798 Y182.719
G1 X99.548 Y182.207
G1 X99.546 Y182.202
G1 X99.295 Y181.694
G1 X99.061 Y181.22
G1 X98.831 Y180.75
G1 X98.605 Y180.283
G1 X98.384 Y179.816
G1 X98.168 Y179.347
G1 X97.958 Y178.874
G1 X97.754 Y178.398
G1 X97.557 Y177.914
G1 X97.368 Y177.421
G1 X97.186 Y176.917
G1 X97.013 Y176.4
G1 X96.849 Y175.868
G1 X96.694 Y175.318
G1 X96.548 Y174.75
G1 X96.413 Y174.16
G1 X96.289 Y173.546
G1 X96.177 Y172.907
G1 X96.078 Y172.241
G1 X95.991 Y171.546
G1 X95.919 Y170.818
G1 X95.861 Y170.058
G1 X95.819 Y169.262
G1 X95.793 Y168.43
G1 X95.784 Y167.558
G1 X95.793 Y166.687
G1 X95.819 Y165.855
G1 X95.861 Y165.059
G1 X95.919 Y164.299
G1 X95.991 Y163.571
G1 X96.078 Y162.876
G1 X96.107 Y162.683
G1 X96.11 Y162.691
G2 X96.13 Y162.734 I1.326 J-0.586
G1 X96.408 Y163.311
G2 X96.429 Y163.353 I1.306 J-0.629
G1 X96.725 Y163.92
G2 X96.748 Y163.962 I1.285 J-0.671
G1 X97.061 Y164.517
G2 X97.085 Y164.557 I1.263 J-0.713
G1 X97.415 Y165.101
G2 X97.44 Y165.14 I1.239 J-0.753
G1 X97.787 Y165.673
G2 X97.814 Y165.712 I1.215 J-0.792
G1 X98.178 Y166.232
G2 X98.205 Y166.269 I1.188 J-0.831
G1 X98.584 Y166.777
G2 X98.613 Y166.814 I1.161 J-0.868
G1 X99.008 Y167.309
G2 X99.037 Y167.344 I1.133 J-0.905
G1 X99.448 Y167.827
G2 X99.48 Y167.863 I1.104 J-0.94
G1 X99.906 Y168.331
G2 X99.937 Y168.364 I1.072 J-0.976
G1 X100.378 Y168.819
G2 X100.41 Y168.851 I1.041 J-1.009
G1 X100.865 Y169.292
G2 X100.898 Y169.323 I1.009 J-1.041
G1 X101.366 Y169.749
G2 X101.403 Y169.781 I0.976 J-1.072
G1 X101.885 Y170.191
G2 X101.919 Y170.22 I0.939 J-1.104
G1 X102.415 Y170.616
G2 X102.451 Y170.644 I0.905 J-1.133
G1 X102.959 Y171.024
G2 X102.996 Y171.051 I0.869 J-1.161
G1 X103.516 Y171.415
G2 X103.557 Y171.442 I0.832 J-1.188
G1 X104.09 Y171.789
G2 X104.127 Y171.813 I0.791 J-1.215
G1 X104.671 Y172.144
G2 X104.713 Y172.168 I0.754 J-1.239
G1 X105.268 Y172.481
G2 X105.308 Y172.503 I0.712 J-1.263
G1 X105.874 Y172.799
G2 X105.917 Y172.82 I0.672 J-1.285
G1 X106.494 Y173.098
G2 X106.536 Y173.118 I0.629 J-1.306
G1 X107.123 Y173.378
G2 X107.167 Y173.397 I0.587 J-1.326
G1 X107.764 Y173.638
G2 X107.808 Y173.655 I0.543 J-1.345
G1 X108.414 Y173.877
G2 X108.461 Y173.893 I0.499 J-1.362
G1 X109.077 Y174.095
G2 X109.121 Y174.108 I0.452 J-1.378
G1 X109.745 Y174.291
G2 X109.791 Y174.304 I0.408 J-1.391
G1 X110.423 Y174.467
G2 X110.471 Y174.479 I0.362 J-1.404
G1 X111.112 Y174.621
G2 X111.16 Y174.63 I0.314 J-1.416
G1 X111.808 Y174.751
G2 X111.855 Y174.759 I0.266 J-1.425
G1 X112.51 Y174.859
G2 X112.557 Y174.866 I0.219 J-1.433
G1 X113.219 Y174.945
G2 X113.27 Y174.95 I0.172 J-1.44
G1 X113.938 Y175.006
G2 X113.984 Y175.009 I0.121 J-1.445
G1 X114.659 Y175.044
G2 X114.711 Y175.046 I0.075 J-1.448
G1 X115.392 Y175.057
G2 X116.865 Y173.581 I0.023 J-1.45
G1 X116.853 Y172.901
G2 X116.851 Y172.854 I-1.45 J0.026
G1 X116.817 Y172.179
G2 X116.814 Y172.129 I-1.448 J0.073
G1 X116.757 Y171.46
G2 X116.752 Y171.413 I-1.445 J0.123
G1 X116.674 Y170.751
G2 X116.667 Y170.702 I-1.44 J0.17
G1 X116.567 Y170.047
G2 X116.559 Y169.998 I-1.433 J0.219
G1 X116.437 Y169.35
G2 X116.428 Y169.304 I-1.425 J0.268
G1 X116.286 Y168.664
G2 X116.275 Y168.618 I-1.416 J0.314
G1 X116.113 Y167.985
G2 X116.099 Y167.937 I-1.405 J0.36
G1 X115.916 Y167.313
G2 X115.902 Y167.266 I-1.391 J0.408
G1 X115.699 Y166.652
G2 X115.684 Y166.607 I-1.377 J0.454
G1 X115.462 Y166.001
G2 X115.445 Y165.957 I-1.362 J0.499
G1 X115.204 Y165.36
G2 X115.186 Y165.318 I-1.345 J0.543
G1 X114.927 Y164.731
G2 X114.906 Y164.687 I-1.327 J0.585
G1 X114.628 Y164.11
G2 X114.607 Y164.068 I-1.306 J0.629
G1 X114.311 Y163.501
G2 X114.288 Y163.458 I-1.285 J0.671
G1 X113.974 Y162.903
G2 X113.952 Y162.865 I-1.262 J0.714
G1 X113.622 Y162.321
G2 X113.595 Y162.279 I-1.24 J0.752
G1 X113.247 Y161.747
G2 X113.223 Y161.711 I-1.213 J0.794
G1 X112.859 Y161.19
G2 X112.831 Y161.151 I-1.189 J0.83
G1 X112.451 Y160.643
G2 X112.423 Y160.608 I-1.161 J0.869
G1 X112.028 Y160.113
G2 X111.998 Y160.076 I-1.133 J0.904
G1 X111.587 Y159.594
G2 X111.557 Y159.56 I-1.103 J0.941
G1 X111.131 Y159.091
G2 X111.099 Y159.057 I-1.073 J0.975
G1 X110.658 Y158.602
G2 X110.626 Y158.57 I-1.041 J1.009
G1 X110.172 Y158.13
G2 X110.138 Y158.098 I-1.009 J1.041
G1 X109.669 Y157.672
G2 X109.635 Y157.642 I-0.975 J1.073
G1 X109.153 Y157.231
G2 X109.118 Y157.202 I-0.941 J1.103
G1 X108.623 Y156.806
G2 X108.584 Y156.776 I-0.906 J1.132
G1 X108.075 Y156.396
G2 X108.04 Y156.37 I-0.867 J1.162
G1 X107.52 Y156.006
G2 X107.48 Y155.98 I-0.832 J1.188
G1 X106.948 Y155.633
G2 X106.91 Y155.608 I-0.792 J1.214
G1 X106.366 Y155.277
G2 X106.323 Y155.252 I-0.754 J1.239
G1 X105.767 Y154.939
G2 X105.728 Y154.918 I-0.711 J1.264
G1 X105.162 Y154.622
G2 X105.119 Y154.601 I-0.672 J1.285
G1 X104.542 Y154.323
G2 X104.5 Y154.303 I-0.629 J1.306
G1 X103.913 Y154.043
G2 X103.869 Y154.024 I-0.587 J1.326
G1 X103.272 Y153.783
G2 X103.228 Y153.766 I-0.543 J1.345
G1 X102.622 Y153.544
G2 X102.575 Y153.528 I-0.499 J1.362
G1 X101.959 Y153.326
G2 X101.915 Y153.313 I-0.452 J1.378
G1 X101.291 Y153.13
G2 X101.245 Y153.117 I-0.408 J1.391
G1 X100.613 Y152.954
G2 X100.565 Y152.942 I-0.362 J1.404
G1 X99.924 Y152.8
G2 X99.877 Y152.791 I-0.314 J1.416
G1 X99.629 Y152.744
G1 X99.798 Y152.398
G1 X99.802 Y152.391
G1 X100.051 Y151.874
G2 X100.056 Y151.864 I-1.306 J-0.63
G1 X100.304 Y151.341
G2 X100.31 Y151.327 I-1.311 J-0.62
G1 X100.554 Y150.796
G2 X100.563 Y150.778 I-1.317 J-0.606
G1 X100.803 Y150.236
G2 X100.812 Y150.216 I-1.325 J-0.588
G1 X101.047 Y149.663
G2 X101.057 Y149.639 I-1.334 J-0.568
G1 X101.287 Y149.072
G2 X101.296 Y149.047 I-1.344 J-0.544
G1 X101.52 Y148.465
G2 X101.531 Y148.436 I-1.354 J-0.519
G1 X101.746 Y147.837
G2 X101.756 Y147.808 I-1.365 J-0.49
G1 X101.963 Y147.191
G2 X101.973 Y147.158 I-1.375 J-0.461
G1 X102.17 Y146.52
G2 X102.18 Y146.487 I-1.385 J-0.428
G1 X102.367 Y145.827
G2 X102.377 Y145.791 I-1.395 J-0.395
G1 X102.552 Y145.107
G2 X102.56 Y145.074 I-1.405 J-0.359
G1 X102.724 Y144.364
G2 X102.732 Y144.328 I-1.413 J-0.326
G1 X102.882 Y143.592
G2 X102.889 Y143.554 I-1.421 J-0.29
G1 X103.024 Y142.788
G2 X103.03 Y142.754 I-1.428 J-0.252
G1 X103.151 Y141.957
G2 X103.156 Y141.921 I-1.434 J-0.218
G1 X103.261 Y141.092
G2 X103.265 Y141.055 I-1.439 J-0.182
G1 X103.352 Y140.192
G2 X103.355 Y140.16 I-1.443 J-0.145
G1 X103.425 Y139.261
G2 X103.427 Y139.227 I-1.446 J-0.113
G1 X103.478 Y138.29
G2 X103.479 Y138.259 I-1.448 J-0.079
G1 X103.511 Y137.283
G2 X103.512 Y137.249 I-1.449 J-0.048
G1 X103.522 Y136.232
G2 Y136.204 I-1.45 J-0.014
G1 X103.512 Y135.187
G2 X103.511 Y135.153 I-1.45 J0.014
G1 X103.479 Y134.177
G2 X103.478 Y134.146 I-1.449 J0.048
G1 X103.427 Y133.209
G2 X103.425 Y133.175 I-1.448 J0.079
G1 X103.365 Y132.406
G1 X103.355 Y132.276
G2 X103.352 Y132.244 I-1.446 J0.113
G1 X103.265 Y131.381
G2 X103.261 Y131.344 I-1.443 J0.145
G1 X103.156 Y130.515
G2 X103.151 Y130.479 I-1.439 J0.182
G1 X103.03 Y129.683
G2 X103.024 Y129.649 I-1.434 J0.218
G1 X102.889 Y128.883
G2 X102.882 Y128.846 I-1.428 J0.252
G1 X102.732 Y128.109
G2 X102.724 Y128.071 I-1.421 J0.289
G1 X102.56 Y127.362
G2 X102.552 Y127.33 I-1.413 J0.327
G1 X102.377 Y126.646
G2 X102.367 Y126.61 I-1.405 J0.359
G1 X102.18 Y125.95
G2 X102.17 Y125.917 I-1.395 J0.395
G1 X101.973 Y125.279
G2 X101.963 Y125.246 I-1.385 J0.428
G1 X101.756 Y124.628
G2 X101.746 Y124.599 I-1.375 J0.461
G1 X101.531 Y124
G2 X101.52 Y123.971 I-1.365 J0.49
G1 X101.296 Y123.389
G2 X101.287 Y123.364 I-1.354 J0.519
G1 X101.057 Y122.797
G2 X101.047 Y122.773 I-1.344 J0.544
G1 X100.812 Y122.22
G2 X100.803 Y122.199 I-1.334 J0.568
G1 X100.562 Y121.658
G2 X100.555 Y121.642 I-1.325 J0.589
G1 X100.31 Y121.11
G2 X100.304 Y121.095 I-1.318 J0.605
G1 X100.056 Y120.572
G2 X100.051 Y120.561 I-1.311 J0.62
G1 X99.802 Y120.045
G1 X99.798 Y120.039
G1 X99.548 Y119.527
G1 X99.546 Y119.522
G1 X99.295 Y119.014
G1 X99.061 Y118.54
G1 X98.831 Y118.071
G1 X98.605 Y117.602
G1 X98.383 Y117.135
G1 X98.168 Y116.667
G1 X97.958 Y116.194
G1 X97.754 Y115.718
G1 X97.557 Y115.234
G1 X97.368 Y114.741
G1 X97.186 Y114.237
G1 X97.013 Y113.72
G1 X96.849 Y113.189
G1 X96.694 Y112.639
G1 X96.548 Y112.071
G1 X96.413 Y111.481
G1 X96.289 Y110.867
G1 X96.177 Y110.228
G1 X96.078 Y109.562
G1 X95.991 Y108.867
G1 X95.919 Y108.139
G1 X95.861 Y107.379
G1 X95.819 Y106.583
G1 X95.793 Y105.75
G1 X95.784 Y104.879
G1 X95.793 Y104.008
G1 X95.819 Y103.175
G1 X95.857 Y102.463
G1 X96.11 Y103.037
G2 X96.13 Y103.08 I1.326 J-0.586
G1 X96.408 Y103.657
G2 X96.43 Y103.7 I1.306 J-0.629
G1 X96.726 Y104.266
G2 X96.748 Y104.307 I1.285 J-0.672
G1 X97.061 Y104.862
G2 X97.084 Y104.901 I1.263 J-0.713
G1 X97.415 Y105.446
G2 X97.44 Y105.487 I1.24 J-0.752
G1 X97.788 Y106.019
G2 X97.814 Y106.057 I1.214 J-0.793
G1 X98.178 Y106.577
G2 X98.204 Y106.613 I1.188 J-0.831
G1 X98.584 Y107.122
G2 X98.613 Y107.16 I1.162 J-0.867
G1 X99.008 Y107.655
G2 X99.038 Y107.691 I1.133 J-0.905
G1 X99.449 Y108.173
G2 X99.479 Y108.207 I1.103 J-0.941
G1 X99.905 Y108.676
G2 X99.938 Y108.711 I1.073 J-0.975
G1 X100.379 Y109.165
G2 X100.41 Y109.196 I1.04 J-1.01
G1 X100.865 Y109.637
G2 X100.898 Y109.668 I1.009 J-1.041
G1 X101.366 Y110.094
G2 X101.401 Y110.125 I0.976 J-1.072
G1 X101.883 Y110.536
G2 X101.919 Y110.566 I0.941 J-1.103
G1 X102.415 Y110.962
G2 X102.453 Y110.991 I0.905 J-1.133
G1 X102.961 Y111.37
G2 X102.996 Y111.396 I0.867 J-1.162
G1 X103.516 Y111.76
G2 X103.555 Y111.786 I0.832 J-1.188
G1 X104.088 Y112.134
G2 X104.129 Y112.16 I0.793 J-1.214
G1 X104.673 Y112.49
G2 X104.711 Y112.512 I0.752 J-1.24
G1 X105.266 Y112.826
G2 X105.308 Y112.849 I0.714 J-1.262
G1 X105.874 Y113.145
G2 X105.917 Y113.166 I0.672 J-1.285
G1 X106.494 Y113.444
G2 X106.538 Y113.465 I0.629 J-1.306
G1 X107.125 Y113.724
G2 X107.167 Y113.742 I0.585 J-1.327
G1 X107.764 Y113.983
G2 X107.808 Y114 I0.543 J-1.345
G1 X108.414 Y114.222
G2 X108.459 Y114.237 I0.499 J-1.362
G1 X109.075 Y114.44
G2 X109.121 Y114.454 I0.454 J-1.377
G1 X109.745 Y114.637
G2 X109.793 Y114.651 I0.408 J-1.391
G1 X110.425 Y114.813
G2 X110.471 Y114.824 I0.36 J-1.405
G1 X111.112 Y114.966
G2 X111.158 Y114.975 I0.314 J-1.416
G1 X111.806 Y115.097
G2 X111.855 Y115.105 I0.268 J-1.425
G1 X112.51 Y115.205
G2 X112.559 Y115.212 I0.219 J-1.433
G1 X113.221 Y115.29
G2 X113.268 Y115.295 I0.17 J-1.44
G1 X113.936 Y115.352
G2 X113.986 Y115.355 I0.123 J-1.445
G1 X114.661 Y115.389
G2 X114.708 Y115.391 I0.073 J-1.448
G1 X115.389 Y115.403
G2 X116.865 Y113.927 I0.026 J-1.45
G1 X116.853 Y113.246
