;Fusion 360 CAM 2.0.7046
; Posts processor: DIYCNC_Marlin20.cps
; Gcode generated: Sat Dec 28 11:09:26 2019 GMT
; Document: computerAcrylic v9
; Setup: Setup1
; 
; Ranges table:
; X: Min=0.065 Max=453.9 Size=453.834
; Y: Min=0.05 Max=395.293 Size=395.243
; Z: Min=0 Max=10 Size=10
; 
; Tools table:
; T1 D=3.175 CR=0 TAPER=45deg - ZMIN=0 - chamfer mill 

; *** START begin ***
G90
G21
M84 S0
G92 X0 Y0 Z0
; *** START end ***

; *** SECTION begin ***
;Engrave1 - Milling - Tool: 1 -  chamfer mill
; X Min: 0.065 - X Max: 453.9
; Y Min: 0.05 - Y Max: 395.293
; Z Min: 0 - Z Max: 10
; COMMAND_START_SPINDLE
; COMMAND_SPINDLE_CLOCKWISE
;M0 Turn ON 24000RPM
; COMMAND_COOLANT_ON
;M117  Engrave1
G0 Z10 F300
G0 X75.655 Y324.876 F2500
G0 Z5 F300
; MOVEMENT_LEAD_IN
G1 Z0 F480
; MOVEMENT_CUTTING
G1 X75.656 Y324.875 F2100
G1 X75.803 Y324.381
G1 Y324.38
G1 X75.947 Y323.845
G1 Y323.844
G1 X76.085 Y323.269
G1 Y323.267
G1 X76.213 Y322.655
G1 Y322.654
G1 X76.328 Y322.006
G1 Y322.004
G1 X76.426 Y321.322
G1 X76.427 Y321.32
G1 X76.505 Y320.606
G1 Y320.605
G1 X76.56 Y319.86
G1 Y319.858
G1 X76.588 Y319.086
G1 Y319.084
G1 X76.585 Y318.284
G1 Y318.282
G1 X76.549 Y317.459
G1 Y317.457
G1 X76.476 Y316.61
G1 X76.475 Y316.608
G1 X76.362 Y315.741
G1 X76.361 Y315.739
G1 X76.288 Y315.298
G1 Y315.297
G1 X76.203 Y314.852
G1 Y314.851
G1 X76.107 Y314.401
G1 Y314.399
G1 X75.998 Y313.946
G1 Y313.945
G1 X75.889 Y313.534
G1 Y313.533
G1 X75.776 Y313.139
G1 X75.775 Y313.138
G1 X75.658 Y312.759
G1 X75.657 Y312.758
G1 X75.535 Y312.394
G1 Y312.393
G1 X75.408 Y312.043
G1 X75.407 Y312.042
G1 X75.277 Y311.706
G1 X75.276 Y311.705
G1 X75.141 Y311.382
G1 Y311.381
G1 X75.002 Y311.069
G1 Y311.068
G1 X74.86 Y310.767
G1 X74.859 Y310.766
G1 X74.713 Y310.476
G1 Y310.475
G1 X74.564 Y310.194
G1 X74.563 Y310.193
G1 X74.411 Y309.922
G1 Y309.921
G1 X74.256 Y309.657
G1 X74.255 Y309.656
G1 X74.097 Y309.399
G1 Y309.398
G1 X73.937 Y309.148
G1 X73.936 Y309.147
G1 X73.773 Y308.903
G1 X73.608 Y308.664
G1 Y308.663
G1 X73.441 Y308.428
G1 X73.44 Y308.427
G1 X73.272 Y308.197
G1 X73.271 Y308.196
G1 X73.101 Y307.968
G1 X72.928 Y307.741
G1 Y307.74
G1 X72.755 Y307.516
G1 Y307.515
G1 X72.58 Y307.29
G1 X72.405 Y307.065
G1 X72.179 Y306.775
G1 X72.175 Y306.77
G1 X71.946 Y306.475
G1 X71.727 Y306.186
G1 X71.718 Y306.174
G1 X71.503 Y305.886
G1 X71.491 Y305.869
G1 X71.276 Y305.57
G1 X71.267 Y305.557
G1 X71.052 Y305.247
G1 X71.045 Y305.237
G1 X70.828 Y304.908
G1 X70.614 Y304.568
G1 X70.406 Y304.215
G1 X70.204 Y303.848
G1 X70.008 Y303.466
G1 X69.819 Y303.066
G1 X69.639 Y302.649
G1 X69.466 Y302.211
G1 X69.304 Y301.752
G1 X69.151 Y301.271
G1 X69.009 Y300.764
G1 X68.878 Y300.232
G1 X68.76 Y299.672
G1 X68.654 Y299.085
G1 X68.562 Y298.466
G1 X68.485 Y297.816
G1 X68.422 Y297.132
G1 X68.375 Y296.413
G1 X68.354 Y295.892
G1 X68.344 Y295.379
G1 X68.346 Y294.876
G1 X68.359 Y294.381
G1 X68.382 Y293.896
G1 X68.411 Y293.476
G1 X68.415 Y293.42
G1 X68.51 Y292.496
G1 X68.638 Y291.61
G1 X68.797 Y290.764
G1 X68.982 Y289.956
G1 X69.167 Y289.274
G1 X69.19 Y289.189
G1 X69.391 Y288.545
G1 X69.417 Y288.462
G1 X69.629 Y287.857
G1 X69.658 Y287.775
G1 X69.879 Y287.21
G1 X69.91 Y287.131
G1 X70.137 Y286.605
G1 X70.17 Y286.529
G1 X70.398 Y286.042
G1 X70.432 Y285.969
G1 X70.659 Y285.522
G1 X70.694 Y285.453
G1 X70.916 Y285.047
G1 X70.952 Y284.982
G1 X71.165 Y284.616
G1 X71.201 Y284.554
G1 X71.401 Y284.23
G1 X71.438 Y284.171
G1 X71.623 Y283.888
G1 X71.659 Y283.834
G1 X71.827 Y283.592
G1 X71.86 Y283.544
G1 X72.004 Y283.345
G1 X72.037 Y283.3
G1 X72.161 Y283.138
G1 X72.187 Y283.105
G1 X72.279 Y282.988
G1 X72.304 Y282.957
G1 X72.369 Y282.879
G1 X72.387 Y282.857
G1 X72.43 Y282.807
G1 X72.453 Y282.781
G1 X72.477 Y282.758
G1 X72.501 Y282.735
G1 X72.526 Y282.713
G1 X72.551 Y282.693
G1 X72.577 Y282.674
G1 X72.604 Y282.654
G1 X72.631 Y282.636
G1 X72.658 Y282.621
G1 X72.687 Y282.605
G1 X72.715 Y282.59
G1 X72.744 Y282.577
G1 X72.772 Y282.565
G1 X72.802 Y282.554
G1 X72.833 Y282.543
G1 X72.863 Y282.534
G1 X72.893 Y282.527
G1 X72.924 Y282.519
G1 X72.954 Y282.513
G1 X72.986 Y282.509
G1 X73.017 Y282.505
G1 X73.048 Y282.502
G1 X73.112 Y282.5
G1 X73.137
G1 X73.164 Y282.502
G1 X73.191 Y282.504
G1 X73.218 Y282.507
G1 X73.244 Y282.51
G1 X73.271 Y282.514
G1 X73.298 Y282.519
G1 X73.323 Y282.525
G1 X73.349 Y282.532
G1 X73.35
G1 X73.376 Y282.539
G1 X73.401 Y282.547
G1 X73.427 Y282.557
G1 X73.453 Y282.567
G1 X73.478 Y282.577
G1 X73.502 Y282.588
G1 X73.527 Y282.6
G1 X73.551 Y282.613
G1 X73.575 Y282.628
G1 X73.599 Y282.642
G1 X73.622 Y282.657
G1 X73.645 Y282.674
G1 X73.668 Y282.692
G1 X73.69 Y282.709
G1 X73.711 Y282.727
G1 X73.757 Y282.77
G1 X73.798 Y282.816
G1 X73.836 Y282.862
G1 X73.871 Y282.911
G1 X73.902 Y282.963
G1 X73.929 Y283.015
G1 X73.953 Y283.069
G1 X73.973 Y283.124
G1 X73.989 Y283.18
G1 X74.002 Y283.236
G1 X74.011 Y283.293
G1 X74.016 Y283.351
G1 X74.018 Y283.409
G1 X74.016 Y283.467
G1 X74.01 Y283.526
G1 X74.001 Y283.582
G1 X73.988 Y283.639
G1 X73.971 Y283.696
G1 X73.951 Y283.751
G1 X73.927 Y283.805
G1 X73.899 Y283.858
G1 X73.867 Y283.909
G1 X73.831 Y283.96
G1 X73.791 Y284.009
G1 X73.765 Y284.04
G1 X73.764
G1 X73.701 Y284.118
G1 X73.7 Y284.119
G1 X73.603 Y284.243
G1 Y284.244
G1 X73.476 Y284.413
G1 Y284.414
G1 X73.323 Y284.628
G1 Y284.629
G1 X73.148 Y284.887
G1 X73.147 Y284.888
G1 X72.953 Y285.189
G1 X72.952 Y285.19
G1 X72.743 Y285.534
G1 X72.742 Y285.535
G1 X72.52 Y285.921
G1 Y285.922
G1 X72.29 Y286.349
G1 X72.289 Y286.351
G1 X72.055 Y286.818
G1 X72.054 Y286.819
G1 X71.818 Y287.327
G1 Y287.328
G1 X71.584 Y287.875
G1 X71.583 Y287.877
G1 X71.356 Y288.463
G1 X71.355 Y288.464
G1 X71.137 Y289.087
G1 Y289.089
G1 X70.932 Y289.75
G1 X70.931 Y289.752
G1 X70.743 Y290.45
G1 X70.742 Y290.452
G1 X70.574 Y291.185
G1 Y291.187
G1 X70.43 Y291.956
G1 X70.429 Y291.958
G1 X70.312 Y292.762
G1 Y292.764
G1 X70.226 Y293.601
G1 X70.225 Y293.603
G1 X70.174 Y294.474
G1 Y294.476
G1 X70.162 Y294.924
G1 Y294.925
G1 X70.16 Y295.38
G1 Y295.381
G1 X70.169 Y295.845
G1 Y295.846
G1 X70.188 Y296.318
G1 Y296.319
G1 X70.229 Y296.964
G1 Y296.965
G1 X70.284 Y297.577
G1 Y297.579
G1 X70.35 Y298.16
G1 X70.351 Y298.161
G1 X70.429 Y298.713
G1 Y298.714
G1 X70.52 Y299.237
G1 Y299.239
G1 X70.621 Y299.735
G1 Y299.737
G1 X70.733 Y300.209
G1 X70.734 Y300.21
G1 X70.856 Y300.659
G1 Y300.661
G1 X70.988 Y301.087
G1 Y301.088
G1 X71.129 Y301.494
G1 X71.13 Y301.496
G1 X71.28 Y301.884
G1 X71.281 Y301.886
G1 X71.439 Y302.256
G1 X71.44 Y302.257
G1 X71.606 Y302.612
G1 Y302.614
G1 X71.78 Y302.955
G1 X71.781 Y302.956
G1 X71.962 Y303.284
G1 Y303.285
G1 X72.15 Y303.603
G1 Y303.605
G1 X72.344 Y303.913
G1 X72.345 Y303.914
G1 X72.544 Y304.215
G1 X72.749 Y304.51
G1 Y304.511
G1 X72.959 Y304.801
G1 Y304.802
G1 X73.173 Y305.088
G1 X73.39 Y305.374
G1 X73.391 Y305.375
G1 X73.612 Y305.661
G1 X73.836 Y305.948
G1 X74.011 Y306.174
G1 X74.013 Y306.176
G1 X74.189 Y306.402
G1 X74.367 Y306.634
G1 X74.547 Y306.871
G1 X74.726 Y307.113
G1 X74.906 Y307.359
G1 X75.086 Y307.613
G1 X75.265 Y307.873
G1 X75.443 Y308.14
G1 X75.62 Y308.417
G1 X75.795 Y308.702
G1 X75.968 Y308.996
G1 X76.138 Y309.3
G1 X76.306 Y309.615
G1 X76.471 Y309.942
G1 X76.633 Y310.281
G1 X76.79 Y310.632
G1 X76.944 Y310.997
G1 X77.093 Y311.376
G1 X77.237 Y311.769
G1 X77.376 Y312.178
G1 X77.509 Y312.602
G1 X77.637 Y313.043
G1 X77.758 Y313.501
G1 X77.872 Y313.976
G1 X77.878 Y314
G1 X77.984 Y314.494
G1 X78.077 Y314.983
G1 X78.158 Y315.467
G1 X78.227 Y315.945
G1 X78.281 Y316.388
G1 X78.285 Y316.417
G1 X78.331 Y316.882
G1 X78.365 Y317.315
G1 X78.367 Y317.342
G1 X78.409 Y318.242
G1 X78.413 Y319.115
G1 X78.385 Y319.958
G1 X78.327 Y320.77
G1 X78.243 Y321.549
G1 X78.137 Y322.292
G1 X78.012 Y323
G1 X77.878 Y323.642
G1 X77.872 Y323.668
G1 X77.727 Y324.272
G1 X77.721 Y324.296
G1 X77.569 Y324.858
G1 X77.563 Y324.881
G1 X77.407 Y325.401
G1 X77.4 Y325.423
G1 X77.245 Y325.896
G1 X77.237 Y325.92
G1 X77.086 Y326.345
G1 X77.078 Y326.368
G1 X76.933 Y326.745
G1 X76.925 Y326.766
G1 X76.793 Y327.09
G1 X76.784 Y327.114
G1 X76.666 Y327.385
G1 X76.656 Y327.408
G1 X76.556 Y327.627
G1 X76.547 Y327.646
G1 X76.469 Y327.808
G1 X76.46 Y327.828
G1 X76.409 Y327.929
G1 X76.397 Y327.952
G1 X76.365 Y328.014
G1 X76.333 Y328.069
G1 X76.299 Y328.12
G1 X76.262 Y328.167
G1 X76.222 Y328.213
G1 X76.179 Y328.254
G1 X76.135 Y328.292
G1 X76.088 Y328.328
G1 X76.039 Y328.359
G1 X75.988 Y328.389
G1 X75.935 Y328.414
G1 X75.882 Y328.436
G1 X75.827 Y328.454
G1 X75.77 Y328.469
G1 X75.713 Y328.481
G1 X75.656 Y328.488
G1 X75.597 Y328.492
G1 X75.539 Y328.493
G1 X75.48 Y328.489
G1 X75.422 Y328.482
G1 X75.363 Y328.47
G1 X75.305 Y328.455
G1 X75.247 Y328.436
G1 X75.191 Y328.412
G1 X75.135 Y328.385
G1 X75.081 Y328.354
G1 X75.031 Y328.32
G1 X74.983 Y328.282
G1 X74.938 Y328.242
G1 X74.896 Y328.199
G1 X74.857 Y328.154
G1 X74.822 Y328.108
G1 X74.79 Y328.059
G1 X74.761 Y328.008
G1 X74.736 Y327.956
G1 X74.714 Y327.902
G1 X74.695 Y327.847
G1 X74.681 Y327.791
G1 X74.669 Y327.734
G1 X74.661 Y327.676
G1 X74.657 Y327.618
G1 Y327.559
G1 X74.661 Y327.501
G1 X74.668 Y327.442
G1 X74.679 Y327.383
G1 X74.695 Y327.325
G1 X74.714 Y327.267
G1 X74.737 Y327.211
G1 X74.766 Y327.155
G1 X74.784 Y327.118
G1 X74.785 Y327.117
G1 X74.831 Y327.022
G1 X74.832 Y327.021
G1 X74.903 Y326.869
G1 Y326.868
G1 X74.996 Y326.662
G1 X75.106 Y326.404
G1 Y326.403
G1 X75.231 Y326.094
G1 Y326.093
G1 X75.366 Y325.734
G1 Y325.733
G1 X75.509 Y325.328
G1 Y325.326
G1 X75.655 Y324.876
; MOVEMENT_RAPID
G0 Z5 F300
G0 X71.191 Y324.029 F2500
; MOVEMENT_LEAD_IN
G1 Z0 F480
; MOVEMENT_CUTTING
G1 X71.109 Y324.462 F2100
G1 X70.964 Y325.105
G1 X70.936 Y325.23
G1 X70.738 Y325.997
G1 X70.518 Y326.76
G1 X70.389 Y327.165
G1 X70.276 Y327.518
G1 X70.056 Y328.154
G1 X70.015 Y328.271
G1 X69.737 Y329.015
G1 X69.444 Y329.751
G1 X69.287 Y330.124
G1 X69.138 Y330.477
G1 X68.876 Y331.064
G1 X68.82 Y331.19
G1 X68.492 Y331.891
G1 X68.157 Y332.578
G1 X67.816 Y333.248
G1 X67.547 Y333.759
G1 X67.472 Y333.901
G1 X67.126 Y334.536
G1 X66.78 Y335.15
G1 X66.436 Y335.744
G1 X66.185 Y336.164
G1 X66.096 Y336.313
G1 X65.762 Y336.86
G1 X65.435 Y337.38
G1 X65.119 Y337.874
G1 X65.112 Y337.891
G1 Y337.91
G1 X65.119 Y337.928
G1 X65.131 Y337.941
G1 X65.148 Y337.949
G1 X65.167 Y337.951
G1 X65.185 Y337.945
G1 X65.529 Y337.76
G1 X65.883 Y337.569
G1 X66.246 Y337.372
G1 X66.618 Y337.171
G1 X66.997 Y336.965
G1 X67.383 Y336.756
G1 X67.774 Y336.543
G1 X68.17 Y336.327
G1 X68.571 Y336.108
G1 X68.974 Y335.887
G1 X69.38 Y335.663
G1 X69.788 Y335.439
G1 X70.196 Y335.214
G1 X70.604 Y334.988
G1 X71.011 Y334.761
G1 X71.417 Y334.536
G1 X71.82 Y334.31
G1 X72.219 Y334.086
G1 X72.614 Y333.864
G1 X73.004 Y333.642
G1 X73.388 Y333.424
G1 X73.765 Y333.208
G1 X74.134 Y332.996
G1 X74.495 Y332.787
G1 X74.644 Y332.701
G1 X74.793 Y332.616
G1 X74.942 Y332.53
G1 X75.091 Y332.445
G1 X75.239 Y332.362
G1 X75.24 Y332.361
G1 X75.388 Y332.276
G1 X75.537 Y332.193
G1 X75.686 Y332.11
G1 X75.834 Y332.027
G1 X75.983 Y331.944
G1 X76.131 Y331.861
G1 X76.279 Y331.779
G1 X76.287 Y331.774
G1 X76.427 Y331.697
G1 X76.575 Y331.615
G1 X76.723 Y331.533
G1 X76.87 Y331.452
G1 X76.876 Y331.448
G1 X77.017 Y331.371
G1 X77.164 Y331.291
G1 X77.165
G1 X77.311 Y331.21
G1 X77.457 Y331.13
G1 X77.461 Y331.128
G1 X77.603 Y331.05
G1 X77.749 Y330.971
G1 X77.894 Y330.892
G1 X77.895
G1 X78.039 Y330.812
G1 X78.324 Y330.657
G1 X78.608 Y330.502
G1 X78.891 Y330.347
G1 X79.12 Y330.221
G1 X79.173 Y330.192
G1 X79.455 Y330.037
G1 X79.736 Y329.881
G1 X80.017 Y329.726
G1 X80.298 Y329.569
G1 X80.577 Y329.412
G1 X80.857 Y329.254
G1 Y329.253
G1 X81.136 Y329.094
G1 X81.414 Y328.934
G1 X81.693 Y328.773
G1 X81.971 Y328.61
G1 X82.249 Y328.446
G1 X82.527 Y328.28
G1 X82.804 Y328.112
G1 X83.082 Y327.942
G1 X83.359 Y327.771
G1 Y327.77
G1 X83.636 Y327.596
G1 X83.637
G1 X83.914 Y327.419
G1 X84.191 Y327.24
G1 X84.468 Y327.058
G1 X84.469
G1 X84.746 Y326.874
G1 X84.751 Y326.87
G1 X84.753 Y326.868
G1 X84.754 Y326.867
G1 X84.76 Y326.863
G1 X84.764 Y326.859
G1 X84.765
G1 X84.767 Y326.857
G1 X84.768 Y326.856
G1 X84.774 Y326.852
G1 X84.776 Y326.851
G1 X84.778 Y326.85
G1 X84.784 Y326.845
G1 X84.786 Y326.844
G1 X84.792 Y326.84
G1 X84.798 Y326.836
G1 X84.8 Y326.834
G1 X84.802 Y326.833
G1 X84.807 Y326.83
G1 X84.812 Y326.826
G1 X84.815 Y326.824
G1 X84.816 Y326.823
G1 X84.821 Y326.82
G1 X84.822
G1 X84.827 Y326.817
G1 X84.832 Y326.813
G1 X84.834 Y326.811
G1 X84.836 Y326.81
G1 X84.847 Y326.804
G1 X84.852 Y326.801
G1 X84.857 Y326.798
G1 X84.862 Y326.795
G1 X84.865 Y326.793
G1 X85.06 Y326.661
G1 X85.254 Y326.528
G1 X85.255
G1 X85.449 Y326.393
G1 X85.644 Y326.256
G1 X85.839 Y326.118
G1 X86.034 Y325.978
G1 Y325.977
G1 X86.229 Y325.835
G1 X86.424 Y325.692
G1 X86.425
G1 X86.62 Y325.547
G1 X86.816 Y325.399
G1 X87.012 Y325.25
G1 X87.208 Y325.099
G1 Y325.098
G1 X87.404 Y324.944
G1 X87.601 Y324.789
G1 X87.798 Y324.632
G1 X87.995 Y324.472
G1 X88.192 Y324.31
G1 X88.193 Y324.309
G1 X88.39 Y324.145
G1 X88.588 Y323.978
G1 X88.786 Y323.809
G1 X88.787
G1 X88.985 Y323.638
G1 X89.184 Y323.464
G1 Y323.463
G1 X89.384 Y323.286
G1 X89.583 Y323.107
G1 X89.584
G1 X90.289 Y322.457
G1 X90.29 Y322.456
G1 X90.997 Y321.778
G1 X90.998 Y321.777
G1 X91.707 Y321.073
G1 X92.417 Y320.346
G1 Y320.345
G1 X93.127 Y319.595
G1 X93.836 Y318.826
G1 X93.837 Y318.825
G1 X94.544 Y318.037
G1 X94.545
G1 X95.25 Y317.234
G1 X95.953 Y316.416
G1 Y316.415
G1 X96.652 Y315.584
G1 X97.346 Y314.744
G1 X97.347
G1 X98.036 Y313.895
G1 Y313.894
G1 X98.72 Y313.038
G1 X99.397 Y312.178
G1 X100.067 Y311.315
G1 Y311.314
G1 X100.729 Y310.45
G1 X101.382 Y309.587
G1 X102.026 Y308.728
G1 X102.66 Y307.874
G1 X103.282 Y307.026
G1 Y307.025
G1 X103.893 Y306.186
G1 X103.894
G1 X104.493 Y305.358
G1 X105.079 Y304.543
G1 X105.651 Y303.743
G1 X105.659 Y303.732
G1 X106.108 Y303.111
G1 X106.563 Y302.5
G1 X106.872 Y302.097
G1 X107.014 Y301.913
G1 X107.462 Y301.345
G1 X107.905 Y300.801
G1 X108.342 Y300.276
G1 X108.655 Y299.912
G1 X108.774 Y299.774
G1 X109.197 Y299.291
G1 X109.614 Y298.831
G1 X110.022 Y298.39
G1 X110.333 Y298.064
G1 X110.422 Y297.971
G1 X110.812 Y297.571
G1 X111.191 Y297.192
G1 X111.559 Y296.832
G1 X111.853 Y296.55
G1 X111.914 Y296.491
G1 X112.258 Y296.172
G1 X112.588 Y295.871
G1 X112.767 Y295.712
G1 X112.904 Y295.59
G1 X113.177 Y295.352
G1 X113.206 Y295.327
G1 X113.491 Y295.083
G1 X113.761 Y294.859
G1 X113.925 Y294.725
G1 X114.013 Y294.653
G1 X114.244 Y294.469
G1 X114.249 Y294.465
G1 X114.466 Y294.295
G1 X114.478 Y294.282
G1 X114.484 Y294.265
G1 Y294.247
G1 X114.478 Y294.23
G1 X114.466 Y294.217
G1 X114.351 Y294.125
G1 X114.228 Y294.027
G1 X114.096 Y293.924
G1 Y293.923
G1 X113.954 Y293.813
G1 X113.953
G1 X113.801 Y293.698
G1 X113.64 Y293.576
G1 X113.469 Y293.449
G1 X113.287 Y293.315
G1 X113.094 Y293.175
G1 Y293.174
G1 X112.891 Y293.028
G1 X112.677 Y292.876
G1 X112.452 Y292.718
G1 X112.215 Y292.553
G1 X112.214
G1 X111.965 Y292.382
G1 X111.705 Y292.205
G1 X111.432 Y292.021
G1 Y292.02
G1 X111.147 Y291.83
G1 X110.85 Y291.634
G1 X110.849
G1 X110.538 Y291.43
G1 X110.214 Y291.221
G1 X109.877 Y291.004
G1 X109.527 Y290.781
G1 X109.162 Y290.552
G1 X108.783 Y290.315
G1 X108.782 Y290.314
G1 X108.293 Y290.014
G1 X107.789 Y289.713
G1 X107.788
G1 X107.272 Y289.413
G1 X106.745 Y289.113
G1 X106.744 Y289.112
G1 X106.209 Y288.814
G1 X105.667 Y288.517
G1 X105.12 Y288.223
G1 X105.119
G1 X104.568 Y287.932
G1 X104.017 Y287.645
G1 X103.466 Y287.362
G1 Y287.361
G1 X102.917 Y287.083
G1 X102.916
G1 X102.372 Y286.811
G1 X101.834 Y286.545
G1 X101.303 Y286.286
G1 X100.782 Y286.034
G1 X100.273 Y285.79
G1 X100.272
G1 X99.776 Y285.555
G1 X99.295 Y285.329
G1 X98.831 Y285.113
G1 X98.385 Y284.907
G1 X97.961 Y284.713
G1 X97.558 Y284.529
G1 X97.181 Y284.358
G1 X96.829 Y284.2
G1 X96.811 Y284.196
G1 X96.793 Y284.198
G1 X96.777 Y284.207
G1 X96.765 Y284.221
G1 X96.759 Y284.238
G1 X96.756 Y284.253
G1 X96.754 Y284.269
G1 X96.752 Y284.284
G1 X96.749 Y284.299
G1 X96.746 Y284.314
G1 X96.744 Y284.33
G1 X96.741 Y284.344
G1 X96.738 Y284.36
G1 X96.734 Y284.376
G1 X96.731 Y284.39
G1 Y284.391
G1 X96.728 Y284.406
G1 X96.724 Y284.42
G1 Y284.421
G1 X96.721 Y284.436
G1 X96.718 Y284.449
G1 X96.717 Y284.451
G1 X96.713 Y284.467
G1 X96.709 Y284.482
G1 X96.705 Y284.497
G1 X96.701 Y284.512
G1 X96.697 Y284.527
G1 X96.692 Y284.543
G1 X96.688 Y284.558
G1 X96.683 Y284.573
G1 X96.678 Y284.589
G1 X96.673 Y284.603
G1 X96.661 Y284.638
G1 X96.654 Y284.658
G1 X96.633 Y284.715
G1 X96.619 Y284.749
G1 X96.61 Y284.772
G1 X96.584 Y284.831
G1 X96.555 Y284.89
G1 X96.534 Y284.929
G1 X96.523 Y284.95
G1 X96.488 Y285.012
G1 X96.466 Y285.047
G1 X96.451 Y285.072
G1 X96.43 Y285.104
G1 X96.41 Y285.134
G1 X96.365 Y285.195
G1 X96.338 Y285.23
G1 X96.318 Y285.257
G1 X96.266 Y285.318
G1 X96.236 Y285.352
G1 X96.211 Y285.379
G1 X96.152 Y285.438
G1 X96.118 Y285.47
G1 X96.089 Y285.498
G1 X96.021 Y285.557
G1 X95.984 Y285.586
G1 X95.95 Y285.613
G1 X95.874 Y285.67
G1 X95.818 Y285.707
G1 X95.793 Y285.724
G1 X95.747 Y285.752
G1 X95.707 Y285.777
G1 X95.641 Y285.814
G1 X95.617 Y285.828
G1 X95.521 Y285.878
G1 X95.456 Y285.908
G1 X95.421 Y285.924
G1 X95.314 Y285.97
G1 X95.227 Y286.004
G1 X95.125 Y286.042
G1 X95.005 Y286.08
G1 X94.865 Y286.118
G1 X94.777 Y286.138
G1 X94.702 Y286.154
G1 X94.516 Y286.185
G1 X94.302 Y286.209
G1 X94.059 Y286.225
G1 X93.785 Y286.23
G1 X93.477 Y286.222
G1 X93.16 Y286.201
G1 X93.134 Y286.199
G1 X92.813 Y286.166
G1 X92.753 Y286.159
G1 X92.44 Y286.116
G1 X92.331 Y286.101
G1 X92.04 Y286.05
G1 X91.868 Y286.021
G1 X91.611 Y285.969
G1 X91.36 Y285.918
G1 X90.806 Y285.789
G1 X90.203 Y285.634
G1 X89.549 Y285.449
G1 X88.989 Y285.278
G1 X88.842 Y285.233
G1 X88.338 Y285.068
G1 X88.08 Y284.984
G1 X87.648 Y284.833
G1 X87.261 Y284.699
G1 X86.381 Y284.376
G1 X85.441 Y284.014
G1 X84.436 Y283.611
G1 X84.042 Y283.441
G1 X83.653 Y283.259
G1 X83.27 Y283.064
G1 X82.891 Y282.858
G1 X82.518 Y282.642
G1 X82.151 Y282.418
G1 X81.791 Y282.184
G1 X81.438 Y281.945
G1 X81.092 Y281.699
G1 X80.753 Y281.448
G1 X80.423 Y281.194
G1 X80.101 Y280.936
G1 X79.787 Y280.677
G1 X79.483 Y280.416
G1 X79.188 Y280.157
G1 X78.903 Y279.898
G1 X78.628 Y279.643
G1 X78.364 Y279.39
G1 X78.111 Y279.142
G1 X77.869 Y278.899
G1 X77.639 Y278.663
G1 X77.421 Y278.435
G1 X77.215 Y278.215
G1 X77.022 Y278.004
G1 X77.012 Y277.996
G1 X76.938 Y277.949
G1 X76.937 Y277.948
G1 X76.843 Y277.89
G1 X76.731 Y277.821
G1 X76.73
G1 X76.601 Y277.745
G1 X76.6
G1 X76.455 Y277.661
G1 X76.454 Y277.66
G1 X76.293 Y277.569
G1 X76.292
G1 X76.117 Y277.474
G1 X76.116
G1 X75.928 Y277.375
G1 X75.927 Y277.374
G1 X75.726 Y277.273
G1 X75.725
G1 X75.513 Y277.171
G1 X75.512
G1 X75.29 Y277.069
G1 Y277.068
G1 X75.059 Y276.967
G1 X75.057
G1 X74.818 Y276.869
G1 X74.817 Y276.868
G1 X74.571 Y276.773
G1 X74.57
G1 X74.318 Y276.684
G1 X74.317 Y276.683
G1 X74.06 Y276.6
G1 X74.058
G1 X73.797 Y276.525
G1 X73.796
G1 X73.532 Y276.458
G1 X73.53 Y276.457
G1 X73.264 Y276.401
G1 X73.262
G1 X72.996 Y276.355
G1 X72.994 Y276.354
G1 X72.727 Y276.322
G1 X72.725
G1 X72.46 Y276.303
G1 X72.457
G1 X72.195 Y276.299
G1 X72.192
G1 X71.932 Y276.312
G1 X71.93
G1 X71.654 Y276.339
G1 X71.653
G1 X71.381 Y276.376
G1 X71.379 Y276.377
G1 X71.113 Y276.424
G1 X71.111
G1 X70.849 Y276.48
G1 X70.847 Y276.481
G1 X70.589 Y276.548
G1 X70.587
G1 X70.334 Y276.625
G1 X70.332 Y276.626
G1 X70.083 Y276.713
G1 X70.081 Y276.714
G1 X69.835 Y276.811
G1 X69.833
G1 X69.592 Y276.919
G1 X69.59 Y276.92
G1 X69.352 Y277.038
G1 X69.351 Y277.039
G1 X69.117 Y277.167
G1 X69.115 Y277.168
G1 X68.884 Y277.307
G1 X68.883 Y277.308
G1 X68.656 Y277.458
G1 X68.654 Y277.459
G1 X68.431 Y277.619
G1 X68.429 Y277.62
G1 X68.209 Y277.792
G1 X68.207 Y277.793
G1 X67.99 Y277.974
G1 X67.988 Y277.975
G1 X67.774 Y278.168
G1 X67.773 Y278.169
G1 X67.562 Y278.372
G1 X67.56 Y278.373
G1 X67.352 Y278.588
G1 X67.351 Y278.589
G1 X67.145 Y278.814
G1 X67.144 Y278.815
G1 X66.94 Y279.052
G1 X66.939 Y279.054
G1 X66.738 Y279.302
G1 X66.737
G1 X66.539 Y279.562
G1 X66.538 Y279.563
G1 X66.341 Y279.833
G1 X66.101 Y280.178
G1 Y280.179
G1 X65.872 Y280.524
G1 Y280.526
G1 X65.654 Y280.874
G1 X65.653 Y280.875
G1 X65.447 Y281.23
G1 X65.446 Y281.231
G1 X65.251 Y281.596
G1 X65.25 Y281.598
G1 X65.065 Y281.977
G1 Y281.979
G1 X64.891 Y282.375
G1 Y282.377
G1 X64.729 Y282.793
G1 X64.728 Y282.795
G1 X64.577 Y283.235
G1 X64.576 Y283.237
G1 X64.437 Y283.704
G1 X64.436 Y283.706
G1 X64.308 Y284.203
G1 Y284.204
G1 X64.191 Y284.736
G1 Y284.738
G1 X64.085 Y285.306
G1 Y285.307
G1 X63.991 Y285.917
G1 Y285.919
G1 X63.909 Y286.573
G1 Y286.574
G1 X63.838 Y287.275
G1 Y287.276
G1 X63.778 Y288.029
G1 Y288.03
G1 X63.731 Y288.837
G1 Y288.838
G1 X63.695 Y289.702
G1 Y289.703
G1 X63.671 Y290.629
G1 X63.658 Y291.619
G1 Y291.62
G1 X63.657 Y292.679
G1 Y292.68
G1 X63.669 Y293.809
G1 X63.692 Y295.014
G1 Y295.017
G1 Y295.021
G1 X63.693 Y295.024
G1 Y295.027
G1 Y295.031
G1 Y295.039
G1 X63.694 Y295.047
G1 Y295.051
G1 Y295.054
G1 Y295.058
G1 Y295.062
G1 Y295.066
G1 Y295.07
G1 Y295.073
G1 Y295.074
G1 Y295.078
G1 Y295.082
G1 Y295.086
G1 Y295.09
G1 Y295.093
G1 Y295.097
G1 Y295.098
G1 Y295.101
G1 Y295.105
G1 Y295.109
G1 Y295.111
G1 X63.695 Y295.135
G1 Y295.16
G1 X63.696 Y295.184
G1 X63.697 Y295.209
G1 Y295.233
G1 X63.698 Y295.258
G1 Y295.282
G1 X63.699 Y295.307
G1 X63.7 Y295.331
G1 Y295.356
G1 X63.701 Y295.38
G1 Y295.405
G1 X63.702 Y295.429
G1 X63.703 Y295.454
G1 Y295.477
G1 Y295.479
G1 X63.704 Y295.503
G1 Y295.504
G1 X63.705 Y295.528
G1 Y295.545
G1 Y295.553
G1 X63.706 Y295.572
G1 Y295.578
G1 Y295.594
G1 X63.707 Y295.624
G1 X63.709 Y295.678
G1 X63.71 Y295.703
G1 Y295.704
G1 X63.722 Y296.048
G1 Y296.049
G1 X63.74 Y296.39
G1 X63.764 Y296.728
G1 Y296.729
G1 X63.792 Y297.064
G1 Y297.065
G1 X63.826 Y297.396
G1 Y297.397
G1 X63.865 Y297.726
G1 Y297.727
G1 X63.909 Y298.053
G1 X63.958 Y298.376
G1 Y298.377
G1 X64.011 Y298.697
G1 X64.012 Y298.698
G1 X64.069 Y299.016
G1 X64.07 Y299.017
G1 X64.132 Y299.332
G1 X64.198 Y299.645
G1 Y299.646
G1 X64.269 Y299.956
G1 Y299.957
G1 X64.344 Y300.264
G1 X64.422 Y300.57
G1 Y300.571
G1 X64.504 Y300.874
G1 X64.505 Y300.875
G1 X64.59 Y301.175
G1 X64.679 Y301.474
G1 X64.68 Y301.475
G1 X64.772 Y301.771
G1 X64.868 Y302.066
G1 Y302.067
G1 X64.967 Y302.359
G1 X65.068 Y302.65
G1 X65.069 Y302.651
G1 X65.173 Y302.94
G1 X65.28 Y303.227
G1 Y303.229
G1 X65.282 Y303.232
G1 Y303.233
G1 X65.283 Y303.235
G1 Y303.236
G1 X65.284 Y303.238
G1 X65.285 Y303.24
G1 X65.286 Y303.242
G1 Y303.244
G1 X65.287 Y303.246
G1 X65.288 Y303.248
G1 X65.289 Y303.251
G1 X65.29 Y303.254
G1 X65.291 Y303.257
G1 X65.292 Y303.259
G1 X65.293 Y303.261
G1 X65.294 Y303.263
G1 Y303.264
G1 X65.386 Y303.504
G1 X65.48 Y303.743
G1 Y303.744
G1 X65.576 Y303.981
G1 X65.673 Y304.218
G1 X65.772 Y304.454
G1 Y304.455
G1 X65.872 Y304.689
G1 X65.973 Y304.923
G1 X66.076 Y305.156
G1 X66.179 Y305.388
G1 Y305.389
G1 X66.284 Y305.62
G1 X66.389 Y305.85
G1 X66.39
G1 X66.496 Y306.079
G1 X66.603 Y306.308
G1 X66.711 Y306.536
G1 Y306.537
G1 X66.82 Y306.764
G1 X66.929 Y306.99
G1 X67.039 Y307.216
G1 X67.149 Y307.442
G1 X67.26 Y307.667
G1 X67.37 Y307.891
G1 X67.481 Y308.115
G1 X67.592 Y308.339
G1 X67.703 Y308.562
G1 X67.814 Y308.785
G1 X68.066 Y309.292
G1 X68.29 Y309.745
G1 X68.316 Y309.798
G1 X68.564 Y310.302
G1 X68.76 Y310.708
G1 X68.807 Y310.805
G1 X68.992 Y311.194
G1 X69.046 Y311.307
G1 X69.22 Y311.682
G1 X69.279 Y311.81
G1 X69.443 Y312.173
G1 X69.505 Y312.312
G1 X69.66 Y312.668
G1 X69.725 Y312.816
G1 X69.871 Y313.168
G1 X69.935 Y313.321
G1 X70.074 Y313.67
G1 X70.137 Y313.828
G1 X70.269 Y314.179
G1 X70.329 Y314.338
G1 X70.454 Y314.692
G1 X70.51 Y314.85
G1 X70.628 Y315.212
G1 X70.679 Y315.366
G1 X70.791 Y315.736
G1 X70.836 Y315.885
G1 X70.94 Y316.268
G1 X70.979 Y316.409
G1 X71.076 Y316.807
G1 X71.107 Y316.937
G1 X71.195 Y317.352
G1 X71.221 Y317.471
G1 X71.299 Y317.903
G1 X71.318 Y318.01
G1 X71.384 Y318.463
G1 X71.398 Y318.556
G1 X71.451 Y319.027
G1 X71.46 Y319.109
G1 X71.499 Y319.601
G1 X71.504 Y319.668
G1 X71.526 Y320.18
G1 X71.528 Y320.235
G1 X71.531 Y320.768
G1 Y320.811
G1 X71.515 Y321.361
G1 X71.513 Y321.395
G1 X71.459 Y322.158
G1 X71.372 Y322.924
G1 X71.255 Y323.693
G1 X71.191 Y324.029
; MOVEMENT_RAPID
G0 Z5 F300
G0 X69.545 Y322.844 F2500
; MOVEMENT_LEAD_IN
G1 Z0 F480
; MOVEMENT_CUTTING
G1 X69.551 Y322.834 F2100
G1 X69.554 Y322.822
G1 X69.563 Y322.759
G1 X69.571 Y322.696
G1 X69.58 Y322.632
G1 Y322.631
G1 X69.588 Y322.568
G1 X69.596 Y322.505
G1 X69.604 Y322.441
G1 X69.611 Y322.378
G1 X69.618 Y322.315
G1 X69.625 Y322.252
G1 Y322.251
G1 X69.632 Y322.188
G1 X69.639 Y322.125
G1 X69.645 Y322.061
G1 X69.651 Y321.998
G1 X69.657 Y321.936
G1 Y321.935
G1 X69.662 Y321.872
G1 X69.667 Y321.809
G1 X69.672 Y321.746
G1 X69.677 Y321.683
G1 X69.682 Y321.62
G1 X69.686 Y321.557
G1 X69.69 Y321.494
G1 X69.694 Y321.432
G1 X69.697 Y321.369
G1 X69.701 Y321.307
G1 Y321.306
G1 X69.716 Y320.78
G1 Y320.779
G1 X69.712 Y320.259
G1 Y320.257
G1 X69.688 Y319.744
G1 Y319.742
G1 X69.645 Y319.233
G1 Y319.231
G1 X69.585 Y318.728
G1 Y318.726
G1 X69.508 Y318.227
G1 Y318.226
G1 X69.415 Y317.731
G1 Y317.729
G1 X69.307 Y317.238
G1 Y317.237
G1 X69.185 Y316.749
G1 X69.184 Y316.748
G1 X69.048 Y316.263
G1 Y316.261
G1 X68.9 Y315.779
G1 X68.899 Y315.778
G1 X68.739 Y315.299
G1 Y315.298
G1 X68.567 Y314.82
G1 Y314.819
G1 X68.385 Y314.343
G1 Y314.342
G1 X68.194 Y313.868
G1 X67.994 Y313.394
G1 Y313.393
G1 X67.787 Y312.92
G1 Y312.919
G1 X67.573 Y312.446
G1 X67.572
G1 X67.352 Y311.973
G1 X67.127 Y311.499
G1 X66.897 Y311.025
G1 X66.663 Y310.549
G1 X66.427 Y310.073
G1 X66.189 Y309.594
G1 X66.116 Y309.447
G1 X66.043 Y309.301
G1 X65.97 Y309.154
G1 X65.967 Y309.146
G1 X65.897 Y309.007
G1 X65.825 Y308.86
G1 X65.752 Y308.713
G1 X65.679 Y308.565
G1 X65.606 Y308.418
G1 X65.534 Y308.27
G1 X65.461 Y308.122
G1 X65.406 Y308.009
G1 X65.389 Y307.973
G1 X65.317 Y307.825
G1 X65.245 Y307.676
G1 X65.185 Y307.552
G1 X65.173 Y307.527
G1 X65.102 Y307.378
G1 X65.03 Y307.229
G1 X64.962 Y307.085
G1 X64.959 Y307.079
G1 X64.889 Y306.929
G1 X64.85 Y306.846
G1 X64.818 Y306.778
G1 X64.748 Y306.627
G1 X64.678 Y306.476
G1 X64.631 Y306.373
G1 X64.609 Y306.324
G1 X64.54 Y306.172
G1 X64.472 Y306.02
G1 X64.46 Y306.004
G1 X64.444 Y305.993
G1 X64.425 Y305.99
G1 X64.406 Y305.994
G1 X64.39 Y306.006
G1 X64.379 Y306.022
G1 X64.243 Y306.381
G1 Y306.382
G1 X64.104 Y306.762
G1 X64.103
G1 X63.962 Y307.163
G1 Y307.164
G1 X63.819 Y307.583
G1 Y307.584
G1 X63.677 Y308.02
G1 X63.538 Y308.472
G1 X63.537 Y308.473
G1 X63.401 Y308.939
G1 Y308.94
G1 X63.269 Y309.418
G1 Y309.419
G1 X63.143 Y309.908
G1 X63.025 Y310.406
G1 Y310.407
G1 X62.916 Y310.913
G1 Y310.915
G1 X62.817 Y311.427
G1 Y311.428
G1 X62.73 Y311.944
G1 X62.729 Y311.945
G1 X62.655 Y312.464
G1 Y312.465
G1 X62.595 Y312.986
G1 Y312.988
G1 X62.551 Y313.508
G1 Y313.509
G1 X62.524 Y314.028
G1 Y314.03
G1 X62.515 Y314.545
G1 Y314.547
G1 X62.527 Y315.057
G1 Y315.059
G1 X62.559 Y315.563
G1 Y315.566
G1 X62.615 Y316.061
G1 Y316.063
G1 X62.694 Y316.549
G1 X62.695 Y316.552
G1 X62.799 Y317.026
G1 X62.8 Y317.029
G1 X62.931 Y317.491
G1 X62.932 Y317.494
G1 X63.098 Y317.963
G1 X63.099 Y317.966
G1 X63.289 Y318.408
G1 X63.29 Y318.411
G1 X63.5 Y318.826
G1 X63.502 Y318.828
G1 X63.732 Y319.218
G1 X63.733 Y319.221
G1 X63.98 Y319.585
G1 X63.982 Y319.588
G1 X64.244 Y319.928
G1 X64.246 Y319.93
G1 X64.522 Y320.246
G1 X64.524 Y320.248
G1 X64.812 Y320.542
G1 X64.813 Y320.544
G1 X65.111 Y320.817
G1 X65.113 Y320.819
G1 X65.418 Y321.07
G1 X65.42 Y321.071
G1 X65.732 Y321.302
G1 X65.734 Y321.303
G1 X66.049 Y321.516
G1 X66.051 Y321.517
G1 X66.369 Y321.711
G1 X66.371 Y321.712
G1 X66.689 Y321.887
G1 X66.691 Y321.888
G1 X67.007 Y322.048
G1 X67.009
G1 X67.323 Y322.191
G1 X67.324 Y322.192
G1 X67.632 Y322.32
G1 X67.634 Y322.321
G1 X67.935 Y322.434
G1 X67.936
G1 X68.228 Y322.535
G1 X68.23 Y322.536
G1 X68.511 Y322.623
G1 X68.512
G1 X68.781 Y322.699
G1 X68.782
G1 X69.036 Y322.764
G1 X69.037 Y322.765
G1 X69.274 Y322.819
G1 X69.275
G1 X69.494 Y322.864
G1 X69.513
G1 X69.531 Y322.857
G1 X69.545 Y322.844
; MOVEMENT_RAPID
G0 Z5 F300
G0 X69.154 Y324.646 F2500
; MOVEMENT_LEAD_IN
G1 Z0 F480
; MOVEMENT_CUTTING
G1 X68.9 Y324.592 F2100
G1 X68.884 Y324.589
G1 X68.631 Y324.531
G1 X68.594 Y324.522
G1 X68.326 Y324.453
G1 X68.284 Y324.442
G1 X68.014 Y324.365
G1 X67.956 Y324.348
G1 X67.687 Y324.264
G1 X67.613 Y324.241
G1 X67.338 Y324.144
G1 X67.257 Y324.116
G1 X66.986 Y324.012
G1 X66.891 Y323.976
G1 X66.619 Y323.861
G1 X66.516 Y323.817
G1 X66.248 Y323.693
G1 X66.135 Y323.641
G1 X65.864 Y323.502
G1 X65.75 Y323.444
G1 X65.482 Y323.294
G1 X65.363 Y323.227
G1 X65.093 Y323.059
G1 X64.977 Y322.987
G1 X64.709 Y322.804
G1 X64.594 Y322.725
G1 X64.325 Y322.522
G1 X64.216 Y322.44
G1 X63.945 Y322.214
G1 X63.845 Y322.13
G1 X63.572 Y321.875
G1 X63.483 Y321.792
G1 X63.212 Y321.511
G1 X63.134 Y321.429
G1 X62.864 Y321.114
G1 X62.798 Y321.038
G1 X62.533 Y320.688
G1 X62.478 Y320.617
G1 X62.221 Y320.232
G1 X62.177 Y320.167
G1 X61.931 Y319.744
G1 X61.897 Y319.685
G1 X61.666 Y319.226
G1 X61.639 Y319.172
G1 X61.428 Y318.676
G1 X61.406 Y318.625
G1 X61.22 Y318.098
G1 X61.201 Y318.043
G1 X61.111 Y317.745
G1 X61.044 Y317.492
G1 X61.032 Y317.444
G1 X60.961 Y317.139
G1 X60.915 Y316.904
G1 X60.9 Y316.829
G1 X60.847 Y316.517
G1 X60.819 Y316.313
G1 X60.803 Y316.203
G1 X60.768 Y315.885
G1 X60.753 Y315.721
G1 X60.74 Y315.565
G1 X60.72 Y315.244
G1 X60.707 Y314.921
G1 X60.702 Y314.597
G1 X60.704 Y314.271
G1 X60.711 Y313.983
G1 X60.712 Y313.945
G1 X60.727 Y313.618
G1 X60.741 Y313.393
G1 X60.748 Y313.291
G1 X60.775 Y312.965
G1 X60.807 Y312.638
G1 X60.845 Y312.312
G1 X60.887 Y311.988
G1 X60.932 Y311.681
G1 X60.935 Y311.665
G1 X60.987 Y311.342
G1 X61.027 Y311.112
G1 X61.043 Y311.023
G1 X61.103 Y310.706
G1 X61.167 Y310.39
G1 Y310.371
G1 X61.161 Y310.354
G1 X61.148 Y310.34
G1 X61.132 Y310.332
G1 X61.113 Y310.33
G1 X61.096 Y310.335
G1 X61.081 Y310.346
G1 X60.906 Y310.539
G1 X60.728 Y310.731
G1 X60.546 Y310.923
G1 X60.441 Y311.032
G1 X60.361 Y311.114
G1 X60.172 Y311.303
G1 X59.979 Y311.493
G1 X59.782 Y311.681
G1 X59.582 Y311.867
G1 X59.455 Y311.983
G1 X59.378 Y312.053
G1 X59.17 Y312.235
G1 X58.959 Y312.417
G1 X58.744 Y312.596
G1 X58.525 Y312.774
G1 X58.363 Y312.901
G1 X58.302 Y312.948
G1 X58.075 Y313.121
G1 X57.845 Y313.29
G1 X57.611 Y313.457
G1 X57.373 Y313.622
G1 X57.175 Y313.754
G1 X57.132 Y313.782
G1 X56.886 Y313.939
G1 X56.637 Y314.093
G1 X56.384 Y314.243
G1 X56.127 Y314.389
G1 X55.884 Y314.523
G1 X55.867 Y314.532
G1 X55.429 Y314.759
G1 X55.099 Y314.93
G1 X54.586 Y315.182
G1 X54.359 Y315.294
G1 X53.649 Y315.623
G1 X52.968 Y315.92
G1 X52.616 Y316.063
G1 X52.316 Y316.185
G1 X51.899 Y316.343
G1 X51.694 Y316.421
G1 X51.103 Y316.63
G1 X50.541 Y316.813
G1 X50.262 Y316.897
G1 X50.011 Y316.972
G1 X49.683 Y317.061
G1 X49.511 Y317.108
G1 X49.043 Y317.223
G1 X48.606 Y317.319
G1 X48.395 Y317.36
G1 X48.201 Y317.398
G1 X47.959 Y317.439
G1 X47.829 Y317.461
G1 X47.488 Y317.509
G1 X47.181 Y317.546
G1 X46.907 Y317.572
G1 X46.665 Y317.588
G1 X46.458 Y317.598
G1 X46.284 Y317.601
G1 X46.145
G1 X46.04 Y317.598
G1 X45.969 Y317.594
G1 X45.935 Y317.592
G1 X45.897 Y317.587
G1 X45.858 Y317.582
G1 X45.821 Y317.574
G1 X45.784 Y317.566
G1 X45.747 Y317.555
G1 X45.711 Y317.544
G1 X45.677 Y317.531
G1 X45.642 Y317.516
G1 X45.608 Y317.499
G1 X45.575 Y317.482
G1 X45.542 Y317.463
G1 X45.511 Y317.443
G1 X45.48 Y317.422
G1 X45.45 Y317.399
G1 X45.422 Y317.375
G1 X45.394 Y317.349
G1 X45.366 Y317.324
G1 X45.341 Y317.296
G1 X45.316 Y317.268
G1 X45.293 Y317.238
G1 X45.27 Y317.207
G1 X45.249 Y317.176
G1 X45.229 Y317.143
G1 X45.211 Y317.11
G1 X45.193 Y317.075
G1 X45.178 Y317.04
G1 X45.164 Y317.004
G1 X45.151 Y316.969
G1 X45.14 Y316.933
G1 X45.131 Y316.896
G1 X45.123 Y316.859
G1 X45.117 Y316.822
G1 X45.112 Y316.785
G1 X45.109 Y316.747
G1 X45.107 Y316.71
G1 Y316.672
G1 X45.108 Y316.635
G1 X45.111 Y316.597
G1 X45.116 Y316.56
G1 X45.122 Y316.523
G1 X45.129 Y316.486
G1 X45.138 Y316.45
G1 X45.149 Y316.413
G1 X45.161 Y316.378
G1 X45.175 Y316.342
G1 X45.19 Y316.307
G1 X45.207 Y316.273
G1 X45.226 Y316.238
G1 X45.25 Y316.196
G1 Y316.195
G1 X45.311 Y316.083
G1 X45.405 Y315.907
G1 Y315.906
G1 X45.529 Y315.668
G1 X45.679 Y315.37
G1 Y315.369
G1 X45.853 Y315.016
G1 Y315.015
G1 X46.046 Y314.609
G1 X46.256 Y314.152
G1 Y314.151
G1 X46.479 Y313.648
G1 X46.712 Y313.1
G1 Y313.099
G1 X46.951 Y312.511
G1 Y312.51
G1 X47.193 Y311.883
G1 X47.194 Y311.882
G1 X47.435 Y311.22
G1 X47.436 Y311.219
G1 X47.674 Y310.525
G1 Y310.524
G1 X47.906 Y309.801
G1 Y309.8
G1 X48.128 Y309.05
G1 Y309.049
G1 X48.336 Y308.276
G1 Y308.275
G1 X48.527 Y307.482
G1 Y307.48
G1 X48.698 Y306.67
G1 Y306.669
G1 X48.845 Y305.844
G1 Y305.842
G1 X48.965 Y305.006
G1 X48.966 Y305.004
G1 X49.056 Y304.16
G1 Y304.158
G1 X49.112 Y303.308
G1 Y303.306
G1 X49.132 Y302.454
G1 Y302.452
G1 X49.125 Y302.032
G1 Y302.031
G1 X49.106 Y301.612
G1 Y301.61
G1 X49.074 Y301.193
G1 Y301.192
G1 X49.031 Y300.777
G1 Y300.775
G1 X48.976 Y300.363
G1 Y300.362
G1 X48.911 Y299.951
G1 X48.91 Y299.949
G1 X48.751 Y299.138
G1 X48.75 Y299.136
G1 X48.555 Y298.339
G1 X48.554 Y298.337
G1 X48.328 Y297.557
G1 X48.327 Y297.555
G1 X48.073 Y296.794
G1 Y296.793
G1 X47.797 Y296.053
G1 X47.796 Y296.052
G1 X47.502 Y295.337
G1 Y295.336
G1 X47.194 Y294.649
G1 X47.193 Y294.647
G1 X46.877 Y293.989
G1 X46.876 Y293.988
G1 X46.555 Y293.362
G1 X46.554 Y293.361
G1 X46.233 Y292.77
G1 X46.232 Y292.769
G1 X45.914 Y292.215
G1 Y292.214
G1 X45.605 Y291.701
G1 X45.604 Y291.7
G1 X45.309 Y291.228
G1 X45.308
G1 X45.03 Y290.801
G1 X45.029 Y290.8
G1 X44.773 Y290.421
G1 X44.772 Y290.42
G1 X44.542 Y290.091
G1 X44.342 Y289.815
G1 Y289.814
G1 X44.177 Y289.593
G1 X44.052 Y289.43
G1 Y289.429
G1 X43.971 Y289.326
G1 X43.939 Y289.285
G1 X43.913 Y289.252
G1 X43.889 Y289.219
G1 X43.867 Y289.184
G1 X43.846 Y289.149
G1 X43.828 Y289.113
G1 X43.81 Y289.077
G1 X43.795 Y289.039
G1 X43.781 Y289.002
G1 X43.769 Y288.963
G1 X43.759 Y288.924
G1 X43.75 Y288.885
G1 X43.743 Y288.845
G1 X43.738 Y288.807
G1 X43.735 Y288.766
G1 X43.733 Y288.726
G1 Y288.686
G1 X43.735 Y288.646
G1 X43.739 Y288.606
G1 X43.744 Y288.566
G1 X43.751 Y288.526
G1 X43.761 Y288.486
G1 X43.772 Y288.446
G1 X43.784 Y288.408
G1 X43.799 Y288.37
G1 X43.815 Y288.331
G1 X43.833 Y288.294
G1 X43.853 Y288.258
G1 X43.874 Y288.224
G1 X43.896 Y288.19
G1 X43.92 Y288.157
G1 X43.945 Y288.125
G1 X43.972 Y288.096
G1 X44 Y288.066
G1 X44.029 Y288.039
G1 X44.059 Y288.012
G1 X44.09 Y287.988
G1 X44.122 Y287.964
G1 X44.156 Y287.942
G1 X44.19 Y287.921
G1 X44.226 Y287.902
G1 X44.262 Y287.884
G1 X44.299 Y287.868
G1 X44.336 Y287.854
G1 X44.375 Y287.841
G1 X44.414 Y287.83
G1 X44.454 Y287.821
G1 X44.494 Y287.813
G1 X44.536 Y287.808
G1 X44.595 Y287.801
G1 X44.711 Y287.789
G1 X44.879 Y287.773
G1 X45.097 Y287.754
G1 X45.361 Y287.733
G1 X45.669 Y287.712
G1 X46.016 Y287.693
G1 X46.355 Y287.677
G1 X46.399 Y287.675
G1 X46.633 Y287.667
G1 X46.816 Y287.661
G1 X47.263 Y287.652
G1 X47.518 Y287.65
G1 X47.737 Y287.649
G1 X48.158 Y287.653
G1 X48.235 Y287.654
G1 X48.503 Y287.661
G1 X48.753 Y287.667
G1 X49.193 Y287.686
G1 X49.289 Y287.69
G1 X49.567 Y287.708
G1 X49.838 Y287.725
G1 X50.399 Y287.772
G1 X50.967 Y287.832
G1 X51.426 Y287.892
G1 X51.539 Y287.907
G1 X52.113 Y287.999
G1 X52.577 Y288.088
G1 X52.685 Y288.109
G1 X52.981 Y288.176
G1 X53.251 Y288.238
G1 X53.808 Y288.385
G1 X54.126 Y288.484
G1 X54.354 Y288.555
G1 X54.886 Y288.748
G1 X55.211 Y288.879
G1 X55.537 Y289.02
G1 X55.788 Y289.135
G1 X55.862 Y289.168
G1 X56.186 Y289.324
G1 X56.508 Y289.486
G1 X56.69 Y289.583
G1 X56.829 Y289.656
G1 X57.115 Y289.813
G1 X57.147 Y289.831
G1 X57.462 Y290.01
G1 X57.774 Y290.194
G1 X57.971 Y290.313
G1 X58.083 Y290.381
G1 X58.381 Y290.567
G1 X58.387 Y290.571
G1 X58.687 Y290.763
G1 X58.982 Y290.958
G1 X59.181 Y291.092
G1 X59.271 Y291.152
G1 X59.554 Y291.347
G1 X59.831 Y291.543
G1 X60.101 Y291.737
G1 X60.29 Y291.875
G1 X60.364 Y291.928
G1 X60.619 Y292.118
G1 X60.866 Y292.306
G1 X61.104 Y292.489
G1 X61.276 Y292.623
G1 X61.333 Y292.667
G1 X61.553 Y292.842
G1 X61.762 Y293.011
G1 X61.779 Y293.02
G1 X61.797 Y293.022
G1 X61.815 Y293.017
G1 X61.83 Y293.006
G1 X61.84 Y292.99
G1 X61.844 Y292.972
G1 X61.842 Y291.95
G1 X61.851 Y290.986
G1 X61.87 Y290.073
G1 X61.886 Y289.638
G1 X61.901 Y289.212
G1 X61.924 Y288.746
G1 X61.942 Y288.4
G1 X61.975 Y287.907
G1 X61.994 Y287.632
G1 X62.038 Y287.119
G1 X62.057 Y286.908
G1 X62.114 Y286.379
G1 X62.131 Y286.225
G1 X62.202 Y285.683
G1 X62.216 Y285.58
G1 X62.303 Y285.026
G1 X62.312 Y284.97
G1 X62.42 Y284.395
G1 X62.538 Y283.849
G1 X62.668 Y283.332
G1 X62.809 Y282.841
G1 X62.962 Y282.372
G1 X63.126 Y281.925
G1 X63.22 Y281.694
G1 X63.301 Y281.495
G1 X63.419 Y281.234
G1 X63.488 Y281.081
G1 X63.631 Y280.794
G1 X63.687 Y280.681
G1 X63.853 Y280.373
G1 X63.897 Y280.29
G1 X64.088 Y279.963
G1 X64.12 Y279.909
G1 X64.354 Y279.532
G1 X64.6 Y279.158
G1 X64.858 Y278.785
G1 X65.071 Y278.493
G1 X65.096 Y278.459
G1 X65.299 Y278.195
G1 X65.338 Y278.145
G1 X65.536 Y277.903
G1 X65.583 Y277.845
G1 X65.776 Y277.624
G1 X65.833 Y277.558
G1 X66.021 Y277.355
G1 X66.087 Y277.285
G1 X66.272 Y277.098
G1 X66.345 Y277.024
G1 X66.529 Y276.85
G1 X66.608 Y276.776
G1 X66.791 Y276.614
G1 X66.874 Y276.541
G1 X67.06 Y276.389
G1 X67.146 Y276.319
G1 X67.331 Y276.178
G1 X67.421 Y276.109
G1 X67.616 Y275.973
G1 X67.702 Y275.914
G1 X67.9 Y275.786
G1 X67.986 Y275.73
G1 X68.193 Y275.607
G1 X68.276 Y275.559
G1 X68.488 Y275.444
G1 X68.57 Y275.4
G1 X68.798 Y275.289
G1 X68.869 Y275.254
G1 X69.101 Y275.152
G1 X69.173 Y275.12
G1 X69.422 Y275.023
G1 X69.481 Y275
G1 X69.74 Y274.911
G1 X69.795 Y274.892
G1 X70.067 Y274.81
G1 X70.114 Y274.796
G1 X70.394 Y274.724
G1 X70.438 Y274.713
G1 X70.767 Y274.641
G1 X71.066 Y274.589
G1 X71.101 Y274.582
G1 X71.41 Y274.541
G1 X71.44 Y274.537
G1 X71.786 Y274.503
G1 X71.898 Y274.495
G1 X72.011 Y274.489
G1 X72.124 Y274.486
G1 X72.238 Y274.485
G1 X72.352 Y274.486
G1 X72.466 Y274.489
G1 X72.554 Y274.494
G1 X72.58 Y274.495
G1 X72.694 Y274.502
G1 X72.808 Y274.511
G1 X72.899 Y274.52
G1 X72.922 Y274.522
G1 X73.036 Y274.535
G1 X73.15 Y274.55
G1 X73.245 Y274.563
G1 X73.264 Y274.565
G1 X73.377 Y274.583
G1 X73.49 Y274.603
G1 X73.592 Y274.622
G1 X73.603 Y274.624
G1 X73.715 Y274.647
G1 X73.828 Y274.671
G1 X73.924 Y274.692
G1 X73.939 Y274.696
G1 X74.05 Y274.723
G1 X74.161 Y274.75
G1 X74.27 Y274.78
G1 X74.273 Y274.781
G1 X74.38 Y274.81
G1 X74.489 Y274.842
G1 X74.506 Y274.844
G1 X74.523 Y274.84
G1 X74.538 Y274.83
G1 X74.548 Y274.816
G1 X74.552 Y274.799
G1 X74.551 Y274.781
G1 X74.543 Y274.765
G1 X74.374 Y274.525
G1 X74.35 Y274.49
G1 X74.157 Y274.212
G1 X73.963 Y273.929
G1 X73.804 Y273.692
G1 X73.771 Y273.643
G1 X73.581 Y273.356
G1 X73.393 Y273.065
G1 X73.272 Y272.873
G1 X73.209 Y272.774
G1 X73.03 Y272.484
G1 X72.855 Y272.194
G1 X72.686 Y271.905
G1 X72.574 Y271.706
G1 X72.524 Y271.619
G1 X72.376 Y271.346
G1 X72.37 Y271.335
G1 X72.224 Y271.056
G1 X72.087 Y270.781
G1 X72.014 Y270.627
G1 X71.96 Y270.511
G1 X71.869 Y270.306
G1 X71.844 Y270.247
G1 X71.739 Y269.991
G1 X71.646 Y269.741
G1 X71.567 Y269.501
G1 X71.527 Y269.362
G1 X71.501 Y269.271
G1 X71.45 Y269.049
G1 X71.415 Y268.839
G1 X71.395 Y268.641
G1 X71.394 Y268.545
G1 X71.393 Y268.456
G1 X71.397 Y268.378
G1 X71.4 Y268.329
G1 X71.406 Y268.264
G1 X71.411 Y268.206
G1 X71.428 Y268.087
G1 X71.448 Y267.974
G1 X71.473 Y267.864
G1 X71.491 Y267.798
G1 X71.501 Y267.76
G1 X71.534 Y267.659
G1 X71.569 Y267.563
G1 X71.595 Y267.5
G1 X71.607 Y267.472
G1 X71.648 Y267.384
G1 X71.682 Y267.321
G1 X71.692 Y267.301
G1 X71.716 Y267.26
G1 X71.738 Y267.221
G1 X71.773 Y267.167
G1 X71.786 Y267.146
G1 X71.836 Y267.073
G1 X71.863 Y267.037
G1 X71.888 Y267.005
G1 X71.92 Y266.965
G1 X71.941 Y266.94
G1 X71.971 Y266.905
G1 X71.995 Y266.879
G1 X72.03 Y266.841
G1 X72.049 Y266.821
G1 X72.083 Y266.788
G1 X72.105 Y266.766
G1 X72.16 Y266.714
G1 X72.188 Y266.69
G1 X72.216 Y266.666
G1 X72.248 Y266.64
G1 X72.272 Y266.621
G1 X72.327 Y266.579
G1 X72.381 Y266.54
G1 X72.449 Y266.494
G1 X72.519 Y266.451
G1 X72.592 Y266.409
G1 X72.666 Y266.368
G1 X72.717 Y266.343
G1 X72.742 Y266.33
G1 X72.82 Y266.294
G1 X72.9 Y266.259
G1 X72.943 Y266.242
G1 X72.982 Y266.227
G1 X73.067 Y266.196
G1 X73.126 Y266.177
G1 X73.153 Y266.168
G1 X73.242 Y266.141
G1 X73.32 Y266.12
G1 X73.332 Y266.116
G1 X73.425 Y266.094
G1 X73.52 Y266.073
G1 X73.618 Y266.054
G1 X73.718 Y266.037
G1 X73.819 Y266.022
G1 X73.923 Y266.009
G1 X74.006 Y266
G1 X74.029 Y265.998
G1 X74.138 Y265.989
G1 X74.249 Y265.982
G1 X74.362 Y265.977
G1 X74.478 Y265.974
G1 X74.596 Y265.973
G1 X74.77 Y265.975
G1 X74.949 Y265.981
G1 X75.079 Y265.989
G1 X75.132 Y265.992
G1 X75.321 Y266.006
G1 X75.515 Y266.025
G1 X75.696 Y266.046
G1 X75.715 Y266.048
G1 X75.919 Y266.075
G1 X76.048 Y266.093
G1 X76.129 Y266.105
G1 X76.344 Y266.141
G1 X76.564 Y266.18
G1 X76.79 Y266.224
G1 X77.022 Y266.272
G1 X77.208 Y266.313
G1 X77.258 Y266.324
G1 X77.501 Y266.381
G1 X77.645 Y266.415
G1 X77.749 Y266.441
G1 X78.003 Y266.505
G1 X78.262 Y266.574
G1 X78.528 Y266.647
G1 X78.799 Y266.725
G1 X79.076 Y266.807
G1 X79.359 Y266.892
G1 X79.648 Y266.983
G1 X79.943 Y267.077
G1 X80.24 Y267.174
G1 X80.244 Y267.175
G1 X80.685 Y267.323
G1 X81.103 Y267.47
G1 X81.136 Y267.482
G1 X81.552 Y267.635
G1 X81.596 Y267.651
G1 X82.064 Y267.831
G1 X82.481 Y267.998
G1 X82.54 Y268.022
G1 X82.962 Y268.202
G1 X83.022 Y268.228
G1 X83.447 Y268.419
G1 X83.51 Y268.447
G1 X83.942 Y268.654
G1 X84.003 Y268.683
G1 X84.44 Y268.904
G1 X84.501 Y268.934
G1 X84.943 Y269.171
G1 X85.003 Y269.203
G1 X85.508 Y269.489
G1 X85.962 Y269.763
G1 X86.015 Y269.794
G1 X86.477 Y270.091
G1 X86.523 Y270.121
G1 X87.033 Y270.467
G1 X87.505 Y270.809
G1 X87.542 Y270.836
G1 X88.019 Y271.203
G1 X88.051 Y271.228
G1 X88.53 Y271.619
G1 X88.559 Y271.643
G1 X89.041 Y272.064
G1 X89.064 Y272.084
G1 X89.547 Y272.533
G1 X89.567 Y272.551
G1 X90.049 Y273.028
G1 X90.066 Y273.045
G1 X90.545 Y273.548
G1 X90.561 Y273.566
G1 X91.036 Y274.099
G1 X91.051 Y274.117
G1 X91.536 Y274.696
G1 X92.013 Y275.307
G1 X92.287 Y275.673
G1 X92.552 Y276.035
G1 X92.809 Y276.395
G1 X92.939 Y276.581
G1 X93.058 Y276.75
G1 X93.225 Y276.994
G1 X93.298 Y277.1
G1 X93.499 Y277.398
G1 X93.53 Y277.445
G1 X93.754 Y277.783
G1 X93.968 Y278.115
G1 X94.174 Y278.439
G1 X94.372 Y278.754
G1 X94.483 Y278.936
G1 X94.56 Y279.061
G1 X94.696 Y279.286
G1 X94.739 Y279.358
G1 X94.898 Y279.625
G1 X94.909 Y279.644
G1 X95.07 Y279.919
G1 X95.221 Y280.183
G1 X95.364 Y280.434
G1 X95.496 Y280.671
G1 X95.577 Y280.818
G1 X95.619 Y280.894
G1 X95.716 Y281.073
G1 X95.733 Y281.104
G1 X95.836 Y281.298
G1 X95.93 Y281.474
G1 X96.014 Y281.635
G1 X96.087 Y281.779
G1 X96.124 Y281.851
G1 X96.151 Y281.904
G1 X96.161 Y281.917
G1 X96.176 Y281.927
G1 X96.406 Y282.027
G1 X96.689 Y282.151
G1 X97.022 Y282.297
G1 X97.402 Y282.466
G1 X97.825 Y282.655
G1 X98.289 Y282.864
G1 X98.789 Y283.09
G1 X99.144 Y283.253
G1 X99.323 Y283.335
G1 X99.887 Y283.597
G1 X100.479 Y283.874
G1 X101.093 Y284.165
G1 X101.569 Y284.394
G1 X101.728 Y284.47
G1 X102.097 Y284.649
G1 X102.381 Y284.787
G1 X103.047 Y285.115
G1 X103.723 Y285.453
G1 X104.29 Y285.741
G1 X104.407 Y285.801
G1 X104.85 Y286.029
G1 X105.095 Y286.155
G1 X105.784 Y286.517
G1 X106.469 Y286.885
G1 X107.149 Y287.257
G1 X107.635 Y287.53
G1 X107.818 Y287.633
G1 X108.177 Y287.84
G1 X108.477 Y288.012
G1 X109.118 Y288.392
G1 X109.741 Y288.773
G1 X109.745 Y288.775
G1 X110.396 Y289.182
G1 X111.01 Y289.573
G1 X111.523 Y289.904
G1 X111.585 Y289.944
G1 X112.12 Y290.296
G1 X112.44 Y290.509
G1 X112.619 Y290.628
G1 X113.082 Y290.943
G1 X113.509 Y291.239
G1 X113.725 Y291.391
G1 X113.903 Y291.517
G1 X114.157 Y291.7
G1 X114.265 Y291.777
G1 X114.595 Y292.019
G1 X114.896 Y292.245
G1 X115.059 Y292.37
G1 X115.168 Y292.454
G1 X115.349 Y292.595
G1 X115.412 Y292.644
G1 X115.605 Y292.8
G1 X115.63 Y292.82
G1 X115.824 Y292.978
G1 X115.993 Y293.122
G1 X116.14 Y293.249
G1 X116.265 Y293.361
G1 X116.371 Y293.458
G1 X116.457 Y293.539
G1 X116.526 Y293.606
G1 X116.578 Y293.66
G1 X116.616 Y293.699
G1 X116.639 Y293.724
G1 X116.66 Y293.749
G1 X116.681 Y293.775
G1 X116.7 Y293.801
G1 X116.718 Y293.828
G1 X116.736 Y293.855
G1 X116.752 Y293.883
G1 X116.768 Y293.912
G1 X116.783 Y293.942
G1 X116.796 Y293.971
G1 X116.808 Y294.001
G1 X116.829 Y294.062
G1 X116.839 Y294.093
G1 X116.846 Y294.124
G1 X116.853 Y294.157
G1 X116.859 Y294.188
G1 X116.863 Y294.22
G1 X116.866 Y294.252
G1 X116.868 Y294.286
G1 X116.87 Y294.318
G1 X116.869 Y294.35
G1 X116.868 Y294.383
G1 X116.865 Y294.416
G1 X116.861 Y294.449
G1 X116.857 Y294.482
G1 X116.851 Y294.514
G1 X116.844 Y294.546
G1 X116.835 Y294.577
G1 X116.825 Y294.609
G1 X116.815 Y294.64
G1 X116.803 Y294.67
G1 X116.79 Y294.699
G1 X116.776 Y294.729
G1 X116.762 Y294.757
G1 X116.746 Y294.786
G1 X116.729 Y294.814
G1 X116.712 Y294.841
G1 X116.693 Y294.867
G1 X116.673 Y294.893
G1 X116.653 Y294.918
G1 X116.631 Y294.942
G1 X116.608 Y294.966
G1 X116.586 Y294.989
G1 X116.561 Y295.011
G1 X116.536 Y295.033
G1 X116.511 Y295.052
G1 X116.484 Y295.072
G1 X116.457 Y295.09
G1 X116.456 Y295.091
G1 X116.428 Y295.11
G1 X116.354 Y295.161
G1 X116.353
G1 X116.237 Y295.242
G1 Y295.243
G1 X116.08 Y295.357
G1 X116.079
G1 X115.883 Y295.503
G1 X115.649 Y295.681
G1 X115.648 Y295.682
G1 X115.378 Y295.893
G1 X115.075 Y296.137
G1 X115.074
G1 X114.739 Y296.414
G1 Y296.415
G1 X114.374 Y296.726
G1 X114.373
G1 X113.98 Y297.071
G1 X113.979 Y297.072
G1 X113.559 Y297.452
G1 X113.115 Y297.866
G1 X113.114 Y297.867
G1 X112.647 Y298.315
G1 X112.159 Y298.799
G1 X112.158 Y298.8
G1 X111.652 Y299.32
G1 Y299.321
G1 X111.128 Y299.876
G1 X111.127
G1 X110.588 Y300.467
G1 X110.587 Y300.468
G1 X110.034 Y301.096
G1 Y301.097
G1 X109.469 Y301.762
G1 X109.468
G1 X108.894 Y302.463
G1 Y302.464
G1 X108.312 Y303.203
G1 X108.311 Y303.204
G1 X107.723 Y303.981
G1 Y303.982
G1 X107.13 Y304.796
G1 X107.129
G1 X106.871 Y305.158
G1 X106.61 Y305.523
G1 X106.346 Y305.891
G1 X106.079 Y306.262
G1 X105.967 Y306.418
G1 X105.81 Y306.636
G1 X105.538 Y307.012
G1 X105.264 Y307.391
G1 X104.986 Y307.77
G1 Y307.771
G1 X104.75 Y308.094
G1 X104.707 Y308.154
G1 X104.425 Y308.538
G1 X104.14 Y308.924
G1 X104.121 Y308.95
G1 X103.854 Y309.312
G1 X103.565 Y309.701
G1 X103.274 Y310.091
G1 X102.981 Y310.482
G1 X102.833 Y310.679
G1 X102.686 Y310.874
G1 X102.389 Y311.266
G1 X102.173 Y311.549
G1 X102.09 Y311.659
G1 X101.789 Y312.052
G1 X101.506 Y312.42
G1 X101.487 Y312.444
G1 X100.878 Y313.23
G1 X100.57 Y313.623
G1 X100.262 Y314.014
G1 X100.255 Y314.025
G1 X100.252 Y314.036
G1 X100.226 Y314.185
G1 X100.193 Y314.36
G1 X100.148 Y314.563
G1 X100.093 Y314.795
G1 X100.026 Y315.056
G1 X99.943 Y315.348
G1 X99.845 Y315.672
G1 X99.731 Y316.028
G1 X99.598 Y316.417
G1 X99.446 Y316.842
G1 X99.273 Y317.3
G1 X99.078 Y317.795
G1 X98.859 Y318.327
G1 X98.616 Y318.896
G1 X98.482 Y319.2
G1 X98.347 Y319.504
G1 X98.129 Y319.979
G1 X98.05 Y320.152
G1 X97.868 Y320.538
G1 X97.725 Y320.84
G1 X97.442 Y321.421
G1 X97.369 Y321.57
G1 X97.127 Y322.051
G1 X96.982 Y322.341
G1 X96.562 Y323.156
G1 X96.25 Y323.746
G1 X96.108 Y324.014
G1 X95.856 Y324.48
G1 X95.619 Y324.918
G1 X95.223 Y325.632
G1 X95.093 Y325.867
G1 X94.767 Y326.443
G1 X94.529 Y326.863
G1 X94.519 Y326.88
G1 X94.175 Y327.466
G1 X93.814 Y328.051
G1 X93.448 Y328.619
G1 X93.076 Y329.17
G1 X92.7 Y329.703
G1 X92.319 Y330.219
G1 X91.935 Y330.718
G1 X91.731 Y330.971
G1 X91.547 Y331.2
G1 X91.314 Y331.48
G1 X91.157 Y331.667
G1 X90.895 Y331.968
G1 X90.766 Y332.118
G1 X90.472 Y332.443
G1 X90.373 Y332.552
G1 X90.048 Y332.898
G1 X89.979 Y332.97
G1 X89.586 Y333.374
G1 X89.192 Y333.762
G1 X88.763 Y334.164
G1 X88.409 Y334.494
G1 X87.925 Y334.916
G1 X87.635 Y335.169
G1 X87.098 Y335.605
G1 X86.875 Y335.787
G1 X86.132 Y336.351
G1 X85.412 Y336.863
G1 X84.72 Y337.324
G1 X84.059 Y337.736
G1 X83.436 Y338.103
G1 X82.854 Y338.424
G1 X82.317 Y338.701
G1 X81.832 Y338.939
G1 X81.401 Y339.136
G1 X81.031 Y339.296
G1 X80.725 Y339.421
G1 X80.489 Y339.511
G1 X80.326 Y339.57
G1 X80.242 Y339.598
G1 X80.192 Y339.614
G1 X80.141 Y339.625
G1 X80.089 Y339.635
G1 X80.038 Y339.64
G1 X79.987 Y339.644
G1 X79.937
G1 X79.887 Y339.641
G1 X79.836 Y339.635
G1 X79.787 Y339.628
G1 X79.738 Y339.617
G1 X79.689 Y339.603
G1 X79.642 Y339.587
G1 X79.596 Y339.568
G1 X79.55 Y339.546
G1 X79.506 Y339.523
G1 X79.463 Y339.496
G1 X79.422 Y339.468
G1 X79.382 Y339.436
G1 X79.344 Y339.403
G1 X79.307 Y339.367
G1 X79.272 Y339.329
G1 X79.24 Y339.29
G1 X79.209 Y339.247
G1 X79.181 Y339.202
G1 X79.155 Y339.157
G1 X79.132 Y339.109
G1 X79.112 Y339.062
G1 X79.095 Y339.014
G1 X79.081 Y338.964
G1 X79.069 Y338.915
G1 X79.061 Y338.865
G1 X79.055 Y338.815
G1 X79.052 Y338.764
G1 Y338.714
G1 X79.054 Y338.665
G1 X79.059 Y338.615
G1 X79.068 Y338.565
G1 X79.078 Y338.516
G1 X79.092 Y338.468
G1 X79.108 Y338.42
G1 X79.127 Y338.374
G1 X79.148 Y338.327
G1 X79.172 Y338.283
G1 X79.199 Y338.239
G1 X79.228 Y338.198
G1 X79.26 Y338.157
G1 X79.295 Y338.117
G1 X79.333 Y338.079
G1 X79.35 Y338.061
G1 X79.395 Y338.018
G1 Y338.017
G1 X79.465 Y337.947
G1 X79.466
G1 X79.559 Y337.853
G1 X79.56
G1 X79.674 Y337.735
G1 X79.675 Y337.734
G1 X79.809 Y337.593
G1 X79.961 Y337.432
G1 X79.962
G1 X80.129 Y337.25
G1 X80.31 Y337.05
G1 Y337.049
G1 X80.503 Y336.831
G1 X80.706 Y336.596
G1 Y336.595
G1 X80.916 Y336.345
G1 X80.917
G1 X81.132 Y336.081
G1 X81.133 Y336.08
G1 X81.353 Y335.803
G1 Y335.802
G1 X81.575 Y335.513
G1 X81.797 Y335.213
G1 Y335.212
G1 X82.017 Y334.903
G1 X82.018 Y334.902
G1 X82.234 Y334.584
G1 Y334.583
G1 X82.444 Y334.258
G1 X82.445 Y334.257
G1 X82.647 Y333.926
G1 X82.648 Y333.925
G1 X82.84 Y333.589
G1 X82.841 Y333.587
G1 X83.022 Y333.247
G1 X83.023 Y333.246
G1 X83.19 Y332.903
G1 X83.191 Y332.901
G1 X83.343 Y332.557
G1 Y332.556
G1 X83.404 Y332.408
G1 X83.462 Y332.262
G1 Y332.261
G1 X83.518 Y332.116
G1 Y332.115
G1 X83.572 Y331.971
G1 X83.624 Y331.829
G1 Y331.828
G1 X83.673 Y331.688
G1 Y331.687
G1 X83.72 Y331.547
G1 X83.721
G1 X83.766 Y331.409
G1 Y331.408
G1 X83.809 Y331.272
G1 X83.85 Y331.137
G1 Y331.136
G1 X83.889 Y331.004
G1 X83.89
G1 X83.927 Y330.872
G1 Y330.871
G1 X83.962 Y330.742
G1 X83.963
G1 X83.996 Y330.615
G1 Y330.614
G1 X84.028 Y330.488
G1 X84.059 Y330.365
G1 Y330.364
G1 X84.087 Y330.242
G1 X84.114 Y330.123
G1 X84.14 Y330.006
G1 Y330.005
G1 X84.164 Y329.889
G1 X84.186 Y329.777
G1 Y329.776
G1 X84.208 Y329.665
G1 X84.227 Y329.557
G1 X84.246 Y329.451
G1 X84.245 Y329.432
G1 X84.238 Y329.414
G1 X84.224 Y329.401
G1 X84.207 Y329.393
G1 X84.188
G1 X84.17 Y329.399
G1 X84.032 Y329.484
G1 X83.948 Y329.536
G1 X83.751 Y329.657
G1 X83.726 Y329.672
G1 X83.504 Y329.807
G1 X83.283 Y329.94
G1 X83.062 Y330.072
G1 X82.89 Y330.173
G1 X82.841 Y330.202
G1 X82.62 Y330.332
G1 X82.4 Y330.46
G1 X82.18 Y330.587
G1 X82.037 Y330.668
G1 X81.96 Y330.713
G1 X81.74 Y330.839
G1 X81.521 Y330.962
G1 X81.471 Y330.991
G1 X81.302 Y331.086
G1 X81.083 Y331.208
G1 X80.901 Y331.31
G1 X80.865 Y331.33
G1 X80.646 Y331.452
G1 X80.428 Y331.572
G1 X80.211 Y331.693
G1 X79.993 Y331.812
G1 X79.776 Y331.932
G1 X79.559 Y332.051
G1 X79.342 Y332.169
G1 X79.193 Y332.251
G1 X79.126 Y332.287
G1 X78.91 Y332.405
G1 X78.909
G1 X78.77 Y332.482
G1 X78.766 Y332.484
G1 X78.622 Y332.563
G1 X78.478 Y332.641
G1 X78.333 Y332.72
G1 X78.188 Y332.8
G1 X78.043 Y332.879
G1 X77.898 Y332.959
G1 X77.752 Y333.039
G1 X77.606 Y333.12
G1 X77.46 Y333.2
G1 X77.313 Y333.281
G1 X77.167 Y333.362
G1 X77.02 Y333.444
G1 X76.874 Y333.525
G1 X76.873
G1 X76.727 Y333.607
G1 X76.58 Y333.689
G1 X76.139 Y333.938
G1 X76.133 Y333.942
G1 X75.993 Y334.021
G1 X75.992 Y334.022
G1 X75.846 Y334.106
G1 X75.699 Y334.19
G1 X75.696 Y334.191
G1 X75.553 Y334.274
G1 X75.552
G1 X75.406 Y334.359
G1 X75.041 Y334.569
G1 X74.763 Y334.73
G1 X74.288 Y335.001
G1 X74.095 Y335.111
G1 X73.508 Y335.443
G1 X73.408 Y335.499
G1 X72.706 Y335.894
G1 X72.301 Y336.12
G1 X71.993 Y336.292
G1 X71.485 Y336.574
G1 X71.274 Y336.691
G1 X70.554 Y337.089
G1 X69.85 Y337.477
G1 X69.836 Y337.484
G1 X69.127 Y337.873
G1 X68.642 Y338.137
G1 X68.429 Y338.253
G1 X67.748 Y338.623
G1 X67.088 Y338.981
G1 X66.745 Y339.166
G1 X66.455 Y339.323
G1 X65.851 Y339.649
G1 X65.283 Y339.954
G1 X64.754 Y340.238
G1 X64.269 Y340.497
G1 X63.833 Y340.73
G1 X63.449 Y340.935
G1 X63.124 Y341.108
G1 X62.861 Y341.248
G1 X62.664 Y341.352
G1 X62.539 Y341.418
G1 X62.491 Y341.443
G1 X62.442 Y341.468
G1 X62.394 Y341.488
G1 X62.345 Y341.505
G1 X62.294 Y341.52
G1 X62.244 Y341.532
G1 X62.194 Y341.54
G1 X62.143 Y341.546
G1 X62.092 Y341.549
G1 X62.041
G1 X61.991 Y341.546
G1 X61.941 Y341.54
G1 X61.89 Y341.532
G1 X61.841 Y341.521
G1 X61.793 Y341.507
G1 X61.745 Y341.49
G1 X61.697 Y341.471
G1 X61.652 Y341.449
G1 X61.607 Y341.425
G1 X61.563 Y341.397
G1 X61.521 Y341.368
G1 X61.481 Y341.336
G1 X61.442 Y341.301
G1 X61.404 Y341.263
G1 X61.369 Y341.223
G1 X61.336 Y341.181
G1 X61.306 Y341.138
G1 X61.279 Y341.093
G1 X61.254 Y341.047
G1 X61.232 Y341.001
G1 X61.213 Y340.954
G1 X61.197 Y340.905
G1 X61.184 Y340.856
G1 X61.173 Y340.806
G1 X61.165 Y340.756
G1 X61.16 Y340.705
G1 X61.158 Y340.655
G1 X61.159 Y340.605
G1 X61.162 Y340.554
G1 X61.169 Y340.504
G1 X61.178 Y340.454
G1 X61.19 Y340.404
G1 X61.204 Y340.356
G1 X61.222 Y340.307
G1 X61.242 Y340.26
G1 X61.265 Y340.214
G1 X61.292 Y340.168
G1 X61.32 Y340.124
G1 X61.352 Y340.08
G1 X61.391 Y340.031
G1 Y340.03
G1 X61.486 Y339.905
G1 X61.634 Y339.708
G1 X61.83 Y339.442
G1 X61.831 Y339.441
G1 X62.071 Y339.109
G1 X62.35 Y338.715
G1 X62.665 Y338.262
G1 Y338.261
G1 X63.01 Y337.753
G1 X63.011
G1 X63.382 Y337.192
G1 X63.383 Y337.191
G1 X63.776 Y336.581
G1 X63.777
G1 X64.188 Y335.925
G1 X64.189 Y335.924
G1 X64.614 Y335.226
G1 Y335.225
G1 X65.048 Y334.487
G1 X65.049
G1 X65.488 Y333.713
G1 Y333.712
G1 X65.928 Y332.906
G1 Y332.905
G1 X66.364 Y332.069
G1 Y332.068
G1 X66.791 Y331.206
G1 X66.792 Y331.205
G1 X67.207 Y330.32
G1 Y330.319
G1 X67.605 Y329.415
G1 X67.606 Y329.414
G1 X67.982 Y328.493
G1 X67.983 Y328.492
G1 X68.334 Y327.559
G1 Y327.557
G1 X68.655 Y326.613
G1 X68.656 Y326.611
G1 X68.943 Y325.662
G1 Y325.661
G1 X69.192 Y324.708
G1 X69.193 Y324.692
G1 X69.19 Y324.676
G1 X69.181 Y324.662
G1 X69.169 Y324.652
G1 X69.154 Y324.646
; MOVEMENT_RAPID
G0 Z5 F300
G0 X86.214 Y328.083 F2500
; MOVEMENT_LEAD_IN
G1 Z0 F480
; MOVEMENT_CUTTING
G1 X86.213 Y328.091 F2100
G1 X86.208 Y328.21
G1 X86.2 Y328.34
G1 X86.191 Y328.48
G1 X86.179 Y328.63
G1 X86.164 Y328.789
G1 X86.146 Y328.958
G1 X86.125 Y329.136
G1 X86.101 Y329.323
G1 X86.072 Y329.517
G1 X86.04 Y329.721
G1 X86.015 Y329.867
G1 X86.003 Y329.932
G1 X85.962 Y330.15
G1 X85.916 Y330.377
G1 X85.886 Y330.512
G1 X85.865 Y330.609
G1 X85.825 Y330.78
G1 X85.809 Y330.848
G1 X85.747 Y331.094
G1 X85.679 Y331.346
G1 X85.634 Y331.502
G1 X85.605 Y331.604
G1 X85.545 Y331.801
G1 X85.525 Y331.867
G1 X85.438 Y332.135
G1 X85.39 Y332.276
G1 X85.345 Y332.408
G1 X85.278 Y332.591
G1 X85.244 Y332.686
G1 X85.136 Y332.968
G1 X85.02 Y333.254
G1 X84.975 Y333.359
G1 X84.929 Y333.465
G1 X84.882 Y333.57
G1 X84.841 Y333.66
G1 X84.833 Y333.676
G1 X84.783 Y333.781
G1 X84.733 Y333.886
G1 X84.681 Y333.991
G1 X84.639 Y334.072
G1 X84.628 Y334.094
G1 X84.574 Y334.198
G1 X84.519 Y334.301
G1 X84.463 Y334.405
G1 X84.431 Y334.465
G1 X84.407 Y334.508
G1 X84.349 Y334.609
G1 X84.291 Y334.711
G1 X84.232 Y334.813
G1 X84.172 Y334.913
G1 X84.112 Y335.014
G1 X84.051 Y335.114
G1 X83.989 Y335.212
G1 X83.927 Y335.311
G1 X83.865 Y335.409
G1 X83.801 Y335.506
G1 X83.751 Y335.581
G1 X83.738 Y335.602
G1 X83.673 Y335.699
G1 X83.666 Y335.717
G1 Y335.737
G1 X83.674 Y335.755
G1 X83.687 Y335.769
G1 X83.705 Y335.776
G1 X83.725
G1 X83.743 Y335.769
G1 X84.09 Y335.54
G1 Y335.539
G1 X84.446 Y335.296
G1 X84.447
G1 X84.81 Y335.039
G1 X84.811 Y335.038
G1 X85.181 Y334.768
G1 X85.182
G1 X85.558 Y334.483
G1 X85.559 Y334.482
G1 X85.941 Y334.182
G1 X85.942
G1 X86.328 Y333.867
G1 X86.329 Y333.866
G1 X86.72 Y333.536
G1 X86.721
G1 X87.115 Y333.19
G1 X87.116 Y333.189
G1 X87.513 Y332.828
G1 X87.514 Y332.827
G1 X87.913 Y332.449
G1 X88.314 Y332.056
G1 Y332.055
G1 X88.715 Y331.645
G1 X88.716 Y331.644
G1 X89.116 Y331.217
G1 X89.117 Y331.216
G1 X89.516 Y330.772
G1 X89.517
G1 X89.915 Y330.311
G1 Y330.31
G1 X90.311 Y329.831
G1 Y329.83
G1 X90.703 Y329.333
G1 X90.704 Y329.332
G1 X91.092 Y328.818
G1 X91.093 Y328.817
G1 X91.477 Y328.284
G1 Y328.283
G1 X91.856 Y327.732
G1 Y327.731
G1 X92.228 Y327.16
G1 X92.229 Y327.159
G1 X92.595 Y326.57
G1 Y326.569
G1 X92.953 Y325.961
G1 X92.954
G1 X93.188 Y325.55
G1 X93.415 Y325.147
G1 Y325.146
G1 X93.636 Y324.752
G1 X93.85 Y324.365
G1 X94.058 Y323.987
G1 X94.26 Y323.616
G1 X94.455 Y323.253
G1 X94.645 Y322.898
G1 Y322.897
G1 X94.828 Y322.55
G1 X95.005 Y322.21
G1 X95.177 Y321.878
G1 X95.343 Y321.554
G1 X95.503 Y321.237
G1 Y321.236
G1 X95.657 Y320.926
G1 X95.658
G1 X95.807 Y320.624
G1 X95.951 Y320.329
G1 X96.089 Y320.042
G1 Y320.041
G1 X96.223 Y319.76
G1 X96.351 Y319.487
G1 X96.475 Y319.221
G1 X96.593 Y318.962
G1 X96.707 Y318.71
G1 Y318.709
G1 X96.816 Y318.463
G1 X96.921 Y318.225
G1 X96.925 Y318.208
G1 X96.923 Y318.19
G1 X96.915 Y318.175
G1 X96.902 Y318.163
G1 X96.886 Y318.156
G1 X96.868
G1 X96.851 Y318.161
G1 X96.837 Y318.172
G1 X96.621 Y318.422
G1 X96.588 Y318.46
G1 X96.338 Y318.747
G1 X96.088 Y319.032
G1 X95.903 Y319.24
G1 X95.837 Y319.315
G1 X95.587 Y319.596
G1 X95.335 Y319.874
G1 X95.18 Y320.045
G1 X95.084 Y320.151
G1 X94.832 Y320.425
G1 X94.581 Y320.698
G1 X94.454 Y320.834
G1 X94.329 Y320.968
G1 X94.077 Y321.236
G1 X93.824 Y321.5
G1 X93.572 Y321.762
G1 X93.32 Y322.022
G1 X93.067 Y322.279
G1 X92.815 Y322.534
G1 X92.563 Y322.784
G1 X92.311 Y323.032
G1 X92.058 Y323.278
G1 X91.806 Y323.52
G1 X91.555 Y323.759
G1 X91.303 Y323.993
G1 X91.052 Y324.226
G1 X90.803 Y324.452
G1 X90.8 Y324.454
G1 X90.608 Y324.627
G1 X90.416 Y324.797
G1 X90.224 Y324.965
G1 X90.033 Y325.131
G1 X89.841 Y325.295
G1 X89.65 Y325.457
G1 X89.554 Y325.537
G1 X89.459 Y325.617
G1 X89.348 Y325.708
G1 X89.267 Y325.774
G1 X89.142 Y325.877
G1 X89.077 Y325.93
G1 X88.936 Y326.043
G1 X88.886 Y326.084
G1 X88.731 Y326.207
G1 X88.696 Y326.236
G1 X88.526 Y326.369
G1 X88.505 Y326.386
G1 X88.32 Y326.529
G1 X88.315 Y326.533
G1 X88.125 Y326.68
G1 X87.935 Y326.825
G1 X87.746 Y326.968
G1 X87.556 Y327.109
G1 X87.367 Y327.248
G1 X87.178 Y327.386
G1 X86.989 Y327.522
G1 X86.892 Y327.592
G1 X86.8 Y327.657
G1 X86.687 Y327.737
G1 X86.612 Y327.79
G1 X86.487 Y327.877
G1 X86.423 Y327.922
G1 X86.283 Y328.019
G1 X86.235 Y328.052
G1 X86.221 Y328.065
G1 X86.214 Y328.083
; MOVEMENT_RAPID
G0 Z5 F300
G0 X91.855 Y310.31 F2500
; MOVEMENT_LEAD_IN
G1 Z0 F480
; MOVEMENT_CUTTING
G1 X91.687 Y310.256 F2100
G1 X91.559 Y310.216
G1 X91.009 Y310.016
G1 X90.853 Y309.959
G1 X90.31 Y309.734
G1 X90.131 Y309.659
G1 X89.767 Y309.492
G1 X89.572 Y309.395
G1 X89.402 Y309.311
G1 X89.215 Y309.212
G1 X89.038 Y309.119
G1 X88.855 Y309.015
G1 X88.676 Y308.914
G1 X88.495 Y308.803
G1 X88.316 Y308.695
G1 X87.96 Y308.463
G1 X87.78 Y308.335
G1 X87.609 Y308.215
G1 X87.434 Y308.082
G1 X87.264 Y307.954
G1 X87.083 Y307.805
G1 X86.926 Y307.676
G1 X86.747 Y307.518
G1 X86.596 Y307.384
G1 X86.413 Y307.208
G1 X86.275 Y307.076
G1 X86.088 Y306.879
G1 X85.965 Y306.75
G1 X85.777 Y306.536
G1 X85.666 Y306.409
G1 X85.475 Y306.17
G1 X85.38 Y306.05
G1 X85.189 Y305.788
G1 X85.107 Y305.674
G1 X84.916 Y305.382
G1 X84.849 Y305.279
G1 X84.661 Y304.959
G1 X84.606 Y304.866
G1 X84.423 Y304.515
G1 X84.381 Y304.433
G1 X84.205 Y304.052
G1 X84.173 Y303.981
G1 X84.009 Y303.571
G1 X83.984 Y303.51
G1 X83.833 Y303.071
G1 X83.815 Y303.018
G1 X83.681 Y302.552
G1 X83.668 Y302.505
G1 X83.553 Y302.015
G1 X83.543 Y301.972
G1 X83.449 Y301.46
G1 X83.441 Y301.416
G1 X83.374 Y300.938
G1 X83.367 Y300.883
G1 X83.322 Y300.435
G1 X83.315 Y300.363
G1 X83.289 Y299.94
G1 X83.284 Y299.856
G1 X83.276 Y299.456
G1 X83.274 Y299.363
G1 X83.282 Y298.982
G1 X83.284 Y298.883
G1 X83.306 Y298.519
G1 X83.312 Y298.416
G1 X83.348 Y298.067
G1 X83.358 Y297.963
G1 X83.407 Y297.626
G1 X83.422 Y297.522
G1 X83.482 Y297.195
G1 X83.501 Y297.095
G1 X83.573 Y296.778
G1 X83.595 Y296.68
G1 X83.679 Y296.372
G1 X83.704 Y296.278
G1 X83.798 Y295.978
G1 X83.826 Y295.889
G1 X83.93 Y295.598
G1 X83.961 Y295.512
G1 X84.074 Y295.23
G1 X84.107 Y295.146
G1 X84.229 Y294.874
G1 X84.265 Y294.794
G1 X84.393 Y294.532
G1 X84.431 Y294.454
G1 X84.567 Y294.201
G1 X84.608 Y294.125
G1 X84.748 Y293.884
G1 X84.792 Y293.809
G1 X84.983 Y293.504
G1 X85.128 Y293.289
G1 X85.181 Y293.211
G1 X85.384 Y292.93
G1 X85.53 Y292.739
G1 X85.591 Y292.66
G1 X85.928 Y292.26
G1 X86.017 Y292.154
G1 X86.346 Y291.803
G1 X86.45 Y291.693
G1 X86.763 Y291.391
G1 X86.883 Y291.276
G1 X87.176 Y291.02
G1 X87.31 Y290.902
G1 X87.573 Y290.691
G1 X87.723 Y290.571
G1 X87.954 Y290.4
G1 X88.115 Y290.281
G1 X88.31 Y290.147
G1 X88.48 Y290.032
G1 X88.809 Y289.823
G1 X89.096 Y289.653
G1 X89.333 Y289.521
G1 X89.514 Y289.428
G1 X89.631 Y289.37
G1 X89.678 Y289.348
G1 X89.692 Y289.342
G1 X89.706 Y289.337
G1 X89.722 Y289.331
G1 X89.736 Y289.325
G1 X89.751 Y289.321
G1 X89.767 Y289.316
G1 X89.783 Y289.311
G1 X89.797 Y289.306
G1 X89.811 Y289.302
G1 X89.827 Y289.298
G1 X89.842 Y289.295
G1 X89.872 Y289.289
G1 X89.889 Y289.286
G1 X89.903 Y289.283
G1 X89.918 Y289.282
G1 X89.934 Y289.28
G1 X89.948 Y289.278
G1 X89.963 Y289.277
G1 X89.966
G1 X89.98 Y289.275
G1 X89.993 Y289.274
G1 X90.008
G1 X90.011
G1 X90.025 Y289.273
G1 X90.039
G1 X90.083 Y289.274
G1 X90.127 Y289.278
G1 X90.17 Y289.283
G1 X90.212 Y289.29
G1 X90.255 Y289.3
G1 X90.297 Y289.311
G1 X90.338 Y289.323
G1 X90.378 Y289.338
G1 X90.418 Y289.355
G1 X90.457 Y289.374
G1 X90.495 Y289.395
G1 X90.531 Y289.418
G1 X90.568 Y289.443
G1 X90.603 Y289.469
G1 X90.636 Y289.496
G1 X90.668 Y289.525
G1 X90.699 Y289.556
G1 X90.729 Y289.59
G1 X90.757 Y289.624
G1 X90.783 Y289.66
G1 X90.808 Y289.698
G1 X90.832 Y289.737
G1 X90.853 Y289.776
G1 X90.872 Y289.819
G1 X90.895 Y289.877
G1 X90.914 Y289.935
G1 X90.929 Y289.993
G1 X90.939 Y290.052
G1 X90.946 Y290.112
G1 X90.948 Y290.171
G1 X90.947 Y290.229
G1 X90.942 Y290.287
G1 X90.933 Y290.345
G1 X90.921 Y290.402
G1 X90.905 Y290.458
G1 X90.886 Y290.512
G1 X90.863 Y290.566
G1 X90.837 Y290.617
G1 X90.807 Y290.667
G1 X90.774 Y290.716
G1 X90.739 Y290.762
G1 X90.7 Y290.806
G1 X90.658 Y290.847
G1 X90.613 Y290.886
G1 X90.565 Y290.922
G1 X90.514 Y290.955
G1 X90.461 Y290.986
G1 X90.404 Y291.013
G1 X90.342 Y291.042
G1 X90.341
G1 X90.225 Y291.099
G1 X90.224 Y291.1
G1 X90.059 Y291.185
G1 X90.058
G1 X89.85 Y291.301
G1 X89.848 Y291.302
G1 X89.603 Y291.448
G1 X89.601 Y291.449
G1 X89.324 Y291.627
G1 X89.322 Y291.628
G1 X89.018 Y291.838
G1 X89.017 Y291.839
G1 X88.692 Y292.082
G1 X88.69 Y292.083
G1 X88.351 Y292.359
G1 X88.349 Y292.361
G1 X88 Y292.673
G1 X87.998 Y292.674
G1 X87.645 Y293.02
G1 X87.643 Y293.022
G1 X87.292 Y293.404
G1 X87.29 Y293.406
G1 X86.945 Y293.826
G1 X86.944 Y293.829
G1 X86.612 Y294.286
G1 X86.611 Y294.288
G1 X86.298 Y294.783
G1 X86.296 Y294.785
G1 X86.149 Y295.047
G1 X86.148 Y295.049
G1 X86.007 Y295.322
G1 X86.006 Y295.324
G1 X85.873 Y295.606
G1 X85.872 Y295.607
G1 X85.746 Y295.899
G1 Y295.901
G1 X85.629 Y296.204
G1 Y296.206
G1 X85.522 Y296.518
G1 X85.521 Y296.52
G1 X85.424 Y296.843
G1 Y296.845
G1 X85.338 Y297.179
G1 X85.337 Y297.18
G1 X85.263 Y297.524
G1 Y297.526
G1 X85.201 Y297.881
G1 Y297.883
G1 X85.152 Y298.249
G1 X85.151 Y298.251
G1 X85.116 Y298.627
G1 Y298.629
G1 X85.096 Y299.017
G1 Y299.019
G1 X85.09 Y299.417
G1 Y299.419
G1 X85.1 Y299.829
G1 Y299.831
G1 X85.127 Y300.252
G1 Y300.254
G1 X85.171 Y300.686
G1 X85.172 Y300.688
G1 X85.234 Y301.131
G1 Y301.133
G1 X85.32 Y301.598
G1 Y301.6
G1 X85.426 Y302.048
G1 Y302.05
G1 X85.552 Y302.479
G1 Y302.481
G1 X85.696 Y302.893
G1 X85.697 Y302.896
G1 X85.858 Y303.29
G1 X85.859 Y303.292
G1 X86.036 Y303.671
G1 X86.037 Y303.674
G1 X86.23 Y304.036
G1 X86.232 Y304.038
G1 X86.439 Y304.384
G1 X86.44 Y304.386
G1 X86.662 Y304.717
G1 X86.663 Y304.719
G1 X86.897 Y305.034
G1 X86.898 Y305.036
G1 X87.144 Y305.337
G1 X87.146 Y305.338
G1 X87.402 Y305.624
G1 X87.404 Y305.626
G1 X87.67 Y305.899
G1 X87.672 Y305.9
G1 X87.947 Y306.158
G1 X87.948 Y306.16
G1 X88.232 Y306.405
G1 X88.233 Y306.406
G1 X88.523 Y306.638
G1 X88.525 Y306.639
G1 X88.821 Y306.859
G1 X88.823 Y306.86
G1 X89.125 Y307.067
G1 X89.126 Y307.068
G1 X89.432 Y307.263
G1 X89.433 Y307.264
G1 X89.742 Y307.447
G1 X89.744 Y307.448
G1 X90.055 Y307.62
G1 X90.056
G1 X90.369 Y307.782
G1 X90.371 Y307.783
G1 X90.997 Y308.074
G1 X91 Y308.075
G1 X91.62 Y308.327
G1 X91.622 Y308.328
G1 X92.229 Y308.543
G1 X92.231 Y308.544
G1 X92.817 Y308.725
G1 X92.819
G1 X93.377 Y308.875
G1 X93.378 Y308.876
G1 X93.9 Y308.998
G1 X93.902
G1 X94.38 Y309.095
G1 X94.381
G1 X94.809 Y309.169
G1 X94.81
G1 X95.178 Y309.224
G1 X95.18 Y309.225
G1 X95.482 Y309.262
G1 X95.483
G1 X95.712 Y309.286
G1 X95.713
G1 X95.86 Y309.298
G1 X95.861
G1 X95.92 Y309.302
G1 X95.983 Y309.307
G1 X96.044 Y309.316
G1 X96.103 Y309.329
G1 X96.16 Y309.345
G1 X96.216 Y309.366
G1 X96.27 Y309.39
G1 X96.322 Y309.418
G1 X96.372 Y309.448
G1 X96.42 Y309.481
G1 X96.465 Y309.517
G1 X96.508 Y309.557
G1 X96.549 Y309.599
G1 X96.586 Y309.643
G1 X96.621 Y309.69
G1 X96.653 Y309.738
G1 X96.682 Y309.789
G1 X96.707 Y309.841
G1 X96.729 Y309.896
G1 X96.748 Y309.952
G1 X96.762 Y310.01
G1 X96.774 Y310.069
G1 X96.781 Y310.129
G1 X96.784 Y310.19
G1 X96.783 Y310.253
G1 X96.778 Y310.314
G1 X96.769 Y310.375
G1 X96.756 Y310.435
G1 X96.74 Y310.493
G1 X96.72 Y310.549
G1 X96.697 Y310.603
G1 X96.67 Y310.655
G1 X96.64 Y310.704
G1 X96.607 Y310.752
G1 X96.572 Y310.798
G1 X96.533 Y310.84
G1 X96.492 Y310.881
G1 X96.448 Y310.919
G1 X96.402 Y310.953
G1 X96.353 Y310.985
G1 X96.302 Y311.014
G1 X96.25 Y311.039
G1 X96.195 Y311.061
G1 X96.139 Y311.08
G1 X96.08 Y311.094
G1 X96.02 Y311.106
G1 X95.959 Y311.113
G1 X95.896 Y311.116
G1 X95.832 Y311.115
G1 X95.765 Y311.11
G1 X95.594 Y311.096
G1 X95.329 Y311.068
G1 X94.977 Y311.023
G1 X94.549 Y310.96
G1 X94.052 Y310.871
G1 X93.537 Y310.765
G1 X93.496 Y310.756
G1 X92.958 Y310.627
G1 X92.889 Y310.611
G1 X92.341 Y310.46
G1 X92.241 Y310.432
G1 X91.857 Y310.31
G1 X91.855
; MOVEMENT_RAPID
G0 Z5 F300
G0 X98.895 Y300.315 F2500
; MOVEMENT_LEAD_IN
G1 Z0 F480
; MOVEMENT_CUTTING
G1 X98.728 Y300.193 F2100
G1 X98.616 Y300.101
G1 X98.569 Y300.062
G1 X98.418 Y299.921
G1 X98.318 Y299.813
G1 X98.277 Y299.77
G1 X98.146 Y299.611
G1 X98.024 Y299.444
G1 X97.914 Y299.269
G1 X97.843 Y299.139
G1 X97.814 Y299.086
G1 X97.727 Y298.896
G1 X97.674 Y298.759
G1 X97.651 Y298.701
G1 X97.588 Y298.499
G1 X97.553 Y298.352
G1 X97.539 Y298.292
G1 X97.503 Y298.079
G1 X97.481 Y297.864
G1 X97.473 Y297.643
G1 X97.478 Y297.487
G1 X97.481 Y297.422
G1 X97.496 Y297.269
G1 X97.503 Y297.206
G1 X97.539 Y296.994
G1 X97.588 Y296.786
G1 X97.634 Y296.64
G1 X97.651 Y296.585
G1 X97.706 Y296.444
G1 X97.727 Y296.389
G1 X97.814 Y296.199
G1 X97.888 Y296.065
G1 X97.914 Y296.017
G1 X98.024 Y295.842
G1 X98.113 Y295.72
G1 X98.146 Y295.675
G1 X98.277 Y295.515
G1 X98.377 Y295.408
G1 X98.418 Y295.364
G1 X98.569 Y295.224
G1 X98.728 Y295.092
G1 X98.846 Y295.007
G1 X98.895 Y294.97
G1 X99.019 Y294.892
G1 X99.071 Y294.86
G1 X99.198 Y294.791
G1 X99.253 Y294.761
G1 X99.386 Y294.699
G1 X99.443 Y294.673
G1 X99.639 Y294.597
G1 X99.84 Y294.534
G1 X99.991 Y294.498
G1 X100.047 Y294.485
G1 X100.26 Y294.449
G1 X100.418 Y294.433
G1 X100.476 Y294.427
G1 X100.696 Y294.419
G1 X100.856 Y294.425
G1 X100.917 Y294.427
G1 X101.133 Y294.449
G1 X101.286 Y294.475
G1 X101.345 Y294.485
G1 X101.552 Y294.534
G1 X101.697 Y294.58
G1 X101.754 Y294.597
G1 X101.949 Y294.673
G1 X102.14 Y294.761
G1 X102.274 Y294.834
G1 X102.322 Y294.86
G1 X102.497 Y294.97
G1 X102.664 Y295.092
G1 X102.78 Y295.188
G1 X102.824 Y295.224
G1 X102.975 Y295.364
G1 X103.115 Y295.515
G1 X103.207 Y295.625
G1 X103.247 Y295.675
G1 X103.369 Y295.842
G1 X103.446 Y295.964
G1 X103.479 Y296.017
G1 X103.578 Y296.199
G1 X103.64 Y296.333
G1 X103.666 Y296.389
G1 X103.742 Y296.585
G1 X103.804 Y296.786
G1 X103.854 Y296.994
G1 X103.879 Y297.142
G1 X103.89 Y297.206
G1 X103.912 Y297.422
G1 X103.92 Y297.643
G1 X103.914 Y297.802
G1 X103.912 Y297.864
G1 X103.897 Y298.012
G1 X103.89 Y298.079
G1 X103.854 Y298.292
G1 X103.817 Y298.443
G1 X103.804 Y298.499
G1 X103.762 Y298.636
G1 X103.742 Y298.701
G1 X103.666 Y298.896
G1 X103.602 Y299.034
G1 X103.578 Y299.086
G1 X103.479 Y299.269
G1 X103.4 Y299.394
G1 X103.369 Y299.444
G1 X103.281 Y299.565
G1 X103.247 Y299.611
G1 X103.115 Y299.77
G1 X102.975 Y299.921
G1 X102.824 Y300.062
G1 X102.708 Y300.158
G1 X102.664 Y300.193
G1 X102.548 Y300.278
G1 X102.497 Y300.315
G1 X102.322 Y300.425
G1 X102.14 Y300.524
G1 X102.005 Y300.586
G1 X101.949 Y300.612
G1 X101.815 Y300.664
G1 X101.754 Y300.688
G1 X101.613 Y300.732
G1 X101.552 Y300.751
G1 X101.345 Y300.8
G1 X101.196 Y300.826
G1 X101.133 Y300.836
G1 X100.917 Y300.858
G1 X100.696 Y300.866
G1 X100.536 Y300.86
G1 X100.476 Y300.858
G1 X100.326 Y300.843
G1 X100.26 Y300.836
G1 X100.047 Y300.8
G1 X99.904 Y300.766
G1 X99.84 Y300.751
G1 X99.639 Y300.688
G1 X99.494 Y300.632
G1 X99.443 Y300.612
G1 X99.253 Y300.524
G1 X99.121 Y300.452
G1 X99.071 Y300.425
G1 X98.895 Y300.315
; MOVEMENT_RAPID
G0 Z5 F300
G0 X99.91 Y298.809 F2500
; MOVEMENT_LEAD_IN
G1 Z0 F480
; MOVEMENT_CUTTING
G1 X99.911 Y298.81 F2100
G1 X99.985 Y298.857
G1 X99.989 Y298.859
G1 X100.065 Y298.9
G1 X100.068 Y298.901
G1 X100.147 Y298.938
G1 X100.15 Y298.94
G1 X100.233 Y298.972
G1 X100.236 Y298.973
G1 X100.321 Y299
G1 X100.325 Y299.001
G1 X100.412 Y299.021
G1 X100.414
G1 X100.503 Y299.037
G1 X100.507 Y299.038
G1 X100.598 Y299.047
G1 X100.601
G1 X100.694 Y299.05
G1 X100.698
G1 X100.791 Y299.047
G1 X100.794
G1 X100.885 Y299.038
G1 X100.889 Y299.037
G1 X100.979 Y299.021
G1 X100.981
G1 X101.068 Y299.001
G1 X101.072 Y299
G1 X101.157 Y298.973
G1 X101.16 Y298.972
G1 X101.242 Y298.94
G1 X101.245 Y298.938
G1 X101.325 Y298.901
G1 X101.328 Y298.9
G1 X101.405 Y298.858
G1 X101.407 Y298.856
G1 X101.481 Y298.81
G1 X101.484 Y298.808
G1 X101.554 Y298.757
G1 X101.557 Y298.756
G1 X101.625 Y298.7
G1 X101.627 Y298.698
G1 X101.69 Y298.638
G1 X101.692 Y298.636
G1 X101.751 Y298.573
G1 X101.753 Y298.571
G1 X101.809 Y298.504
G1 X101.812 Y298.501
G1 X101.863 Y298.43
G1 X101.864 Y298.427
G1 X101.91 Y298.353
G1 X101.912 Y298.351
G1 X101.954 Y298.274
G1 X101.955 Y298.271
G1 X101.992 Y298.191
G1 X101.994 Y298.188
G1 X102.026 Y298.106
G1 X102.027 Y298.103
G1 X102.053 Y298.018
G1 X102.054 Y298.015
G1 X102.075 Y297.928
G1 Y297.925
G1 X102.091 Y297.835
G1 X102.092 Y297.831
G1 X102.101 Y297.74
G1 Y297.737
G1 X102.104 Y297.644
G1 Y297.64
G1 X102.101 Y297.548
G1 Y297.545
G1 X102.092 Y297.453
G1 X102.091 Y297.449
G1 X102.075 Y297.36
G1 Y297.357
G1 X102.054 Y297.27
G1 X102.053 Y297.267
G1 X102.027 Y297.182
G1 X102.026 Y297.179
G1 X101.994 Y297.096
G1 X101.992 Y297.093
G1 X101.955 Y297.013
G1 X101.954 Y297.01
G1 X101.912 Y296.933
G1 X101.91 Y296.93
G1 X101.864 Y296.857
G1 X101.863 Y296.855
G1 X101.812 Y296.784
G1 X101.809 Y296.781
G1 X101.753 Y296.714
G1 X101.752 Y296.712
G1 X101.693 Y296.648
G1 X101.69 Y296.646
G1 X101.627 Y296.587
G1 X101.624 Y296.584
G1 X101.556 Y296.529
G1 X101.554 Y296.528
G1 X101.484 Y296.477
G1 X101.482 Y296.475
G1 X101.408 Y296.428
G1 X101.405 Y296.426
G1 X101.328 Y296.384
G1 X101.325 Y296.383
G1 X101.245 Y296.346
G1 X101.242 Y296.344
G1 X101.16 Y296.312
G1 X101.157 Y296.311
G1 X101.072 Y296.285
G1 X101.069 Y296.284
G1 X100.982 Y296.263
G1 X100.978
G1 X100.888 Y296.248
G1 X100.885 Y296.247
G1 X100.794 Y296.237
G1 X100.791
G1 X100.698 Y296.234
G1 X100.694
G1 X100.601 Y296.237
G1 X100.598
G1 X100.507 Y296.247
G1 X100.504 Y296.248
G1 X100.415 Y296.263
G1 X100.411
G1 X100.324 Y296.284
G1 X100.321 Y296.285
G1 X100.236 Y296.311
G1 X100.233 Y296.312
G1 X100.15 Y296.344
G1 X100.147 Y296.346
G1 X100.068 Y296.383
G1 X100.065 Y296.384
G1 X99.988 Y296.426
G1 X99.985 Y296.428
G1 X99.911 Y296.475
G1 X99.908 Y296.476
G1 X99.838 Y296.527
G1 X99.836 Y296.529
G1 X99.768 Y296.584
G1 X99.766 Y296.586
G1 X99.703 Y296.645
G1 X99.7 Y296.648
G1 X99.641 Y296.712
G1 X99.639 Y296.714
G1 X99.583 Y296.781
G1 X99.581 Y296.784
G1 X99.53 Y296.855
G1 X99.529 Y296.857
G1 X99.482 Y296.93
G1 X99.48 Y296.933
G1 X99.438 Y297.01
G1 X99.437 Y297.013
G1 X99.4 Y297.093
G1 X99.399 Y297.096
G1 X99.367 Y297.179
G1 X99.366 Y297.182
G1 X99.339 Y297.267
G1 Y297.27
G1 X99.318 Y297.357
G1 X99.317 Y297.361
G1 X99.302 Y297.45
G1 X99.301 Y297.453
G1 X99.292 Y297.545
G1 Y297.548
G1 X99.289 Y297.64
G1 Y297.644
G1 X99.292 Y297.737
G1 Y297.74
G1 X99.301 Y297.831
G1 X99.302 Y297.834
G1 X99.317 Y297.924
G1 X99.318 Y297.928
G1 X99.339 Y298.015
G1 Y298.018
G1 X99.366 Y298.103
G1 X99.367 Y298.106
G1 X99.399 Y298.188
G1 X99.4 Y298.191
G1 X99.437 Y298.271
G1 X99.438 Y298.274
G1 X99.48 Y298.351
G1 X99.482 Y298.354
G1 X99.528 Y298.428
G1 X99.53 Y298.43
G1 X99.581 Y298.501
G1 X99.583 Y298.504
G1 X99.639 Y298.571
G1 X99.641 Y298.573
G1 X99.7 Y298.636
G1 X99.702 Y298.638
G1 X99.766 Y298.698
G1 X99.768 Y298.701
G1 X99.836 Y298.756
G1 X99.838 Y298.758
G1 X99.908 Y298.809
G1 X99.91
; MOVEMENT_RAPID
G0 Z5 F300
G0 X94.639 Y284.284 F2500
; MOVEMENT_LEAD_IN
G1 Z0 F480
; MOVEMENT_CUTTING
G1 X94.641 Y284.283 F2100
G1 X94.67 Y284.271
G1 X94.671
G1 X94.698 Y284.259
G1 X94.699 Y284.258
G1 X94.724 Y284.246
G1 X94.747 Y284.235
G1 X94.75 Y284.233
G1 X94.771 Y284.221
G1 X94.79 Y284.21
G1 X94.792 Y284.209
G1 X94.809 Y284.198
G1 X94.811 Y284.197
G1 X94.827 Y284.186
G1 X94.829 Y284.185
G1 X94.843 Y284.174
G1 X94.844
G1 X94.857 Y284.164
G1 X94.859 Y284.162
G1 X94.87 Y284.152
G1 X94.872 Y284.15
G1 X94.883 Y284.14
G1 Y284.139
G1 X94.892 Y284.13
G1 X94.894 Y284.128
G1 X94.902 Y284.119
G1 X94.904 Y284.116
G1 X94.911 Y284.107
G1 X94.912
G1 X94.918 Y284.099
G1 X94.92 Y284.096
G1 X94.925 Y284.088
G1 Y284.087
G1 X94.93 Y284.08
G1 X94.932 Y284.077
G1 X94.935 Y284.07
G1 Y284.069
G1 X94.938 Y284.063
G1 X94.94 Y284.06
G1 X94.943 Y284.054
G1 X94.945 Y284.049
G1 X94.946 Y284.045
G1 X94.947 Y284.041
G1 X94.948 Y284.038
G1 X94.949 Y284.034
G1 X94.957 Y284.004
G1 X94.958 Y284
G1 X94.964 Y283.968
G1 X94.965 Y283.964
G1 X94.968 Y283.929
G1 Y283.925
G1 X94.969 Y283.889
G1 Y283.887
G1 X94.968 Y283.849
G1 Y283.846
G1 X94.965 Y283.807
G1 X94.964 Y283.805
G1 X94.959 Y283.765
G1 Y283.763
G1 X94.953 Y283.721
G1 X94.952 Y283.719
G1 X94.944 Y283.677
G1 Y283.676
G1 X94.934 Y283.634
G1 Y283.633
G1 X94.923 Y283.59
G1 Y283.589
G1 X94.911 Y283.546
G1 X94.91 Y283.545
G1 X94.897 Y283.502
G1 Y283.5
G1 X94.883 Y283.458
G1 Y283.457
G1 X94.868 Y283.416
G1 X94.853 Y283.375
G1 X94.852 Y283.373
G1 X94.836 Y283.334
G1 X94.82 Y283.296
G1 Y283.295
G1 X94.804 Y283.258
G1 X94.803 Y283.257
G1 X94.787 Y283.222
G1 X94.786 Y283.221
G1 X94.77 Y283.189
G1 Y283.188
G1 X94.754 Y283.157
G1 X94.753 Y283.156
G1 X94.738 Y283.128
G1 X94.737 Y283.126
G1 X94.722 Y283.101
G1 X94.721 Y283.1
G1 X94.718 Y283.096
G1 X94.716 Y283.092
G1 X94.715 Y283.091
G1 X94.714 Y283.088
G1 X94.711 Y283.083
G1 X94.709 Y283.08
G1 X94.707 Y283.076
G1 X94.706 Y283.074
G1 X94.704 Y283.071
G1 X94.702 Y283.067
G1 X94.7 Y283.064
G1 X94.699 Y283.062
G1 X94.698 Y283.059
G1 X94.696 Y283.055
G1 X94.693 Y283.051
G1 X94.691 Y283.047
G1 X94.69 Y283.045
G1 X94.689 Y283.042
G1 X94.687 Y283.039
G1 X94.685 Y283.035
G1 X94.684 Y283.033
G1 X94.683 Y283.031
G1 X94.68 Y283.026
G1 X94.678 Y283.022
G1 X94.677 Y283.019
G1 X94.675 Y283.017
G1 X94.674 Y283.014
G1 X94.673 Y283.011
G1 X94.671 Y283.007
G1 X94.669 Y283.003
G1 X94.65 Y282.964
G1 X94.616 Y282.895
G1 X94.568 Y282.799
G1 Y282.798
G1 X94.506 Y282.675
G1 X94.429 Y282.526
G1 X94.339 Y282.353
G1 X94.235 Y282.156
G1 Y282.155
G1 X94.117 Y281.937
G1 X93.987 Y281.697
G1 X93.986
G1 X93.843 Y281.438
G1 Y281.437
G1 X93.686 Y281.16
G1 X93.517 Y280.865
G1 X93.516
G1 X93.335 Y280.553
G1 Y280.552
G1 X93.141 Y280.226
G1 X93.14
G1 X92.934 Y279.887
G1 X92.716 Y279.534
G1 Y279.533
G1 X92.486 Y279.17
G1 X92.245 Y278.796
G1 X91.992 Y278.412
G1 X91.728 Y278.021
G1 X91.454 Y277.624
G1 X91.453 Y277.623
G1 X91.168 Y277.221
G1 X90.872 Y276.814
G1 Y276.813
G1 X90.566 Y276.403
G1 X90.565 Y276.402
G1 X90.127 Y275.841
G1 X90.126 Y275.84
G1 X89.681 Y275.307
G1 X89.68 Y275.306
G1 X89.229 Y274.801
G1 X89.228 Y274.8
G1 X88.772 Y274.321
G1 X88.771 Y274.319
G1 X88.311 Y273.865
G1 X88.31 Y273.864
G1 X87.847 Y273.435
G1 X87.846 Y273.434
G1 X87.38 Y273.028
G1 X87.378 Y273.027
G1 X86.91 Y272.645
G1 X86.909 Y272.644
G1 X86.439 Y272.283
G1 X86.438 Y272.282
G1 X85.967 Y271.943
G1 X85.966
G1 X85.496 Y271.623
G1 X85.494 Y271.622
G1 X85.024 Y271.322
G1 X85.023 Y271.321
G1 X84.554 Y271.04
G1 X84.553
G1 X84.087 Y270.775
G1 X84.085 Y270.774
G1 X83.622 Y270.527
G1 X83.621 Y270.526
G1 X83.16 Y270.294
G1 X83.159
G1 X82.702 Y270.077
G1 Y270.076
G1 X82.25 Y269.873
G1 X82.249
G1 X81.803 Y269.683
G1 X81.802
G1 X81.362 Y269.506
G1 X81.361 Y269.505
G1 X80.928 Y269.338
G1 X80.927
G1 X80.502 Y269.182
G1 X80.501
G1 X80.083 Y269.036
G1 X79.674 Y268.898
G1 Y268.897
G1 X79.119 Y268.718
G1 X78.597 Y268.558
G1 X78.107 Y268.416
G1 X77.648 Y268.291
G1 X77.22 Y268.182
G1 X77.219 Y268.181
G1 X76.82 Y268.088
G1 X76.819
G1 X76.448 Y268.009
G1 X76.447
G1 X76.103 Y267.944
G1 X76.102
G1 X75.784 Y267.892
G1 X75.783 Y267.891
G1 X75.49 Y267.85
G1 X75.489
G1 X75.22 Y267.82
G1 X75.218
G1 X74.972 Y267.801
G1 X74.971
G1 X74.747 Y267.79
G1 X74.745
G1 X74.543 Y267.788
G1 X74.541
G1 X74.358 Y267.793
G1 X74.356
G1 X74.193 Y267.804
G1 X74.19
G1 X74.044 Y267.821
G1 X74.042 Y267.822
G1 X73.913 Y267.843
G1 X73.91
G1 X73.797 Y267.869
G1 X73.795 Y267.87
G1 X73.697 Y267.898
G1 X73.694 Y267.899
G1 X73.61 Y267.929
G1 X73.606 Y267.93
G1 X73.535 Y267.962
G1 X73.533 Y267.964
G1 X73.474 Y267.995
G1 X73.47 Y267.997
G1 X73.422 Y268.028
G1 X73.414 Y268.032
G1 X73.409 Y268.036
G1 X73.402 Y268.042
G1 X73.395 Y268.046
G1 X73.39 Y268.05
G1 X73.381 Y268.058
G1 X73.372 Y268.065
G1 X73.37 Y268.067
G1 X73.36 Y268.076
G1 X73.358 Y268.078
G1 X73.348 Y268.088
G1 X73.347 Y268.089
G1 X73.337 Y268.1
G1 X73.335 Y268.102
G1 X73.325 Y268.114
G1 X73.324 Y268.116
G1 X73.314 Y268.129
G1 X73.313 Y268.13
G1 X73.303 Y268.144
G1 X73.301 Y268.147
G1 X73.291 Y268.163
G1 X73.289 Y268.166
G1 X73.28 Y268.184
G1 X73.279
G1 X73.27 Y268.202
G1 X73.269 Y268.206
G1 X73.26 Y268.227
G1 X73.259 Y268.229
G1 X73.251 Y268.251
G1 X73.25 Y268.253
G1 X73.243 Y268.277
G1 X73.242 Y268.279
G1 X73.235 Y268.305
G1 X73.234 Y268.307
G1 X73.228 Y268.335
G1 Y268.337
G1 X73.222 Y268.367
G1 Y268.369
G1 X73.217 Y268.401
G1 Y268.402
G1 X73.213 Y268.436
G1 Y268.438
G1 X73.21 Y268.474
G1 Y268.476
G1 X73.208 Y268.516
G1 Y268.521
G1 X73.217 Y268.677
G1 X73.218 Y268.683
G1 X73.253 Y268.867
G1 X73.254 Y268.872
G1 X73.315 Y269.083
G1 X73.316 Y269.086
G1 X73.401 Y269.321
G1 X73.402 Y269.323
G1 X73.51 Y269.581
G1 X73.511 Y269.583
G1 X73.64 Y269.862
G1 X73.641 Y269.863
G1 X73.791 Y270.162
G1 X73.792 Y270.163
G1 X73.961 Y270.481
G1 Y270.483
G1 X74.149 Y270.816
G1 X74.353 Y271.164
G1 X74.354 Y271.165
G1 X74.573 Y271.527
G1 X74.574 Y271.528
G1 X74.808 Y271.901
G1 X75.055 Y272.284
G1 Y272.285
G1 X75.314 Y272.676
G1 X75.584 Y273.074
G1 X75.863 Y273.477
G1 Y273.478
G1 X76.15 Y273.884
G1 X76.151
G1 X76.445 Y274.292
G1 Y274.293
G1 X76.745 Y274.701
G1 X77.049 Y275.108
G1 X77.05
G1 X77.357 Y275.512
G1 Y275.513
G1 X77.667 Y275.912
G1 X77.978 Y276.305
G1 X78.288 Y276.69
G1 X78.29 Y276.693
G1 X78.466 Y276.885
G1 X78.654 Y277.088
G1 X78.855 Y277.3
G1 Y277.301
G1 X79.067 Y277.52
G1 X79.29 Y277.746
G1 X79.291 Y277.747
G1 X79.525 Y277.978
G1 X79.769 Y278.215
G1 X79.77
G1 X80.024 Y278.454
G1 Y278.455
G1 X80.288 Y278.698
G1 X80.561 Y278.941
G1 X80.562 Y278.942
G1 X80.843 Y279.187
G1 X80.844
G1 X81.134 Y279.43
G1 Y279.431
G1 X81.432 Y279.673
G1 X81.433
G1 X81.738 Y279.912
G1 X81.739 Y279.913
G1 X82.051 Y280.148
G1 X82.052
G1 X82.371 Y280.38
G1 X82.372
G1 X82.698 Y280.604
G1 Y280.605
G1 X83.03 Y280.823
G1 X83.031
G1 X83.367 Y281.033
G1 X83.368 Y281.034
G1 X83.71 Y281.235
G1 X83.711 Y281.236
G1 X84.057 Y281.426
G1 X84.059
G1 X84.409 Y281.606
G1 X84.411 Y281.607
G1 X84.765 Y281.774
G1 X84.766 Y281.775
G1 X85.124 Y281.929
G1 X85.125
G1 X85.979 Y282.273
G1 X85.98 Y282.274
G1 X86.783 Y282.586
G1 X87.537 Y282.867
G1 X87.538
G1 X88.243 Y283.119
G1 X88.244
G1 X88.903 Y283.343
G1 X88.904 Y283.344
G1 X89.518 Y283.542
G1 X90.089 Y283.714
G1 X90.09
G1 X90.618 Y283.864
G1 X90.62
G1 X91.108 Y283.991
G1 X91.109 Y283.992
G1 X91.558 Y284.099
G1 X91.559
G1 X91.971 Y284.187
G1 X91.972
G1 X92.348 Y284.258
G1 X92.349
G1 X92.691 Y284.313
G1 X92.692 Y284.314
G1 X93.001 Y284.354
G1 X93.003
G1 X93.28 Y284.381
G1 X93.282
G1 X93.529 Y284.397
G1 X93.531
G1 X93.75 Y284.403
G1 X93.753
G1 X93.945 Y284.4
G1 X93.947
G1 X94.114 Y284.39
G1 X94.117
G1 X94.26 Y284.375
G1 X94.263 Y284.374
G1 X94.384 Y284.354
G1 X94.387
G1 X94.487 Y284.332
G1 X94.49 Y284.331
G1 X94.572 Y284.308
G1 X94.575 Y284.307
G1 X94.639 Y284.284
; MOVEMENT_RAPID
G0 Z5 F300
G0 X61.886 Y295.503 F2500
; MOVEMENT_LEAD_IN
G1 Z0 F480
; MOVEMENT_CUTTING
G1 X61.88 Y295.491 F2100
G1 X61.872 Y295.482
G1 X61.733 Y295.36
G1 Y295.359
G1 X61.571 Y295.219
G1 X61.386 Y295.06
G1 X61.385
G1 X61.179 Y294.886
G1 X60.951 Y294.697
G1 Y294.696
G1 X60.705 Y294.494
G1 X60.704
G1 X60.44 Y294.28
G1 X60.439
G1 X60.157 Y294.057
G1 Y294.056
G1 X59.859 Y293.825
G1 X59.858
G1 X59.546 Y293.587
G1 X59.545
G1 X59.219 Y293.344
G1 X59.218
G1 X58.879 Y293.098
G1 Y293.097
G1 X58.528 Y292.849
G1 X58.527
G1 X58.166 Y292.6
G1 Y292.599
G1 X57.796 Y292.352
G1 X57.795
G1 X57.417 Y292.107
G1 X57.416
G1 X57.031 Y291.867
G1 X57.03 Y291.866
G1 X56.639 Y291.632
G1 X56.638
G1 X56.242 Y291.405
G1 X56.241 Y291.404
G1 X55.842 Y291.187
G1 X55.841
G1 X55.439 Y290.98
G1 X55.438 Y290.979
G1 X55.035 Y290.785
G1 X55.034 Y290.784
G1 X54.63 Y290.604
G1 X54.629
G1 X54.227 Y290.439
G1 X54.225 Y290.438
G1 X53.911 Y290.321
G1 X53.909
G1 X53.587 Y290.214
G1 X53.586 Y290.213
G1 X53.257 Y290.115
G1 X53.256
G1 X52.921 Y290.025
G1 X52.92 Y290.024
G1 X52.58 Y289.943
G1 X52.579
G1 X52.236 Y289.869
G1 X52.235
G1 X51.888 Y289.803
G1 X51.887
G1 X51.539 Y289.744
G1 X51.538
G1 X51.188 Y289.692
G1 Y289.691
G1 X50.838 Y289.645
G1 X50.837
G1 X50.488 Y289.605
G1 X50.487
G1 X50.14 Y289.572
G1 X50.139
G1 X49.794 Y289.543
G1 X49.452 Y289.52
G1 X49.115 Y289.502
G1 X48.784 Y289.488
G1 X48.783
G1 X48.458 Y289.478
G1 X48.14 Y289.471
G1 X47.831 Y289.469
G1 X47.83
G1 X47.53
G1 X47.24 Y289.472
G1 X46.961 Y289.477
G1 X46.694 Y289.485
G1 X46.44 Y289.494
G1 X46.423 Y289.498
G1 X46.408 Y289.507
G1 X46.397 Y289.521
G1 X46.392 Y289.538
G1 X46.393 Y289.556
G1 X46.401 Y289.572
G1 X46.541 Y289.781
G1 X46.611 Y289.884
G1 X46.832 Y290.223
G1 X47.064 Y290.588
G1 X47.303 Y290.976
G1 X47.485 Y291.282
G1 X47.549 Y291.389
G1 X47.798 Y291.824
G1 X48.051 Y292.283
G1 X48.304 Y292.761
G1 X48.507 Y293.164
G1 X48.556 Y293.259
G1 X48.804 Y293.776
G1 X49.048 Y294.311
G1 X49.179 Y294.615
G1 X49.286 Y294.863
G1 X49.49 Y295.37
G1 X49.514 Y295.431
G1 X49.733 Y296.014
G1 X49.939 Y296.611
G1 X50.064 Y297.008
G1 X50.131 Y297.22
G1 X50.308 Y297.843
G1 X50.467 Y298.476
G1 X50.606 Y299.119
G1 X50.698 Y299.626
G1 X50.724 Y299.771
G1 X50.772 Y300.105
G1 X50.819 Y300.432
G1 X50.89 Y301.099
G1 X50.915 Y301.494
G1 X50.933 Y301.773
G1 X50.948 Y302.453
G1 X50.937 Y303.122
G1 X50.905 Y303.79
G1 X50.866 Y304.299
G1 X50.854 Y304.453
G1 X50.784 Y305.112
G1 X50.698 Y305.766
G1 X50.64 Y306.127
G1 X50.595 Y306.412
G1 X50.489 Y306.996
G1 X50.479 Y307.049
G1 X50.349 Y307.678
G1 X50.208 Y308.297
G1 X50.104 Y308.716
G1 X50.057 Y308.904
G1 X49.897 Y309.499
G1 X49.729 Y310.08
G1 X49.555 Y310.646
G1 X49.41 Y311.09
G1 X49.375 Y311.196
G1 X49.193 Y311.729
G1 X49.008 Y312.244
G1 X48.903 Y312.523
G1 X48.822 Y312.74
G1 X48.652 Y313.175
G1 X48.636 Y313.216
G1 X48.452 Y313.669
G1 X48.271 Y314.1
G1 X48.153 Y314.373
G1 X48.094 Y314.508
G1 X47.923 Y314.891
G1 X47.76 Y315.248
G1 X47.604 Y315.578
G1 X47.599 Y315.595
G1 X47.601 Y315.613
G1 X47.609 Y315.629
G1 X47.623 Y315.641
G1 X47.64 Y315.648
G1 X47.658
G1 X47.847 Y315.615
G1 X47.848
G1 X48.048 Y315.578
G1 X48.259 Y315.535
G1 X48.48 Y315.488
G1 X48.481
G1 X48.712 Y315.434
G1 X48.713
G1 X48.954 Y315.375
G1 X48.955 Y315.374
G1 X49.207 Y315.308
G1 X49.469 Y315.236
G1 X49.47
G1 X49.742 Y315.157
G1 X49.743
G1 X50.025 Y315.071
G1 X50.026
G1 X50.318 Y314.977
G1 Y314.976
G1 X50.621 Y314.874
G1 X50.933 Y314.765
G1 X50.934
G1 X51.256 Y314.647
G1 X51.257
G1 X51.588 Y314.52
G1 X51.589 Y314.519
G1 X51.931 Y314.383
G1 X52.282 Y314.237
G1 X52.283
G1 X52.644 Y314.082
G1 X53.015 Y313.917
G1 Y313.916
G1 X53.395 Y313.741
G1 X53.396
G1 X53.785 Y313.555
G1 X53.786
G1 X54.185 Y313.358
G1 X54.594 Y313.15
G1 Y313.149
G1 X55.012 Y312.93
G1 X55.013
G1 X55.6 Y312.598
G1 X55.602 Y312.596
G1 X56.168 Y312.241
G1 X56.169 Y312.24
G1 X56.714 Y311.865
G1 X56.716 Y311.864
G1 X57.24 Y311.47
G1 X57.242 Y311.469
G1 X57.745 Y311.06
G1 X57.746 Y311.059
G1 X58.229 Y310.636
G1 X58.23 Y310.634
G1 X58.691 Y310.202
G1 X58.692 Y310.201
G1 X59.133 Y309.76
G1 X59.134 Y309.759
G1 X59.554 Y309.313
G1 X59.555 Y309.312
G1 X59.953 Y308.863
G1 X59.954 Y308.862
G1 X60.332 Y308.414
G1 X60.333 Y308.413
G1 X60.69 Y307.966
G1 X60.691 Y307.965
G1 X61.027 Y307.523
G1 X61.028 Y307.522
G1 X61.344 Y307.088
G1 X61.639 Y306.664
G1 X61.64 Y306.663
G1 X61.914 Y306.252
G1 X61.915 Y306.251
G1 X62.168 Y305.855
G1 Y305.854
G1 X62.401 Y305.476
G1 X62.402 Y305.475
G1 X62.614 Y305.116
G1 X62.805 Y304.781
G1 X62.806 Y304.78
G1 X62.976 Y304.471
G1 X62.977 Y304.47
G1 X63.127 Y304.188
G1 X63.257 Y303.937
G1 Y303.936
G1 X63.366 Y303.718
G1 X63.369 Y303.711
G1 X63.371 Y303.708
G1 X63.373 Y303.701
G1 X63.376 Y303.696
G1 X63.377 Y303.694
G1 X63.38 Y303.686
G1 X63.383 Y303.68
G1 X63.386 Y303.673
G1 X63.387 Y303.671
G1 X63.39 Y303.664
G1 X63.399 Y303.644
G1 X63.4
G1 X63.409 Y303.623
G1 X63.416 Y303.609
G1 Y303.608
G1 X63.419 Y303.601
G1 X63.422 Y303.596
G1 X63.424 Y303.591
G1 X63.425 Y303.588
G1 X63.428 Y303.581
G1 X63.429
G1 X63.431 Y303.575
G1 X63.433 Y303.57
G1 X63.435 Y303.568
G1 X63.437 Y303.562
G1 X63.439 Y303.557
G1 X63.441 Y303.554
G1 X63.444 Y303.547
G1 X63.447 Y303.529
G1 X63.445 Y303.511
G1 X63.357 Y303.268
G1 X63.339 Y303.217
G1 X63.235 Y302.922
G1 X63.143 Y302.647
G1 X63.135 Y302.623
G1 X63.038 Y302.323
G1 X62.943 Y302.02
G1 X62.852 Y301.716
G1 X62.764 Y301.409
G1 X62.68 Y301.099
G1 X62.599 Y300.787
G1 X62.521 Y300.472
G1 X62.448 Y300.155
G1 X62.378 Y299.835
G1 X62.313 Y299.512
G1 X62.251 Y299.186
G1 X62.221 Y299.009
G1 X62.194 Y298.858
G1 X62.163 Y298.661
G1 X62.142 Y298.526
G1 X62.111 Y298.311
G1 X62.094 Y298.19
G1 X62.064 Y297.958
G1 X62.05 Y297.853
G1 X62.022 Y297.601
G1 X62.012 Y297.512
G1 X61.985 Y297.241
G1 X61.978 Y297.167
G1 X61.954 Y296.878
G1 X61.949 Y296.818
G1 X61.929 Y296.512
G1 X61.926 Y296.467
G1 X61.909 Y296.141
G1 X61.908 Y296.112
G1 X61.895 Y295.768
G1 Y295.753
G1 X61.894 Y295.744
G1 Y295.734
G1 Y295.724
G1 Y295.714
G1 X61.893 Y295.704
G1 Y295.695
G1 Y295.685
G1 Y295.675
G1 X61.892 Y295.664
G1 Y295.655
G1 Y295.645
G1 Y295.644
G1 Y295.635
G1 X61.891 Y295.626
G1 Y295.616
G1 Y295.606
G1 Y295.596
G1 X61.89 Y295.586
G1 Y295.585
G1 Y295.577
G1 Y295.567
G1 Y295.557
G1 X61.889 Y295.547
G1 Y295.537
G1 Y295.528
G1 Y295.517
G1 X61.886 Y295.503
; MOVEMENT_RAPID
G0 Z5 F300
G0 X112.171 Y349.986 F2500
; MOVEMENT_LEAD_IN
G1 Z0 F480
; MOVEMENT_CUTTING
G1 X112.548 Y349.644 F2100
G1 X112.908 Y349.336
G1 X112.935 Y349.314
G1 X112.959 Y349.294
G1 X113.333 Y348.996
G1 X113.357 Y348.977
G1 X113.741 Y348.69
G1 X114.129 Y348.418
G1 X114.159 Y348.397
G1 X114.557 Y348.138
G1 X114.587 Y348.118
G1 X114.992 Y347.871
G1 X115.024 Y347.852
G1 X115.47 Y347.6
G1 X115.925 Y347.362
G1 X116.388 Y347.138
G1 X116.828 Y346.944
G1 X116.86 Y346.93
G1 X116.887 Y346.919
G1 X117.339 Y346.736
G1 X117.825 Y346.557
G1 X118.288 Y346.405
G1 X118.32 Y346.395
G1 X118.82 Y346.247
G1 X119.296 Y346.125
G1 X119.328 Y346.117
G1 X119.362 Y346.109
G1 X119.842 Y346.002
G1 X119.876 Y345.996
G1 X120.361 Y345.904
G1 X120.854 Y345.829
G1 X120.888 Y345.824
G1 X121.386 Y345.765
G1 X121.419 Y345.761
G1 X121.955 Y345.715
G1 X122.464 Y345.69
G1 X122.496 Y345.688
G1 X123.042 Y345.678
G1 X123.554 Y345.687
G1 X123.587 Y345.688
G1 X123.62 Y345.69
G1 X124.129 Y345.715
G1 X124.629 Y345.758
G1 X124.665 Y345.761
G1 X125.196 Y345.824
G1 X125.687 Y345.899
G1 X125.722 Y345.904
G1 X126.242 Y346.002
G1 X126.723 Y346.109
G1 X126.755 Y346.117
G1 X127.264 Y346.247
G1 X127.734 Y346.386
G1 X127.764 Y346.395
G1 X128.259 Y346.557
G1 X128.745 Y346.736
G1 X129.197 Y346.919
G1 X129.225 Y346.93
G1 X129.696 Y347.138
G1 X130.132 Y347.349
G1 X130.159 Y347.362
G1 X130.588 Y347.587
G1 X130.613 Y347.6
G1 X131.06 Y347.852
G1 X131.472 Y348.104
G1 X131.496 Y348.118
G1 X131.527 Y348.138
G1 X131.924 Y348.397
G1 X131.952 Y348.417
G1 X132.343 Y348.69
G1 X132.728 Y348.979
G1 X132.75 Y348.996
G1 X132.777 Y349.016
G1 X133.149 Y349.314
G1 X133.536 Y349.644
G1 X133.889 Y349.965
G1 X133.913 Y349.986
G1 X133.935 Y350.008
G1 X134.279 Y350.34
G1 X134.608 Y350.68
G1 X134.633 Y350.705
G1 X134.953 Y351.058
G1 X134.974 Y351.082
G1 X135.305 Y351.47
G1 X135.601 Y351.839
G1 X135.623 Y351.868
G1 X135.907 Y352.247
G1 X135.928 Y352.275
G1 X136.222 Y352.694
G1 X136.501 Y353.122
G1 X136.748 Y353.528
G1 X136.766 Y353.558
G1 X137 Y353.973
G1 X137.018 Y354.005
G1 X137.256 Y354.459
G1 X137.464 Y354.89
G1 X137.48 Y354.923
G1 X137.689 Y355.395
G1 X137.882 Y355.873
G1 X138.048 Y356.327
G1 X138.061 Y356.36
G1 X138.224 Y356.854
G1 X138.361 Y357.323
G1 X138.371 Y357.355
G1 X138.502 Y357.863
G1 X138.609 Y358.346
G1 X138.616 Y358.376
G1 X138.714 Y358.896
G1 X138.794 Y359.422
G1 X138.854 Y359.921
G1 X138.857 Y359.953
G1 X138.9 Y360.455
G1 X138.903 Y360.489
G1 X138.931 Y361.031
G1 X138.939 Y361.542
G1 X138.94 Y361.576
G1 X138.931 Y362.122
G1 X138.905 Y362.628
G1 X138.903 Y362.664
G1 X138.857 Y363.2
G1 X138.794 Y363.73
G1 X138.719 Y364.221
G1 X138.714 Y364.257
G1 X138.622 Y364.742
G1 X138.616 Y364.776
G1 X138.502 Y365.29
G1 X138.379 Y365.767
G1 X138.371 Y365.798
G1 X138.224 Y366.299
G1 X138.07 Y366.764
G1 X138.061 Y366.793
G1 X137.893 Y367.249
G1 X137.882 Y367.279
G1 X137.689 Y367.758
G1 X137.492 Y368.203
G1 X137.48 Y368.23
G1 X137.27 Y368.665
G1 X137.256 Y368.694
G1 X137.031 Y369.123
G1 X137.018 Y369.148
G1 X136.78 Y369.569
G1 X136.766 Y369.594
G1 X136.501 Y370.031
G1 X136.238 Y370.433
G1 X136.222 Y370.459
G1 X135.944 Y370.854
G1 X135.928 Y370.877
G1 X135.623 Y371.285
G1 X135.325 Y371.659
G1 X135.305 Y371.683
G1 X134.974 Y372.071
G1 X134.654 Y372.423
G1 X134.633 Y372.447
G1 X134.279 Y372.813
G1 X133.936 Y373.144
G1 X133.913 Y373.167
G1 X133.562 Y373.485
G1 X133.536 Y373.509
G1 X133.174 Y373.818
G1 X133.148 Y373.839
G1 X132.75 Y374.157
G1 X132.371 Y374.441
G1 X132.343 Y374.462
G1 X132.318 Y374.48
G1 X131.924 Y374.756
G1 X131.527 Y375.015
G1 X131.496 Y375.035
G1 X131.06 Y375.301
G1 X130.613 Y375.553
G1 X130.19 Y375.774
G1 X130.159 Y375.79
G1 X129.695 Y376.015
G1 X129.225 Y376.223
G1 X128.776 Y376.404
G1 X128.745 Y376.416
G1 X128.259 Y376.596
G1 X127.796 Y376.748
G1 X127.764 Y376.758
G1 X127.735 Y376.767
G1 X127.264 Y376.906
G1 X126.787 Y377.028
G1 X126.755 Y377.036
G1 X126.242 Y377.151
G1 X125.755 Y377.242
G1 X125.722 Y377.249
G1 X125.227 Y377.324
G1 X125.196 Y377.328
G1 X124.665 Y377.392
G1 X124.16 Y377.434
G1 X124.129 Y377.437
G1 X124.094 Y377.439
G1 X123.587 Y377.465
G1 X123.076 Y377.473
G1 X123.042 Y377.474
G1 X122.496 Y377.465
G1 X121.99 Y377.439
G1 X121.955 Y377.437
G1 X121.419 Y377.392
G1 X120.922 Y377.333
G1 X120.888 Y377.328
G1 X120.361 Y377.249
G1 X119.876 Y377.157
G1 X119.842 Y377.151
G1 X119.362 Y377.044
G1 X119.328 Y377.036
G1 X118.82 Y376.906
G1 X118.349 Y376.767
G1 X118.32 Y376.758
G1 X118.288 Y376.748
G1 X117.825 Y376.596
G1 X117.365 Y376.426
G1 X117.339 Y376.416
G1 X116.859 Y376.223
G1 X116.388 Y376.015
G1 X115.949 Y375.802
G1 X115.925 Y375.79
G1 X115.47 Y375.553
G1 X115.049 Y375.315
G1 X115.024 Y375.301
G1 X114.613 Y375.051
G1 X114.587 Y375.035
G1 X114.159 Y374.756
G1 X113.764 Y374.478
G1 X113.741 Y374.462
G1 X113.333 Y374.157
G1 X112.959 Y373.859
G1 X112.935 Y373.839
G1 X112.548 Y373.509
G1 X112.171 Y373.167
G1 X111.83 Y372.837
G1 X111.805 Y372.813
G1 X111.451 Y372.447
G1 X111.132 Y372.096
G1 X111.11 Y372.071
G1 X110.779 Y371.683
G1 X110.483 Y371.313
G1 X110.461 Y371.285
G1 X110.176 Y370.903
G1 X110.156 Y370.877
G1 X109.862 Y370.459
G1 X109.583 Y370.031
G1 X109.337 Y369.626
G1 X109.317 Y369.594
G1 X109.083 Y369.179
G1 X109.066 Y369.148
G1 X108.828 Y368.694
G1 X108.604 Y368.23
G1 X108.395 Y367.758
G1 X108.215 Y367.311
G1 X108.202 Y367.279
G1 X108.023 Y366.793
G1 X107.86 Y366.299
G1 X107.722 Y365.829
G1 X107.713 Y365.798
G1 X107.582 Y365.29
G1 X107.467 Y364.776
G1 X107.376 Y364.287
G1 X107.37 Y364.257
G1 X107.29 Y363.73
G1 X107.226 Y363.2
G1 X107.183 Y362.694
G1 X107.181 Y362.664
G1 X107.153 Y362.122
G1 X107.145 Y361.61
G1 X107.144 Y361.576
G1 X107.153 Y361.031
G1 X107.179 Y360.525
G1 X107.181 Y360.489
G1 X107.226 Y359.953
G1 X107.285 Y359.457
G1 X107.29 Y359.422
G1 X107.365 Y358.931
G1 X107.37 Y358.896
G1 X107.467 Y358.376
G1 X107.574 Y357.895
G1 X107.582 Y357.863
G1 X107.706 Y357.385
G1 X107.713 Y357.355
G1 X107.86 Y356.854
G1 X108.014 Y356.388
G1 X108.023 Y356.36
G1 X108.202 Y355.873
G1 X108.395 Y355.395
G1 X108.593 Y354.949
G1 X108.604 Y354.923
G1 X108.828 Y354.459
G1 X109.053 Y354.03
G1 X109.066 Y354.005
G1 X109.082 Y353.976
G1 X109.317 Y353.558
G1 X109.569 Y353.145
G1 X109.583 Y353.122
G1 X109.846 Y352.72
G1 X109.862 Y352.694
G1 X110.138 Y352.301
G1 X110.156 Y352.275
G1 X110.442 Y351.893
G1 X110.461 Y351.868
G1 X110.779 Y351.47
G1 X111.089 Y351.106
G1 X111.11 Y351.082
G1 X111.451 Y350.705
G1 X111.783 Y350.363
G1 X111.805 Y350.34
G1 X112.149 Y350.008
G1 X112.171 Y349.986
; MOVEMENT_RAPID
G0 Z5 F300
G0 X113.568 Y351.475 F2500
; MOVEMENT_LEAD_IN
G1 Z0 F480
; MOVEMENT_CUTTING
G1 X113.567 F2100
G1 X113.249 Y351.783
G1 X113.248 Y351.784
G1 X112.941 Y352.101
G1 X112.94 Y352.102
G1 X112.642 Y352.429
G1 X112.641 Y352.431
G1 X112.355 Y352.768
G1 X112.354 Y352.769
G1 X112.077 Y353.114
G1 X112.076 Y353.115
G1 X111.811 Y353.47
G1 X111.81 Y353.471
G1 X111.556 Y353.834
G1 X111.555 Y353.836
G1 X111.313 Y354.207
G1 X111.312 Y354.208
G1 X111.081 Y354.588
G1 X111.08 Y354.589
G1 X110.861 Y354.976
G1 Y354.978
G1 X110.654 Y355.373
G1 X110.653 Y355.374
G1 X110.459 Y355.776
G1 X110.458 Y355.778
G1 X110.277 Y356.188
G1 Y356.189
G1 X110.108 Y356.605
G1 X110.107 Y356.607
G1 X109.952 Y357.029
G1 X109.951 Y357.03
G1 X109.811 Y357.459
G1 X109.81 Y357.461
G1 X109.682 Y357.896
G1 Y357.897
G1 X109.568 Y358.339
G1 X109.567 Y358.34
G1 X109.468 Y358.787
G1 Y358.789
G1 X109.383 Y359.24
G1 Y359.241
G1 X109.313 Y359.698
G1 X109.312 Y359.7
G1 X109.258 Y360.161
G1 Y360.163
G1 X109.218 Y360.629
G1 Y360.63
G1 X109.194 Y361.099
G1 Y361.101
G1 X109.186 Y361.575
G1 Y361.577
G1 X109.194 Y362.051
G1 Y362.053
G1 X109.218 Y362.523
G1 Y362.524
G1 X109.258 Y362.99
G1 Y362.992
G1 X109.312 Y363.453
G1 X109.313 Y363.455
G1 X109.383 Y363.912
G1 Y363.913
G1 X109.468 Y364.364
G1 Y364.366
G1 X109.567 Y364.812
G1 X109.568 Y364.814
G1 X109.682 Y365.255
G1 Y365.256
G1 X109.81 Y365.691
G1 X109.811 Y365.693
G1 X109.951 Y366.122
G1 X109.952 Y366.123
G1 X110.107 Y366.546
G1 X110.108 Y366.548
G1 X110.277 Y366.964
G1 Y366.965
G1 X110.458 Y367.374
G1 X110.459 Y367.376
G1 X110.653 Y367.779
G1 X110.654 Y367.78
G1 X110.861 Y368.175
G1 Y368.177
G1 X111.08 Y368.564
G1 X111.081 Y368.565
G1 X111.312 Y368.944
G1 X111.313 Y368.945
G1 X111.555 Y369.317
G1 X111.556 Y369.319
G1 X111.81 Y369.682
G1 X111.811 Y369.683
G1 X112.076 Y370.037
G1 X112.077 Y370.038
G1 X112.354 Y370.384
G1 X112.355 Y370.385
G1 X112.641 Y370.721
G1 X112.642 Y370.723
G1 X112.94 Y371.05
G1 X112.941 Y371.051
G1 X113.248 Y371.369
G1 X113.249 Y371.37
G1 X113.567 Y371.677
G1 X113.568 Y371.678
G1 X113.895 Y371.976
G1 X113.897 Y371.977
G1 X114.233 Y372.264
G1 X114.234 Y372.265
G1 X114.58 Y372.541
G1 X114.581 Y372.542
G1 X114.935 Y372.807
G1 X114.936 Y372.808
G1 X115.299 Y373.062
G1 X115.301 Y373.063
G1 X115.673 Y373.306
G1 X115.674 Y373.307
G1 X116.053 Y373.537
G1 X116.054 Y373.538
G1 X116.442 Y373.757
G1 X116.444
G1 X116.839 Y373.964
G1 X116.84 Y373.965
G1 X117.242 Y374.159
G1 X117.244 Y374.16
G1 X117.653 Y374.341
G1 X117.654
G1 X118.07 Y374.51
G1 X118.072 Y374.511
G1 X118.495 Y374.666
G1 X118.496 Y374.667
G1 X118.925 Y374.807
G1 X118.927 Y374.808
G1 X119.362 Y374.936
G1 X119.363
G1 X119.804 Y375.05
G1 X119.806 Y375.051
G1 X120.252 Y375.15
G1 X120.254
G1 X120.706 Y375.235
G1 X120.707
G1 X121.163 Y375.305
G1 X121.165 Y375.306
G1 X121.626 Y375.361
G1 X121.628
G1 X122.094 Y375.4
G1 X122.095
G1 X122.565 Y375.424
G1 X122.567
G1 X123.041 Y375.432
G1 X123.043
G1 X123.517 Y375.424
G1 X123.519
