;Fusion 360 CAM 2.0.7421
; Posts processor: DIYCNC_Marlin20.cps
; Gcode generated: Sat Feb  8 09:48:44 2020 GMT
; Document: 4x6 Tray BothSides v3
; Setup: Adaptive1
; 
; Ranges table:
; X: Min=-76.887 Max=76.887 Size=153.775
; Y: Min=-51.487 Max=51.487 Size=102.975
; Z: Min=-6.9 Max=5 Size=11.9
; 
; Tools table:
; T1 D=3.175 CR=0 - ZMIN=-6.9 - flat end mill 

; *** START begin ***
G90
G21
M84 S0
G92 X0 Y0 Z5
; *** START end ***

; *** SECTION begin ***
;Adaptive1 - Milling - Tool: 1 -  flat end mill
; X Min: -76.887 - X Max: 76.887
; Y Min: -51.487 - Y Max: 51.487
; Z Min: -6.9 - Z Max: 5
; COMMAND_START_SPINDLE
; COMMAND_SPINDLE_CLOCKWISE
;M0 Turn ON 20000RPM
; COMMAND_COOLANT_ON
;M117  Adaptive1
G0 Z5 F300
G0 X-70.455 Y45.119 F2500
G0 Z2.003 F300
; MOVEMENT_RAMP_HELIX
G1 X-70.383 Y45.202 Z1.999 F180
G1 X-70.318 Y45.29 Z1.995
G1 X-70.259 Y45.383 Z1.991
G1 X-70.207 Y45.48 Z1.988
G1 X-70.162 Y45.58 Z1.984
G1 X-70.124 Y45.683 Z1.98
G1 X-70.094 Y45.788 Z1.976
G1 X-70.072 Y45.896 Z1.972
G1 X-70.058 Y46.005 Z1.968
G1 X-70.051 Y46.114 Z1.965
G1 X-70.053 Y46.224 Z1.961
G1 X-70.063 Y46.333 Z1.957
G1 X-70.08 Y46.442 Z1.953
G1 X-70.106 Y46.549 Z1.949
G1 X-70.139 Y46.653 Z1.945
G1 X-70.18 Y46.755 Z1.942
G1 X-70.227 Y46.854 Z1.938
G1 X-70.282 Y46.949 Z1.934
G1 X-70.344 Y47.04 Z1.93
G1 X-70.412 Y47.126 Z1.926
G1 X-70.487 Y47.206 Z1.922
G1 X-70.567 Y47.282 Z1.919
G1 X-70.652 Y47.351 Z1.915
G1 X-70.742 Y47.414 Z1.911
G1 X-70.836 Y47.47 Z1.907
G1 X-70.934 Y47.519 Z1.903
G1 X-71.036 Y47.561 Z1.899
G1 X-71.14 Y47.595 Z1.896
G1 X-71.247 Y47.622 Z1.892
G1 X-71.355 Y47.64 Z1.888
G1 X-71.464 Y47.651 Z1.884
G1 X-71.574 Y47.654 Z1.88
G1 X-71.683 Y47.649 Z1.876
G1 X-71.792 Y47.636 Z1.873
G1 X-71.9 Y47.615 Z1.869
G1 X-72.006 Y47.587 Z1.865
G1 X-72.11 Y47.55 Z1.861
G1 X-72.21 Y47.507 Z1.857
G1 X-72.307 Y47.456 Z1.853
G1 X-72.401 Y47.398 Z1.85
G1 X-72.489 Y47.333 Z1.846
G1 X-72.573 Y47.263 Z1.842
G1 X-72.652 Y47.186 Z1.838
G1 X-72.725 Y47.104 Z1.834
G1 X-72.791 Y47.016 Z1.83
G1 X-72.851 Y46.924 Z1.827
G1 X-72.904 Y46.828 Z1.823
G1 X-72.95 Y46.729 Z1.819
G1 X-72.989 Y46.626 Z1.815
G1 X-73.02 Y46.521 Z1.811
G1 X-73.044 Y46.414 Z1.807
G1 X-73.059 Y46.305 Z1.804
G1 X-73.067 Y46.195 Z1.8
G1 X-73.066 Y46.086 Z1.796
G1 X-73.058 Y45.976 Z1.792
G1 X-73.041 Y45.868 Z1.788
G1 X-73.017 Y45.761 Z1.784
G1 X-72.985 Y45.656 Z1.781
G1 X-72.946 Y45.553 Z1.777
G1 X-72.899 Y45.454 Z1.773
G1 X-72.845 Y45.358 Z1.769
G1 X-72.784 Y45.267 Z1.765
G1 X-72.717 Y45.18 Z1.761
G1 X-72.644 Y45.098 Z1.758
G1 X-72.565 Y45.022 Z1.754
G1 X-72.48 Y44.952 Z1.75
G1 X-72.391 Y44.888 Z1.746
G1 X-72.297 Y44.831 Z1.742
G1 X-72.2 Y44.781 Z1.738
G1 X-72.099 Y44.738 Z1.735
G1 X-71.995 Y44.702 Z1.731
G1 X-71.889 Y44.675 Z1.727
G1 X-71.781 Y44.655 Z1.723
G1 X-71.672 Y44.642 Z1.719
G1 X-71.562 Y44.638 Z1.715
G1 X-71.452 Y44.642 Z1.712
G1 X-71.343 Y44.654 Z1.708
G1 X-71.235 Y44.673 Z1.704
G1 X-71.129 Y44.701 Z1.7
G1 X-71.025 Y44.736 Z1.696
G1 X-70.924 Y44.778 Z1.692
G1 X-70.826 Y44.828 Z1.689
G1 X-70.732 Y44.885 Z1.685
G1 X-70.643 Y44.949 Z1.681
G1 X-70.558 Y45.018 Z1.677
G1 X-70.479 Y45.094 Z1.673
G1 X-70.405 Y45.176 Z1.669
G1 X-70.337 Y45.262 Z1.666
G1 X-70.276 Y45.353 Z1.662
G1 X-70.222 Y45.449 Z1.658
G1 X-70.175 Y45.548 Z1.654
G1 X-70.135 Y45.65 Z1.65
G1 X-70.103 Y45.755 Z1.646
G1 X-70.078 Y45.862 Z1.643
G1 X-70.061 Y45.97 Z1.639
G1 X-70.053 Y46.08 Z1.635
G1 X-70.052 Y46.19 Z1.631
G1 X-70.059 Y46.299 Z1.627
G1 X-70.074 Y46.408 Z1.623
G1 X-70.097 Y46.515 Z1.62
G1 X-70.128 Y46.621 Z1.616
G1 X-70.166 Y46.723 Z1.612
G1 X-70.212 Y46.823 Z1.608
G1 X-70.264 Y46.919 Z1.604
G1 X-70.324 Y47.012 Z1.6
G1 X-70.39 Y47.099 Z1.597
G1 X-70.463 Y47.182 Z1.593
G1 X-70.541 Y47.259 Z1.589
G1 X-70.625 Y47.33 Z1.585
G1 X-70.713 Y47.395 Z1.581
G1 X-70.806 Y47.453 Z1.577
G1 X-70.903 Y47.504 Z1.574
G1 X-71.004 Y47.548 Z1.57
G1 X-71.107 Y47.585 Z1.566
G1 X-71.213 Y47.614 Z1.562
G1 X-71.321 Y47.635 Z1.558
G1 X-71.43 Y47.649 Z1.554
G1 X-71.539 Y47.654 Z1.551
G1 X-71.649 Y47.652 Z1.547
G1 X-71.758 Y47.641 Z1.543
G1 X-71.866 Y47.623 Z1.539
G1 X-71.973 Y47.597 Z1.535
G1 X-72.077 Y47.563 Z1.531
G1 X-72.179 Y47.521 Z1.528
G1 X-72.277 Y47.472 Z1.524
G1 X-72.372 Y47.417 Z1.52
G1 X-72.462 Y47.354 Z1.516
G1 X-72.548 Y47.285 Z1.512
G1 X-72.628 Y47.211 Z1.508
G1 X-72.702 Y47.13 Z1.505
G1 X-72.771 Y47.044 Z1.501
G1 X-72.833 Y46.954 Z1.497
G1 X-72.888 Y46.859 Z1.493
G1 X-72.937 Y46.76 Z1.489
G1 X-72.978 Y46.659 Z1.485
G1 X-73.011 Y46.554 Z1.482
G1 X-73.037 Y46.447 Z1.478
G1 X-73.055 Y46.339 Z1.474
G1 X-73.065 Y46.23 Z1.47
G1 X-73.067 Y46.12 Z1.466
G1 X-73.061 Y46.01 Z1.462
G1 X-73.047 Y45.902 Z1.459
G1 X-73.026 Y45.794 Z1.455
G1 X-72.996 Y45.688 Z1.451
G1 X-72.959 Y45.585 Z1.447
G1 X-72.915 Y45.485 Z1.443
G1 X-72.863 Y45.388 Z1.439
G1 X-72.804 Y45.295 Z1.436
G1 X-72.739 Y45.207 Z1.432
G1 X-72.668 Y45.123 Z1.428
G1 X-72.59 Y45.046 Z1.424
G1 X-72.507 Y44.973 Z1.42
G1 X-72.42 Y44.908 Z1.416
G1 X-72.327 Y44.848 Z1.413
G1 X-72.231 Y44.796 Z1.409
G1 X-72.131 Y44.751 Z1.405
G1 X-72.028 Y44.713 Z1.401
G1 X-71.922 Y44.682 Z1.397
G1 X-71.815 Y44.66 Z1.393
G1 X-71.706 Y44.645 Z1.39
G1 X-71.597 Y44.639 Z1.386
G1 X-71.487 Y44.64 Z1.382
G1 X-71.377 Y44.649 Z1.378
G1 X-71.269 Y44.666 Z1.374
G1 X-71.162 Y44.691 Z1.37
G1 X-71.057 Y44.724 Z1.367
G1 X-70.955 Y44.764 Z1.363
G1 X-70.856 Y44.812 Z1.359
G1 X-70.761 Y44.867 Z1.355
G1 X-70.67 Y44.928 Z1.351
G1 X-70.584 Y44.996 Z1.347
G1 X-70.503 Y45.07 Z1.344
G1 X-70.427 Y45.15 Z1.34
G1 X-70.358 Y45.234 Z1.336
G1 X-70.295 Y45.324 Z1.332
G1 X-70.238 Y45.418 Z1.328
G1 X-70.189 Y45.516 Z1.324
G1 X-70.147 Y45.618 Z1.321
G1 X-70.112 Y45.722 Z1.317
G1 X-70.085 Y45.828 Z1.313
G1 X-70.066 Y45.936 Z1.309
G1 X-70.055 Y46.045 Z1.305
G1 X-70.051 Y46.155 Z1.301
G1 X-70.056 Y46.265 Z1.298
G1 X-70.068 Y46.374 Z1.294
G1 X-70.089 Y46.482 Z1.29
G1 X-70.117 Y46.588 Z1.286
G1 X-70.153 Y46.691 Z1.282
G1 X-70.197 Y46.792 Z1.278
G1 X-70.247 Y46.89 Z1.275
G1 X-70.305 Y46.983 Z1.271
G1 X-70.369 Y47.072 Z1.267
G1 X-70.439 Y47.156 Z1.263
G1 X-70.516 Y47.235 Z1.259
G1 X-70.598 Y47.308 Z1.255
G1 X-70.685 Y47.375 Z1.252
G1 X-70.776 Y47.435 Z1.248
G1 X-70.872 Y47.489 Z1.244
G1 X-70.972 Y47.535 Z1.24
G1 X-71.074 Y47.574 Z1.236
G1 X-71.179 Y47.606 Z1.232
G1 X-71.287 Y47.63 Z1.229
G1 X-71.395 Y47.645 Z1.225
G1 X-71.505 Y47.653 Z1.221
G1 X-71.614 Z1.217
G1 X-71.724 Y47.645 Z1.213
G1 X-71.833 Y47.629 Z1.209
G1 X-71.94 Y47.606 Z1.206
G1 X-72.045 Y47.574 Z1.202
G1 X-72.147 Y47.535 Z1.198
G1 X-72.247 Y47.489 Z1.194
G1 X-72.343 Y47.435 Z1.19
G1 X-72.434 Y47.375 Z1.186
G1 X-72.521 Y47.308 Z1.183
G1 X-72.603 Y47.235 Z1.179
G1 X-72.68 Y47.156 Z1.175
G1 X-72.75 Y47.072 Z1.171
G1 X-72.814 Y46.983 Z1.167
G1 X-72.872 Y46.889 Z1.163
G1 X-72.922 Y46.792 Z1.16
G1 X-72.966 Y46.691 Z1.156
G1 X-73.002 Y46.587 Z1.152
G1 X-73.03 Y46.481 Z1.148
G1 X-73.05 Y46.373 Z1.144
G1 X-73.063 Y46.264 Z1.14
G1 X-73.067 Y46.155 Z1.137
G1 X-73.064 Y46.045 Z1.133
G1 X-73.053 Y45.936 Z1.129
G1 X-73.033 Y45.828 Z1.125
G1 X-73.006 Y45.721 Z1.121
G1 X-72.972 Y45.617 Z1.117
G1 X-72.929 Y45.516 Z1.114
G1 X-72.88 Y45.418 Z1.11
G1 X-72.823 Y45.324 Z1.106
G1 X-72.76 Y45.234 Z1.102
G1 X-72.691 Y45.149 Z1.098
G1 X-72.615 Y45.069 Z1.094
G1 X-72.534 Y44.995 Z1.091
G1 X-72.448 Y44.928 Z1.087
G1 X-72.357 Y44.866 Z1.083
G1 X-72.262 Y44.812 Z1.079
G1 X-72.163 Y44.764 Z1.075
G1 X-72.06 Y44.724 Z1.071
G1 X-71.956 Y44.691 Z1.068
G1 X-71.849 Y44.666 Z1.064
G1 X-71.74 Y44.649 Z1.06
G1 X-71.631 Y44.64 Z1.056
G1 X-71.521 Y44.639 Z1.052
G1 X-71.412 Y44.645 Z1.048
G1 X-71.303 Y44.66 Z1.045
G1 X-71.196 Y44.683 Z1.041
G1 X-71.09 Y44.713 Z1.037
G1 X-70.987 Y44.751 Z1.033
G1 X-70.887 Y44.796 Z1.029
G1 X-70.791 Y44.849 Z1.025
G1 X-70.698 Y44.908 Z1.022
G1 X-70.611 Y44.974 Z1.018
G1 X-70.528 Y45.046 Z1.014
G1 X-70.451 Y45.124 Z1.01
G1 X-70.379 Y45.207 Z1.006
G1 X-70.314 Y45.296 Z1.002
G1 X-70.255 Y45.388 Z0.999
G1 X-70.204 Y45.485 Z0.995
G1 X-70.159 Y45.586 Z0.991
G1 X-70.122 Y45.689 Z0.987
G1 X-70.093 Y45.795 Z0.983
G1 X-70.071 Y45.902 Z0.979
G1 X-70.057 Y46.011 Z0.976
G1 X-70.051 Y46.121 Z0.972
G1 X-70.054 Y46.23 Z0.968
G1 X-70.064 Y46.34 Z0.964
G1 X-70.082 Y46.448 Z0.96
G1 X-70.108 Y46.555 Z0.956
G1 X-70.141 Y46.659 Z0.953
G1 X-70.182 Y46.761 Z0.949
G1 X-70.23 Y46.86 Z0.945
G1 X-70.286 Y46.954 Z0.941
G1 X-70.348 Y47.045 Z0.937
G1 X-70.417 Y47.13 Z0.933
G1 X-70.491 Y47.211 Z0.93
G1 X-70.571 Y47.286 Z0.926
G1 X-70.657 Y47.355 Z0.922
G1 X-70.747 Y47.417 Z0.918
G1 X-70.842 Y47.473 Z0.914
G1 X-70.94 Y47.521 Z0.91
G1 X-71.042 Y47.563 Z0.907
G1 X-71.146 Y47.597 Z0.903
G1 X-71.253 Y47.623 Z0.899
G1 X-71.361 Y47.641 Z0.895
G1 X-71.47 Y47.652 Z0.891
G1 X-71.58 Y47.654 Z0.887
G1 X-71.69 Y47.649 Z0.884
G1 X-71.799 Y47.635 Z0.88
G1 X-71.906 Y47.614 Z0.876
G1 X-72.012 Y47.585 Z0.872
G1 X-72.115 Y47.548 Z0.868
G1 X-72.216 Y47.504 Z0.864
G1 X-72.313 Y47.453 Z0.861
G1 X-72.406 Y47.394 Z0.857
G1 X-72.495 Y47.329 Z0.853
G1 X-72.578 Y47.258 Z0.849
G1 X-72.656 Y47.181 Z0.845
G1 X-72.729 Y47.099 Z0.841
G1 X-72.795 Y47.011 Z0.838
G1 X-72.854 Y46.919 Z0.834
G1 X-72.907 Y46.823 Z0.83
G1 X-72.953 Y46.723 Z0.826
G1 X-72.991 Y46.62 Z0.822
G1 X-73.022 Y46.515 Z0.818
G1 X-73.045 Y46.407 Z0.815
G1 X-73.06 Y46.299 Z0.811
G1 X-73.067 Y46.189 Z0.807
G1 X-73.066 Y46.079 Z0.803
G1 X-73.057 Y45.97 Z0.799
G1 X-73.04 Y45.861 Z0.795
G1 X-73.016 Y45.754 Z0.792
G1 X-72.983 Y45.65 Z0.788
G1 X-72.943 Y45.547 Z0.784
G1 X-72.896 Y45.448 Z0.78
G1 X-72.842 Y45.353 Z0.776
G1 X-72.781 Y45.262 Z0.772
G1 X-72.713 Y45.175 Z0.769
G1 X-72.639 Y45.094 Z0.765
G1 X-72.56 Y45.018 Z0.761
G1 X-72.475 Y44.948 Z0.757
G1 X-72.386 Y44.885 Z0.753
G1 X-72.292 Y44.828 Z0.749
G1 X-72.194 Y44.778 Z0.746
G1 X-72.093 Y44.736 Z0.742
G1 X-71.989 Y44.701 Z0.738
G1 X-71.883 Y44.673 Z0.734
G1 X-71.775 Y44.654 Z0.73
G1 X-71.665 Y44.642 Z0.726
G1 X-71.556 Y44.638 Z0.723
G1 X-71.446 Y44.642 Z0.719
G1 X-71.337 Y44.655 Z0.715
G1 X-71.229 Y44.675 Z0.711
G1 X-71.123 Y44.703 Z0.707
G1 X-71.019 Y44.738 Z0.703
G1 X-70.918 Y44.781 Z0.7
G1 X-70.821 Y44.831 Z0.696
G1 X-70.727 Y44.889 Z0.692
G1 X-70.638 Y44.953 Z0.688
G1 X-70.553 Y45.023 Z0.684
G1 X-70.474 Y45.099 Z0.68
G1 X-70.401 Y45.181 Z0.677
G1 X-70.334 Y45.267 Z0.673
G1 X-70.273 Y45.359 Z0.669
G1 X-70.219 Y45.454 Z0.665
G1 X-70.172 Y45.554 Z0.661
G1 X-70.133 Y45.656 Z0.657
G1 X-70.101 Y45.761 Z0.654
G1 X-70.077 Y45.868 Z0.65
G1 X-70.061 Y45.977 Z0.646
G1 X-70.052 Y46.086 Z0.642
G1 Y46.196 Z0.638
G1 X-70.06 Y46.306 Z0.634
G1 X-70.075 Y46.414 Z0.631
G1 X-70.099 Y46.521 Z0.627
G1 X-70.13 Y46.627 Z0.623
G1 X-70.168 Y46.729 Z0.619
G1 X-70.215 Y46.829 Z0.615
G1 X-70.268 Y46.925 Z0.611
G1 X-70.328 Y47.017 Z0.608
G1 X-70.394 Y47.104 Z0.604
G1 X-70.467 Y47.186 Z0.6
G1 X-70.546 Y47.263 Z0.596
G1 X-70.63 Y47.334 Z0.592
G1 X-70.718 Y47.398 Z0.588
G1 X-70.812 Y47.456 Z0.585
G1 X-70.909 Y47.507 Z0.581
G1 X-71.01 Y47.551 Z0.577
G1 X-71.113 Y47.587 Z0.573
G1 X-71.219 Y47.616 Z0.569
G1 X-71.327 Y47.636 Z0.565
G1 X-71.436 Y47.649 Z0.562
G1 X-71.546 Y47.654 Z0.558
G1 X-71.655 Y47.651 Z0.554
G1 X-71.764 Y47.64 Z0.55
G1 X-71.873 Y47.621 Z0.546
G1 X-71.979 Y47.595 Z0.542
G1 X-72.083 Y47.56 Z0.539
G1 X-72.185 Y47.519 Z0.535
G1 X-72.283 Y47.469 Z0.531
G1 X-72.377 Y47.413 Z0.527
G1 X-72.467 Y47.35 Z0.523
G1 X-72.552 Y47.281 Z0.519
G1 X-72.632 Y47.206 Z0.516
G1 X-72.707 Y47.125 Z0.512
G1 X-72.775 Y47.039 Z0.508
G1 X-72.836 Y46.948 Z0.504
G1 X-72.891 Y46.853 Z0.5
G1 X-72.939 Y46.755 Z0.496
G1 X-72.98 Y46.653 Z0.493
G1 X-73.013 Y46.548 Z0.489
G1 X-73.038 Y46.441 Z0.485
G1 X-73.056 Y46.333 Z0.481
G1 X-73.065 Y46.223 Z0.477
G1 X-73.067 Y46.114 Z0.473
G1 X-73.061 Y46.004 Z0.47
G1 X-73.046 Y45.895 Z0.466
G1 X-73.024 Y45.788 Z0.462
G1 X-72.994 Y45.682 Z0.458
G1 X-72.957 Y45.579 Z0.454
G1 X-72.912 Y45.479 Z0.45
G1 X-72.86 Y45.382 Z0.447
G1 X-72.801 Y45.29 Z0.443
G1 X-72.735 Y45.202 Z0.439
G1 X-72.663 Y45.119 Z0.435
G1 X-72.586 Y45.041 Z0.431
G1 X-72.502 Y44.969 Z0.427
G1 X-72.414 Y44.904 Z0.424
G1 X-72.322 Y44.845 Z0.42
G1 X-72.225 Y44.793 Z0.416
G1 X-72.125 Y44.748 Z0.412
G1 X-72.022 Y44.711 Z0.408
G1 X-71.916 Y44.681 Z0.404
G1 X-71.809 Y44.659 Z0.401
G1 X-71.7 Y44.645 Z0.397
G1 X-71.59 Y44.638 Z0.393
G1 X-71.48 Y44.64 Z0.389
G1 X-71.371 Y44.65 Z0.385
G1 X-71.263 Y44.668 Z0.381
G1 X-71.156 Y44.693 Z0.378
G1 X-71.051 Y44.726 Z0.374
G1 X-70.95 Y44.767 Z0.37
G1 X-70.851 Y44.815 Z0.366
G1 X-70.756 Y44.87 Z0.362
G1 X-70.665 Y44.932 Z0.358
G1 X-70.579 Y45 Z0.355
G1 X-70.498 Y45.074 Z0.351
G1 X-70.423 Y45.154 Z0.347
G1 X-70.354 Y45.24 Z0.343
G1 X-70.291 Y45.33 Z0.339
G1 X-70.235 Y45.424 Z0.335
G1 X-70.186 Y45.522 Z0.331
G1 X-70.145 Y45.624 Z0.328
G1 X-70.11 Y45.728 Z0.324
G1 X-70.084 Y45.834 Z0.32
G1 X-70.065 Y45.943 Z0.316
G1 X-70.054 Y46.052 Z0.312
G1 X-70.051 Y46.162 Z0.308
G1 X-70.056 Y46.271 Z0.305
G1 X-70.069 Y46.38 Z0.301
G1 X-70.09 Y46.488 Z0.297
G1 X-70.119 Y46.594 Z0.293
G1 X-70.155 Y46.697 Z0.289
G1 X-70.199 Y46.798 Z0.285
G1 X-70.25 Y46.895 Z0.282
G1 X-70.308 Y46.988 Z0.278
G1 X-70.373 Y47.077 Z0.274
G1 X-70.444 Y47.161 Z0.27
G1 X-70.52 Y47.239 Z0.266
G1 X-70.603 Y47.312 Z0.262
G1 X-70.69 Y47.379 Z0.259
G1 X-70.782 Y47.439 Z0.255
G1 X-70.878 Y47.492 Z0.251
G1 X-70.978 Y47.538 Z0.247
G1 X-71.08 Y47.576 Z0.243
G1 X-71.186 Y47.607 Z0.239
G1 X-71.293 Y47.631 Z0.236
G1 X-71.402 Y47.646 Z0.232
G1 X-71.511 Y47.654 Z0.228
G1 X-71.621 Y47.653 Z0.224
G1 X-71.73 Y47.645 Z0.22
G1 X-71.839 Y47.628 Z0.216
G1 X-71.946 Y47.604 Z0.213
G1 X-72.051 Y47.572 Z0.209
G1 X-72.153 Y47.532 Z0.205
G1 X-72.252 Y47.486 Z0.201
G1 X-72.348 Y47.432 Z0.197
G1 X-72.439 Y47.371 Z0.193
G1 X-72.526 Y47.304 Z0.19
G1 X-72.608 Y47.23 Z0.186
G1 X-72.684 Y47.151 Z0.182
G1 X-72.754 Y47.067 Z0.178
G1 X-72.818 Y46.977 Z0.174
G1 X-72.875 Y46.884 Z0.17
G1 X-72.925 Y46.786 Z0.167
G1 X-72.968 Y46.685 Z0.163
G1 X-73.003 Y46.581 Z0.159
G1 X-73.031 Y46.475 Z0.155
G1 X-73.051 Y46.367 Z0.151
G1 X-73.063 Y46.258 Z0.147
G1 X-73.067 Y46.148 Z0.144
G1 X-73.064 Y46.038 Z0.14
G1 X-73.052 Y45.929 Z0.136
G1 X-73.032 Y45.821 Z0.132
G1 X-73.004 Y45.715 Z0.128
G1 X-72.969 Y45.611 Z0.124
G1 X-72.927 Y45.51 Z0.121
G1 X-72.877 Y45.412 Z0.117
G1 X-72.82 Y45.318 Z0.113
G1 X-72.756 Y45.229 Z0.109
G1 X-72.686 Y45.144 Z0.105
G1 X-72.611 Y45.065 Z0.101
G1 X-72.529 Y44.991 Z0.098
G1 X-72.443 Y44.924 Z0.094
G1 X-72.351 Y44.863 Z0.09
G1 X-72.256 Y44.809 Z0.086
G1 X-72.157 Y44.762 Z0.082
G1 X-72.054 Y44.722 Z0.078
G1 X-71.95 Y44.689 Z0.075
G1 X-71.843 Y44.665 Z0.071
G1 X-71.734 Y44.648 Z0.067
G1 X-71.625 Y44.64 Z0.063
G1 X-71.515 Y44.639 Z0.059
G1 X-71.405 Y44.646 Z0.055
G1 X-71.297 Y44.661 Z0.052
G1 X-71.189 Y44.684 Z0.048
G1 X-71.084 Y44.715 Z0.044
G1 X-70.981 Y44.753 Z0.04
G1 X-70.881 Y44.799 Z0.036
G1 X-70.785 Y44.852 Z0.032
G1 X-70.693 Y44.912 Z0.029
G1 X-70.606 Y44.978 Z0.025
G1 X-70.523 Y45.05 Z0.021
G1 X-70.446 Y45.129 Z0.017
G1 X-70.375 Y45.212 Z0.013
G1 X-70.31 Y45.301 Z0.009
G1 X-70.252 Y45.394 Z0.006
G1 X-70.201 Y45.491 Z0.002
G1 X-70.157 Y45.592 Z-0.002
G1 X-70.12 Y45.695 Z-0.006
G1 X-70.091 Y45.801 Z-0.01
G1 X-70.07 Y45.909 Z-0.014
G1 X-70.057 Y46.017 Z-0.017
G1 X-70.051 Y46.127 Z-0.021
G1 X-70.054 Y46.237 Z-0.025
G1 X-70.064 Y46.346 Z-0.029
G1 X-70.083 Y46.454 Z-0.033
G1 X-70.109 Y46.561 Z-0.037
G1 X-70.143 Y46.665 Z-0.04
G1 X-70.185 Y46.767 Z-0.044
G1 X-70.234 Y46.865 Z-0.048
G1 X-70.289 Y46.96 Z-0.052
G1 X-70.352 Y47.05 Z-0.056
G1 X-70.421 Y47.135 Z-0.06
G1 X-70.496 Y47.215 Z-0.063
G1 X-70.576 Y47.29 Z-0.067
G1 X-70.662 Y47.358 Z-0.071
G1 X-70.753 Y47.421 Z-0.075
G1 X-70.847 Y47.476 Z-0.079
G1 X-70.946 Y47.524 Z-0.083
G1 X-71.048 Y47.565 Z-0.086
G1 X-71.152 Y47.598 Z-0.09
G1 X-71.259 Y47.624 Z-0.094
G1 X-71.367 Y47.642 Z-0.098
G1 X-71.477 Y47.652 Z-0.102
G1 X-71.586 Y47.654 Z-0.106
G1 X-71.696 Y47.648 Z-0.109
G1 X-71.805 Y47.634 Z-0.113
G1 X-71.912 Y47.612 Z-0.117
G1 X-72.018 Y47.583 Z-0.121
G1 X-72.121 Y47.546 Z-0.125
G1 X-72.222 Y47.501 Z-0.129
G1 X-72.318 Y47.449 Z-0.132
G1 X-72.411 Y47.391 Z-0.136
G1 X-72.5 Y47.325 Z-0.14
G1 X-72.583 Y47.254 Z-0.144
G1 X-72.661 Y47.177 Z-0.148
G1 X-72.733 Y47.094 Z-0.152
G1 X-72.798 Y47.006 Z-0.155
G1 X-72.858 Y46.913 Z-0.159
G1 X-72.91 Y46.817 Z-0.163
G1 X-72.955 Y46.717 Z-0.167
G1 X-72.993 Y46.614 Z-0.171
G1 X-73.023 Y46.508 Z-0.175
G1 X-73.046 Y46.401 Z-0.178
G1 X-73.06 Y46.292 Z-0.182
G1 X-73.067 Y46.183 Z-0.186
G1 X-73.066 Y46.073 Z-0.19
G1 X-73.056 Y45.964 Z-0.194
G1 X-73.039 Y45.855 Z-0.198
G1 X-73.014 Y45.748 Z-0.201
G1 X-72.981 Y45.644 Z-0.205
G1 X-72.941 Y45.541 Z-0.209
G1 X-72.893 Y45.443 Z-0.213
G1 X-72.838 Y45.347 Z-0.217
G1 X-72.777 Y45.256 Z-0.221
G1 X-72.709 Y45.17 Z-0.224
G1 X-72.635 Y45.089 Z-0.228
G1 X-72.555 Y45.014 Z-0.232
G1 X-72.47 Y44.944 Z-0.236
G1 X-72.38 Y44.881 Z-0.24
G1 X-72.286 Y44.825 Z-0.244
G1 X-72.188 Y44.776 Z-0.247
G1 X-72.087 Y44.733 Z-0.251
G1 X-71.983 Y44.699 Z-0.255
G1 X-71.876 Y44.672 Z-0.259
G1 X-71.768 Y44.653 Z-0.263
G1 X-71.659 Y44.641 Z-0.267
G1 X-71.549 Y44.638 Z-0.27
G1 X-71.44 Y44.643 Z-0.274
G1 X-71.331 Y44.656 Z-0.278
G1 X-71.223 Y44.676 Z-0.282
G1 X-71.117 Y44.704 Z-0.286
G1 X-71.013 Y44.74 Z-0.29
G1 X-70.912 Y44.784 Z-0.293
G1 X-70.815 Y44.835 Z-0.297
G1 X-70.722 Y44.892 Z-0.301
G1 X-70.633 Y44.956 Z-0.305
G1 X-70.548 Y45.027 Z-0.309
G1 X-70.47 Y45.103 Z-0.313
G1 X-70.397 Y45.185 Z-0.316
G1 X-70.33 Y45.273 Z-0.32
G1 X-70.27 Y45.364 Z-0.324
G1 X-70.216 Y45.46 Z-0.328
G1 X-70.17 Y45.56 Z-0.332
G1 X-70.131 Y45.662 Z-0.336
G1 X-70.1 Y45.767 Z-0.339
G1 X-70.076 Y45.875 Z-0.343
G1 X-70.06 Y45.983 Z-0.347
G1 X-70.052 Y46.093 Z-0.351
G1 Y46.202 Z-0.355
G1 X-70.06 Y46.312 Z-0.359
G1 X-70.076 Y46.42 Z-0.362
G1 X-70.1 Y46.528 Z-0.366
G1 X-70.132 Y46.633 Z-0.37
G1 X-70.171 Y46.735 Z-0.374
G1 X-70.217 Y46.835 Z-0.378
G1 X-70.271 Y46.93 Z-0.382
G1 X-70.331 Y47.022 Z-0.385
G1 X-70.398 Y47.109 Z-0.389
G1 X-70.472 Y47.191 Z-0.393
G1 X-70.55 Y47.267 Z-0.397
G1 X-70.635 Y47.338 Z-0.401
G1 X-70.724 Y47.402 Z-0.405
G1 X-70.817 Y47.459 Z-0.408
G1 X-70.915 Y47.51 Z-0.412
G1 X-71.016 Y47.553 Z-0.416
G1 X-71.119 Y47.589 Z-0.42
G1 X-71.225 Y47.617 Z-0.424
G1 X-71.333 Y47.637 Z-0.428
G1 X-71.442 Y47.65 Z-0.431
G1 X-71.552 Y47.654 Z-0.435
G1 X-71.662 Y47.651 Z-0.439
G1 X-71.771 Y47.639 Z-0.443
G1 X-71.879 Y47.62 Z-0.447
G1 X-71.985 Y47.593 Z-0.451
G1 X-72.089 Y47.558 Z-0.454
G1 X-72.191 Y47.516 Z-0.458
G1 X-72.289 Y47.466 Z-0.462
G1 X-72.383 Y47.41 Z-0.466
G1 X-72.472 Y47.347 Z-0.47
G1 X-72.557 Y47.277 Z-0.474
G1 X-72.637 Y47.201 Z-0.477
G1 X-72.711 Y47.12 Z-0.481
G1 X-72.778 Y47.034 Z-0.485
G1 X-72.84 Y46.943 Z-0.489
G1 X-72.894 Y46.848 Z-0.493
G1 X-72.942 Y46.749 Z-0.497
G1 X-72.982 Y46.647 Z-0.5
G1 X-73.015 Y46.542 Z-0.504
G1 X-73.04 Y46.435 Z-0.508
G1 X-73.057 Y46.326 Z-0.512
G1 X-73.066 Y46.217 Z-0.516
G1 X-73.067 Y46.107 Z-0.52
G1 X-73.06 Y45.998 Z-0.523
G1 X-73.045 Y45.889 Z-0.527
G1 X-73.023 Y45.782 Z-0.531
G1 X-72.992 Y45.676 Z-0.535
G1 X-72.954 Y45.573 Z-0.539
G1 X-72.909 Y45.473 Z-0.543
G1 X-72.856 Y45.377 Z-0.546
G1 X-72.797 Y45.285 Z-0.55
G1 X-72.731 Y45.197 Z-0.554
G1 X-72.659 Y45.114 Z-0.558
G1 X-72.581 Y45.037 Z-0.562
G1 X-72.498 Y44.966 Z-0.566
G1 X-72.409 Y44.9 Z-0.569
G1 X-72.316 Y44.842 Z-0.573
G1 X-72.219 Y44.79 Z-0.577
G1 X-72.119 Y44.746 Z-0.581
G1 X-72.016 Y44.709 Z-0.585
G1 X-71.91 Y44.679 Z-0.589
G1 X-71.802 Y44.658 Z-0.592
G1 X-71.693 Y44.644 Z-0.596
G1 X-71.584 Y44.638 Z-0.6
G1 X-71.474 Y44.641 Z-0.604
G1 X-71.365 Y44.651 Z-0.608
G1 X-71.257 Y44.669 Z-0.612
G1 X-71.15 Y44.695 Z-0.615
G1 X-71.045 Y44.728 Z-0.619
G1 X-70.944 Y44.769 Z-0.623
G1 X-70.845 Y44.818 Z-0.627
G1 X-70.75 Y44.873 Z-0.631
G1 X-70.66 Y44.936 Z-0.635
G1 X-70.574 Y45.004 Z-0.638
G1 X-70.494 Y45.079 Z-0.642
G1 X-70.419 Y45.159 Z-0.646
G1 X-70.35 Y45.245 Z-0.65
G1 X-70.288 Y45.335 Z-0.654
G1 X-70.232 Y45.43 Z-0.658
G1 X-70.184 Y45.528 Z-0.661
G1 X-70.142 Y45.63 Z-0.665
G1 X-70.109 Y45.734 Z-0.669
G1 X-70.082 Y45.841 Z-0.673
G1 X-70.064 Y45.949 Z-0.677
G1 X-70.054 Y46.058 Z-0.681
G1 X-70.051 Y46.168 Z-0.684
G1 X-70.057 Y46.278 Z-0.688
G1 X-70.07 Y46.386 Z-0.692
G1 X-70.092 Y46.494 Z-0.696
G1 X-70.121 Y46.6 Z-0.7
G1 X-70.158 Y46.703 Z-0.704
G1 X-70.202 Y46.804 Z-0.707
G1 X-70.253 Y46.901 Z-0.711
G1 X-70.312 Y46.994 Z-0.715
G1 X-70.377 Y47.082 Z-0.719
G1 X-70.448 Y47.166 Z-0.723
G1 X-70.525 Y47.244 Z-0.727
G1 X-70.608 Y47.316 Z-0.73
G1 X-70.695 Y47.382 Z-0.734
G1 X-70.787 Y47.442 Z-0.738
G1 X-70.884 Y47.495 Z-0.742
G1 X-70.984 Y47.54 Z-0.746
G1 X-71.086 Y47.578 Z-0.75
G1 X-71.192 Y47.609 Z-0.753
G1 X-71.299 Y47.632 Z-0.757
G1 X-71.408 Y47.647 Z-0.761
G1 X-71.517 Y47.654 Z-0.765
G1 X-71.627 Y47.653 Z-0.769
G1 X-71.737 Y47.644 Z-0.773
G1 X-71.845 Y47.627 Z-0.776
G1 X-71.952 Y47.602 Z-0.78
G1 X-72.057 Y47.57 Z-0.784
G1 X-72.159 Y47.53 Z-0.788
G1 X-72.258 Y47.483 Z-0.792
G1 X-72.354 Y47.428 Z-0.796
G1 X-72.445 Y47.367 Z-0.799
G1 X-72.531 Y47.3 Z-0.803
G1 X-72.612 Y47.226 Z-0.807
G1 X-72.688 Y47.146 Z-0.811
G1 X-72.758 Y47.062 Z-0.815
G1 X-72.821 Y46.972 Z-0.819
G1 X-72.878 Y46.878 Z-0.822
G1 X-72.928 Y46.78 Z-0.826
G1 X-72.97 Y46.679 Z-0.83
G1 X-73.005 Y46.575 Z-0.834
G1 X-73.033 Y46.469 Z-0.838
G1 X-73.052 Y46.361 Z-0.842
G1 X-73.064 Y46.251 Z-0.845
G1 X-73.067 Y46.142 Z-0.849
G1 X-73.063 Y46.032 Z-0.853
G1 X-73.051 Y45.923 Z-0.857
G1 X-73.031 Y45.815 Z-0.861
G1 X-73.003 Y45.709 Z-0.865
G1 X-72.967 Y45.605 Z-0.868
G1 X-72.924 Y45.504 Z-0.872
G1 X-72.874 Y45.407 Z-0.876
G1 X-72.816 Y45.313 Z-0.88
G1 X-72.752 Y45.224 Z-0.884
G1 X-72.682 Y45.14 Z-0.888
G1 X-72.606 Y45.061 Z-0.891
G1 X-72.524 Y44.987 Z-0.895
G1 X-72.437 Y44.92 Z-0.899
G1 X-72.346 Y44.86 Z-0.903
G1 X-72.25 Y44.806 Z-0.907
G1 X-72.151 Y44.759 Z-0.911
G1 X-72.048 Y44.72 Z-0.914
G1 X-71.943 Y44.688 Z-0.918
G1 X-71.836 Y44.664 Z-0.922
G1 X-71.728 Y44.648 Z-0.926
G1 X-71.618 Y44.639 Z-0.93
G1 X-71.509 Z-0.934
G1 X-71.399 Y44.647 Z-0.937
G1 X-71.29 Y44.662 Z-0.941
G1 X-71.183 Y44.686 Z-0.945
G1 X-71.078 Y44.717 Z-0.949
G1 X-70.975 Y44.756 Z-0.953
G1 X-70.876 Y44.802 Z-0.957
G1 X-70.78 Y44.855 Z-0.96
G1 X-70.688 Y44.915 Z-0.964
G1 X-70.601 Y44.982 Z-0.968
G1 X-70.519 Y45.055 Z-0.972
G1 X-70.442 Y45.133 Z-0.976
G1 X-70.371 Y45.217 Z-0.98
G1 X-70.307 Y45.306 Z-0.983
G1 X-70.249 Y45.399 Z-0.987
G1 X-70.198 Y45.497 Z-0.991
G1 X-70.155 Y45.597 Z-0.995
G1 X-70.118 Y45.701 Z-0.999
G1 X-70.09 Y45.807 Z-1.003
G1 X-70.069 Y45.915 Z-1.006
G1 X-70.056 Y46.024 Z-1.01
G1 X-70.051 Y46.133 Z-1.014
G1 X-70.054 Y46.243 Z-1.018
G1 X-70.065 Y46.352 Z-1.022
G1 X-70.084 Y46.461 Z-1.026
G1 X-70.111 Y46.567 Z-1.029
G1 X-70.145 Y46.671 Z-1.033
G1 X-70.187 Y46.773 Z-1.037
G1 X-70.237 Y46.871 Z-1.041
G1 X-70.293 Y46.965 Z-1.045
G1 X-70.356 Y47.055 Z-1.049
G1 X-70.425 Y47.14 Z-1.052
G1 X-70.5 Y47.22 Z-1.056
G1 X-70.581 Y47.294 Z-1.06
G1 X-70.667 Y47.362 Z-1.064
G1 X-70.758 Y47.424 Z-1.068
G1 X-70.853 Y47.479 Z-1.072
G1 X-70.952 Y47.527 Z-1.075
G1 X-71.054 Y47.567 Z-1.079
G1 X-71.159 Y47.6 Z-1.083
G1 X-71.265 Y47.625 Z-1.087
G1 X-71.374 Y47.643 Z-1.091
G1 X-71.483 Y47.652 Z-1.095
G1 X-71.593 Y47.654 Z-1.098
G1 X-71.702 Y47.648 Z-1.102
G1 X-71.811 Y47.633 Z-1.106
G1 X-71.919 Y47.611 Z-1.11
G1 X-72.024 Y47.581 Z-1.114
G1 X-72.127 Y47.543 Z-1.118
G1 X-72.227 Y47.498 Z-1.121
G1 X-72.324 Y47.446 Z-1.125
G1 X-72.417 Y47.387 Z-1.129
G1 X-72.504 Y47.321 Z-1.133
G1 X-72.587 Y47.25 Z-1.137
G1 X-72.665 Y47.172 Z-1.141
G1 X-72.737 Y47.089 Z-1.144
G1 X-72.802 Y47.001 Z-1.148
G1 X-72.861 Y46.908 Z-1.152
G1 X-72.913 Y46.811 Z-1.156
G1 X-72.958 Y46.711 Z-1.16
G1 X-72.995 Y46.608 Z-1.164
G1 X-73.025 Y46.502 Z-1.167
G1 X-73.047 Y46.395 Z-1.171
G1 X-73.061 Y46.286 Z-1.175
G1 X-73.067 Y46.176 Z-1.179
G1 X-73.065 Y46.067 Z-1.183
G1 X-73.055 Y45.957 Z-1.187
G1 X-73.038 Y45.849 Z-1.19
G1 X-73.012 Y45.742 Z-1.194
G1 X-72.979 Y45.638 Z-1.198
G1 X-72.938 Y45.536 Z-1.202
G1 X-72.89 Y45.437 Z-1.206
G1 X-72.835 Y45.342 Z-1.21
G1 X-72.773 Y45.251 Z-1.213
G1 X-72.705 Y45.165 Z-1.217
G1 X-72.631 Y45.085 Z-1.221
G1 X-72.55 Y45.01 Z-1.225
G1 X-72.465 Y44.941 Z-1.229
G1 X-72.375 Y44.878 Z-1.233
G1 X-72.281 Y44.822 Z-1.236
G1 X-72.182 Y44.773 Z-1.24
G1 X-72.081 Y44.731 Z-1.244
G1 X-71.977 Y44.697 Z-1.248
G1 X-71.87 Y44.671 Z-1.252
G1 X-71.762 Y44.652 Z-1.256
G1 X-71.653 Y44.641 Z-1.259
G1 X-71.543 Y44.638 Z-1.263
G1 X-71.433 Y44.643 Z-1.267
G1 X-71.324 Y44.657 Z-1.271
G1 X-71.217 Y44.678 Z-1.275
G1 X-71.111 Y44.706 Z-1.279
G1 X-71.007 Y44.743 Z-1.282
G1 X-70.907 Y44.787 Z-1.286
G1 X-70.809 Y44.838 Z-1.29
G1 X-70.716 Y44.896 Z-1.294
G1 X-70.628 Y44.96 Z-1.298
G1 X-70.544 Y45.031 Z-1.302
G1 X-70.465 Y45.108 Z-1.305
G1 X-70.393 Y45.19 Z-1.309
G1 X-70.326 Y45.278 Z-1.313
G1 X-70.266 Y45.37 Z-1.317
G1 X-70.213 Y45.466 Z-1.321
G1 X-70.167 Y45.566 Z-1.325
G1 X-70.129 Y45.668 Z-1.328
G1 X-70.098 Y45.774 Z-1.332
G1 X-70.075 Y45.881 Z-1.336
G1 X-70.059 Y45.99 Z-1.34
G1 X-70.052 Y46.099 Z-1.344
G1 Y46.209 Z-1.348
G1 X-70.061 Y46.318 Z-1.352
G1 X-70.077 Y46.427 Z-1.355
G1 X-70.102 Y46.534 Z-1.359
G1 X-70.134 Y46.639 Z-1.363
G1 X-70.173 Y46.741 Z-1.367
G1 X-70.22 Y46.84 Z-1.371
G1 X-70.274 Y46.936 Z-1.375
G1 X-70.335 Y47.027 Z-1.378
G1 X-70.403 Y47.114 Z-1.382
G1 X-70.476 Y47.195 Z-1.386
G1 X-70.555 Y47.271 Z-1.39
G1 X-70.64 Y47.342 Z-1.394
G1 X-70.729 Y47.405 Z-1.398
G1 X-70.823 Y47.462 Z-1.401
G1 X-70.92 Y47.512 Z-1.405
G1 X-71.022 Y47.555 Z-1.409
G1 X-71.125 Y47.591 Z-1.413
G1 X-71.232 Y47.618 Z-1.417
G1 X-71.34 Y47.638 Z-1.421
G1 X-71.449 Y47.65 Z-1.424
G1 X-71.558 Y47.654 Z-1.428
G1 X-71.668 Y47.65 Z-1.432
G1 X-71.777 Y47.639 Z-1.436
G1 X-71.885 Y47.619 Z-1.44
G1 X-71.991 Y47.591 Z-1.444
G1 X-72.095 Y47.556 Z-1.447
G1 X-72.196 Y47.513 Z-1.451
G1 X-72.294 Y47.463 Z-1.455
G1 X-72.388 Y47.406 Z-1.459
G1 X-72.477 Y47.343 Z-1.463
G1 X-72.562 Y47.273 Z-1.467
G1 X-72.641 Y47.197 Z-1.47
G1 X-72.715 Y47.115 Z-1.474
G1 X-72.782 Y47.029 Z-1.478
G1 X-72.843 Y46.937 Z-1.482
G1 X-72.897 Y46.842 Z-1.486
G1 X-72.944 Y46.743 Z-1.49
G1 X-72.984 Y46.641 Z-1.493
G1 X-73.016 Y46.536 Z-1.497
G1 X-73.041 Y46.429 Z-1.501
G1 X-73.057 Y46.32 Z-1.505
G1 X-73.066 Y46.211 Z-1.509
G1 X-73.067 Y46.101 Z-1.513
G1 X-73.059 Y45.991 Z-1.516
G1 X-73.044 Y45.883 Z-1.52
G1 X-73.021 Y45.775 Z-1.524
G1 X-72.99 Y45.67 Z-1.528
G1 X-72.952 Y45.567 Z-1.532
G1 X-72.906 Y45.468 Z-1.536
G1 X-72.853 Y45.371 Z-1.539
G1 X-72.793 Y45.279 Z-1.543
G1 X-72.727 Y45.192 Z-1.547
G1 X-72.654 Y45.109 Z-1.551
G1 X-72.576 Y45.033 Z-1.555
G1 X-72.492 Y44.962 Z-1.559
G1 X-72.404 Y44.897 Z-1.562
G1 X-72.311 Y44.839 Z-1.566
G1 X-72.214 Y44.787 Z-1.57
G1 X-72.113 Y44.743 Z-1.574
G1 X-72.01 Y44.707 Z-1.578
G1 X-71.904 Y44.678 Z-1.582
G1 X-71.796 Y44.657 Z-1.585
G1 X-71.687 Y44.644 Z-1.589
G1 X-71.577 Y44.638 Z-1.593
G1 X-71.468 Y44.641 Z-1.597
G1 X-71.358 Y44.652 Z-1.601
G1 X-71.25 Y44.67 Z-1.605
G1 X-71.144 Y44.696 Z-1.608
G1 X-71.039 Y44.731 Z-1.612
G1 X-70.938 Y44.772 Z-1.616
G1 X-70.84 Y44.821 Z-1.62
G1 X-70.745 Y44.877 Z-1.624
G1 X-70.655 Y44.939 Z-1.628
G1 X-70.57 Y45.008 Z-1.631
G1 X-70.489 Y45.083 Z-1.635
G1 X-70.415 Y45.164 Z-1.639
G1 X-70.346 Y45.25 Z-1.643
G1 X-70.285 Y45.34 Z-1.647
G1 X-70.229 Y45.435 Z-1.651
G1 X-70.181 Y45.534 Z-1.654
G1 X-70.14 Y45.636 Z-1.658
G1 X-70.107 Y45.74 Z-1.662
G1 X-70.081 Y45.847 Z-1.666
G1 X-70.063 Y45.955 Z-1.67
G1 X-70.053 Y46.065 Z-1.674
G1 X-70.051 Y46.174 Z-1.677
G1 X-70.057 Y46.284 Z-1.681
G1 X-70.071 Y46.393 Z-1.685
G1 X-70.093 Y46.5 Z-1.689
G1 X-70.123 Y46.606 Z-1.693
G1 X-70.16 Y46.709 Z-1.697
G1 X-70.205 Y46.81 Z-1.7
G1 X-70.257 Y46.906 Z-1.704
G1 X-70.315 Y46.999 Z-1.708
G1 X-70.381 Y47.087 Z-1.712
G1 X-70.452 Y47.17 Z-1.716
G1 X-70.53 Y47.248 Z-1.72
G1 X-70.613 Y47.32 Z-1.723
G1 X-70.7 Y47.386 Z-1.727
G1 X-70.793 Y47.445 Z-1.731
G1 X-70.889 Y47.497 Z-1.735
G1 X-70.989 Y47.543 Z-1.739
G1 X-71.093 Y47.58 Z-1.743
G1 X-71.198 Y47.61 Z-1.746
G1 X-71.305 Y47.633 Z-1.75
G1 X-71.414 Y47.647 Z-1.754
G1 X-71.524 Y47.654 Z-1.758
G1 X-71.634 Y47.653 Z-1.762
G1 X-71.743 Y47.643 Z-1.766
G1 X-71.851 Y47.626 Z-1.769
G1 X-71.958 Y47.601 Z-1.773
G1 X-72.063 Y47.568 Z-1.777
G1 X-72.165 Y47.527 Z-1.781
G1 X-72.264 Y47.48 Z-1.785
G1 X-72.359 Y47.425 Z-1.789
G1 X-72.45 Y47.363 Z-1.792
G1 X-72.536 Y47.295 Z-1.796
G1 X-72.617 Y47.221 Z-1.8
G1 X-72.692 Y47.142 Z-1.804
G1 X-72.762 Y47.056 Z-1.808
G1 X-72.825 Y46.967 Z-1.812
G1 X-72.881 Y46.872 Z-1.815
G1 X-72.93 Y46.774 Z-1.819
G1 X-72.972 Y46.673 Z-1.823
G1 X-73.007 Y46.569 Z-1.827
G1 X-73.034 Y46.462 Z-1.831
G1 X-73.053 Y46.354 Z-1.835
G1 X-73.064 Y46.245 Z-1.838
G1 X-73.067 Y46.135 Z-1.842
G1 X-73.063 Y46.026 Z-1.846
G1 X-73.05 Y45.917 Z-1.85
G1 X-73.029 Y45.809 Z-1.854
G1 X-73.001 Y45.703 Z-1.858
G1 X-72.965 Y45.599 Z-1.861
G1 X-72.921 Y45.498 Z-1.865
G1 X-72.87 Y45.401 Z-1.869
G1 X-72.813 Y45.308 Z-1.873
G1 X-72.749 Y45.219 Z-1.877
G1 X-72.678 Y45.135 Z-1.881
G1 X-72.601 Y45.056 Z-1.884
G1 X-72.519 Y44.983 Z-1.888
G1 X-72.432 Y44.916 Z-1.892
G1 X-72.34 Y44.856 Z-1.896
G1 X-72.245 Y44.803 Z-1.9
G1 X-72.145 Y44.757 Z-1.904
G1 X-72.042 Y44.718 Z-1.907
G1 X-71.937 Y44.686 Z-1.911
G1 X-71.83 Y44.663 Z-1.915
G1 X-71.721 Y44.647 Z-1.919
G1 X-71.612 Y44.639 Z-1.923
G1 X-71.502 Z-1.927
G1 X-71.393 Y44.647 Z-1.93
G1 X-71.284 Y44.663 Z-1.934
G1 X-71.177 Y44.687 Z-1.938
G1 X-71.072 Y44.719 Z-1.942
G1 X-70.969 Y44.758 Z-1.946
G1 X-70.87 Y44.805 Z-1.95
G1 X-70.774 Y44.859 Z-1.953
G1 X-70.683 Y44.919 Z-1.957
G1 X-70.596 Y44.986 Z-1.961
G1 X-70.514 Y45.059 Z-1.965
G1 X-70.438 Y45.138 Z-1.969
G1 X-70.367 Y45.222 Z-1.973
G1 X-70.303 Y45.311 Z-1.976
G1 X-70.246 Y45.405 Z-1.98
G1 X-70.195 Y45.503 Z-1.984
G1 X-70.152 Y45.603 Z-1.988
G1 X-70.116 Y45.707 Z-1.992
G1 X-70.088 Y45.813 Z-1.996
G1 X-70.068 Y45.921 Z-1.999
G1 X-70.056 Y46.03 Z-2.003
G1 X-70.051 Y46.14 Z-2.007
G1 X-70.055 Y46.25 Z-2.011
G1 X-70.066 Y46.359 Z-2.015
G1 X-70.086 Y46.467 Z-2.019
G1 X-70.113 Y46.573 Z-2.022
G1 X-70.148 Y46.677 Z-2.026
G1 X-70.19 Y46.778 Z-2.03
G1 X-70.24 Y46.876 Z-2.034
G1 X-70.296 Y46.97 Z-2.038
G1 X-70.36 Y47.06 Z-2.042
G1 X-70.429 Y47.145 Z-2.045
G1 X-70.505 Y47.224 Z-2.049
G1 X-70.586 Y47.298 Z-2.053
G1 X-70.672 Y47.366 Z-2.057
G1 X-70.763 Y47.427 Z-2.061
G1 X-70.859 Y47.482 Z-2.065
G1 X-70.958 Y47.529 Z-2.068
G1 X-71.06 Y47.569 Z-2.072
G1 X-71.165 Y47.602 Z-2.076
G1 X-71.272 Y47.627 Z-2.08
G1 X-71.38 Y47.644 Z-2.084
G1 X-71.489 Y47.653 Z-2.088
G1 X-71.599 Y47.654 Z-2.091
G1 X-71.709 Y47.647 Z-2.095
G1 X-71.817 Y47.632 Z-2.099
G1 X-71.925 Y47.609 Z-2.103
G1 X-72.03 Y47.579 Z-2.107
G1 X-72.133 Y47.541 Z-2.111
G1 X-72.233 Y47.495 Z-2.114
G1 X-72.329 Y47.443 Z-2.118
G1 X-72.422 Y47.383 Z-2.122
G1 X-72.509 Y47.317 Z-2.126
G1 X-72.592 Y47.245 Z-2.13
G1 X-72.669 Y47.167 Z-2.134
G1 X-72.741 Y47.084 Z-2.137
G1 X-72.806 Y46.995 Z-2.141
G1 X-72.864 Y46.902 Z-2.145
G1 X-72.916 Y46.806 Z-2.149
G1 X-72.96 Y46.705 Z-2.153
G1 X-72.997 Y46.602 Z-2.157
G1 X-73.026 Y46.496 Z-2.16
G1 X-73.048 Y46.388 Z-2.164
G1 X-73.062 Y46.279 Z-2.168
G1 X-73.067 Y46.17 Z-2.172
G1 X-73.065 Y46.06 Z-2.176
G1 X-73.055 Y45.951 Z-2.18
G1 X-73.037 Y45.843 Z-2.183
G1 X-73.011 Y45.736 Z-2.187
G1 X-72.977 Y45.632 Z-2.191
G1 X-72.936 Y45.53 Z-2.195
G1 X-72.887 Y45.431 Z-2.199
G1 X-72.832 Y45.337 Z-2.203
G1 X-72.769 Y45.246 Z-2.206
G1 X-72.701 Y45.161 Z-2.21
G1 X-72.626 Y45.08 Z-2.214
G1 X-72.546 Y45.005 Z-2.218
G1 X-72.46 Y44.937 Z-2.222
G1 X-72.37 Y44.874 Z-2.226
G1 X-72.275 Y44.819 Z-2.229
G1 X-72.177 Y44.77 Z-2.233
G1 X-72.075 Y44.729 Z-2.237
G1 X-71.97 Y44.695 Z-2.241
G1 X-71.864 Y44.669 Z-2.245
G1 X-71.756 Y44.651 Z-2.249
G1 X-71.646 Y44.641 Z-2.252
G1 X-71.537 Y44.638 Z-2.256
G1 X-71.427 Y44.644 Z-2.26
G1 X-71.318 Y44.658 Z-2.264
G1 X-71.21 Y44.679 Z-2.268
G1 X-71.105 Y44.708 Z-2.272
G1 X-71.001 Y44.745 Z-2.275
G1 X-70.901 Y44.789 Z-2.279
G1 X-70.804 Y44.841 Z-2.283
G1 X-70.711 Y44.899 Z-2.287
G1 X-70.623 Y44.964 Z-2.291
G1 X-70.539 Y45.036 Z-2.295
G1 X-70.461 Y45.113 Z-2.298
G1 X-70.389 Y45.195 Z-2.302
G1 X-70.323 Y45.283 Z-2.306
G1 X-70.263 Y45.375 Z-2.31
G1 X-70.211 Y45.472 Z-2.314
G1 X-70.165 Y45.571 Z-2.318
G1 X-70.127 Y45.674 Z-2.321
G1 X-70.096 Y45.78 Z-2.325
G1 X-70.074 Y45.887 Z-2.329
G1 X-70.059 Y45.996 Z-2.333
G1 X-70.052 Y46.105 Z-2.337
G1 X-70.053 Y46.215 Z-2.341
G1 X-70.062 Y46.325 Z-2.344
G1 X-70.079 Y46.433 Z-2.348
G1 X-70.103 Y46.54 Z-2.352
G1 X-70.136 Y46.645 Z-2.356
G1 X-70.176 Y46.747 Z-2.36
G1 X-70.223 Y46.846 Z-2.364
G1 X-70.278 Y46.941 Z-2.367
G1 X-70.339 Y47.032 Z-2.371
G1 X-70.407 Y47.119 Z-2.375
G1 X-70.48 Y47.2 Z-2.379
G1 X-70.56 Y47.276 Z-2.383
G1 X-70.645 Y47.345 Z-2.387
G1 X-70.734 Y47.409 Z-2.39
G1 X-70.828 Y47.465 Z-2.394
G1 X-70.926 Y47.515 Z-2.398
G1 X-71.027 Y47.557 Z-2.402
G1 X-71.132 Y47.592 Z-2.406
G1 X-71.238 Y47.62 Z-2.41
G1 X-71.346 Y47.639 Z-2.413
G1 X-71.455 Y47.651 Z-2.417
G1 X-71.565 Y47.654 Z-2.421
G1 X-71.674 Y47.65 Z-2.425
G1 X-71.783 Y47.638 Z-2.429
G1 X-71.891 Y47.617 Z-2.433
G1 X-71.997 Y47.589 Z-2.436
G1 X-72.101 Y47.554 Z-2.44
G1 X-72.202 Y47.51 Z-2.444
G1 X-72.3 Y47.46 Z-2.448
G1 X-72.393 Y47.403 Z-2.452
G1 X-72.482 Y47.339 Z-2.456
G1 X-72.567 Y47.269 Z-2.459
G1 X-72.646 Y47.192 Z-2.463
G1 X-72.719 Y47.11 Z-2.467
G1 X-72.786 Y47.024 Z-2.471
G1 X-72.847 Y46.932 Z-2.475
G1 X-72.9 Y46.836 Z-2.479
G1 X-72.947 Y46.737 Z-2.482
G1 X-72.986 Y46.635 Z-2.486
G1 X-73.018 Y46.529 Z-2.49
G1 X-73.042 Y46.422 Z-2.494
G1 X-73.058 Y46.314 Z-2.498
G1 X-73.066 Y46.204 Z-2.502
G1 X-73.067 Y46.095 Z-2.505
G1 X-73.059 Y45.985 Z-2.509
G1 X-73.043 Y45.876 Z-2.513
G1 X-73.02 Y45.769 Z-2.517
G1 X-72.988 Y45.664 Z-2.521
G1 X-72.949 Y45.561 Z-2.525
G1 X-72.903 Y45.462 Z-2.528
G1 X-72.85 Y45.366 Z-2.532
G1 X-72.79 Y45.274 Z-2.536
G1 X-72.723 Y45.187 Z-2.54
G1 X-72.65 Y45.105 Z-2.544
G1 X-72.571 Y45.028 Z-2.548
G1 X-72.487 Y44.958 Z-2.551
G1 X-72.399 Y44.893 Z-2.555
G1 X-72.305 Y44.836 Z-2.559
G1 X-72.208 Y44.785 Z-2.563
G1 X-72.107 Y44.741 Z-2.567
G1 X-72.004 Y44.705 Z-2.571
G1 X-71.898 Y44.677 Z-2.574
G1 X-71.79 Y44.656 Z-2.578
G1 X-71.681 Y44.643 Z-2.582
G1 X-71.571 Y44.638 Z-2.586
G1 X-71.461 Y44.641 Z-2.59
G1 X-71.352 Y44.652 Z-2.594
G1 X-71.244 Y44.671 Z-2.597
G1 X-71.138 Y44.698 Z-2.601
G1 X-71.033 Y44.733 Z-2.605
G1 X-70.932 Y44.775 Z-2.609
G1 X-70.834 Y44.824 Z-2.613
G1 X-70.74 Y44.88 Z-2.617
G1 X-70.65 Y44.943 Z-2.62
G1 X-70.565 Y45.013 Z-2.624
G1 X-70.485 Y45.088 Z-2.628
G1 X-70.411 Y45.169 Z-2.632
G1 X-70.343 Y45.255 Z-2.636
G1 X-70.281 Y45.346 Z-2.64
G1 X-70.226 Y45.441 Z-2.643
G1 X-70.179 Y45.54 Z-2.647
G1 X-70.138 Y45.642 Z-2.651
G1 X-70.105 Y45.746 Z-2.655
G1 X-70.08 Y45.853 Z-2.659
G1 X-70.062 Y45.962 Z-2.663
G1 X-70.053 Y46.071 Z-2.666
G1 X-70.052 Y46.181 Z-2.67
G1 X-70.058 Y46.29 Z-2.674
G1 X-70.072 Y46.399 Z-2.678
G1 X-70.095 Y46.507 Z-2.682
G1 X-70.125 Y46.612 Z-2.686
G1 X-70.163 Y46.715 Z-2.689
G1 X-70.208 Y46.815 Z-2.693
G1 X-70.26 Y46.912 Z-2.697
G1 X-70.319 Y47.004 Z-2.701
G1 X-70.385 Y47.092 Z-2.705
G1 X-70.457 Y47.175 Z-2.709
G1 X-70.534 Y47.253 Z-2.712
G1 X-70.618 Y47.324 Z-2.716
G1 X-70.706 Y47.39 Z-2.72
G1 X-70.798 Y47.448 Z-2.724
G1 X-70.895 Y47.5 Z-2.728
G1 X-70.995 Y47.545 Z-2.732
G1 X-71.099 Y47.582 Z-2.735
G1 X-71.204 Y47.612 Z-2.739
G1 X-71.312 Y47.634 Z-2.743
G1 X-71.421 Y47.648 Z-2.747
G1 X-71.53 Y47.654 Z-2.751
G1 X-71.64 Y47.652 Z-2.755
G1 X-71.749 Y47.642 Z-2.758
G1 X-71.858 Y47.625 Z-2.762
G1 X-71.964 Y47.599 Z-2.766
G1 X-72.069 Y47.566 Z-2.77
G1 X-72.171 Y47.525 Z-2.774
G1 X-72.269 Y47.477 Z-2.778
G1 X-72.364 Y47.422 Z-2.781
G1 X-72.455 Y47.36 Z-2.785
G1 X-72.541 Y47.291 Z-2.789
G1 X-72.621 Y47.217 Z-2.793
G1 X-72.697 Y47.137 Z-2.797
G1 X-72.766 Y47.051 Z-2.801
G1 X-72.828 Y46.961 Z-2.804
G1 X-72.884 Y46.867 Z-2.808
G1 X-72.933 Y46.769 Z-2.812
G1 X-72.975 Y46.667 Z-2.816
G1 X-73.009 Y46.563 Z-2.82
G1 X-73.035 Y46.456 Z-2.824
G1 X-73.054 Y46.348 Z-2.827
G1 X-73.065 Y46.239 Z-2.831
G1 X-73.067 Y46.129 Z-2.835
G1 X-73.062 Y46.019 Z-2.839
G1 X-73.049 Y45.91 Z-2.843
G1 X-73.028 Y45.803 Z-2.847
G1 X-72.999 Y45.697 Z-2.85
G1 X-72.962 Y45.593 Z-2.854
G1 X-72.918 Y45.493 Z-2.858
G1 X-72.867 Y45.396 Z-2.862
G1 X-72.809 Y45.302 Z-2.866
G1 X-72.745 Y45.214 Z-2.87
G1 X-72.674 Y45.13 Z-2.873
G1 X-72.597 Y45.052 Z-2.877
G1 X-72.514 Y44.979 Z-2.881
G1 X-72.427 Y44.913 Z-2.885
G1 X-72.335 Y44.853 Z-2.889
G1 X-72.239 Y44.8 Z-2.893
G1 X-72.139 Y44.754 Z-2.896
G1 X-72.036 Y44.716 Z-2.9
G1 X-71.931 Y44.685 Z-2.904
G1 X-71.824 Y44.661 Z-2.908
G1 X-71.715 Y44.646 Z-2.912
G1 X-71.606 Y44.639 Z-2.916
G1 X-71.496 Z-2.919
G1 X-71.386 Y44.648 Z-2.923
G1 X-71.278 Y44.665 Z-2.927
G1 X-71.171 Y44.689 Z-2.931
G1 X-71.066 Y44.721 Z-2.935
G1 X-70.964 Y44.761 Z-2.939
G1 X-70.864 Y44.808 Z-2.942
G1 X-70.769 Y44.862 Z-2.946
G1 X-70.678 Y44.923 Z-2.95
G1 X-70.591 Y44.99 Z-2.954
G1 X-70.509 Y45.064 Z-2.958
G1 X-70.433 Y45.143 Z-2.962
G1 X-70.363 Y45.227 Z-2.965
G1 X-70.3 Y45.317 Z-2.969
G1 X-70.243 Y45.411 Z-2.973
G1 X-70.193 Y45.508 Z-2.977
G1 X-70.15 Y45.609 Z-2.981
G1 X-70.115 Y45.713 Z-2.985
G1 X-70.087 Y45.82 Z-2.988
G1 X-70.067 Y45.927 Z-2.992
G1 X-70.055 Y46.037 Z-2.996
G1 X-70.051 Y46.146 Z-3
G1 X-70.055 Y46.254
G1 X-70.066 Y46.361
G1 X-70.086 Y46.467
G1 X-70.112 Y46.571
G1 X-70.146 Y46.673
G1 X-70.187 Y46.773
G1 X-70.236 Y46.869
G1 X-70.291 Y46.962
G1 X-70.352 Y47.05
G1 X-70.42 Y47.134
G1 X-70.493 Y47.213
G1 X-70.572 Y47.286
G1 X-70.655 Y47.354
G1 X-70.744 Y47.415
G1 X-70.837 Y47.47
G1 X-70.933 Y47.518
G1 X-71.032 Y47.559
G1 X-71.134 Y47.593
G1 X-71.239 Y47.62
G1 X-71.345 Y47.639
G1 X-71.452 Y47.651
G1 X-71.559 Y47.654
G1 X-71.667 Y47.651
G1 X-71.774 Y47.639
G1 X-71.88 Y47.62
G1 X-71.984 Y47.593
G1 X-72.086 Y47.559
G1 X-72.186 Y47.518
G1 X-72.282 Y47.47
G1 X-72.375 Y47.415
G1 X-72.463 Y47.354
G1 X-72.547 Y47.286
G1 X-72.626 Y47.213
G1 X-72.699 Y47.134
G1 X-72.767 Y47.05
G1 X-72.828 Y46.962
G1 X-72.883 Y46.869
G1 X-72.931 Y46.773
G1 X-72.972 Y46.673
G1 X-73.006 Y46.571
G1 X-73.033 Y46.467
G1 X-73.052 Y46.361
G1 X-73.064 Y46.254
G1 X-73.067 Y46.146
G1 X-73.064 Y46.039
G1 X-73.052 Y45.932
G1 X-73.033 Y45.826
G1 X-73.006 Y45.721
G1 X-72.972 Y45.619
G1 X-72.931 Y45.52
G1 X-72.883 Y45.423
G1 X-72.828 Y45.331
G1 X-72.767 Y45.242
G1 X-72.699 Y45.159
G1 X-72.626 Y45.08
G1 X-72.547 Y45.006
G1 X-72.463 Y44.939
G1 X-72.375 Y44.878
G1 X-72.282 Y44.823
G1 X-72.186 Y44.774
G1 X-72.086 Y44.733
G1 X-71.984 Y44.699
G1 X-71.88 Y44.673
G1 X-71.774 Y44.653
G1 X-71.667 Y44.642
G1 X-71.559 Y44.638
G1 X-71.452 Y44.642
G1 X-71.345 Y44.653
G1 X-71.239 Y44.673
G1 X-71.134 Y44.699
G1 X-71.032 Y44.733
G1 X-70.933 Y44.774
G1 X-70.837 Y44.823
G1 X-70.744 Y44.878
G1 X-70.655 Y44.939
G1 X-70.572 Y45.006
G1 X-70.493 Y45.08
G1 X-70.42 Y45.159
G1 X-70.352 Y45.242
G1 X-70.291 Y45.331
G1 X-70.236 Y45.423
G1 X-70.187 Y45.52
G1 X-70.146 Y45.619
G1 X-70.112 Y45.721
G1 X-70.086 Y45.826
G1 X-70.066 Y45.932
G1 X-70.055 Y46.039
G1 X-70.051 Y46.146
; MOVEMENT_CUTTING
G1 X-70.047 Y46.307 F360
G1 X-69.917 Y46.832
G1 X-69.897 Y46.922
G1 X-69.885 Y47.014
G1 X-69.881 Y47.106
G1 X-69.884 Y47.198
G1 X-69.894 Y47.29
G1 X-69.911 Y47.38
G1 X-69.936 Y47.469
G1 X-69.968 Y47.556
G1 X-70.007 Y47.639
G1 X-70.052 Y47.72
G1 X-70.104 Y47.796
G1 X-70.161 Y47.868
G1 X-70.225 Y47.935
G1 X-70.298 Y48.016
G1 X-70.377 Y48.091
G1 X-70.46 Y48.162
G1 X-70.547 Y48.228
G1 X-70.638 Y48.288
G1 X-70.733 Y48.342
G1 X-70.831 Y48.39
G1 X-70.931 Y48.433
G1 X-71.034 Y48.469
G1 X-71.139 Y48.498
G1 X-71.246 Y48.522
G1 X-71.316 Y48.551
G1 X-71.383 Y48.588
G1 X-71.446 Y48.631
G1 X-71.504 Y48.68
G1 X-71.557 Y48.735
G1 X-71.603 Y48.796
G1 X-71.644 Y48.86
G1 X-71.677 Y48.929
G1 X-71.704 Y49
G1 X-71.723 Y49.074
G1 X-71.734 Y49.149
G1 X-71.738 Y49.225
G1 X-71.733 Y49.302
G1 X-71.721 Y49.377
G1 X-71.702 Y49.45
G1 X-71.675 Y49.522
G1 X-71.64 Y49.59
G1 X-71.6 Y49.654
G1 X-71.552 Y49.714
G1 X-71.314 Y49.929
G1 X-71.096 Y50.045
G1 X-70.875 Y50.155
G1 X-70.65 Y50.258
G1 X-70.423 Y50.354
G1 X-70.192 Y50.444
G1 X-69.959 Y50.526
G1 X-69.724 Y50.602
G1 X-69.487 Y50.671
G1 X-69.248 Y50.733
G1 X-69.007 Y50.787
G1 X-68.764 Y50.835
G1 X-68.521 Y50.875
G1 X-68.276 Y50.908
G1 X-67.877 Y50.951
G1 X-67.477 Y50.987
G1 X-67.077 Y51.017
G1 X-66.676 Y51.04
G1 X-66.275 Y51.057
G1 X-65.874 Y51.068
G1 X-65.473 Y51.072
G1 X-65.072 Y51.069
G1 X-63.627 Y51.081
G1 X-62.182 Y51.088
G1 X-60.737 Y51.09
G1 X-59.292 Y51.086
G1 X-25.256
G1 X-24.707 Y51.12
G1 X-24.157 Y51.147
G1 X-23.607 Y51.168
G1 X-23.057 Y51.184
G1 X-22.506 Y51.193
G1 X-21.956 Y51.197
G1 X-21.405 Y51.194
G1 X-20.121 Y51.199
G1 X-16.91 Y51.201
G1 X24.19
G1 X65.932
G1 X66.253 Y51.202
G1 X66.574 Y51.196
G1 X66.895 Y51.183
G1 X67.215 Y51.164
G1 X67.535 Y51.138
G1 X67.855 Y51.105
G1 X68.173 Y51.066
G1 X68.491 Y51.019
G1 X68.808 Y50.966
G1 X69.123 Y50.907
G1 X69.381 Y50.846
G1 X69.636 Y50.779
G1 X69.89 Y50.704
G1 X70.142 Y50.623
G1 X70.391 Y50.534
G1 X70.638 Y50.439
G1 X70.882 Y50.337
G1 X71.123 Y50.228
G1 X71.361 Y50.112
G1 X71.595 Y49.99
G1 X71.826 Y49.862
G1 X72.054 Y49.727
G1 X72.278 Y49.586
G1 X72.497 Y49.439
G1 X72.713 Y49.285
G1 X72.924 Y49.126
G1 X73.131 Y48.961
G1 X73.337 Y48.784
G1 X73.538 Y48.601
G1 X73.733 Y48.413
G1 X73.923 Y48.218
G1 X74.108 Y48.018
G1 X74.286 Y47.813
G1 X74.458 Y47.603
G1 X74.624 Y47.388
G1 X74.784 Y47.169
G1 X74.938 Y46.944
G1 X75.084 Y46.716
G1 X75.225 Y46.483
G1 X75.358 Y46.246
G1 X75.484 Y46.005
G1 X75.604 Y45.761
G1 X75.716 Y45.514
G1 X75.821 Y45.263
G1 X75.919 Y45.01
G1 X76.009 Y44.753
G1 X76.092 Y44.495
G1 X76.167 Y44.233
G1 X76.235 Y43.97
G1 X76.295 Y43.705
G1 X76.347 Y43.439
G1 X76.391 Y43.171
G1 X76.428 Y42.901
G1 X76.47 Y42.502
G1 X76.505 Y42.102
G1 X76.534 Y41.702
G1 X76.556 Y41.301
G1 X76.573 Y40.9
G1 X76.583 Y40.499
G1 X76.587 Y40.098
G1 X76.584 Y39.696
G1 X76.597 Y38.091
G1 X76.604 Y36.486
G1 X76.605 Y34.88
G1 X76.6 Y33.275
G1 X76.601 Y-0.761
G1 Y-40.577
G1 X76.597 Y-40.944
G1 X76.587 Y-41.311
G1 X76.569 Y-41.677
G1 X76.543 Y-42.043
G1 X76.51 Y-42.409
G1 X76.47 Y-42.773
G1 X76.422 Y-43.137
G1 X76.374 Y-43.408
G1 X76.319 Y-43.678
G1 X76.256 Y-43.946
G1 X76.186 Y-44.212
G1 X76.108 Y-44.476
G1 X76.023 Y-44.738
G1 X75.931 Y-44.997
G1 X75.831 Y-45.254
G1 X75.724 Y-45.507
G1 X75.61 Y-45.758
G1 X75.49 Y-46.005
G1 X75.362 Y-46.249
G1 X75.227 Y-46.489
G1 X75.086 Y-46.725
G1 X74.939 Y-46.951
G1 X74.786 Y-47.173
G1 X74.627 Y-47.39
G1 X74.461 Y-47.603
G1 X74.29 Y-47.81
G1 X74.112 Y-48.013
G1 X73.929 Y-48.21
G1 X73.74 Y-48.402
G1 X73.546 Y-48.589
G1 X73.346 Y-48.769
G1 X73.141 Y-48.944
G1 X72.931 Y-49.113
G1 X72.717 Y-49.276
G1 X72.498 Y-49.433
G1 X72.274 Y-49.583
G1 X72.046 Y-49.727
G1 X71.814 Y-49.864
G1 X71.579 Y-49.994
G1 X71.339 Y-50.118
G1 X71.096 Y-50.234
G1 X70.85 Y-50.344
G1 X70.601 Y-50.446
G1 X70.349 Y-50.541
G1 X70.095 Y-50.629
G1 X69.838 Y-50.709
G1 X69.578 Y-50.782
G1 X69.317 Y-50.848
G1 X69.054 Y-50.906
G1 X68.789 Y-50.956
G1 X68.523 Y-50.999
G1 X68.256 Y-51.034
G1 X67.857 Y-51.074
G1 X67.457 Y-51.108
G1 X67.057 Y-51.137
G1 X66.656 Y-51.158
G1 X66.255 Y-51.174
G1 X65.854 Y-51.184
G1 X65.453 Y-51.187
G1 X65.051 Y-51.185
G1 X63.446 Y-51.197
G1 X61.84 Y-51.204
G1 X60.235 Y-51.205
G1 X58.629 Y-51.201
G1 X22.667
G1 X-65.955
G1 X-66.322 Y-51.198
G1 X-66.688 Y-51.188
G1 X-67.055 Y-51.17
G1 X-67.421 Y-51.145
G1 X-67.787 Y-51.112
G1 X-68.151 Y-51.073
G1 X-68.515 Y-51.026
G1 X-68.787 Y-50.978
G1 X-69.056 Y-50.924
G1 X-69.324 Y-50.861
G1 X-69.591 Y-50.792
G1 X-69.855 Y-50.714
G1 X-70.117 Y-50.63
G1 X-70.376 Y-50.538
G1 X-70.633 Y-50.439
G1 X-70.887 Y-50.333
G1 X-71.138 Y-50.22
G1 X-71.386 Y-50.1
G1 X-71.63 Y-49.973
G1 X-71.87 Y-49.839
G1 X-72.107 Y-49.698
G1 X-72.334 Y-49.552
G1 X-72.556 Y-49.4
G1 X-72.773 Y-49.241
G1 X-72.986 Y-49.076
G1 X-73.194 Y-48.905
G1 X-73.397 Y-48.728
G1 X-73.595 Y-48.545
G1 X-73.787 Y-48.356
G1 X-73.974 Y-48.162
G1 X-74.155 Y-47.963
G1 X-74.331 Y-47.759
G1 X-74.5 Y-47.549
G1 X-74.663 Y-47.335
G1 X-74.82 Y-47.116
G1 X-74.971 Y-46.893
G1 X-75.115 Y-46.666
G1 X-75.253 Y-46.434
G1 X-75.384 Y-46.199
G1 X-75.508 Y-45.96
G1 X-75.625 Y-45.717
G1 X-75.735 Y-45.471
G1 X-75.838 Y-45.222
G1 X-75.933 Y-44.97
G1 X-76.022 Y-44.716
G1 X-76.103 Y-44.459
G1 X-76.176 Y-44.2
G1 X-76.242 Y-43.939
G1 X-76.301 Y-43.676
G1 X-76.352 Y-43.411
G1 X-76.395 Y-43.146
G1 X-76.431 Y-42.879
G1 X-76.472 Y-42.479
G1 X-76.507 Y-42.079
G1 X-76.535 Y-41.679
G1 X-76.557 Y-41.278
G1 X-76.574 Y-40.877
G1 X-76.583 Y-40.476
G1 X-76.587 Y-40.075
G1 X-76.584 Y-39.674
G1 X-76.597 Y-38.068
G1 X-76.604 Y-36.463
G1 X-76.605 Y-34.857
G1 X-76.6 Y-33.252
G1 X-76.601 Y3.995
G1 Y40.6
G1 X-76.597 Y40.967
G1 X-76.586 Y41.333
G1 X-76.568 Y41.7
G1 X-76.542 Y42.066
G1 X-76.508 Y42.431
G1 X-76.467 Y42.796
G1 X-76.418 Y43.16
G1 X-76.286 Y43.788
G1 X-76.134 Y44.412
G1 X-76.044 Y44.678
G1 X-75.947 Y44.942
G1 X-75.844 Y45.204
G1 X-75.734 Y45.462
G1 X-75.617 Y45.717
G1 X-75.493 Y45.97
; MOVEMENT_LEAD_OUT
G1 X-75.485 Y45.993 F180
G1 X-75.484 Y46.018
G1 X-75.49 Y46.042
G1 X-75.503 Y46.064
G1 X-75.521 Y46.081
G1 X-75.543 Y46.093
G1 X-75.568 Y46.098
G1 X-75.593 Y46.096
G1 X-75.617 Y46.087
G1 X-75.637 Y46.072
G1 X-75.652 Y46.052
G1 X-75.661 Y46.028
G1 X-75.663 Y46.003
G1 X-75.658 Y45.978
G1 X-75.646 Y45.955
G1 X-75.629 Y45.937
G1 X-75.607 Y45.924
G1 X-75.582 Y45.918
G1 X-75.557 Y45.919
G1 X-75.533 Y45.927
G1 X-75.284 Y46.049
; MOVEMENT_LINK_DIRECT
G1 X-71.384 Y47.959 F480
; MOVEMENT_LEAD_IN
G1 X-70.721 Y48.283 F180
G1 X-70.701 Y48.296
G1 X-70.686 Y48.314
; MOVEMENT_CUTTING
G1 X-70.517 Y48.588 F360
G1 X-70.406 Y48.703
G1 X-69.871 Y49.058
G1 X-69.631 Y49.151
G1 X-69.389 Y49.236
G1 X-69.144 Y49.314
G1 X-68.897 Y49.384
G1 X-68.648 Y49.447
G1 X-68.397 Y49.503
G1 X-68.145 Y49.551
G1 X-67.891 Y49.592
G1 X-67.636 Y49.625
G1 X-67.381 Y49.651
G1 X-66.82 Y49.695
G1 X-66.26 Y49.731
G1 X-65.699 Y49.761
G1 X-65.137 Y49.783
G1 X-64.576 Y49.799
G1 X-64.014 Y49.807
G1 X-63.452 Y49.809
G1 X-62.89 Y49.803
G1 X-61.606 Y49.814
G1 X-59.679 Y49.816
G1 X-37.202
G1 X-26.285
G1 X-25.109 Y49.854
G1 X-23.932 Y49.884
G1 X-22.755 Y49.906
G1 X-21.577 Y49.921
G1 X-20.4 Y49.928
G1 X-19.223
G1 X-16.012 Y49.93
G1 X29.583 Y49.931
G1 X64.904
G1 X65.305 Y49.935
G1 X65.706 Y49.931
G1 X66.108 Y49.919
G1 X66.508 Y49.9
G1 X66.909 Y49.874
G1 X67.309 Y49.839
G1 X67.708 Y49.797
G1 X68.106 Y49.748
G1 X68.37 Y49.702
G1 X68.632 Y49.648
G1 X68.893 Y49.586
G1 X69.151 Y49.517
G1 X69.408 Y49.441
G1 X69.662 Y49.357
G1 X69.913 Y49.265
G1 X70.162 Y49.166
G1 X70.408 Y49.06
G1 X70.65 Y48.946
G1 X70.889 Y48.826
G1 X71.124 Y48.698
G1 X71.341 Y48.569
G1 X71.553 Y48.432
G1 X71.761 Y48.29
G1 X71.965 Y48.14
G1 X72.163 Y47.985
G1 X72.357 Y47.823
G1 X72.545 Y47.655
G1 X72.729 Y47.481
G1 X72.906 Y47.302
G1 X73.078 Y47.117
G1 X73.244 Y46.927
G1 X73.404 Y46.732
G1 X73.557 Y46.531
G1 X73.704 Y46.326
G1 X73.845 Y46.117
G1 X73.979 Y45.903
G1 X74.106 Y45.685
G1 X74.227 Y45.463
G1 X74.34 Y45.238
G1 X74.446 Y45.009
G1 X74.545 Y44.777
G1 X74.637 Y44.542
G1 X74.721 Y44.304
G1 X74.797 Y44.063
G1 X74.866 Y43.82
G1 X74.928 Y43.576
G1 X74.981 Y43.329
G1 X75.027 Y43.081
G1 X75.082 Y42.729
G1 X75.131 Y42.375
G1 X75.174 Y42.021
G1 X75.21 Y41.666
G1 X75.239 Y41.31
G1 X75.262 Y40.954
G1 X75.278 Y40.598
G1 X75.288 Y40.241
G1 X75.291 Y39.885
G1 X75.312 Y38.601
G1 X75.326 Y37.316
G1 X75.334 Y36.032
G1 X75.335 Y34.747
G1 X75.33 Y33.463
G1 X75.331 Y-8.279
G1 Y-39.104
G1 X75.336 Y-39.563
G1 X75.333 Y-40.021
G1 X75.322 Y-40.48
G1 X75.304 Y-40.938
G1 X75.278 Y-41.396
G1 X75.245 Y-41.854
G1 X75.203 Y-42.31
G1 X75.168 Y-42.576
G1 X75.125 Y-42.84
G1 X75.075 Y-43.103
G1 X75.017 Y-43.364
G1 X74.951 Y-43.624
G1 X74.878 Y-43.881
G1 X74.798 Y-44.136
G1 X74.711 Y-44.389
G1 X74.616 Y-44.64
G1 X74.514 Y-44.887
G1 X74.405 Y-45.131
G1 X74.288 Y-45.373
G1 X74.17 Y-45.595
G1 X74.045 Y-45.814
G1 X73.912 Y-46.029
G1 X73.773 Y-46.24
G1 X73.628 Y-46.446
G1 X73.476 Y-46.648
G1 X73.318 Y-46.844
G1 X73.154 Y-47.036
G1 X72.983 Y-47.222
G1 X72.807 Y-47.403
G1 X72.626 Y-47.578
G1 X72.438 Y-47.747
G1 X72.246 Y-47.911
G1 X72.049 Y-48.068
G1 X71.847 Y-48.219
G1 X71.64 Y-48.364
G1 X71.428 Y-48.501
G1 X71.213 Y-48.633
G1 X70.993 Y-48.757
G1 X70.77 Y-48.874
G1 X70.543 Y-48.985
G1 X70.312 Y-49.088
G1 X70.079 Y-49.183
G1 X69.843 Y-49.272
G1 X69.604 Y-49.353
G1 X69.362 Y-49.426
G1 X69.118 Y-49.492
G1 X68.873 Y-49.55
G1 X68.522 Y-49.617
G1 X68.171 Y-49.676
G1 X67.818 Y-49.728
G1 X67.464 Y-49.773
G1 X67.109 Y-49.809
G1 X66.753 Y-49.838
G1 X66.397 Y-49.86
G1 X66.041 Y-49.873
G1 X65.684 Y-49.879
G1 X64.785 Y-49.901
G1 X63.886 Y-49.917
G1 X62.987 Y-49.926
G1 X62.088 Y-49.93
G1 X61.189 Y-49.927
G1 X57.978 Y-49.93
G1 X13.025 Y-49.931
G1 X-64.679
G1 X-65.081 Y-49.935
G1 X-65.482 Y-49.933
G1 X-65.883 Y-49.924
G1 X-66.284 Y-49.908
G1 X-66.685 Y-49.886
G1 X-67.085 Y-49.858
G1 X-67.485 Y-49.823
G1 X-67.884 Y-49.781
G1 X-68.139 Y-49.743
G1 X-68.392 Y-49.699
G1 X-68.643 Y-49.647
G1 X-68.893 Y-49.587
G1 X-69.142 Y-49.521
G1 X-69.388 Y-49.448
G1 X-69.632 Y-49.367
G1 X-69.873 Y-49.28
G1 X-70.113 Y-49.186
G1 X-70.349 Y-49.085
G1 X-70.582 Y-48.977
G1 X-70.812 Y-48.863
G1 X-71.039 Y-48.742
G1 X-71.262 Y-48.615
G1 X-71.482 Y-48.482
G1 X-71.687 Y-48.344
G1 X-71.888 Y-48.2
G1 X-72.084 Y-48.05
G1 X-72.276 Y-47.894
G1 X-72.462 Y-47.732
G1 X-72.644 Y-47.564
G1 X-72.82 Y-47.391
G1 X-72.991 Y-47.213
G1 X-73.156 Y-47.029
G1 X-73.316 Y-46.841
G1 X-73.47 Y-46.647
G1 X-73.618 Y-46.449
G1 X-73.759 Y-46.247
G1 X-73.894 Y-46.04
G1 X-74.023 Y-45.829
G1 X-74.145 Y-45.615
G1 X-74.261 Y-45.396
G1 X-74.37 Y-45.174
G1 X-74.472 Y-44.949
G1 X-74.567 Y-44.721
G1 X-74.654 Y-44.49
G1 X-74.735 Y-44.257
G1 X-74.809 Y-44.021
G1 X-74.875 Y-43.783
G1 X-74.934 Y-43.543
G1 X-74.985 Y-43.301
G1 X-75.047 Y-42.95
G1 X-75.101 Y-42.597
G1 X-75.149 Y-42.244
G1 X-75.189 Y-41.889
G1 X-75.223 Y-41.534
G1 X-75.249 Y-41.178
G1 X-75.268 Y-40.822
G1 X-75.28 Y-40.466
G1 X-75.285 Y-40.109
G1 X-75.307 Y-38.953
G1 X-75.323 Y-37.797
G1 X-75.332 Y-36.641
G1 X-75.334 Y-35.485
G1 X-75.33 Y-34.33
G1 X-75.331 Y-0.936
G1 Y39.522
G1 X-75.334 Y39.923
G1 X-75.33 Y40.324
G1 X-75.319 Y40.726
G1 X-75.299 Y41.127
G1 X-75.272 Y41.527
G1 X-75.238 Y41.927
G1 X-75.195 Y42.326
G1 X-75.145 Y42.724
G1 X-75.079 Y43.039
G1 X-75.023 Y43.273
G1 X-75.009 Y43.346
G1 X-74.988 Y43.417
G1 X-74.959 Y43.485
G1 X-74.924 Y43.551
G1 X-74.883 Y43.612
G1 X-74.835 Y43.669
G1 X-74.782 Y43.722
G1 X-74.725 Y43.768
G1 X-74.662 Y43.809
G1 X-74.596 Y43.843
G1 X-74.527 Y43.87
G1 X-74.456 Y43.89
G1 X-74.383 Y43.903
G1 X-73.741 Y43.915
G1 X-73.127 Y43.725
G1 X-72.971 Y43.679
G1 X-72.813 Y43.64
G1 X-72.653 Y43.608
G1 X-72.492 Y43.582
G1 X-72.33 Y43.563
G1 X-72.167 Y43.552
G1 X-72.004 Y43.547
G1 X-71.841 Y43.549
G1 X-71.679 Y43.559
G1 X-71.517 Y43.575
G1 X-71.355 Y43.599
G1 X-71.195 Y43.629
G1 X-71.036 Y43.666
G1 X-70.901 Y43.71
G1 X-70.767 Y43.761
G1 X-70.637 Y43.819
G1 X-70.51 Y43.883
G1 X-70.386 Y43.954
G1 X-70.266 Y44.032
G1 X-70.151 Y44.115
G1 X-70.04 Y44.205
G1 X-69.933 Y44.3
G1 X-69.832 Y44.4
G1 X-69.736 Y44.506
G1 X-69.646 Y44.616
G1 X-69.562 Y44.731
G1 X-69.483 Y44.85
G1 X-69.411 Y44.974
G1 X-69.346 Y45.1
G1 X-69.268 Y45.248
G1 X-69.196 Y45.399
G1 X-69.13 Y45.553
G1 X-69.07 Y45.709
G1 X-69.017 Y45.868
G1 X-68.971 Y46.029
G1 X-68.932 Y46.191
G1 X-68.899 Y46.355
G1 X-68.861 Y46.674
G1 X-68.73 Y46.968
G1 X-68.348 Y47.484
G1 X-67.819 Y47.848
G1 X-67.226 Y48.093
G1 X-66.977 Y48.159
G1 X-66.728 Y48.219
G1 X-66.476 Y48.272
G1 X-66.224 Y48.32
G1 X-65.97 Y48.36
G1 X-65.716 Y48.395
G1 X-65.46 Y48.422
G1 X-65.204 Y48.444
G1 X-64.948 Y48.458
G1 X-64.691 Y48.467
G1 X-63.835 Y48.497
G1 X-62.98 Y48.52
G1 X-62.123 Y48.536
G1 X-61.267 Y48.545
G1 X-60.411 Y48.546
G1 X-59.555 Y48.54
G1 X-56.344 Y48.546
G1 X-55.059
G1 X-27.445
G1 X-26.322 Y48.561
G1 X-25.198 Y48.581
G1 X-24.075 Y48.605
G1 X-22.951 Y48.635
G1 X-20.543 Y48.651
G1 X-18.135 Y48.661
G1 X-15.727 Y48.664
G1 X-13.318 Y48.661
G1 X-4.97
G1 X63.744
G1 X64.279 Y48.665
G1 X64.814 Y48.661
G1 X65.349 Y48.65
G1 X65.884 Y48.63
G1 X66.418 Y48.603
G1 X66.952 Y48.568
G1 X67.219 Y48.541
G1 X67.484 Y48.505
G1 X67.748 Y48.462
G1 X68.011 Y48.411
G1 X68.272 Y48.352
G1 X68.531 Y48.286
G1 X68.788 Y48.212
G1 X69.043 Y48.13
G1 X69.295 Y48.04
G1 X69.545 Y47.944
G1 X69.792 Y47.839
G1 X70.035 Y47.728
G1 X70.236 Y47.623
G1 X70.433 Y47.511
G1 X70.627 Y47.393
G1 X70.816 Y47.268
G1 X71.001 Y47.137
G1 X71.182 Y47.001
G1 X71.358 Y46.858
G1 X71.529 Y46.709
G1 X71.695 Y46.555
G1 X71.856 Y46.395
G1 X72.012 Y46.23
G1 X72.162 Y46.06
G1 X72.306 Y45.885
G1 X72.445 Y45.706
G1 X72.577 Y45.521
G1 X72.703 Y45.333
G1 X72.823 Y45.141
G1 X72.936 Y44.936
G1 X73.043 Y44.728
G1 X73.143 Y44.517
G1 X73.237 Y44.304
G1 X73.324 Y44.087
G1 X73.405 Y43.868
G1 X73.478 Y43.646
G1 X73.545 Y43.422
G1 X73.605 Y43.196
G1 X73.658 Y42.969
G1 X73.704 Y42.74
G1 X73.766 Y42.36
G1 X73.822 Y41.978
G1 X73.87 Y41.596
G1 X73.912 Y41.213
G1 X73.947 Y40.829
G1 X73.975 Y40.445
G1 X73.997 Y40.061
G1 X74.011 Y39.676
G1 X74.019 Y39.29
G1 X74.02 Y38.905
G1 X74.041 Y37.621
G1 X74.056 Y36.337
G1 X74.064 Y35.052
G1 X74.065 Y33.768
G1 X74.06 Y32.483
G1 X74.061 Y24.135
G1 Y-25.956
G1 X74.06 Y-38.799
G1 X74.064 Y-39.201
G1 X74.061 Y-39.602
G1 X74.052 Y-40.003
G1 X74.037 Y-40.404
G1 X74.015 Y-40.805
G1 X73.988 Y-41.205
G1 X73.953 Y-41.605
G1 X73.913 Y-42.005
G1 X73.875 Y-42.259
G1 X73.83 Y-42.512
G1 X73.778 Y-42.763
G1 X73.718 Y-43.013
G1 X73.651 Y-43.261
G1 X73.577 Y-43.507
G1 X73.495 Y-43.751
G1 X73.407 Y-43.992
G1 X73.311 Y-44.231
G1 X73.208 Y-44.466
G1 X73.109 Y-44.67
G1 X73.002 Y-44.87
G1 X72.89 Y-45.067
G1 X72.77 Y-45.26
G1 X72.645 Y-45.448
G1 X72.513 Y-45.633
G1 X72.375 Y-45.813
G1 X72.231 Y-45.988
G1 X72.082 Y-46.159
G1 X71.926 Y-46.324
G1 X71.766 Y-46.484
G1 X71.6 Y-46.639
G1 X71.429 Y-46.788
G1 X71.253 Y-46.931
G1 X71.073 Y-47.068
G1 X70.888 Y-47.2
G1 X70.699 Y-47.325
G1 X70.498 Y-47.444
G1 X70.294 Y-47.557
G1 X70.086 Y-47.664
G1 X69.875 Y-47.764
G1 X69.66 Y-47.857
G1 X69.443 Y-47.943
G1 X69.224 Y-48.022
G1 X69.001 Y-48.094
G1 X68.777 Y-48.159
G1 X68.551 Y-48.217
G1 X68.323 Y-48.268
G1 X67.943 Y-48.335
G1 X67.563 Y-48.396
G1 X67.181 Y-48.449
G1 X66.799 Y-48.495
G1 X66.415 Y-48.533
G1 X66.031 Y-48.564
G1 X65.647 Y-48.588
G1 X65.262 Y-48.604
G1 X64.877 Y-48.613
G1 X64.492 Y-48.615
G1 X63.336 Y-48.637
G1 X62.18 Y-48.653
G1 X61.024 Y-48.662
G1 X59.868 Y-48.664
G1 X58.712 Y-48.66
G1 X45.868 Y-48.661
G1 X-56.881
G1 X-63.945 Y-48.66
G1 X-64.404 Y-48.664
G1 X-64.863 Y-48.661
G1 X-65.321 Y-48.651
G1 X-65.78 Y-48.635
G1 X-66.238 Y-48.611
G1 X-66.696 Y-48.581
G1 X-67.153 Y-48.545
G1 X-67.398 Y-48.516
G1 X-67.643 Y-48.48
G1 X-67.886 Y-48.438
G1 X-68.128 Y-48.388
G1 X-68.368 Y-48.331
G1 X-68.607 Y-48.267
G1 X-68.844 Y-48.197
G1 X-69.079 Y-48.12
G1 X-69.311 Y-48.036
G1 X-69.541 Y-47.945
G1 X-69.768 Y-47.848
G1 X-69.992 Y-47.744
G1 X-70.213 Y-47.634
G1 X-70.409 Y-47.525
G1 X-70.6 Y-47.41
G1 X-70.788 Y-47.288
G1 X-70.971 Y-47.16
G1 X-71.15 Y-47.027
G1 X-71.324 Y-46.887
G1 X-71.494 Y-46.742
G1 X-71.659 Y-46.591
G1 X-71.819 Y-46.435
G1 X-71.973 Y-46.273
G1 X-72.122 Y-46.107
G1 X-72.266 Y-45.936
G1 X-72.403 Y-45.76
G1 X-72.535 Y-45.579
G1 X-72.661 Y-45.394
G1 X-72.78 Y-45.205
G1 X-72.893 Y-45.013
G1 X-73 Y-44.816
G1 X-73.1 Y-44.617
G1 X-73.194 Y-44.414
G1 X-73.28 Y-44.208
G1 X-73.36 Y-43.999
G1 X-73.433 Y-43.787
G1 X-73.514 Y-43.507
G1 X-73.588 Y-43.225
G1 X-73.656 Y-42.941
G1 X-73.717 Y-42.655
G1 X-73.771 Y-42.369
G1 X-73.818 Y-42.081
G1 X-73.859 Y-41.791
G1 X-73.893 Y-41.502
G1 X-73.92 Y-41.211
G1 X-73.94 Y-40.92
G1 X-73.953 Y-40.628
G1 X-73.989 Y-39.803
G1 X-74.018 Y-38.978
G1 X-74.039 Y-38.153
G1 X-74.053 Y-37.327
G1 X-74.06 Y-36.502
G1 X-74.059 Y-35.676
G1 X-74.052 Y-34.85
G1 X-74.06 Y-32.281
G1 X-74.061 Y-12.374
G1 Y38.359
G1 X-74.062 Y38.961
G1 X-74.056 Y39.563
G1 X-74.042 Y40.165
G1 X-74.02 Y40.766
G1 X-73.974 Y40.921
G1 X-73.898 Y41.062
G1 X-73.689 Y41.306
G1 X-73.171 Y41.685
G1 X-72.575 Y41.924
G1 X-71.958 Y42.102
G1 X-71.34 Y42.276
G1 X-71.162 Y42.329
G1 X-70.986 Y42.389
G1 X-70.812 Y42.455
G1 X-70.641 Y42.527
G1 X-70.473 Y42.605
G1 X-70.308 Y42.689
G1 X-70.146 Y42.78
G1 X-69.987 Y42.876
G1 X-69.832 Y42.978
G1 X-69.68 Y43.085
G1 X-69.533 Y43.198
G1 X-69.39 Y43.316
G1 X-69.149 Y43.585
G1 X-68.903 Y43.85
G1 X-68.661 Y44.159
G1 X-68.442 Y44.491
G1 X-68.257 Y44.829
G1 X-67.993 Y45.414
G1 X-67.634 Y45.947
G1 X-67.143 Y46.36
G1 X-66.574 Y46.658
G1 X-65.966 Y46.865
G1 X-65.688 Y46.929
G1 X-65.408 Y46.986
G1 X-65.127 Y47.036
G1 X-64.845 Y47.08
G1 X-64.562 Y47.117
G1 X-64.278 Y47.148
G1 X-63.994 Y47.172
G1 X-63.709 Y47.189
G1 X-63.424 Y47.199
G1 X-62.568 Y47.228
G1 X-61.712 Y47.25
G1 X-60.856 Y47.265
G1 X-60 Y47.274
G1 X-59.143 Y47.276
G1 X-58.287 Y47.27
G1 X-55.718 Y47.276
G1 X-28.747
G1 X-26.981 Y47.292
G1 X-25.215 Y47.314
G1 X-23.449 Y47.344
G1 X-21.684 Y47.38
G1 X-17.188 Y47.388
G1 X-12.693 Y47.391
G1 X29.691
G1 X63.085 Y47.39
G1 X63.567 Y47.397
G1 X64.048 Y47.396
G1 X64.53 Y47.389
G1 X65.011 Y47.375
G1 X65.492 Y47.353
G1 X65.973 Y47.325
G1 X66.453 Y47.29
G1 X66.933 Y47.248
G1 X67.164 Y47.214
G1 X67.394 Y47.173
G1 X67.623 Y47.126
G1 X67.85 Y47.071
G1 X68.076 Y47.01
G1 X68.299 Y46.942
G1 X68.521 Y46.868
G1 X68.74 Y46.787
G1 X68.957 Y46.699
G1 X69.171 Y46.605
G1 X69.382 Y46.505
G1 X69.556 Y46.411
G1 X69.726 Y46.311
G1 X69.893 Y46.206
G1 X70.056 Y46.094
G1 X70.215 Y45.976
G1 X70.37 Y45.854
G1 X70.521 Y45.725
G1 X70.666 Y45.592
G1 X70.807 Y45.453
G1 X70.943 Y45.31
G1 X71.074 Y45.161
G1 X71.2 Y45.009
G1 X71.32 Y44.851
G1 X71.666 Y44.311
G1 X71.773 Y44.103
G1 X71.874 Y43.892
G1 X71.968 Y43.679
G1 X72.055 Y43.462
G1 X72.136 Y43.243
G1 X72.209 Y43.021
G1 X72.276 Y42.797
G1 X72.335 Y42.571
G1 X72.387 Y42.343
G1 X72.432 Y42.114
G1 X72.47 Y41.884
G1 X72.531 Y41.46
G1 X72.584 Y41.035
G1 X72.629 Y40.61
G1 X72.668 Y40.183
G1 X72.699 Y39.756
G1 X72.723 Y39.329
G1 X72.74 Y38.901
G1 X72.749 Y38.473
G1 X72.751 Y38.045
G1 X72.771 Y36.761
G1 X72.785 Y35.476
G1 X72.793 Y34.192
G1 X72.794 Y32.908
G1 X72.79 Y31.623
G1 X72.791 Y-12.688
G1 X72.79 Y-37.733
G1 X72.797 Y-38.214
G1 Y-38.696
G1 X72.789 Y-39.178
G1 X72.774 Y-39.659
G1 X72.752 Y-40.14
G1 X72.722 Y-40.621
G1 X72.686 Y-41.101
G1 X72.641 Y-41.58
G1 X72.522 Y-42.212
G1 X72.477 Y-42.421
G1 X72.425 Y-42.629
G1 X72.367 Y-42.835
G1 X72.302 Y-43.039
G1 X72.23 Y-43.241
G1 X72.152 Y-43.44
G1 X72.067 Y-43.637
G1 X71.976 Y-43.831
G1 X71.879 Y-44.022
G1 X71.775 Y-44.209
G1 X71.666 Y-44.393
G1 X71.55 Y-44.574
G1 X71.158 Y-45.082
G1 X70.712 Y-45.544
G1 X70.212 Y-45.947
G1 X69.668 Y-46.289
G1 X69.46 Y-46.395
G1 X69.249 Y-46.494
G1 X69.034 Y-46.587
G1 X68.817 Y-46.673
G1 X68.597 Y-46.752
G1 X68.375 Y-46.824
G1 X68.151 Y-46.889
G1 X67.925 Y-46.948
G1 X67.697 Y-46.999
G1 X67.468 Y-47.043
G1 X67.237 Y-47.08
G1 X66.813 Y-47.139
G1 X66.388 Y-47.19
G1 X65.962 Y-47.235
G1 X65.536 Y-47.272
G1 X65.109 Y-47.302
G1 X64.681 Y-47.325
G1 X64.253 Y-47.341
G1 X63.825 Y-47.35
G1 X63.397 Y-47.352
G1 X61.599 Y-47.375
G1 X59.801 Y-47.39
G1 X58.003 Y-47.397
G1 X56.205 Y-47.398
G1 X54.407 Y-47.391
G1 X4.316
G1 X-45.774
G1 X-63.113 Y-47.39
G1 X-63.595 Y-47.397
G1 X-64.076 Y-47.396
G1 X-64.558 Y-47.388
G1 X-65.039 Y-47.373
G1 X-65.52 Y-47.351
G1 X-66.001 Y-47.322
G1 X-66.481 Y-47.286
G1 X-66.961 Y-47.243
G1 X-67.593 Y-47.126
G1 X-67.803 Y-47.082
G1 X-68.011 Y-47.03
G1 X-68.217 Y-46.972
G1 X-68.421 Y-46.908
G1 X-68.623 Y-46.837
G1 X-68.822 Y-46.759
G1 X-69.019 Y-46.675
G1 X-69.213 Y-46.585
G1 X-69.405 Y-46.488
G1 X-69.592 Y-46.385
G1 X-69.777 Y-46.276
G1 X-69.958 Y-46.162
G1 X-70.122 Y-46.046
G1 X-70.282 Y-45.925
G1 X-70.438 Y-45.798
G1 X-70.588 Y-45.665
G1 X-70.734 Y-45.527
G1 X-70.875 Y-45.384
G1 X-71.01 Y-45.236
G1 X-71.14 Y-45.082
G1 X-71.264 Y-44.925
G1 X-71.382 Y-44.762
G1 X-71.495 Y-44.596
G1 X-71.601 Y-44.425
G1 X-71.7 Y-44.251
G1 X-71.794 Y-44.073
G1 X-71.881 Y-43.892
G1 X-71.961 Y-43.708
G1 X-72.052 Y-43.468
G1 X-72.137 Y-43.226
G1 X-72.216 Y-42.981
G1 X-72.287 Y-42.734
G1 X-72.351 Y-42.486
G1 X-72.409 Y-42.235
G1 X-72.459 Y-41.983
G1 X-72.502 Y-41.73
G1 X-72.538 Y-41.476
G1 X-72.567 Y-41.22
G1 X-72.62 Y-40.661
G1 X-72.666 Y-40.101
G1 X-72.703 Y-39.54
G1 X-72.732 Y-38.979
G1 X-72.753 Y-38.418
G1 X-72.766 Y-37.856
G1 X-72.772 Y-37.294
G1 X-72.769 Y-36.732
G1 X-72.782 Y-35.448
G1 X-72.79 Y-34.164
G1 X-72.793 Y-32.879
G1 X-72.79 Y-31.595
G1 X-72.791 Y-21.32
G1 Y28.771
G1 X-72.79 Y37.761
G1 X-72.789 Y38.403
G1 X-72.784 Y39.046
G1 X-72.688 Y39.352
G1 X-72.368 Y39.909
G1 X-71.893 Y40.341
G1 X-71.353 Y40.689
G1 X-71.096 Y40.829
G1 X-70.972 Y40.915
G1 X-70.867 Y41.024
G1 X-70.787 Y41.151
G1 X-70.37 Y41.991
G1 X-70.295 Y42.137
G1 X-70.196 Y42.283
G1 X-70.009 Y42.534
G1 X-69.311 Y43.405
; MOVEMENT_LEAD_OUT
G1 X-69.284 Y43.445 F180
G1 X-69.263 Y43.489
G1 X-69.249 Y43.536
G1 X-69.242 Y43.584
G1 X-69.243 Y43.632
G1 X-69.251 Y43.68
G1 X-69.266 Y43.726
G1 X-69.288 Y43.769
G1 X-69.316 Y43.809
G1 X-69.351 Y43.843
G1 X-69.389 Y43.872
G1 X-69.432 Y43.895
G1 X-69.478 Y43.911
G1 X-69.526 Y43.92
G1 X-69.575 Y43.921
G1 X-69.623 Y43.915
G1 X-69.63 Y43.913
; MOVEMENT_LINK_DIRECT
G1 X-69.969 Y43.844 F480
G1 X-70.014 Y43.831
G1 X-70.055 Y43.813
G1 X-70.094 Y43.788
G1 X-70.129 Y43.758
G1 X-70.159 Y43.724
G1 X-70.184 Y43.685
G1 X-70.203 Y43.644
G1 X-70.216 Y43.6
G1 X-70.222 Y43.554
G1 Y43.508
G1 X-70.215 Y43.463
G1 X-70.202 Y43.419
G1 X-70.183 Y43.378
G1 X-70.157 Y43.339
G1 X-70.127 Y43.305
G1 X-70.092 Y43.276
G1 X-70.053 Y43.251
G1 X-70.011 Y43.233
G1 X-69.966 Y43.221
G1 X-69.921 Y43.216
G1 X-69.875 Y43.217
G1 X-69.83 Y43.224
G1 X-69.822 Y43.226
; MOVEMENT_LEAD_IN
G1 X-69.714 Y43.258 F180
G1 X-69.609 Y43.296
G1 X-69.507 Y43.342
G1 X-69.408 Y43.395
G1 X-69.313 Y43.456
G1 X-69.223 Y43.522
G1 X-69.137 Y43.595
; MOVEMENT_CUTTING
G1 X-68.988 Y43.742 F360
G1 X-68.842 Y43.882
G1 X-67.919 Y44.616
G1 X-67.529 Y44.894
G1 X-66.78 Y45.268
G1 X-66.028 Y45.637
G1 X-65.699 Y45.741
G1 X-65.369 Y45.84
G1 X-65.036 Y45.934
G1 X-64.702 Y46.022
G1 X-64.367 Y46.103
G1 X-64.03 Y46.18
G1 X-63.739 Y46.211
G1 X-63.448 Y46.236
G1 X-63.156 Y46.255
G1 X-62.864 Y46.269
G1 X-62.571 Y46.276
G1 X-62.279 Y46.278
G1 X-0.583 Y46.3
G1 X62.133
G1 X62.425 Y46.292
G1 X62.717 Y46.278
G1 X63.008 Y46.256
G1 X63.299 Y46.228
G1 X64.135 Y46.176
G1 X64.97 Y46.121
G1 X65.805 Y46.061
G1 X66.038 Y46.041
G1 X66.27 Y46.014
G1 X66.501 Y45.981
G1 X66.731 Y45.941
G1 X66.96 Y45.895
G1 X67.188 Y45.842
G1 X67.413 Y45.782
G1 X67.638 Y45.716
G1 X67.86 Y45.644
G1 X68.08 Y45.566
G1 X68.297 Y45.481
G1 X68.865 Y45.18
G1 X69.388 Y44.807
G1 X69.853 Y44.364
G1 X70.245 Y43.856
G1 X70.564 Y43.298
G1 X70.659 Y43.085
G1 X70.748 Y42.869
G1 X70.831 Y42.651
G1 X70.907 Y42.43
G1 X70.977 Y42.207
G1 X71.04 Y41.982
G1 X71.096 Y41.756
G1 X71.147 Y41.527
G1 X71.19 Y41.298
G1 X71.227 Y41.067
G1 X71.257 Y40.836
G1 X71.305 Y40.471
G1 X71.346 Y40.106
G1 X71.379 Y39.739
G1 X71.404 Y39.372
G1 X71.452 Y39.205
G1 X71.495 Y39.035
G1 X71.532 Y38.865
G1 X71.563 Y38.693
G1 X71.588 Y38.52
G1 X71.607 Y38.346
G1 X71.673 Y37.471
G1 X71.679 Y37.325
G1 X71.678 Y36.305
G1 X71.7 Y0.437
G1 Y-36.888
G1 X71.626 Y-38.064
G1 X71.545 Y-39.239
G1 X71.457 Y-40.414
G1 X71.437 Y-40.646
G1 X71.411 Y-40.879
G1 X71.378 Y-41.11
G1 X71.338 Y-41.34
G1 X71.291 Y-41.569
G1 X71.238 Y-41.796
G1 X71.179 Y-42.022
G1 X71.113 Y-42.246
G1 X71.04 Y-42.468
G1 X70.961 Y-42.688
G1 X70.876 Y-42.905
G1 X70.574 Y-43.473
G1 X70.201 Y-43.995
G1 X69.757 Y-44.459
G1 X69.248 Y-44.851
G1 X68.69 Y-45.169
G1 X68.477 Y-45.264
G1 X68.26 Y-45.352
G1 X68.042 Y-45.435
G1 X67.821 Y-45.511
G1 X67.598 Y-45.58
G1 X67.373 Y-45.643
G1 X67.146 Y-45.699
G1 X66.918 Y-45.749
G1 X66.689 Y-45.792
G1 X66.458 Y-45.829
G1 X66.226 Y-45.859
G1 X65.864 Y-45.906
G1 X65.5 Y-45.947
G1 X65.136 Y-45.979
G1 X64.771 Y-46.004
G1 X64.576 Y-46.059
G1 X64.379 Y-46.107
G1 X64.181 Y-46.147
G1 X63.981 Y-46.179
G1 X63.78 Y-46.204
G1 X63.578 Y-46.22
G1 X63.319 Y-46.245
G1 X63.059 Y-46.262
G1 X62.799 Y-46.274
G1 X62.539 Y-46.279
G1 X62.279 Y-46.278
G1 X0.583 Y-46.3
G1 X-62.133
G1 X-62.425 Y-46.292
G1 X-62.717 Y-46.278
G1 X-63.008 Y-46.256
G1 X-63.299 Y-46.228
G1 X-63.929 Y-46.196
G1 X-64.559 Y-46.156
G1 X-65.187 Y-46.108
G1 X-65.816 Y-46.052
G1 X-66.443 Y-45.989
G1 X-67.074 Y-45.869
G1 X-67.695 Y-45.703
G1 X-68.296 Y-45.478
G1 X-68.865 Y-45.18
G1 X-69.388 Y-44.807
G1 X-69.853 Y-44.364
G1 X-70.245 Y-43.856
G1 X-70.565 Y-43.298
G1 X-70.66 Y-43.085
G1 X-70.748 Y-42.869
G1 X-70.831 Y-42.65
G1 X-70.907 Y-42.43
G1 X-70.976 Y-42.207
G1 X-71.039 Y-41.982
G1 X-71.096 Y-41.755
G1 X-71.146 Y-41.527
G1 X-71.189 Y-41.298
G1 X-71.226 Y-41.067
G1 X-71.256 Y-40.835
G1 X-71.304 Y-40.472
G1 X-71.345 Y-40.107
G1 X-71.378 Y-39.742
G1 X-71.403 Y-39.376
G1 X-71.452 Y-39.207
G1 X-71.495 Y-39.037
G1 X-71.532 Y-38.866
G1 X-71.563 Y-38.694
G1 X-71.588 Y-38.52
G1 X-71.607 Y-38.346
G1 X-71.673 Y-37.471
G1 X-71.682 Y-37.325
G1 X-71.7 Y-36.888
G1 Y36.888
G1 X-71.651 Y37.617
G1 X-71.607 Y38.346
G1 X-71.556 Y38.783
G1 X-71.462 Y39.166
G1 X-71.361 Y39.547
G1 X-71.254 Y39.926
G1 X-71.141 Y40.304
G1 X-71.022 Y40.679
G1 X-70.787 Y41.151
; MOVEMENT_LEAD_OUT
G1 X-70.77 Y41.197 F180
G1 X-70.761 Y41.246
G1 X-70.759 Y41.295
G1 X-70.765 Y41.343
G1 X-70.778 Y41.391
G1 X-70.798 Y41.435
G1 X-70.825 Y41.476
G1 X-70.858 Y41.513
G1 X-70.896 Y41.543
G1 X-70.938 Y41.568
G1 X-70.984 Y41.586
G1 X-71.032 Y41.596
G1 X-71.081 Y41.6
G1 X-71.13 Y41.595
G1 X-71.177 Y41.583
G1 X-71.222 Y41.564
G1 X-71.266 Y41.541 Z-2.996
G1 X-71.309 Y41.519 Z-2.984
G1 X-71.35 Y41.498 Z-2.965
G1 X-71.388 Y41.478 Z-2.939
G1 X-71.422 Y41.461 Z-2.907
G1 X-71.45 Y41.446 Z-2.869
G1 X-71.473 Y41.434 Z-2.827
G1 X-71.49 Y41.425 Z-2.781
G1 X-71.501 Y41.419 Z-2.732
G1 X-71.504 Y41.418 Z-2.682
; MOVEMENT_RAPID
G0 Z5 F300
G0 X-62.903 Y-46.683 F2500
G0 Z-2.365 F300
; MOVEMENT_LEAD_IN
G1 Z-2.682 F180
G1 X-62.906 Y-46.68 Z-2.732
G1 X-62.916 Y-46.673 Z-2.781
G1 X-62.931 Y-46.662 Z-2.827
G1 X-62.952 Y-46.646 Z-2.869
G1 X-62.978 Y-46.627 Z-2.907
G1 X-63.008 Y-46.604 Z-2.939
G1 X-63.042 Y-46.579 Z-2.965
G1 X-63.079 Y-46.551 Z-2.984
G1 X-63.118 Y-46.522 Z-2.996
G1 X-63.157 Y-46.492 Z-3
G1 X-63.238 Y-46.435
G1 X-63.323 Y-46.384
G1 X-63.411 Y-46.337
G1 X-63.501 Y-46.297
G1 X-63.594 Y-46.262
G1 X-63.689 Y-46.232
G1 X-63.785 Y-46.209
G1 X-63.883 Y-46.192
; MOVEMENT_CUTTING
G1 X-64.029 Y-46.177 F360
G1 X-64.175 Y-46.158
G1 X-64.551 Y-46.064
G1 X-64.927 Y-45.965
G1 X-65.3 Y-45.861
G1 X-65.673 Y-45.752
G1 X-66.044 Y-45.638
G1 X-66.654 Y-45.336
G1 X-67.383 Y-44.974
G1 X-67.497 Y-44.911
G1 X-67.609 Y-44.844
G1 X-67.717 Y-44.771
G1 X-67.822 Y-44.695
G1 X-67.924 Y-44.614
G1 X-68.842 Y-43.882
G1 X-68.989 Y-43.741
G1 X-69.137 Y-43.595
G1 X-69.345 Y-43.36
G1 X-69.547 Y-43.12
G1 X-69.744 Y-42.876
G1 X-69.935 Y-42.627
G1 X-70.121 Y-42.375
G1 X-70.301 Y-42.118
G1 X-70.55 Y-41.626
G1 X-70.793 Y-41.132
G1 X-71.032 Y-40.635
G1 X-71.16 Y-40.241
G1 X-71.176 Y-40.191
G1 X-71.424 Y-39.277
; MOVEMENT_LEAD_OUT
G1 X-71.442 Y-39.232 F180
G1 X-71.466 Y-39.19
G1 X-71.497 Y-39.152
G1 X-71.534 Y-39.119
G1 X-71.575 Y-39.092
G1 X-71.62 Y-39.072
G1 X-71.667 Y-39.059
G1 X-71.716 Y-39.054
G1 X-71.765 Y-39.056
G1 X-71.813 Y-39.065
G1 X-71.859 Y-39.082
G1 X-71.902 Y-39.106
G1 X-71.941 Y-39.136
G1 X-71.974 Y-39.172
G1 X-72.002 Y-39.212
G1 X-72.023 Y-39.256
G1 X-72.041 Y-39.303 Z-2.996
G1 X-72.058 Y-39.348 Z-2.984
G1 X-72.075 Y-39.391 Z-2.965
G1 X-72.09 Y-39.431 Z-2.939
G1 X-72.104 Y-39.466 Z-2.907
G1 X-72.116 Y-39.496 Z-2.869
G1 X-72.125 Y-39.52 Z-2.827
G1 X-72.132 Y-39.538 Z-2.781
G1 X-72.136 Y-39.549 Z-2.732
G1 X-72.138 Y-39.553 Z-2.682
; MOVEMENT_RAPID
G0 Z5 F300
G0 X72.091 Y-37.517 F2500
G0 Z-2.365 F300
; MOVEMENT_LEAD_IN
G1 Z-2.682 F180
G1 X72.089 Y-37.52 Z-2.732
G1 X72.082 Y-37.529 Z-2.781
G1 X72.07 Y-37.545 Z-2.827
G1 X72.054 Y-37.565 Z-2.869
G1 X72.035 Y-37.591 Z-2.907
G1 X72.012 Y-37.621 Z-2.939
G1 X71.986 Y-37.655 Z-2.965
G1 X71.958 Y-37.691 Z-2.984
G1 X71.928 Y-37.73 Z-2.996
G1 X71.898 Y-37.769 Z-3
G1 X71.84 Y-37.85
G1 X71.788 Y-37.934
G1 X71.741 Y-38.021
G1 X71.699 Y-38.111
G1 X71.663 Y-38.204
G1 X71.633 Y-38.298
G1 X71.609 Y-38.394
G1 X71.591 Y-38.492
; MOVEMENT_CUTTING
G1 X71.556 Y-38.783 F360
G1 X71.462 Y-39.166
G1 X71.361 Y-39.547
G1 X71.254 Y-39.926
G1 X71.141 Y-40.304
G1 X71.022 Y-40.679
G1 X70.515 Y-41.7
G1 X70.448 Y-41.848
G1 X70.373 Y-41.993
G1 X70.292 Y-42.135
G1 X70.204 Y-42.272
G1 X70.11 Y-42.405
G1 X70.009 Y-42.534
G1 X69.276 Y-43.449
G1 X69.134 Y-43.599
G1 X68.988 Y-43.742
G1 X68.842 Y-43.882
G1 X67.919 Y-44.616
G1 X67.529 Y-44.894
G1 X66.78 Y-45.268
G1 X66.028 Y-45.637
G1 X65.567 Y-45.782
G1 X64.672 Y-46.025
; MOVEMENT_LEAD_OUT
G1 X64.627 Y-46.043 F180
G1 X64.584 Y-46.068
G1 X64.546 Y-46.099
G1 X64.514 Y-46.136
G1 X64.487 Y-46.177
G1 X64.467 Y-46.222
G1 X64.454 Y-46.269
G1 X64.449 Y-46.318
G1 X64.451 Y-46.367
G1 X64.46 Y-46.415
G1 X64.477 Y-46.461
G1 X64.501 Y-46.504
G1 X64.531 Y-46.542
G1 X64.567 Y-46.576
G1 X64.608 Y-46.604
G1 X64.652 Y-46.625
G1 X64.698 Y-46.642 Z-2.996
G1 X64.743 Y-46.66 Z-2.984
G1 X64.786 Y-46.676 Z-2.965
G1 X64.826 Y-46.692 Z-2.939
G1 X64.861 Y-46.705 Z-2.907
G1 X64.891 Y-46.717 Z-2.869
G1 X64.916 Y-46.726 Z-2.827
G1 X64.934 Y-46.733 Z-2.781
G1 X64.944 Y-46.737 Z-2.732
G1 X64.948 Y-46.739 Z-2.682
; MOVEMENT_RAPID
G0 Z5 F300
G0 X62.903 Y46.683 F2500
G0 Z-2.365 F300
; MOVEMENT_LEAD_IN
G1 Z-2.682 F180
G1 X62.906 Y46.68 Z-2.732
G1 X62.916 Y46.673 Z-2.781
G1 X62.931 Y46.662 Z-2.827
G1 X62.952 Y46.646 Z-2.869
G1 X62.978 Y46.627 Z-2.907
G1 X63.008 Y46.604 Z-2.939
G1 X63.042 Y46.579 Z-2.965
G1 X63.079 Y46.551 Z-2.984
G1 X63.118 Y46.522 Z-2.996
G1 X63.157 Y46.492 Z-3
G1 X63.238 Y46.435
G1 X63.323 Y46.384
G1 X63.411 Y46.337
G1 X63.501 Y46.297
G1 X63.594 Y46.262
G1 X63.689 Y46.232
G1 X63.785 Y46.209
G1 X63.883 Y46.192
; MOVEMENT_CUTTING
G1 X64.029 Y46.177 F360
G1 X64.175 Y46.158
G1 X64.551 Y46.064
G1 X64.927 Y45.965
G1 X65.3 Y45.861
G1 X65.673 Y45.752
G1 X66.044 Y45.638
G1 X66.654 Y45.336
G1 X67.383 Y44.974
G1 X67.497 Y44.911
G1 X67.609 Y44.844
G1 X67.717 Y44.771
G1 X67.822 Y44.695
G1 X67.924 Y44.614
G1 X68.842 Y43.882
G1 X68.989 Y43.741
G1 X69.137 Y43.595
G1 X69.345 Y43.36
G1 X69.547 Y43.12
G1 X69.744 Y42.876
G1 X69.935 Y42.627
G1 X70.121 Y42.375
G1 X70.301 Y42.118
G1 X70.55 Y41.626
G1 X70.793 Y41.132
G1 X71.032 Y40.635
G1 X71.16 Y40.241
G1 X71.176 Y40.191
G1 X71.424 Y39.274
; MOVEMENT_LEAD_OUT
G1 X71.441 Y39.231 F180
G1 X71.465 Y39.19
G1 X71.494 Y39.153
G1 X71.528 Y39.121
G1 X71.566 Y39.095
G1 X71.608 Y39.074
G1 X71.652 Y39.059
G1 X71.698 Y39.052
G1 X71.745 Y39.051
G1 X71.791 Y39.057
G1 X71.828 Y39.075 Z-2.997
G1 X71.864 Y39.092 Z-2.989
G1 X71.899 Y39.109 Z-2.976
G1 X71.932 Y39.125 Z-2.958
G1 X71.953 Y39.154 Z-2.933
G1 X71.972 Y39.18 Z-2.904
G1 X71.988 Y39.203 Z-2.871
G1 X72.002 Y39.222 Z-2.835
G1 X72.012 Y39.236 Z-2.795
G1 X72.02 Y39.247 Z-2.754
G1 X72.023 Y39.252 Z-2.711
G1 X72.024 Y39.253 Z-2.683
; MOVEMENT_RAPID
G0 Z5 F300
G0 X-70.581 Y-45.088 F2500
G0 Z-2.065 F300
; MOVEMENT_LEAD_IN
G1 Z-2.382 F180
G1 X-70.578 Y-45.086 Z-2.432
G1 X-70.568 Y-45.079 Z-2.481
G1 X-70.553 Y-45.068 Z-2.527
G1 X-70.532 Y-45.052 Z-2.569
G1 X-70.506 Y-45.033 Z-2.607
G1 X-70.475 Y-45.011 Z-2.639
G1 X-70.441 Y-44.986 Z-2.665
G1 X-70.404 Y-44.959 Z-2.684
G1 X-70.364 Y-44.93 Z-2.696
G1 X-70.324 Y-44.901 Z-2.7
G1 X-70.125 Y-44.75
G1 X-69.93 Y-44.594
G1 X-69.74 Y-44.431
G1 X-69.555 Y-44.263
G1 X-69.376 Y-44.089
G1 X-69.202 Y-43.91
G1 X-69.033 Y-43.725
; MOVEMENT_CUTTING
G1 X-68.938 Y-43.609 F360
G1 X-68.937 Y-43.606
G1 X-68.929 Y-43.499
G1 X-68.954 Y-43.394
G1 X-69.193 Y-43.074
G1 X-69.437 Y-42.758
G1 X-69.686 Y-42.446
G1 X-69.94 Y-42.139
G1 X-70.092 Y-41.876
G1 X-70.239 Y-41.611
G1 X-70.38 Y-41.343
G1 X-70.516 Y-41.071
G1 X-70.646 Y-40.797
G1 X-70.77 Y-40.521
G1 X-70.889 Y-40.242
G1 X-70.983 Y-39.93
G1 X-71.071 Y-39.616
G1 X-71.153 Y-39.301
G1 X-71.23 Y-38.984
G1 X-71.3 Y-38.666
G1 X-71.364 Y-38.347
G1 X-71.397 Y-37.983
G1 X-71.424 Y-37.618
G1 X-71.446 Y-37.253
G1 X-71.461 Y-36.888
G1 Y36.888
G1 X-71.448 Y37.144
G1 X-71.428 Y37.399
G1 X-71.402 Y37.654
G1 X-71.368 Y37.908
G1 X-71.365 Y38.077
G1 X-71.355 Y38.246
G1 X-71.338 Y38.414
G1 X-71.314 Y38.582
G1 X-71.283 Y38.748
G1 X-71.246 Y38.913
G1 X-71.201 Y39.076
G1 X-71.104 Y39.466
G1 X-71.003 Y39.855
G1 X-70.896 Y40.242
G1 X-70.777 Y40.521
G1 X-70.652 Y40.797
G1 X-70.522 Y41.071
G1 X-70.386 Y41.342
G1 X-70.245 Y41.61
G1 X-70.099 Y41.876
G1 X-69.948 Y42.139
G1 X-69.586 Y42.596
G1 X-69.219 Y43.048
G1 X-68.845 Y43.495
G1 X-68.378 Y43.875
G1 X-67.906 Y44.249
G1 X-67.43 Y44.617
G1 X-67.137 Y44.777
G1 X-66.841 Y44.931
G1 X-66.542 Y45.08
G1 X-66.24 Y45.224
G1 X-65.937 Y45.362
G1 X-65.63 Y45.496
G1 X-65.319 Y45.588
G1 X-65.005 Y45.675
G1 X-64.691 Y45.756
G1 X-64.375 Y45.832
G1 X-64.057 Y45.903
G1 X-63.738 Y45.967
G1 X-63.447 Y45.992
G1 X-63.155 Y46.01
G1 X-62.863 Y46.021
G1 X-62.571 Y46.025
G1 X-62.279 Y46.022
G1 X50.027 Y46.061
G1 X62.133
G1 X62.367 Y46.057
G1 X62.601 Y46.046
G1 X62.834 Y46.028
G1 X63.067 Y46.002
G1 X63.299 Y45.97
G1 X63.466 Y45.966
G1 X63.632 Y45.956
G1 X63.798 Y45.939
G1 X63.964 Y45.916
G1 X64.128 Y45.888
G1 X64.291 Y45.853
G1 X64.453 Y45.812
G1 X64.613 Y45.765
G1 X64.85 Y45.714
G1 X65.085 Y45.655
G1 X65.318 Y45.589
G1 X65.548 Y45.516
G1 X65.777 Y45.436
G1 X66.003 Y45.348
G1 X66.946 Y44.877
G1 X67.167 Y44.761
G1 X67.442 Y44.616
G1 X67.809 Y44.332
G1 X68.172 Y44.044
G1 X68.531 Y43.75
G1 X68.886 Y43.451
G1 X69.176 Y43.104
G1 X69.46 Y42.753
G1 X69.739 Y42.396
G1 X70.011 Y42.035
G1 X70.17 Y41.742
G1 X70.325 Y41.448
G1 X70.474 Y41.15
G1 X70.618 Y40.85
G1 X70.757 Y40.548
G1 X70.891 Y40.243
G1 X70.984 Y39.93
G1 X71.071 Y39.617
G1 X71.153 Y39.301
G1 X71.229 Y38.984
G1 X71.3 Y38.666
G1 X71.364 Y38.347
G1 X71.391 Y38.056
G1 X71.41 Y37.764
G1 X71.421 Y37.472
G1 X71.425 Y37.18
G1 X71.422 Y36.888
G1 X71.461 Y-29.598
G1 Y-36.888
G1 X71.448 Y-37.144
G1 X71.428 Y-37.399
G1 X71.402 Y-37.654
G1 X71.368 Y-37.908
G1 X71.365 Y-38.077
G1 X71.355 Y-38.246
G1 X71.338 Y-38.414
G1 X71.314 Y-38.582
G1 X71.283 Y-38.748
G1 X71.246 Y-38.913
G1 X71.201 Y-39.076
G1 X71.104 Y-39.466
G1 X71.003 Y-39.855
G1 X70.896 Y-40.242
G1 X70.777 Y-40.521
G1 X70.652 Y-40.797
G1 X70.522 Y-41.071
G1 X70.386 Y-41.342
G1 X70.245 Y-41.61
G1 X70.099 Y-41.876
G1 X69.948 Y-42.139
G1 X69.586 Y-42.596
G1 X69.219 Y-43.048
G1 X68.845 Y-43.495
G1 X68.378 Y-43.875
G1 X67.906 Y-44.249
G1 X67.43 Y-44.617
G1 X67.137 Y-44.777
G1 X66.841 Y-44.931
G1 X66.542 Y-45.08
G1 X66.24 Y-45.224
G1 X65.937 Y-45.362
G1 X65.63 Y-45.496
G1 X65.319 Y-45.588
G1 X65.005 Y-45.675
G1 X64.691 Y-45.756
G1 X64.375 Y-45.832
G1 X64.057 Y-45.903
G1 X63.738 Y-45.967
G1 X63.447 Y-45.992
G1 X63.155 Y-46.01
G1 X62.863 Y-46.021
G1 X62.571 Y-46.025
G1 X62.279 Y-46.022
G1 X-50.027 Y-46.061
G1 X-62.133
G1 X-62.367 Y-46.057
G1 X-62.601 Y-46.046
G1 X-62.834 Y-46.028
G1 X-63.067 Y-46.002
G1 X-63.299 Y-45.97
G1 X-63.466 Y-45.966
G1 X-63.632 Y-45.956
G1 X-63.798 Y-45.939
G1 X-63.964 Y-45.916
G1 X-64.128 Y-45.888
G1 X-64.291 Y-45.853
G1 X-64.453 Y-45.812
G1 X-64.613 Y-45.765
G1 X-64.85 Y-45.714
G1 X-65.085 Y-45.655
G1 X-65.318 Y-45.589
G1 X-65.548 Y-45.516
G1 X-65.777 Y-45.436
G1 X-66.003 Y-45.348
G1 X-66.946 Y-44.877
G1 X-67.167 Y-44.761
G1 X-67.442 Y-44.616
G1 X-67.809 Y-44.332
G1 X-68.172 Y-44.044
G1 X-68.531 Y-43.75
G1 X-68.886 Y-43.451
G1 X-69.011 Y-43.303
; MOVEMENT_LEAD_OUT
G1 X-69.046 Y-43.272 F180
G1 X-69.084 Y-43.245
G1 X-69.127 Y-43.225
G1 X-69.171 Y-43.211
G1 X-69.217 Y-43.204
G1 X-69.264
G1 X-69.31 Y-43.21
G1 X-69.355 Y-43.224
G1 X-69.398 Y-43.243
G1 X-69.437 Y-43.269
G1 X-69.462 Y-43.301 Z-2.697
G1 X-69.487 Y-43.333 Z-2.689
G1 X-69.511 Y-43.363 Z-2.676
G1 X-69.533 Y-43.392 Z-2.658
G1 X-69.542 Y-43.432 Z-2.629
G1 X-69.549 Y-43.468 Z-2.595
G1 X-69.555 Y-43.497 Z-2.555
G1 X-69.56 Y-43.521 Z-2.511
G1 Y-43.536 Z-2.47
G1 X-69.559 Y-43.545 Z-2.427
G1 Y-43.548 Z-2.383
; MOVEMENT_RAPID
G0 Z5 F300
G0 X70.367 Y44.892 F2500
G0 Z-1.763 F300
; MOVEMENT_LEAD_IN
G1 Z-2.08 F180
G1 X70.364 Y44.89 Z-2.13
G1 X70.354 Y44.883 Z-2.179
G1 X70.339 Y44.872 Z-2.225
G1 X70.317 Y44.857 Z-2.267
G1 X70.291 Y44.838 Z-2.305
G1 X70.26 Y44.816 Z-2.337
G1 X70.226 Y44.791 Z-2.363
G1 X70.188 Y44.764 Z-2.382
G1 X70.149 Y44.736 Z-2.394
G1 X70.109 Y44.707 Z-2.398
G1 X69.908 Y44.558
G1 X69.712 Y44.403
G1 X69.52 Y44.243
G1 X69.334 Y44.076
G1 X69.153 Y43.904
G1 X68.978 Y43.726
G1 X68.808 Y43.543
; MOVEMENT_CUTTING
G1 X68.711 Y43.428 F360
G1 X68.701 Y43.312
G1 X68.729 Y43.2
G1 X68.79 Y43.101
G1 X69.128 Y42.688
G1 X69.46 Y42.269
G1 X69.786 Y41.845
G1 X69.942 Y41.56
G1 X70.092 Y41.273
G1 X70.237 Y40.982
G1 X70.377 Y40.69
G1 X70.512 Y40.394
G1 X70.641 Y40.096
G1 X70.725 Y39.844
G1 X70.803 Y39.589
G1 X70.873 Y39.333
G1 X70.938 Y39.075
G1 X70.995 Y38.815
G1 X71.046 Y38.554
G1 X71.09 Y38.291
G1 X71.128 Y38.028
G1 X71.158 Y37.763
G1 X71.165 Y37.471
G1 X71.168 Y37.325
G1 X71.164 Y36.888
G1 X71.184 Y2.479
G1 X71.174 Y-36.888
G1 X71.162 Y-37.205
G1 X71.144 Y-37.522
G1 X71.12 Y-37.839
G1 X71.091 Y-38.155
G1 X71.055 Y-38.47
G1 X71.014 Y-38.785
G1 X70.904 Y-39.135
G1 X70.8 Y-39.486
G1 X70.702 Y-39.84
G1 X70.611 Y-40.195
G1 X69.879 Y-41.7
G1 X69.792 Y-41.845
G1 X69.566 Y-42.145
G1 X69.334 Y-42.442
G1 X69.097 Y-42.734
G1 X68.856 Y-43.022
G1 X68.609 Y-43.305
G1 X68.271 Y-43.582
G1 X67.93 Y-43.856
G1 X67.586 Y-44.125
G1 X67.238 Y-44.39
G1 X66.953 Y-44.545
G1 X66.665 Y-44.695
G1 X66.374 Y-44.84
G1 X66.081 Y-44.98
G1 X65.786 Y-45.114
G1 X65.488 Y-45.243
G1 X65.235 Y-45.328
G1 X64.981 Y-45.406
G1 X64.724 Y-45.477
G1 X64.466 Y-45.542
G1 X64.206 Y-45.599
G1 X63.945 Y-45.649
G1 X63.682 Y-45.693
G1 X63.419 Y-45.729
G1 X63.154 Y-45.758
G1 X62.862 Y-45.764
G1 X62.716 Y-45.767
G1 X62.279 Y-45.764
G1 X4.084 Y-45.784
G1 X-62.133 Y-45.774
G1 X-62.426 Y-45.769
G1 X-62.719 Y-45.758
G1 X-63.011 Y-45.741
G1 X-63.303 Y-45.717
G1 X-63.595 Y-45.687
G1 X-63.885 Y-45.652
G1 X-64.175 Y-45.61
G1 X-64.612 Y-45.474
G1 X-65.085 Y-45.345
G1 X-65.562 Y-45.22
G1 X-65.985 Y-45.024
G1 X-66.406 Y-44.822
G1 X-66.824 Y-44.614
G1 X-67.239 Y-44.4
G1 X-67.539 Y-44.173
G1 X-67.836 Y-43.94
G1 X-68.128 Y-43.703
G1 X-68.416 Y-43.46
G1 X-68.7 Y-43.213
G1 X-68.977 Y-42.875
G1 X-69.25 Y-42.535
G1 X-69.52 Y-42.192
G1 X-69.786 Y-41.845
G1 X-69.942 Y-41.56
G1 X-70.092 Y-41.273
G1 X-70.237 Y-40.982
G1 X-70.377 Y-40.69
G1 X-70.512 Y-40.394
G1 X-70.641 Y-40.096
G1 X-70.725 Y-39.844
G1 X-70.803 Y-39.589
G1 X-70.874 Y-39.333
G1 X-70.938 Y-39.075
G1 X-70.995 Y-38.815
G1 X-71.046 Y-38.554
G1 X-71.09 Y-38.291
G1 X-71.127 Y-38.028
G1 X-71.157 Y-37.763
G1 X-71.174 Y-36.888
G1 Y36.888
G1 X-71.162 Y37.205
G1 X-71.144 Y37.522
G1 X-71.12 Y37.839
G1 X-71.091 Y38.155
G1 X-71.055 Y38.47
G1 X-71.014 Y38.785
G1 X-70.904 Y39.135
G1 X-70.8 Y39.486
G1 X-70.702 Y39.84
G1 X-70.611 Y40.195
G1 X-69.879 Y41.7
G1 X-69.792 Y41.845
G1 X-69.566 Y42.145
G1 X-69.334 Y42.442
G1 X-69.097 Y42.734
G1 X-68.856 Y43.022
G1 X-68.609 Y43.305
G1 X-68.271 Y43.582
G1 X-67.93 Y43.856
G1 X-67.586 Y44.125
G1 X-67.238 Y44.39
G1 X-66.953 Y44.545
G1 X-66.665 Y44.695
G1 X-66.374 Y44.84
G1 X-66.081 Y44.98
G1 X-65.786 Y45.114
G1 X-65.488 Y45.243
G1 X-65.235 Y45.328
G1 X-64.981 Y45.406
G1 X-64.724 Y45.477
G1 X-64.466 Y45.542
G1 X-64.206 Y45.599
G1 X-63.945 Y45.649
G1 X-63.682 Y45.693
G1 X-63.419 Y45.729
G1 X-63.154 Y45.758
G1 X-62.862 Y45.764
G1 X-62.716 Y45.767
G1 X-62.279 Y45.764
G1 X-4.084 Y45.784
G1 X62.133 Y45.774
G1 X62.426 Y45.769
G1 X62.719 Y45.758
G1 X63.011 Y45.741
G1 X63.303 Y45.717
G1 X63.595 Y45.687
G1 X63.885 Y45.652
G1 X64.175 Y45.61
G1 X64.612 Y45.474
G1 X65.085 Y45.345
G1 X65.562 Y45.22
G1 X65.985 Y45.024
G1 X66.406 Y44.822
G1 X66.824 Y44.614
G1 X67.239 Y44.4
G1 X67.539 Y44.173
G1 X67.836 Y43.94
G1 X68.128 Y43.703
G1 X68.416 Y43.46
G1 X68.7 Y43.213
G1 X68.79 Y43.101
; MOVEMENT_LEAD_OUT
G1 X68.825 Y43.07 F180
G1 X68.863 Y43.044
G1 X68.905 Y43.023
G1 X68.95 Y43.01
G1 X68.996 Y43.002
G1 X69.043
G1 X69.089 Y43.009
G1 X69.134 Y43.022
G1 X69.176 Y43.042
G1 X69.215 Y43.068
G1 X69.241 Y43.1 Z-2.395
G1 X69.265 Y43.131 Z-2.387
G1 X69.289 Y43.162 Z-2.374
G1 X69.312 Y43.191 Z-2.356
G1 X69.32 Y43.231 Z-2.327
G1 X69.328 Y43.266 Z-2.293
G1 X69.334 Y43.296 Z-2.254
G1 X69.339 Y43.319 Z-2.21
G1 X69.338 Y43.334 Z-2.168
G1 Y43.343 Z-2.125
G1 Y43.346 Z-2.08
; MOVEMENT_RAPID
G0 Z5 F300
G0 X70.377 Y44.516 F2500
G0 Z-1.465 F300
; MOVEMENT_LEAD_IN
G1 Z-1.783 F180
G1 X70.373 Y44.514 Z-1.832
G1 X70.364 Y44.508 Z-1.881
G1 X70.347 Y44.498 Z-1.927
G1 X70.325 Y44.485 Z-1.969
G1 X70.297 Y44.468 Z-2.007
G1 X70.265 Y44.448 Z-2.039
G1 X70.229 Y44.426 Z-2.065
G1 X70.189 Y44.402 Z-2.084
G1 X70.148 Y44.377 Z-2.096
G1 X70.106 Y44.351 Z-2.1
G1 X69.894 Y44.218
G1 X69.687 Y44.078
G1 X69.484 Y43.932
G1 X69.286 Y43.78
G1 X69.093 Y43.621
G1 X68.904 Y43.457
G1 X68.721 Y43.287
; MOVEMENT_CUTTING
G1 X68.616 Y43.18 F360
G1 X68.587 Y43.021
G1 X68.614 Y42.862
G1 X68.693 Y42.721
G1 X68.929 Y42.437
G1 X69.159 Y42.148
G1 X69.382 Y41.854
G1 X69.599 Y41.556
G1 X69.838 Y41.095
G1 X70.072 Y40.631
G1 X70.302 Y40.165
G1 X70.387 Y39.931
G1 X70.465 Y39.694
G1 X70.536 Y39.455
G1 X70.601 Y39.214
G1 X70.659 Y38.971
G1 X70.709 Y38.727
G1 X70.753 Y38.482
G1 X70.79 Y38.235
G1 X70.82 Y37.987
G1 X70.843 Y37.739
G1 X70.859 Y37.49
G1 X70.868 Y37.241
G1 X70.87 Y36.992
G1 X70.865 Y36.742
G1 X70.884 Y4.666
G1 X70.873 Y-36.888
G1 X70.859 Y-37.144
G1 X70.84 Y-37.399
G1 X70.815 Y-37.654
G1 X70.784 Y-37.908
G1 X70.78 Y-38.075
G1 X70.77 Y-38.242
G1 X70.753 Y-38.408
G1 X70.729 Y-38.573
G1 X70.699 Y-38.737
G1 X70.662 Y-38.9
G1 X70.618 Y-39.061
G1 X70.567 Y-39.22
G1 X70.528 Y-39.408
G1 X70.483 Y-39.594
G1 X70.43 Y-39.777
G1 X70.369 Y-39.959
G1 X70.302 Y-40.138
G1 X70.228 Y-40.315
G1 X70.147 Y-40.488
G1 X70.06 Y-40.658
G1 X69.965 Y-40.825
G1 X69.815 Y-41.116
G1 X69.744 Y-41.262
G1 X69.579 Y-41.591
G1 X69.353 Y-41.891
G1 X69.122 Y-42.188
G1 X68.888 Y-42.482
G1 X68.649 Y-42.773
G1 X68.406 Y-43.06
G1 X68.122 Y-43.298
G1 X67.834 Y-43.532
G1 X67.542 Y-43.761
G1 X67.247 Y-43.985
G1 X66.947 Y-44.205
G1 X66.485 Y-44.442
G1 X66.02 Y-44.677
G1 X65.554 Y-44.909
G1 X65.312 Y-44.996
G1 X65.068 Y-45.076
G1 X64.821 Y-45.148
G1 X64.572 Y-45.213
G1 X64.322 Y-45.271
G1 X64.07 Y-45.322
G1 X63.816 Y-45.365
G1 X63.562 Y-45.401
G1 X63.306 Y-45.429
G1 X63.05 Y-45.449
G1 X62.793 Y-45.462
G1 X62.536 Y-45.467
G1 X62.279 Y-45.465
G1 X7.73 Y-45.484
G1 X-62.133 Y-45.473
G1 X-62.367 Y-45.468
G1 X-62.601 Y-45.457
G1 X-62.834 Y-45.44
G1 X-63.067 Y-45.415
G1 X-63.299 Y-45.385
G1 X-63.466 Y-45.383
G1 X-63.633 Y-45.373
G1 X-63.799 Y-45.357
G1 X-63.965 Y-45.333
G1 X-64.129 Y-45.303
G1 X-64.292 Y-45.265
G1 X-64.453 Y-45.22
G1 X-64.612 Y-45.169
G1 X-64.82 Y-45.124
G1 X-65.027 Y-45.071
G1 X-65.231 Y-45.012
G1 X-65.434 Y-44.946
G1 X-65.634 Y-44.873
G1 X-66.508 Y-44.418
G1 X-66.644 Y-44.361
G1 X-66.776 Y-44.297
G1 X-66.905 Y-44.226
G1 X-67.031 Y-44.149
G1 X-67.152 Y-44.066
G1 X-67.269 Y-43.977
G1 X-67.382 Y-43.882
G1 X-68.287 Y-43.158
G1 X-68.404 Y-43.058
G1 X-68.655 Y-42.767
G1 X-68.9 Y-42.472
G1 X-69.139 Y-42.171
G1 X-69.372 Y-41.866
G1 X-69.599 Y-41.556
G1 X-69.838 Y-41.095
G1 X-70.072 Y-40.631
G1 X-70.302 Y-40.165
G1 X-70.386 Y-39.938
G1 X-70.463 Y-39.708
G1 X-70.533 Y-39.476
G1 X-70.596 Y-39.242
G1 X-70.653 Y-39.007
G1 X-70.703 Y-38.77
G1 X-70.746 Y-38.531
G1 X-70.781 Y-38.291
G1 X-70.81 Y-38.051
G1 X-70.832 Y-37.809
G1 X-70.847 Y-37.568
G1 X-70.855 Y-37.325
G1 X-70.873 Y-36.888
G1 Y36.888
G1 X-70.859 Y37.144
G1 X-70.84 Y37.399
G1 X-70.815 Y37.654
G1 X-70.784 Y37.908
G1 X-70.78 Y38.075
G1 X-70.77 Y38.242
G1 X-70.753 Y38.408
G1 X-70.729 Y38.573
G1 X-70.699 Y38.737
G1 X-70.662 Y38.9
G1 X-70.618 Y39.061
G1 X-70.567 Y39.22
G1 X-70.528 Y39.408
G1 X-70.483 Y39.594
G1 X-70.43 Y39.777
G1 X-70.369 Y39.959
G1 X-70.302 Y40.138
G1 X-70.228 Y40.315
G1 X-70.147 Y40.488
G1 X-70.06 Y40.658
G1 X-69.965 Y40.825
G1 X-69.815 Y41.116
G1 X-69.744 Y41.262
G1 X-69.579 Y41.591
G1 X-69.353 Y41.891
G1 X-69.122 Y42.188
G1 X-68.888 Y42.482
G1 X-68.649 Y42.773
G1 X-68.406 Y43.06
G1 X-68.122 Y43.298
G1 X-67.834 Y43.532
G1 X-67.542 Y43.761
G1 X-67.247 Y43.985
G1 X-66.947 Y44.205
G1 X-66.485 Y44.442
G1 X-66.02 Y44.677
G1 X-65.554 Y44.909
G1 X-65.312 Y44.996
G1 X-65.068 Y45.076
G1 X-64.821 Y45.148
G1 X-64.572 Y45.213
G1 X-64.322 Y45.271
G1 X-64.07 Y45.322
G1 X-63.816 Y45.365
G1 X-63.562 Y45.401
G1 X-63.306 Y45.429
G1 X-63.05 Y45.449
G1 X-62.793 Y45.462
G1 X-62.536 Y45.467
G1 X-62.279 Y45.465
G1 X-7.73 Y45.484
G1 X62.133 Y45.473
G1 X62.367 Y45.468
G1 X62.601 Y45.457
G1 X62.834 Y45.44
G1 X63.067 Y45.415
G1 X63.299 Y45.385
G1 X63.466 Y45.383
G1 X63.633 Y45.373
G1 X63.799 Y45.357
G1 X63.965 Y45.333
G1 X64.129 Y45.303
G1 X64.292 Y45.265
G1 X64.453 Y45.22
G1 X64.612 Y45.169
G1 X64.82 Y45.124
G1 X65.027 Y45.071
G1 X65.231 Y45.012
G1 X65.434 Y44.946
G1 X65.634 Y44.873
G1 X66.508 Y44.418
G1 X66.644 Y44.361
G1 X66.776 Y44.297
G1 X66.905 Y44.226
G1 X67.031 Y44.149
G1 X67.152 Y44.066
G1 X67.269 Y43.977
G1 X67.382 Y43.882
G1 X68.287 Y43.158
G1 X68.404 Y43.058
G1 X68.452 Y43.012
G1 X68.693 Y42.721
; MOVEMENT_LEAD_OUT
G1 X68.727 Y42.688 F180
G1 X68.765 Y42.661
G1 X68.806 Y42.64
G1 X68.85 Y42.624
G1 X68.896 Y42.616
G1 X68.943 Y42.614
G1 X68.989 Y42.619
G1 X69.035 Y42.631
G1 X69.078 Y42.65
G1 X69.117 Y42.675
G1 X69.143 Y42.706 Z-2.097
G1 X69.169 Y42.737 Z-2.089
G1 X69.194 Y42.767 Z-2.076
G1 X69.217 Y42.795 Z-2.058
G1 X69.226 Y42.831 Z-2.033
G1 X69.233 Y42.863 Z-2.002
G1 X69.239 Y42.891 Z-1.968
G1 X69.244 Y42.914 Z-1.929
G1 X69.248 Y42.931 Z-1.888
G1 Y42.941 Z-1.854
G1 Y42.948 Z-1.818
G1 Y42.95 Z-1.783
; MOVEMENT_RAPID
G0 Z5 F300
G0 X-70.191 Y-44.224 F2500
G0 Z-1.165 F300
; MOVEMENT_LEAD_IN
G1 Z-1.482 F180
G1 X-70.187 Y-44.221 Z-1.532
G1 X-70.178 Y-44.215 Z-1.581
G1 X-70.161 Y-44.206 Z-1.627
G1 X-70.139 Y-44.192 Z-1.669
G1 X-70.111 Y-44.175 Z-1.707
G1 X-70.079 Y-44.155 Z-1.739
G1 X-70.043 Y-44.133 Z-1.765
G1 X-70.003 Y-44.109 Z-1.784
G1 X-69.962 Y-44.084 Z-1.796
G1 X-69.92 Y-44.058 Z-1.8
G1 X-69.708 Y-43.925
G1 X-69.501 Y-43.785
G1 X-69.298 Y-43.639
G1 X-69.1 Y-43.487
G1 X-68.906 Y-43.329
G1 X-68.718 Y-43.165
G1 X-68.535 Y-42.995
; MOVEMENT_CUTTING
G1 X-68.43 Y-42.887 F360
G1 X-68.404 Y-42.726
G1 X-68.431 Y-42.565
G1 X-68.511 Y-42.421
G1 X-69.134 Y-41.638
G1 X-69.208 Y-41.54
G1 X-69.276 Y-41.439
G1 X-69.34 Y-41.334
G1 X-69.397 Y-41.227
G1 X-69.449 Y-41.116
G1 X-69.573 Y-40.88
G1 X-69.691 Y-40.641
G1 X-69.804 Y-40.399
G1 X-69.912 Y-40.155
G1 X-70.013 Y-39.908
G1 X-70.109 Y-39.659
G1 X-70.181 Y-39.435
G1 X-70.246 Y-39.21
G1 X-70.304 Y-38.983
G1 X-70.356 Y-38.754
G1 X-70.401 Y-38.523
G1 X-70.439 Y-38.292
G1 X-70.471 Y-38.059
G1 X-70.495 Y-37.826
G1 X-70.513 Y-37.592
G1 X-70.525 Y-37.357
G1 X-70.529 Y-37.123
G1 X-70.526 Y-36.888
G1 Y36.888
G1 X-70.511 Y37.253
G1 X-70.49 Y37.618
G1 X-70.463 Y37.982
G1 X-70.431 Y38.346
G1 X-70.367 Y38.638
G1 X-70.205 Y39.221
G1 X-70.045 Y39.804
G1 X-69.979 Y39.984
G1 X-69.906 Y40.162
G1 X-69.826 Y40.337
G1 X-69.741 Y40.508
G1 X-69.65 Y40.677
G1 X-69.572 Y40.859
G1 X-69.489 Y41.038
G1 X-69.399 Y41.214
G1 X-69.303 Y41.387
G1 X-69.202 Y41.556
G1 X-69.134 Y41.637
G1 X-68.94 Y41.894
G1 X-68.741 Y42.145
G1 X-68.535 Y42.392
G1 X-68.323 Y42.634
G1 X-68.106 Y42.87
G1 X-67.852 Y43.086
G1 X-67.595 Y43.297
G1 X-67.334 Y43.503
G1 X-67.07 Y43.706
G1 X-66.802 Y43.903
G1 X-66.477 Y44.07
G1 X-66.149 Y44.234
G1 X-65.82 Y44.393
G1 X-65.488 Y44.547
G1 X-65.267 Y44.635
G1 X-65.044 Y44.715
G1 X-64.819 Y44.788
G1 X-64.591 Y44.854
G1 X-64.361 Y44.912
G1 X-64.129 Y44.963
G1 X-63.896 Y45.007
G1 X-63.662 Y45.043
G1 X-63.426 Y45.071
G1 X-63.19 Y45.092
G1 X-62.953 Y45.106
G1 X-62.716 Y45.111
G1 X-62.279 Y45.088
G1 X37.338 Y45.122
G1 X62.133 Y45.126
G1 X62.39 Y45.125
G1 X62.646 Y45.118
G1 X62.903 Y45.105
G1 X63.159 Y45.085
G1 X63.414 Y45.059
G1 X63.669 Y45.027
G1 X63.923 Y44.988
G1 X64.176 Y44.944
G1 X64.612 Y44.805
G1 X64.803 Y44.762
G1 X64.992 Y44.711
G1 X65.179 Y44.653
G1 X65.363 Y44.588
G1 X65.544 Y44.515
G1 X65.723 Y44.434
G1 X65.898 Y44.347
G1 X66.069 Y44.253
G1 X66.25 Y44.175
G1 X66.429 Y44.091
G1 X66.604 Y44.002
G1 X66.777 Y43.907
G1 X66.947 Y43.807
G1 X67.967 Y42.994
G1 X68.113 Y42.854
G1 X68.259 Y42.712
G1 X68.389 Y42.574
G1 X69.134 Y41.638
G1 X69.208 Y41.54
G1 X69.276 Y41.439
G1 X69.34 Y41.335
G1 X69.397 Y41.227
G1 X69.449 Y41.116
G1 X69.573 Y40.88
G1 X69.691 Y40.641
G1 X69.804 Y40.399
G1 X69.912 Y40.155
G1 X70.013 Y39.908
G1 X70.109 Y39.659
G1 X70.18 Y39.448
G1 X70.244 Y39.235
G1 X70.302 Y39.02
G1 X70.352 Y38.803
G1 X70.395 Y38.585
G1 X70.431 Y38.365
G1 X70.46 Y38.145
G1 X70.482 Y37.923
G1 X70.497 Y37.701
G1 X70.505 Y37.479
G1 Y37.256
G1 X70.499 Y37.034
G1 X70.488 Y36.888
G1 X70.522 Y-22.016
G1 X70.526 Y-36.888
G1 X70.511 Y-37.253
G1 X70.49 Y-37.618
G1 X70.463 Y-37.982
G1 X70.431 Y-38.346
G1 X70.367 Y-38.638
G1 X70.205 Y-39.221
G1 X70.045 Y-39.804
G1 X69.979 Y-39.984
G1 X69.906 Y-40.162
G1 X69.826 Y-40.337
G1 X69.741 Y-40.508
G1 X69.65 Y-40.677
G1 X69.572 Y-40.859
G1 X69.489 Y-41.038
G1 X69.399 Y-41.214
G1 X69.303 Y-41.387
G1 X69.202 Y-41.556
G1 X69.134 Y-41.637
G1 X68.94 Y-41.894
G1 X68.741 Y-42.145
G1 X68.535 Y-42.392
G1 X68.323 Y-42.634
G1 X68.106 Y-42.87
G1 X67.852 Y-43.086
G1 X67.595 Y-43.297
G1 X67.334 Y-43.503
G1 X67.07 Y-43.706
G1 X66.802 Y-43.903
G1 X66.477 Y-44.07
G1 X66.149 Y-44.234
G1 X65.82 Y-44.393
G1 X65.488 Y-44.547
G1 X65.267 Y-44.635
G1 X65.044 Y-44.715
G1 X64.819 Y-44.788
G1 X64.591 Y-44.854
G1 X64.361 Y-44.912
G1 X64.129 Y-44.963
G1 X63.896 Y-45.007
G1 X63.662 Y-45.043
G1 X63.426 Y-45.071
G1 X63.19 Y-45.092
G1 X62.953 Y-45.106
G1 X62.716 Y-45.111
G1 X62.279 Y-45.088
G1 X-37.338 Y-45.122
G1 X-62.133 Y-45.126
G1 X-62.39 Y-45.125
G1 X-62.646 Y-45.118
G1 X-62.903 Y-45.105
G1 X-63.159 Y-45.085
G1 X-63.414 Y-45.059
G1 X-63.669 Y-45.027
G1 X-63.923 Y-44.988
G1 X-64.176 Y-44.944
G1 X-64.612 Y-44.805
G1 X-64.803 Y-44.762
G1 X-64.992 Y-44.711
G1 X-65.179 Y-44.653
G1 X-65.363 Y-44.588
G1 X-65.544 Y-44.515
G1 X-65.723 Y-44.434
G1 X-65.898 Y-44.347
G1 X-66.069 Y-44.253
G1 X-66.25 Y-44.175
G1 X-66.429 Y-44.091
G1 X-66.604 Y-44.002
G1 X-66.777 Y-43.907
G1 X-66.947 Y-43.807
G1 X-67.967 Y-42.994
G1 X-68.083 Y-42.887
G1 X-68.196 Y-42.776
G1 X-68.305 Y-42.662
G1 X-68.411 Y-42.544
G1 X-68.512 Y-42.423
; MOVEMENT_LEAD_OUT
G1 X-68.545 Y-42.389 F180
G1 X-68.582 Y-42.361
G1 X-68.623 Y-42.339
G1 X-68.666 Y-42.323
G1 X-68.712 Y-42.314
G1 X-68.758 Y-42.311
G1 X-68.805 Y-42.315
G1 X-68.85 Y-42.326
G1 X-68.894 Y-42.344
G1 X-68.934 Y-42.367
G1 X-68.96 Y-42.398 Z-1.797
G1 X-68.987 Y-42.429 Z-1.789
G1 X-69.012 Y-42.458 Z-1.776
G1 X-69.036 Y-42.486 Z-1.758
G1 X-69.045 Y-42.525 Z-1.73
G1 X-69.053 Y-42.559 Z-1.697
G1 X-69.06 Y-42.588 Z-1.658
G1 X-69.066 Y-42.611 Z-1.616
G1 X-69.07 Y-42.628 Z-1.57
G1 X-69.069 Y-42.637 Z-1.527
G1 Y-42.64 Z-1.483
; MOVEMENT_RAPID
G0 Z5 F300
G0 X-69.781 Y-44.098 F2500
G0 Z-0.865 F300
; MOVEMENT_LEAD_IN
G1 Z-1.183 F180
G1 X-69.778 Y-44.096 Z-1.232
G1 X-69.768 Y-44.089 Z-1.281
G1 X-69.752 Y-44.079 Z-1.327
G1 X-69.73 Y-44.065 Z-1.369
G1 X-69.703 Y-44.047 Z-1.407
G1 X-69.671 Y-44.026 Z-1.439
G1 X-69.636 Y-44.003 Z-1.465
G1 X-69.597 Y-43.978 Z-1.484
G1 X-69.556 Y-43.951 Z-1.496
G1 X-69.515 Y-43.924 Z-1.5
G1 X-69.308 Y-43.785
G1 X-69.105 Y-43.639
G1 X-68.906 Y-43.487
G1 X-68.713 Y-43.328
G1 X-68.524 Y-43.164
G1 X-68.341 Y-42.994
G1 X-68.163 Y-42.819
; MOVEMENT_CUTTING
G1 X-68.062 Y-42.708 F360
G1 X-68.048 Y-42.533
G1 X-68.088 Y-42.361
G1 X-68.177 Y-42.209
G1 X-68.706 Y-41.554
G1 X-68.821 Y-41.408
G1 X-69.015 Y-41.116
G1 X-69.167 Y-40.831
G1 X-69.313 Y-40.543
G1 X-69.453 Y-40.252
G1 X-69.586 Y-39.957
G1 X-69.712 Y-39.659
G1 X-69.787 Y-39.415
G1 X-69.855 Y-39.168
G1 X-69.916 Y-38.919
G1 X-69.969 Y-38.669
G1 X-70.016 Y-38.417
G1 X-70.055 Y-38.164
G1 X-70.086 Y-37.91
G1 X-70.111 Y-37.655
G1 X-70.128 Y-37.4
G1 X-70.138 Y-37.144
G1 X-70.14 Y-36.888
G1 Y36.888
G1 X-70.127 Y37.144
G1 X-70.109 Y37.399
G1 X-70.085 Y37.654
G1 X-70.055 Y37.908
G1 X-70.034 Y38.31
G1 X-69.868 Y38.984
G1 X-69.704 Y39.658
G1 X-69.614 Y39.886
G1 X-69.517 Y40.112
G1 X-69.415 Y40.335
G1 X-69.308 Y40.556
G1 X-69.195 Y40.774
G1 X-69.077 Y40.989
G1 X-68.953 Y41.201
G1 X-68.824 Y41.41
G1 X-68.364 Y41.972
G1 X-67.901 Y42.532
G1 X-67.528 Y42.841
G1 X-67.152 Y43.147
G1 X-66.773 Y43.449
G1 X-66.537 Y43.592
G1 X-66.297 Y43.728
G1 X-66.054 Y43.858
G1 X-65.808 Y43.981
G1 X-65.558 Y44.098
G1 X-65.305 Y44.209
G1 X-65.05 Y44.312
G1 X-64.827 Y44.385
G1 X-64.601 Y44.45
G1 X-64.374 Y44.508
G1 X-64.145 Y44.559
G1 X-63.915 Y44.603
G1 X-63.683 Y44.64
G1 X-63.45 Y44.67
G1 X-63.217 Y44.693
G1 X-62.982 Y44.708
G1 X-62.748 Y44.716
G1 X-62.513 Y44.717
G1 X-62.279 Y44.711
G1 X-17.211 Y44.726
G1 X62.133 Y44.74
G1 X62.367 Y44.736
G1 X62.601 Y44.725
G1 X62.834 Y44.708
G1 X63.067 Y44.684
G1 X63.299 Y44.654
G1 X63.466 Y44.645
G1 X63.633 Y44.629
G1 X63.799 Y44.607
G1 X63.964 Y44.579
G1 X64.128 Y44.545
G1 X64.291 Y44.505
G1 X64.452 Y44.459
G1 X64.611 Y44.407
G1 X64.783 Y44.371
G1 X64.954 Y44.327
G1 X65.123 Y44.276
G1 X65.289 Y44.217
G1 X65.452 Y44.151
G1 X65.613 Y44.078
G1 X65.77 Y43.998
G1 X65.923 Y43.911
G1 X66.099 Y43.83
G1 X66.272 Y43.742
G1 X66.442 Y43.65
G1 X66.609 Y43.553
G1 X66.774 Y43.45
G1 X67.529 Y42.836
G1 X67.884 Y42.547
G1 X68.079 Y42.326
G1 X68.27 Y42.101
G1 X68.457 Y41.873
G1 X68.641 Y41.642
G1 X68.82 Y41.407
G1 X69.015 Y41.116
G1 X69.167 Y40.831
G1 X69.313 Y40.543
G1 X69.453 Y40.252
G1 X69.586 Y39.957
G1 X69.712 Y39.659
G1 X69.784 Y39.436
G1 X69.849 Y39.211
G1 X69.907 Y38.983
G1 X69.958 Y38.754
G1 X70.002 Y38.524
G1 X70.039 Y38.292
G1 X70.069 Y38.059
G1 X70.092 Y37.826
G1 X70.107 Y37.592
G1 X70.116 Y37.357
G1 X70.117 Y37.123
G1 X70.111 Y36.888
G1 X70.126 Y10.352
G1 X70.14 Y-36.888
G1 X70.127 Y-37.144
G1 X70.109 Y-37.399
G1 X70.085 Y-37.654
G1 X70.055 Y-37.908
G1 X70.034 Y-38.31
G1 X69.868 Y-38.984
G1 X69.704 Y-39.658
G1 X69.614 Y-39.886
G1 X69.517 Y-40.112
G1 X69.415 Y-40.335
G1 X69.308 Y-40.556
G1 X69.195 Y-40.774
G1 X69.077 Y-40.989
G1 X68.953 Y-41.201
G1 X68.824 Y-41.41
G1 X68.364 Y-41.972
G1 X67.901 Y-42.532
G1 X67.528 Y-42.841
G1 X67.152 Y-43.147
G1 X66.773 Y-43.449
G1 X66.537 Y-43.592
G1 X66.297 Y-43.728
G1 X66.054 Y-43.858
G1 X65.808 Y-43.981
G1 X65.558 Y-44.098
G1 X65.305 Y-44.209
G1 X65.05 Y-44.312
G1 X64.827 Y-44.385
G1 X64.601 Y-44.45
G1 X64.374 Y-44.508
G1 X64.145 Y-44.559
G1 X63.915 Y-44.603
G1 X63.683 Y-44.64
G1 X63.45 Y-44.67
G1 X63.217 Y-44.693
G1 X62.982 Y-44.708
G1 X62.748 Y-44.716
G1 X62.513 Y-44.717
G1 X62.279 Y-44.711
G1 X17.21 Y-44.726
G1 X-62.133 Y-44.74
G1 X-62.367 Y-44.736
G1 X-62.601 Y-44.725
G1 X-62.834 Y-44.708
G1 X-63.067 Y-44.684
G1 X-63.299 Y-44.654
G1 X-63.466 Y-44.645
G1 X-63.633 Y-44.629
G1 X-63.799 Y-44.607
G1 X-63.964 Y-44.579
G1 X-64.128 Y-44.545
G1 X-64.291 Y-44.505
G1 X-64.452 Y-44.459
G1 X-64.611 Y-44.407
G1 X-64.783 Y-44.371
G1 X-64.954 Y-44.327
G1 X-65.123 Y-44.276
G1 X-65.289 Y-44.217
G1 X-65.452 Y-44.151
G1 X-65.613 Y-44.078
G1 X-65.77 Y-43.998
G1 X-65.923 Y-43.911
G1 X-66.099 Y-43.829
G1 X-66.272 Y-43.742
G1 X-66.442 Y-43.65
G1 X-66.609 Y-43.553
G1 X-66.774 Y-43.45
G1 X-67.529 Y-42.836
G1 X-67.884 Y-42.547
G1 X-67.963 Y-42.469
G1 X-68.039 Y-42.386
G1 X-68.11 Y-42.299
G1 X-68.177 Y-42.209
; MOVEMENT_LEAD_OUT
G1 X-68.21 Y-42.176 F180
G1 X-68.248 Y-42.148
G1 X-68.289 Y-42.126
G1 X-68.333 Y-42.11
G1 X-68.379 Y-42.102
G1 X-68.426 Y-42.099
G1 X-68.472 Y-42.104
G1 X-68.517 Y-42.116
G1 X-68.561 Y-42.134
G1 X-68.601 Y-42.158
G1 X-68.627 Y-42.189 Z-1.497
G1 X-68.653 Y-42.22 Z-1.489
G1 X-68.678 Y-42.249 Z-1.476
G1 X-68.702 Y-42.277 Z-1.458
G1 X-68.711 Y-42.315 Z-1.431
G1 X-68.718 Y-42.348 Z-1.4
G1 X-68.725 Y-42.376 Z-1.363
G1 X-68.73 Y-42.399 Z-1.323
G1 X-68.734 Y-42.416 Z-1.28
G1 Y-42.417 Z-1.279
G1 Y-42.428 Z-1.231
G1 Y-42.432 Z-1.183
; MOVEMENT_RAPID
G0 Z5 F300
G0 X69.656 Y43.658 F2500
G0 Z-0.565 F300
; MOVEMENT_LEAD_IN
G1 Z-0.882 F180
G1 X69.652 Y43.656 Z-0.932
G1 X69.642 Y43.65 Z-0.981
G1 X69.626 Y43.64 Z-1.027
G1 X69.604 Y43.627 Z-1.069
G1 X69.576 Y43.61 Z-1.107
G1 X69.544 Y43.59 Z-1.139
G1 X69.507 Y43.568 Z-1.165
G1 X69.468 Y43.544 Z-1.184
G1 X69.427 Y43.519 Z-1.196
G1 X69.384 Y43.493 Z-1.2
G1 X69.173 Y43.36
G1 X68.965 Y43.221
G1 X68.762 Y43.075
G1 X68.564 Y42.923
G1 X68.37 Y42.765
G1 X68.181 Y42.601
G1 X67.998 Y42.432
; MOVEMENT_CUTTING
G1 X67.893 Y42.324 F360
G1 X67.87 Y42.097
G1 X67.918 Y41.874
G1 X68.032 Y41.677
G1 X68.16 Y41.526
G1 X68.283 Y41.37
G1 X68.4 Y41.211
G1 X68.512 Y41.047
G1 X68.618 Y40.88
G1 X68.719 Y40.709
G1 X68.813 Y40.535
G1 X68.902 Y40.358
G1 X68.984 Y40.178
G1 X69.078 Y39.988
G1 X69.165 Y39.795
G1 X69.246 Y39.6
G1 X69.319 Y39.401
G1 X69.387 Y39.201
G1 X69.447 Y38.998
G1 X69.501 Y38.793
G1 X69.547 Y38.586
G1 X69.587 Y38.379
G1 X69.619 Y38.169
G1 X69.645 Y37.959
G1 X69.663 Y37.748
G1 X69.675 Y37.537
G1 X69.679 Y37.325
G1 X69.687 Y36.596
G1 X69.701 Y23.037
G1 X69.687 Y-36.888
G1 X69.662 Y-37.374
G1 X69.631 Y-37.861
G1 X69.593 Y-38.346
G1 X69.521 Y-38.642
G1 X69.443 Y-38.936
G1 X69.358 Y-39.228
G1 X69.267 Y-39.518
G1 X69.17 Y-39.807
G1 X68.947 Y-40.247
G1 X68.716 Y-40.684
G1 X68.479 Y-41.117
G1 X68.292 Y-41.359
G1 X68.1 Y-41.597
G1 X67.903 Y-41.831
G1 X67.702 Y-42.062
G1 X67.496 Y-42.288
G1 X67.227 Y-42.515
G1 X66.953 Y-42.736
G1 X66.674 Y-42.951
G1 X66.391 Y-43.161
G1 X66.147 Y-43.299
G1 X65.9 Y-43.431
G1 X65.649 Y-43.557
G1 X65.395 Y-43.675
G1 X65.137 Y-43.787
G1 X64.877 Y-43.892
G1 X64.615 Y-43.99
G1 X64.382 Y-44.054
G1 X64.148 Y-44.11
G1 X63.912 Y-44.159
G1 X63.675 Y-44.2
G1 X63.436 Y-44.233
G1 X63.197 Y-44.258
G1 X62.957 Y-44.275
G1 X62.716 Y-44.285
G1 X61.987 Y-44.287
G1 X38.797 Y-44.301
