;Fusion 360 CAM 2.0.7421
; Posts processor: DIYCNC_Marlin20.cps
; Gcode generated: Sat Feb  8 09:49:47 2020 GMT
; Document: 4x6 Tray BothSides v3
; Setup: Setup1
; 
; Ranges table:
; X: Min=-78.743 Max=67.513 Size=146.256
; Y: Min=-53.34 Max=42.113 Size=95.453
; Z: Min=-8 Max=5 Size=13
; 
; Tools table:
; T1 D=3.175 CR=0 - ZMIN=-8 - flat end mill 

; *** START begin ***
G90
G21
M84 S0
G92 X0 Y0 Z5
; *** START end ***

; *** SECTION begin ***
;Pocket1 - Milling - Tool: 1 -  flat end mill
; X Min: -67.513 - X Max: 67.513
; Y Min: -42.113 - Y Max: 42.113
; Z Min: -8 - Z Max: 5
; COMMAND_START_SPINDLE
; COMMAND_SPINDLE_CLOCKWISE
;M0 Turn ON 24000RPM
; COMMAND_COOLANT_ON
;M117  Pocket1
G0 Z5 F300
G0 X24.877 Y1.477 F2500
G0 Z4 F300
; MOVEMENT_PLUNGE
G1 Z1.867 F180
; MOVEMENT_RAMP_HELIX
G1 X24.862 Y1.48 Z1.771
G1 X24.82 Y1.487 Z1.684
G1 X24.753 Y1.497 Z1.614
G1 X24.668 Y1.505 Z1.568
G1 X24.572 Y1.508 Z1.55
G1 X24.463 Y1.504 Z1.546
G1 X24.354 Y1.493 Z1.542
G1 X24.246 Y1.473 Z1.539
G1 X24.139 Y1.445 Z1.535
G1 X24.035 Y1.41 Z1.531
G1 X23.934 Y1.368 Z1.527
G1 X23.836 Y1.318 Z1.523
G1 X23.743 Y1.261 Z1.519
G1 X23.653 Y1.197 Z1.516
G1 X23.568 Y1.128 Z1.512
G1 X23.489 Y1.052 Z1.508
G1 X23.416 Y0.97 Z1.504
G1 X23.348 Y0.884 Z1.5
G1 X23.287 Y0.793 Z1.496
G1 X23.233 Y0.697 Z1.493
G1 X23.186 Y0.598 Z1.489
G1 X23.146 Y0.496 Z1.485
G1 X23.113 Y0.391 Z1.481
G1 X23.089 Y0.284 Z1.477
G1 X23.072 Y0.176 Z1.473
G1 X23.063 Y0.066 Z1.47
G1 Y-0.044 Z1.466
G1 X23.07 Y-0.153 Z1.462
G1 X23.085 Y-0.262 Z1.458
G1 X23.108 Y-0.369 Z1.454
G1 X23.139 Y-0.475 Z1.45
G1 X23.177 Y-0.577 Z1.447
G1 X23.222 Y-0.677 Z1.443
G1 X23.275 Y-0.773 Z1.439
G1 X23.335 Y-0.865 Z1.435
G1 X23.401 Y-0.953 Z1.431
G1 X23.474 Y-1.035 Z1.427
G1 X23.552 Y-1.112 Z1.424
G1 X23.635 Y-1.184 Z1.42
G1 X23.724 Y-1.248 Z1.416
G1 X23.817 Y-1.307 Z1.412
G1 X23.914 Y-1.358 Z1.408
G1 X24.014 Y-1.402 Z1.404
G1 X24.118 Y-1.439 Z1.401
G1 X24.224 Y-1.468 Z1.397
G1 X24.331 Y-1.489 Z1.393
G1 X24.44 Y-1.503 Z1.389
G1 X24.55 Y-1.508 Z1.385
G1 X24.66 Y-1.505 Z1.381
G1 X24.769 Y-1.495 Z1.378
G1 X24.877 Y-1.477 Z1.374
G1 X24.984 Y-1.45 Z1.37
G1 X25.088 Y-1.416 Z1.366
G1 X25.19 Y-1.375 Z1.362
G1 X25.288 Y-1.326 Z1.358
G1 X25.382 Y-1.271 Z1.355
G1 X25.473 Y-1.208 Z1.351
G1 X25.558 Y-1.139 Z1.347
G1 X25.638 Y-1.064 Z1.343
G1 X25.713 Y-0.984 Z1.339
G1 X25.782 Y-0.898 Z1.335
G1 X25.844 Y-0.808 Z1.332
G1 X25.899 Y-0.713 Z1.328
G1 X25.947 Y-0.614 Z1.324
G1 X25.988 Y-0.513 Z1.32
G1 X26.022 Y-0.408 Z1.316
G1 X26.048 Y-0.301 Z1.312
G1 X26.066 Y-0.193 Z1.309
G1 X26.076 Y-0.084 Z1.305
G1 X26.078 Y0.026 Z1.301
G1 X26.072 Y0.135 Z1.297
G1 X26.058 Y0.244 Z1.293
G1 X26.037 Y0.352 Z1.289
G1 X26.007 Y0.458 Z1.286
G1 X25.97 Y0.561 Z1.282
G1 X25.926 Y0.661 Z1.278
G1 X25.874 Y0.758 Z1.274
G1 X25.815 Y0.851 Z1.27
G1 X25.75 Y0.939 Z1.266
G1 X25.679 Y1.022 Z1.263
G1 X25.601 Y1.1 Z1.259
G1 X25.519 Y1.172 Z1.255
G1 X25.431 Y1.238 Z1.251
G1 X25.339 Y1.298 Z1.247
G1 X25.242 Y1.35 Z1.243
G1 X25.142 Y1.395 Z1.24
G1 X25.039 Y1.433 Z1.236
G1 X24.934 Y1.464 Z1.232
G1 X24.826 Y1.486 Z1.228
G1 X24.718 Y1.501 Z1.224
G1 X24.608 Y1.508 Z1.22
G1 X24.498 Y1.506 Z1.217
G1 X24.389 Y1.497 Z1.213
G1 X24.281 Y1.48 Z1.209
G1 X24.174 Y1.455 Z1.205
G1 X24.069 Y1.422 Z1.201
G1 X23.967 Y1.382 Z1.197
G1 X23.868 Y1.335 Z1.194
G1 X23.773 Y1.28 Z1.19
G1 X23.682 Y1.219 Z1.186
G1 X23.595 Y1.151 Z1.182
G1 X23.514 Y1.077 Z1.178
G1 X23.439 Y0.997 Z1.174
G1 X23.369 Y0.912 Z1.171
G1 X23.306 Y0.823 Z1.167
G1 X23.25 Y0.729 Z1.163
G1 X23.2 Y0.631 Z1.159
G1 X23.158 Y0.529 Z1.155
G1 X23.123 Y0.425 Z1.151
G1 X23.096 Y0.319 Z1.148
G1 X23.077 Y0.211 Z1.144
G1 X23.065 Y0.102 Z1.14
G1 X23.062 Y-0.008 Z1.136
G1 X23.066 Y-0.118 Z1.132
G1 X23.079 Y-0.227 Z1.128
G1 X23.099 Y-0.334 Z1.125
G1 X23.128 Y-0.44 Z1.121
G1 X23.164 Y-0.544 Z1.117
G1 X23.207 Y-0.645 Z1.113
G1 X23.257 Y-0.742 Z1.109
G1 X23.315 Y-0.836 Z1.105
G1 X23.379 Y-0.925 Z1.102
G1 X23.449 Y-1.009 Z1.098
G1 X23.526 Y-1.088 Z1.094
G1 X23.608 Y-1.161 Z1.09
G1 X23.695 Y-1.228 Z1.086
G1 X23.786 Y-1.288 Z1.082
G1 X23.882 Y-1.342 Z1.079
G1 X23.981 Y-1.388 Z1.075
G1 X24.084 Y-1.428 Z1.071
G1 X24.189 Y-1.459 Z1.067
G1 X24.296 Y-1.483 Z1.063
G1 X24.405 Y-1.499 Z1.059
G1 X24.514 Y-1.507 Z1.056
G1 X24.624 Z1.052
G1 X24.733 Y-1.499 Z1.048
G1 X24.842 Y-1.483 Z1.044
G1 X24.949 Y-1.46 Z1.04
G1 X25.054 Y-1.428 Z1.036
G1 X25.157 Y-1.389 Z1.033
G1 X25.256 Y-1.343 Z1.029
G1 X25.352 Y-1.289 Z1.025
G1 X25.444 Y-1.229 Z1.021
G1 X25.531 Y-1.162 Z1.017
G1 X25.613 Y-1.089 Z1.013
G1 X25.689 Y-1.011 Z1.01
G1 X25.76 Y-0.927 Z1.006
G1 X25.824 Y-0.838 Z1.002
G1 X25.882 Y-0.744 Z0.998
G1 X25.932 Y-0.647 Z0.994
G1 X25.976 Y-0.546 Z0.99
G1 X26.012 Y-0.442 Z0.987
G1 X26.04 Y-0.336 Z0.983
G1 X26.061 Y-0.229 Z0.979
G1 X26.073 Y-0.12 Z0.975
G1 X26.078 Y-0.01 Z0.971
G1 X26.075 Y0.1 Z0.967
G1 X26.064 Y0.209 Z0.964
G1 X26.044 Y0.317 Z0.96
G1 X26.018 Y0.423 Z0.956
G1 X25.983 Y0.527 Z0.952
G1 X25.941 Y0.629 Z0.948
G1 X25.891 Y0.727 Z0.944
G1 X25.835 Y0.821 Z0.941
G1 X25.772 Y0.911 Z0.937
G1 X25.703 Y0.996 Z0.933
G1 X25.627 Y1.076 Z0.929
G1 X25.546 Y1.15 Z0.925
G1 X25.46 Y1.218 Z0.921
G1 X25.369 Y1.279 Z0.918
G1 X25.274 Y1.334 Z0.914
G1 X25.175 Y1.381 Z0.91
G1 X25.073 Y1.422 Z0.906
G1 X24.968 Y1.455 Z0.902
G1 X24.862 Y1.48 Z0.898
G1 X24.753 Y1.497 Z0.895
G1 X24.644 Y1.506 Z0.891
G1 X24.534 Y1.508 Z0.887
G1 X24.425 Y1.501 Z0.883
G1 X24.316 Y1.487 Z0.879
G1 X24.208 Y1.464 Z0.875
G1 X24.103 Y1.434 Z0.872
G1 X24 Y1.396 Z0.868
G1 X23.9 Y1.351 Z0.864
G1 X23.803 Y1.299 Z0.86
G1 X23.711 Y1.239 Z0.856
G1 X23.623 Y1.174 Z0.852
G1 X23.54 Y1.102 Z0.849
G1 X23.463 Y1.024 Z0.845
G1 X23.391 Y0.941 Z0.841
G1 X23.326 Y0.852 Z0.837
G1 X23.267 Y0.76 Z0.833
G1 X23.215 Y0.663 Z0.829
G1 X23.171 Y0.563 Z0.826
G1 X23.134 Y0.46 Z0.822
G1 X23.104 Y0.354 Z0.818
G1 X23.082 Y0.246 Z0.814
G1 X23.068 Y0.137 Z0.81
G1 X23.062 Y0.028 Z0.806
G1 X23.064 Y-0.082 Z0.803
G1 X23.074 Y-0.191 Z0.799
G1 X23.092 Y-0.299 Z0.795
G1 X23.118 Y-0.406 Z0.791
G1 X23.151 Y-0.511 Z0.787
G1 X23.192 Y-0.613 Z0.783
G1 X23.24 Y-0.711 Z0.78
G1 X23.295 Y-0.806 Z0.776
G1 X23.357 Y-0.897 Z0.772
G1 X23.426 Y-0.982 Z0.768
G1 X23.5 Y-1.063 Z0.764
G1 X23.58 Y-1.138 Z0.76
G1 X23.666 Y-1.207 Z0.757
G1 X23.756 Y-1.269 Z0.753
G1 X23.85 Y-1.325 Z0.749
G1 X23.949 Y-1.374 Z0.745
G1 X24.05 Y-1.416 Z0.741
G1 X24.154 Y-1.45 Z0.737
G1 X24.261 Y-1.476 Z0.734
G1 X24.369 Y-1.495 Z0.73
G1 X24.478 Y-1.505 Z0.726
G1 X24.588 Y-1.508 Z0.722
G1 X24.698 Y-1.503 Z0.718
G1 X24.807 Y-1.489 Z0.714
G1 X24.914 Y-1.468 Z0.711
G1 X25.02 Y-1.439 Z0.707
G1 X25.124 Y-1.403 Z0.703
G1 X25.224 Y-1.359 Z0.699
G1 X25.321 Y-1.308 Z0.695
G1 X25.414 Y-1.25 Z0.691
G1 X25.503 Y-1.185 Z0.688
G1 X25.587 Y-1.114 Z0.684
G1 X25.665 Y-1.037 Z0.68
G1 X25.738 Y-0.955 Z0.676
G1 X25.804 Y-0.867 Z0.672
G1 X25.864 Y-0.775 Z0.668
G1 X25.917 Y-0.679 Z0.665
G1 X25.962 Y-0.579 Z0.661
G1 X26.001 Y-0.477 Z0.657
G1 X26.032 Y-0.371 Z0.653
G1 X26.055 Y-0.264 Z0.649
G1 X26.07 Y-0.155 Z0.645
G1 X26.077 Y-0.046 Z0.642
G1 Y0.064 Z0.638
G1 X26.068 Y0.173 Z0.634
G1 X26.052 Y0.282 Z0.63
G1 X26.027 Y0.389 Z0.626
G1 X25.995 Y0.494 Z0.622
G1 X25.955 Y0.596 Z0.619
G1 X25.908 Y0.695 Z0.615
G1 X25.854 Y0.791 Z0.611
G1 X25.793 Y0.882 Z0.607
G1 X25.726 Y0.969 Z0.603
G1 X25.652 Y1.05 Z0.599
G1 X25.573 Y1.126 Z0.596
G1 X25.489 Y1.196 Z0.592
G1 X25.399 Y1.26 Z0.588
G1 X25.305 Y1.317 Z0.584
G1 X25.208 Y1.367 Z0.58
G1 X25.107 Y1.409 Z0.576
G1 X25.003 Y1.445 Z0.573
G1 X24.897 Y1.472 Z0.569
G1 X24.789 Y1.492 Z0.565
G1 X24.68 Y1.504 Z0.561
G1 X24.57 Y1.508 Z0.557
G1 X24.46 Y1.504 Z0.553
G1 X24.351 Y1.492 Z0.55
G1 X24.243 Y1.472 Z0.546
G1 X24.137 Y1.445 Z0.542
G1 X24.033 Y1.409 Z0.538
G1 X23.932 Y1.367 Z0.534
G1 X23.834 Y1.316 Z0.53
G1 X23.741 Y1.26 Z0.527
G1 X23.651 Y1.196 Z0.523
G1 X23.567 Y1.126 Z0.519
G1 X23.487 Y1.05 Z0.515
G1 X23.414 Y0.968 Z0.511
G1 X23.347 Y0.882 Z0.507
G1 X23.286 Y0.79 Z0.504
G1 X23.232 Y0.695 Z0.5
G1 X23.185 Y0.596 Z0.496
G1 X23.145 Y0.493 Z0.492
G1 X23.113 Y0.389 Z0.488
G1 X23.088 Y0.282 Z0.484
G1 X23.072 Y0.173 Z0.481
G1 X23.063 Y0.064 Z0.477
G1 Y-0.046 Z0.473
G1 X23.07 Y-0.156 Z0.469
G1 X23.085 Y-0.264 Z0.465
G1 X23.108 Y-0.372 Z0.461
G1 X23.139 Y-0.477 Z0.458
G1 X23.178 Y-0.58 Z0.454
G1 X23.224 Y-0.679 Z0.45
G1 X23.277 Y-0.775 Z0.446
G1 X23.336 Y-0.867 Z0.442
G1 X23.403 Y-0.955 Z0.438
G1 X23.475 Y-1.037 Z0.435
G1 X23.554 Y-1.114 Z0.431
G1 X23.637 Y-1.185 Z0.427
G1 X23.726 Y-1.25 Z0.423
G1 X23.819 Y-1.308 Z0.419
G1 X23.916 Y-1.359 Z0.415
G1 X24.017 Y-1.403 Z0.412
G1 X24.12 Y-1.439 Z0.408
G1 X24.226 Y-1.468 Z0.404
G1 X24.334 Y-1.49 Z0.4
G1 X24.443 Y-1.503 Z0.396
G1 X24.552 Y-1.508 Z0.392
G1 X24.662 Y-1.505 Z0.389
G1 X24.771 Y-1.495 Z0.385
G1 X24.879 Y-1.476 Z0.381
G1 X24.986 Y-1.45 Z0.377
G1 X25.09 Y-1.416 Z0.373
G1 X25.192 Y-1.374 Z0.369
G1 X25.29 Y-1.325 Z0.366
G1 X25.385 Y-1.269 Z0.362
G1 X25.475 Y-1.207 Z0.358
G1 X25.56 Y-1.138 Z0.354
G1 X25.64 Y-1.063 Z0.35
G1 X25.715 Y-0.982 Z0.346
G1 X25.783 Y-0.896 Z0.343
G1 X25.845 Y-0.806 Z0.339
G1 X25.9 Y-0.711 Z0.335
G1 X25.948 Y-0.612 Z0.331
G1 X25.989 Y-0.51 Z0.327
G1 X26.023 Y-0.406 Z0.323
G1 X26.048 Y-0.299 Z0.32
G1 X26.066 Y-0.191 Z0.316
G1 X26.076 Y-0.081 Z0.312
G1 X26.078 Y0.028 Z0.308
G1 X26.072 Y0.138 Z0.304
G1 X26.058 Y0.247 Z0.3
G1 X26.036 Y0.354 Z0.297
G1 X26.006 Y0.46 Z0.293
G1 X25.969 Y0.563 Z0.289
G1 X25.924 Y0.663 Z0.285
G1 X25.873 Y0.76 Z0.281
G1 X25.814 Y0.853 Z0.277
G1 X25.749 Y0.941 Z0.274
G1 X25.677 Y1.024 Z0.27
G1 X25.6 Y1.102 Z0.266
G1 X25.517 Y1.174 Z0.262
G1 X25.429 Y1.24 Z0.258
G1 X25.336 Y1.299 Z0.254
G1 X25.24 Y1.351 Z0.251
G1 X25.14 Y1.396 Z0.247
G1 X25.037 Y1.434 Z0.243
G1 X24.931 Y1.464 Z0.239
G1 X24.824 Y1.487 Z0.235
G1 X24.715 Y1.501 Z0.231
G1 X24.606 Y1.508 Z0.228
G1 X24.496 Y1.506 Z0.224
G1 X24.387 Y1.497 Z0.22
G1 X24.278 Y1.48 Z0.216
G1 X24.171 Y1.454 Z0.212
G1 X24.067 Y1.422 Z0.208
G1 X23.965 Y1.381 Z0.205
G1 X23.866 Y1.334 Z0.201
G1 X23.771 Y1.279 Z0.197
G1 X23.68 Y1.217 Z0.193
G1 X23.594 Y1.149 Z0.189
G1 X23.513 Y1.075 Z0.185
G1 X23.437 Y0.996 Z0.182
G1 X23.368 Y0.911 Z0.178
G1 X23.305 Y0.821 Z0.174
G1 X23.248 Y0.726 Z0.17
G1 X23.199 Y0.628 Z0.166
G1 X23.157 Y0.527 Z0.162
G1 X23.122 Y0.423 Z0.159
G1 X23.096 Y0.317 Z0.155
G1 X23.076 Y0.208 Z0.151
G1 X23.065 Y0.099 Z0.147
G1 X23.062 Y-0.01 Z0.143
G1 X23.067 Y-0.12 Z0.139
G1 X23.079 Y-0.229 Z0.136
G1 X23.1 Y-0.337 Z0.132
G1 X23.128 Y-0.443 Z0.128
G1 X23.164 Y-0.546 Z0.124
G1 X23.208 Y-0.647 Z0.12
G1 X23.259 Y-0.745 Z0.116
G1 X23.316 Y-0.838 Z0.113
G1 X23.38 Y-0.927 Z0.109
G1 X23.451 Y-1.011 Z0.105
G1 X23.527 Y-1.09 Z0.101
G1 X23.609 Y-1.163 Z0.097
G1 X23.697 Y-1.229 Z0.093
G1 X23.788 Y-1.29 Z0.09
G1 X23.884 Y-1.343 Z0.086
G1 X23.984 Y-1.389 Z0.082
G1 X24.086 Y-1.428 Z0.078
G1 X24.191 Y-1.46 Z0.074
G1 X24.299 Y-1.483 Z0.07
G1 X24.407 Y-1.499 Z0.067
G1 X24.517 Y-1.507 Z0.063
G1 X24.626 Z0.059
G1 X24.736 Y-1.499 Z0.055
G1 X24.844 Y-1.483 Z0.051
G1 X24.951 Y-1.459 Z0.047
G1 X25.057 Y-1.427 Z0.044
G1 X25.159 Y-1.388 Z0.04
G1 X25.258 Y-1.342 Z0.036
G1 X25.354 Y-1.288 Z0.032
G1 X25.446 Y-1.228 Z0.028
G1 X25.533 Y-1.161 Z0.024
G1 X25.615 Y-1.088 Z0.021
G1 X25.691 Y-1.009 Z0.017
G1 X25.761 Y-0.925 Z0.013
G1 X25.826 Y-0.836 Z0.009
G1 X25.883 Y-0.742 Z0.005
G1 X25.933 Y-0.645 Z0.001
G1 X25.977 Y-0.544 Z-0.002
G1 X26.013 Y-0.44 Z-0.006
G1 X26.041 Y-0.334 Z-0.01
G1 X26.061 Y-0.226 Z-0.014
G1 X26.074 Y-0.117 Z-0.018
G1 X26.078 Y-0.007 Z-0.022
G1 X26.075 Y0.102 Z-0.025
G1 X26.063 Y0.211 Z-0.029
G1 X26.044 Y0.319 Z-0.033
G1 X26.017 Y0.426 Z-0.037
G1 X25.982 Y0.53 Z-0.041
G1 X25.94 Y0.631 Z-0.045
G1 X25.89 Y0.729 Z-0.048
G1 X25.834 Y0.823 Z-0.052
G1 X25.771 Y0.913 Z-0.056
G1 X25.701 Y0.998 Z-0.06
G1 X25.625 Y1.077 Z-0.064
G1 X25.544 Y1.151 Z-0.068
G1 X25.458 Y1.219 Z-0.071
G1 X25.367 Y1.28 Z-0.075
G1 X25.272 Y1.335 Z-0.079
G1 X25.173 Y1.382 Z-0.083
G1 X25.071 Y1.423 Z-0.087
G1 X24.966 Y1.455 Z-0.091
G1 X24.859 Y1.48 Z-0.094
G1 X24.751 Y1.497 Z-0.098
G1 X24.641 Y1.506 Z-0.102
G1 X24.532 Y1.508 Z-0.106
G1 X24.422 Y1.501 Z-0.11
G1 X24.313 Y1.486 Z-0.114
G1 X24.206 Y1.464 Z-0.117
G1 X24.1 Y1.433 Z-0.121
G1 X23.997 Y1.395 Z-0.125
G1 X23.898 Y1.35 Z-0.129
G1 X23.801 Y1.297 Z-0.133
G1 X23.709 Y1.238 Z-0.137
G1 X23.621 Y1.172 Z-0.14
G1 X23.538 Y1.1 Z-0.144
G1 X23.461 Y1.022 Z-0.148
G1 X23.39 Y0.939 Z-0.152
G1 X23.325 Y0.85 Z-0.156
G1 X23.266 Y0.758 Z-0.16
G1 X23.214 Y0.661 Z-0.163
G1 X23.17 Y0.56 Z-0.167
G1 X23.133 Y0.457 Z-0.171
G1 X23.103 Y0.351 Z-0.175
G1 X23.082 Y0.244 Z-0.179
G1 X23.068 Y0.135 Z-0.183
G1 X23.062 Y0.025 Z-0.186
G1 X23.064 Y-0.084 Z-0.19
G1 X23.074 Y-0.194 Z-0.194
G1 X23.092 Y-0.302 Z-0.198
G1 X23.118 Y-0.409 Z-0.202
G1 X23.152 Y-0.513 Z-0.206
G1 X23.193 Y-0.615 Z-0.209
G1 X23.241 Y-0.713 Z-0.213
G1 X23.297 Y-0.808 Z-0.217
G1 X23.359 Y-0.899 Z-0.221
G1 X23.427 Y-0.984 Z-0.225
G1 X23.502 Y-1.065 Z-0.229
G1 X23.582 Y-1.14 Z-0.232
G1 X23.668 Y-1.208 Z-0.236
G1 X23.758 Y-1.271 Z-0.24
G1 X23.852 Y-1.326 Z-0.244
G1 X23.951 Y-1.375 Z-0.248
G1 X24.053 Y-1.417 Z-0.252
G1 X24.157 Y-1.45 Z-0.255
G1 X24.263 Y-1.477 Z-0.259
G1 X24.372 Y-1.495 Z-0.263
G1 X24.481 Y-1.505 Z-0.267
G1 X24.591 Y-1.508 Z-0.271
G1 X24.7 Y-1.502 Z-0.275
G1 X24.809 Y-1.489 Z-0.278
G1 X24.917 Y-1.468 Z-0.282
G1 X25.023 Y-1.439 Z-0.286
G1 X25.126 Y-1.402 Z-0.29
G1 X25.226 Y-1.358 Z-0.294
G1 X25.323 Y-1.306 Z-0.298
G1 X25.416 Y-1.248 Z-0.301
G1 X25.505 Y-1.183 Z-0.305
G1 X25.589 Y-1.112 Z-0.309
G1 X25.667 Y-1.035 Z-0.313
G1 X25.739 Y-0.953 Z-0.317
G1 X25.805 Y-0.865 Z-0.321
G1 X25.865 Y-0.773 Z-0.324
G1 X25.918 Y-0.677 Z-0.328
G1 X25.963 Y-0.577 Z-0.332
G1 X26.002 Y-0.474 Z-0.336
G1 X26.032 Y-0.369 Z-0.34
G1 X26.055 Y-0.261 Z-0.344
G1 X26.07 Y-0.153 Z-0.347
G1 X26.078 Y-0.043 Z-0.351
G1 X26.077 Y0.066 Z-0.355
G1 X26.068 Y0.176 Z-0.359
G1 X26.051 Y0.284 Z-0.363
G1 X26.027 Y0.391 Z-0.367
G1 X25.994 Y0.496 Z-0.37
G1 X25.954 Y0.598 Z-0.374
G1 X25.907 Y0.698 Z-0.378
G1 X25.853 Y0.793 Z-0.382
G1 X25.792 Y0.884 Z-0.386
G1 X25.724 Y0.971 Z-0.39
G1 X25.651 Y1.052 Z-0.393
G1 X25.571 Y1.128 Z-0.397
G1 X25.487 Y1.198 Z-0.401
G1 X25.397 Y1.261 Z-0.405
G1 X25.303 Y1.318 Z-0.409
G1 X25.205 Y1.368 Z-0.413
G1 X25.104 Y1.41 Z-0.416
G1 X25 Y1.445 Z-0.42
G1 X24.894 Y1.473 Z-0.424
G1 X24.786 Y1.493 Z-0.428
G1 X24.677 Y1.504 Z-0.432
G1 X24.567 Y1.508 Z-0.436
G1 X24.458 Y1.504 Z-0.439
G1 X24.349 Y1.492 Z-0.443
G1 X24.241 Y1.472 Z-0.447
G1 X24.135 Y1.444 Z-0.451
G1 X24.031 Y1.408 Z-0.455
G1 X23.93 Y1.365 Z-0.459
G1 X23.832 Y1.315 Z-0.462
G1 X23.738 Y1.258 Z-0.466
G1 X23.649 Y1.194 Z-0.47
G1 X23.565 Y1.124 Z-0.474
G1 X23.486 Y1.048 Z-0.478
G1 X23.412 Y0.966 Z-0.482
G1 X23.345 Y0.88 Z-0.485
G1 X23.284 Y0.788 Z-0.489
G1 X23.23 Y0.693 Z-0.493
G1 X23.184 Y0.593 Z-0.497
G1 X23.144 Y0.491 Z-0.501
G1 X23.112 Y0.386 Z-0.505
G1 X23.088 Y0.279 Z-0.508
G1 X23.072 Y0.171 Z-0.512
G1 X23.063 Y0.061 Z-0.516
G1 Y-0.049 Z-0.52
G1 X23.07 Y-0.158 Z-0.524
G1 X23.086 Y-0.267 Z-0.528
G1 X23.109 Y-0.374 Z-0.531
G1 X23.14 Y-0.479 Z-0.535
G1 X23.179 Y-0.582 Z-0.539
G1 X23.225 Y-0.682 Z-0.543
G1 X23.278 Y-0.778 Z-0.547
G1 X23.338 Y-0.87 Z-0.551
G1 X23.404 Y-0.957 Z-0.554
G1 X23.477 Y-1.039 Z-0.558
G1 X23.555 Y-1.116 Z-0.562
G1 X23.639 Y-1.187 Z-0.566
G1 X23.728 Y-1.251 Z-0.57
G1 X23.821 Y-1.309 Z-0.574
G1 X23.918 Y-1.36 Z-0.577
G1 X24.019 Y-1.404 Z-0.581
G1 X24.123 Y-1.44 Z-0.585
G1 X24.229 Y-1.469 Z-0.589
G1 X24.336 Y-1.49 Z-0.593
G1 X24.445 Y-1.503 Z-0.597
G1 X24.555 Y-1.508 Z-0.6
G1 X24.665 Y-1.505 Z-0.604
G1 X24.774 Y-1.494 Z-0.608
G1 X24.882 Y-1.476 Z-0.612
G1 X24.988 Y-1.449 Z-0.616
G1 X25.093 Y-1.415 Z-0.62
G1 X25.194 Y-1.373 Z-0.623
G1 X25.292 Y-1.324 Z-0.627
G1 X25.387 Y-1.268 Z-0.631
G1 X25.477 Y-1.205 Z-0.635
G1 X25.562 Y-1.136 Z-0.639
G1 X25.642 Y-1.061 Z-0.643
G1 X25.716 Y-0.98 Z-0.646
G1 X25.784 Y-0.894 Z-0.65
G1 X25.846 Y-0.803 Z-0.654
G1 X25.901 Y-0.709 Z-0.658
G1 X25.949 Y-0.61 Z-0.662
G1 X25.99 Y-0.508 Z-0.666
G1 X26.023 Y-0.403 Z-0.669
G1 X26.049 Y-0.297 Z-0.673
G1 X26.066 Y-0.188 Z-0.677
G1 X26.076 Y-0.079 Z-0.681
G1 X26.078 Y0.031 Z-0.685
G1 X26.072 Y0.14 Z-0.689
G1 X26.057 Y0.249 Z-0.692
G1 X26.035 Y0.357 Z-0.696
G1 X26.006 Y0.462 Z-0.7
G1 X25.968 Y0.565 Z-0.704
G1 X25.923 Y0.666 Z-0.708
G1 X25.871 Y0.762 Z-0.712
G1 X25.812 Y0.855 Z-0.715
G1 X25.747 Y0.943 Z-0.719
G1 X25.675 Y1.026 Z-0.723
G1 X25.598 Y1.104 Z-0.727
G1 X25.515 Y1.176 Z-0.731
G1 X25.427 Y1.241 Z-0.735
G1 X25.334 Y1.3 Z-0.738
G1 X25.238 Y1.352 Z-0.742
G1 X25.138 Y1.397 Z-0.746
G1 X25.034 Y1.435 Z-0.75
G1 X24.929 Y1.465 Z-0.754
G1 X24.821 Y1.487 Z-0.758
G1 X24.713 Y1.501 Z-0.761
G1 X24.603 Y1.508 Z-0.765
G1 X24.493 Y1.506 Z-0.769
G1 X24.384 Y1.497 Z-0.773
G1 X24.276 Y1.479 Z-0.777
G1 X24.169 Y1.454 Z-0.781
G1 X24.064 Y1.421 Z-0.784
G1 X23.962 Y1.38 Z-0.788
G1 X23.864 Y1.332 Z-0.792
G1 X23.768 Y1.277 Z-0.796
G1 X23.678 Y1.216 Z-0.8
G1 X23.592 Y1.148 Z-0.804
G1 X23.511 Y1.074 Z-0.807
G1 X23.436 Y0.994 Z-0.811
G1 X23.366 Y0.909 Z-0.815
G1 X23.303 Y0.819 Z-0.819
G1 X23.247 Y0.724 Z-0.823
G1 X23.198 Y0.626 Z-0.827
G1 X23.156 Y0.525 Z-0.83
G1 X23.122 Y0.421 Z-0.834
G1 X23.095 Y0.314 Z-0.838
G1 X23.076 Y0.206 Z-0.842
G1 X23.065 Y0.097 Z-0.846
G1 X23.062 Y-0.013 Z-0.85
G1 X23.067 Y-0.123 Z-0.853
G1 X23.08 Y-0.231 Z-0.857
G1 X23.101 Y-0.339 Z-0.861
G1 X23.129 Y-0.445 Z-0.865
G1 X23.165 Y-0.549 Z-0.869
G1 X23.209 Y-0.65 Z-0.873
G1 X23.26 Y-0.747 Z-0.876
G1 X23.318 Y-0.84 Z-0.88
G1 X23.382 Y-0.929 Z-0.884
G1 X23.453 Y-1.013 Z-0.888
G1 X23.529 Y-1.091 Z-0.892
G1 X23.611 Y-1.164 Z-0.896
G1 X23.699 Y-1.231 Z-0.899
G1 X23.79 Y-1.291 Z-0.903
G1 X23.886 Y-1.344 Z-0.907
G1 X23.986 Y-1.39 Z-0.911
G1 X24.089 Y-1.429 Z-0.915
G1 X24.194 Y-1.46 Z-0.919
G1 X24.301 Y-1.484 Z-0.922
G1 X24.41 Y-1.5 Z-0.926
G1 X24.519 Y-1.507 Z-0.93
G1 X24.629 Z-0.934
G1 X24.738 Y-1.499 Z-0.938
G1 X24.847 Y-1.483 Z-0.942
G1 X24.954 Y-1.458 Z-0.945
G1 X25.059 Y-1.427 Z-0.949
G1 X25.161 Y-1.387 Z-0.953
G1 X25.261 Y-1.341 Z-0.957
G1 X25.356 Y-1.287 Z-0.961
G1 X25.448 Y-1.226 Z-0.965
G1 X25.535 Y-1.159 Z-0.968
G1 X25.616 Y-1.086 Z-0.972
G1 X25.693 Y-1.007 Z-0.976
G1 X25.763 Y-0.923 Z-0.98
G1 X25.827 Y-0.834 Z-0.984
G1 X25.884 Y-0.74 Z-0.988
G1 X25.935 Y-0.642 Z-0.991
G1 X25.978 Y-0.541 Z-0.995
G1 X26.013 Y-0.438 Z-0.999
G1 X26.041 Y-0.332 Z-1.003
G1 X26.061 Y-0.224 Z-1.007
G1 X26.074 Y-0.115 Z-1.011
G1 X26.078 Y-0.005 Z-1.014
G1 X26.075 Y0.105 Z-1.018
G1 X26.063 Y0.214 Z-1.022
G1 X26.043 Y0.322 Z-1.026
G1 X26.016 Y0.428 Z-1.03
G1 X25.981 Y0.532 Z-1.034
G1 X25.939 Y0.633 Z-1.037
G1 X25.889 Y0.731 Z-1.041
G1 X25.832 Y0.825 Z-1.045
G1 X25.769 Y0.915 Z-1.049
G1 X25.699 Y1 Z-1.053
G1 X25.624 Y1.079 Z-1.057
G1 X25.542 Y1.153 Z-1.06
G1 X25.456 Y1.22 Z-1.064
G1 X25.365 Y1.282 Z-1.068
G1 X25.27 Y1.336 Z-1.072
G1 X25.171 Y1.383 Z-1.076
G1 X25.068 Y1.423 Z-1.08
G1 X24.964 Y1.456 Z-1.083
G1 X24.857 Y1.481 Z-1.087
G1 X24.748 Y1.498 Z-1.091
G1 X24.639 Y1.507 Z-1.095
G1 X24.529 Y1.508 Z-1.099
G1 X24.42 Y1.501 Z-1.103
G1 X24.311 Y1.486 Z-1.106
G1 X24.203 Y1.463 Z-1.11
G1 X24.098 Y1.432 Z-1.114
G1 X23.995 Y1.394 Z-1.118
G1 X23.895 Y1.349 Z-1.122
G1 X23.799 Y1.296 Z-1.126
G1 X23.707 Y1.237 Z-1.129
G1 X23.619 Y1.171 Z-1.133
G1 X23.537 Y1.098 Z-1.137
G1 X23.459 Y1.02 Z-1.141
G1 X23.388 Y0.937 Z-1.145
G1 X23.323 Y0.848 Z-1.149
G1 X23.265 Y0.755 Z-1.152
G1 X23.213 Y0.659 Z-1.156
G1 X23.169 Y0.558 Z-1.16
G1 X23.132 Y0.455 Z-1.164
G1 X23.103 Y0.349 Z-1.168
G1 X23.081 Y0.241 Z-1.172
G1 X23.068 Y0.132 Z-1.175
G1 X23.062 Y0.023 Z-1.179
G1 X23.064 Y-0.087 Z-1.183
G1 X23.075 Y-0.196 Z-1.187
G1 X23.093 Y-0.304 Z-1.191
G1 X23.119 Y-0.411 Z-1.195
G1 X23.153 Y-0.515 Z-1.198
G1 X23.194 Y-0.617 Z-1.202
G1 X23.242 Y-0.716 Z-1.206
G1 X23.298 Y-0.81 Z-1.21
G1 X23.36 Y-0.901 Z-1.214
G1 X23.429 Y-0.986 Z-1.218
G1 X23.504 Y-1.066 Z-1.221
G1 X23.584 Y-1.141 Z-1.225
G1 X23.67 Y-1.21 Z-1.229
G1 X23.76 Y-1.272 Z-1.233
G1 X23.855 Y-1.328 Z-1.237
G1 X23.953 Y-1.376 Z-1.241
G1 X24.055 Y-1.417 Z-1.244
G1 X24.159 Y-1.451 Z-1.248
G1 X24.266 Y-1.477 Z-1.252
G1 X24.374 Y-1.495 Z-1.256
G1 X24.483 Y-1.506 Z-1.26
G1 X24.593 Y-1.508 Z-1.264
G1 X24.703 Y-1.502 Z-1.267
G1 X24.812 Y-1.489 Z-1.271
G1 X24.919 Y-1.467 Z-1.275
G1 X25.025 Y-1.438 Z-1.279
G1 X25.128 Y-1.401 Z-1.283
G1 X25.229 Y-1.357 Z-1.287
G1 X25.326 Y-1.305 Z-1.29
G1 X25.419 Y-1.247 Z-1.294
G1 X25.507 Y-1.182 Z-1.298
G1 X25.59 Y-1.111 Z-1.302
G1 X25.668 Y-1.033 Z-1.306
G1 X25.741 Y-0.951 Z-1.31
G1 X25.807 Y-0.863 Z-1.313
G1 X25.866 Y-0.771 Z-1.317
G1 X25.919 Y-0.675 Z-1.321
G1 X25.964 Y-0.575 Z-1.325
G1 X26.002 Y-0.472 Z-1.329
G1 X26.033 Y-0.366 Z-1.333
G1 X26.056 Y-0.259 Z-1.336
G1 X26.071 Y-0.15 Z-1.34
G1 X26.078 Y-0.041 Z-1.344
G1 X26.077 Y0.069 Z-1.348
G1 X26.068 Y0.178 Z-1.352
G1 X26.051 Y0.287 Z-1.356
G1 X26.026 Y0.394 Z-1.359
G1 X25.993 Y0.499 Z-1.363
G1 X25.953 Y0.601 Z-1.367
G1 X25.906 Y0.7 Z-1.371
G1 X25.852 Y0.795 Z-1.375
G1 X25.79 Y0.886 Z-1.379
G1 X25.723 Y0.973 Z-1.382
G1 X25.649 Y1.054 Z-1.386
G1 X25.569 Y1.129 Z-1.39
G1 X25.485 Y1.199 Z-1.394
G1 X25.395 Y1.262 Z-1.398
G1 X25.301 Y1.319 Z-1.402
G1 X25.203 Y1.369 Z-1.405
G1 X25.102 Y1.411 Z-1.409
G1 X24.998 Y1.446 Z-1.413
G1 X24.892 Y1.473 Z-1.417
G1 X24.784 Y1.493 Z-1.421
G1 X24.675 Y1.505 Z-1.425
G1 X24.565 Y1.508 Z-1.428
G1 X24.455 Y1.504 Z-1.432
G1 X24.346 Y1.491 Z-1.436
G1 X24.238 Y1.471 Z-1.44
G1 X24.132 Y1.443 Z-1.444
G1 X24.028 Y1.407 Z-1.448
G1 X23.927 Y1.364 Z-1.451
G1 X23.83 Y1.314 Z-1.455
G1 X23.736 Y1.257 Z-1.459
G1 X23.647 Y1.193 Z-1.463
G1 X23.563 Y1.123 Z-1.467
G1 X23.484 Y1.046 Z-1.471
G1 X23.411 Y0.965 Z-1.474
G1 X23.344 Y0.878 Z-1.478
G1 X23.283 Y0.786 Z-1.482
G1 X23.229 Y0.691 Z-1.486
G1 X23.183 Y0.591 Z-1.49
G1 X23.143 Y0.489 Z-1.494
G1 X23.112 Y0.384 Z-1.497
G1 X23.087 Y0.277 Z-1.501
G1 X23.071 Y0.168 Z-1.505
G1 X23.063 Y0.059 Z-1.509
G1 Y-0.051 Z-1.513
G1 X23.07 Y-0.161 Z-1.517
G1 X23.086 Y-0.269 Z-1.52
G1 X23.11 Y-0.376 Z-1.524
G1 X23.141 Y-0.482 Z-1.528
G1 X23.18 Y-0.584 Z-1.532
G1 X23.226 Y-0.684 Z-1.536
G1 X23.279 Y-0.78 Z-1.54
G1 X23.339 Y-0.872 Z-1.543
G1 X23.406 Y-0.959 Z-1.547
G1 X23.479 Y-1.041 Z-1.551
G1 X23.557 Y-1.117 Z-1.555
G1 X23.641 Y-1.188 Z-1.559
G1 X23.73 Y-1.253 Z-1.563
G1 X23.823 Y-1.31 Z-1.566
G1 X23.921 Y-1.361 Z-1.57
G1 X24.021 Y-1.405 Z-1.574
G1 X24.125 Y-1.441 Z-1.578
G1 X24.231 Y-1.47 Z-1.582
G1 X24.339 Y-1.49 Z-1.586
G1 X24.448 Y-1.503 Z-1.589
G1 X24.557 Y-1.508 Z-1.593
G1 X24.667 Y-1.505 Z-1.597
G1 X24.776 Y-1.494 Z-1.601
G1 X24.884 Y-1.475 Z-1.605
G1 X24.991 Y-1.448 Z-1.609
G1 X25.095 Y-1.414 Z-1.612
G1 X25.196 Y-1.372 Z-1.616
G1 X25.294 Y-1.323 Z-1.62
G1 X25.389 Y-1.267 Z-1.624
G1 X25.479 Y-1.204 Z-1.628
G1 X25.564 Y-1.134 Z-1.632
G1 X25.644 Y-1.059 Z-1.635
G1 X25.718 Y-0.978 Z-1.639
G1 X25.786 Y-0.892 Z-1.643
G1 X25.848 Y-0.801 Z-1.647
G1 X25.903 Y-0.706 Z-1.651
G1 X25.95 Y-0.608 Z-1.655
G1 X25.991 Y-0.506 Z-1.658
G1 X26.024 Y-0.401 Z-1.662
G1 X26.049 Y-0.294 Z-1.666
G1 X26.067 Y-0.186 Z-1.67
G1 X26.076 Y-0.076 Z-1.674
G1 X26.078 Y0.033 Z-1.678
G1 X26.071 Y0.143 Z-1.681
G1 X26.057 Y0.252 Z-1.685
G1 X26.035 Y0.359 Z-1.689
G1 X26.005 Y0.465 Z-1.693
G1 X25.967 Y0.568 Z-1.697
G1 X25.922 Y0.668 Z-1.701
G1 X25.87 Y0.764 Z-1.704
G1 X25.811 Y0.857 Z-1.708
G1 X25.745 Y0.945 Z-1.712
G1 X25.674 Y1.028 Z-1.716
G1 X25.596 Y1.105 Z-1.72
G1 X25.513 Y1.177 Z-1.724
G1 X25.425 Y1.243 Z-1.727
G1 X25.332 Y1.301 Z-1.731
G1 X25.235 Y1.353 Z-1.735
G1 X25.135 Y1.398 Z-1.739
G1 X25.032 Y1.436 Z-1.743
G1 X24.927 Y1.465 Z-1.747
G1 X24.819 Y1.487 Z-1.75
G1 X24.71 Y1.502 Z-1.754
G1 X24.601 Y1.508 Z-1.758
G1 X24.491 Y1.506 Z-1.762
G1 X24.382 Y1.496 Z-1.766
G1 X24.273 Y1.479 Z-1.77
G1 X24.167 Y1.453 Z-1.773
G1 X24.062 Y1.42 Z-1.777
G1 X23.96 Y1.379 Z-1.781
G1 X23.861 Y1.331 Z-1.785
G1 X23.766 Y1.276 Z-1.789
G1 X23.676 Y1.214 Z-1.793
G1 X23.59 Y1.146 Z-1.796
G1 X23.509 Y1.072 Z-1.8
G1 X23.434 Y0.992 Z-1.804
G1 X23.365 Y0.907 Z-1.808
G1 X23.302 Y0.816 Z-1.812
G1 X23.246 Y0.722 Z-1.816
G1 X23.197 Y0.624 Z-1.819
G1 X23.155 Y0.522 Z-1.823
G1 X23.121 Y0.418 Z-1.827
G1 X23.094 Y0.312 Z-1.831
G1 X23.076 Y0.204 Z-1.835
G1 X23.065 Y0.094 Z-1.839
G1 X23.062 Y-0.015 Z-1.842
G1 X23.067 Y-0.125 Z-1.846
G1 X23.08 Y-0.234 Z-1.85
G1 X23.101 Y-0.342 Z-1.854
G1 X23.13 Y-0.448 Z-1.858
G1 X23.166 Y-0.551 Z-1.862
G1 X23.21 Y-0.652 Z-1.865
G1 X23.261 Y-0.749 Z-1.869
G1 X23.319 Y-0.842 Z-1.873
G1 X23.384 Y-0.931 Z-1.877
G1 X23.454 Y-1.015 Z-1.881
G1 X23.531 Y-1.093 Z-1.885
G1 X23.613 Y-1.166 Z-1.888
G1 X23.701 Y-1.232 Z-1.892
G1 X23.793 Y-1.292 Z-1.896
G1 X23.889 Y-1.345 Z-1.9
G1 X23.988 Y-1.391 Z-1.904
G1 X24.091 Y-1.43 Z-1.908
G1 X24.196 Y-1.461 Z-1.911
G1 X24.303 Y-1.484 Z-1.915
G1 X24.412 Y-1.5 Z-1.919
G1 X24.522 Y-1.507 Z-1.923
G1 X24.631 Z-1.927
G1 X24.741 Y-1.498 Z-1.931
G1 X24.849 Y-1.482 Z-1.934
G1 X24.956 Y-1.458 Z-1.938
G1 X25.061 Y-1.426 Z-1.942
G1 X25.164 Y-1.386 Z-1.946
G1 X25.263 Y-1.34 Z-1.95
G1 X25.359 Y-1.286 Z-1.954
G1 X25.45 Y-1.225 Z-1.957
G1 X25.537 Y-1.158 Z-1.961
G1 X25.618 Y-1.084 Z-1.965
G1 X25.694 Y-1.005 Z-1.969
G1 X25.764 Y-0.921 Z-1.973
G1 X25.828 Y-0.831 Z-1.977
G1 X25.885 Y-0.738 Z-1.98
G1 X25.936 Y-0.64 Z-1.984
G1 X25.978 Y-0.539 Z-1.988
G1 X26.014 Y-0.435 Z-1.992
G1 X26.042 Y-0.329 Z-1.996
G1 X26.062 Y-0.221 Z-2
G1 X26.074 Y-0.112 Z-2.003
G1 X26.078 Y-0.002 Z-2.007
G1 X26.074 Y0.107 Z-2.011
G1 X26.063 Y0.216 Z-2.015
G1 X26.043 Y0.324 Z-2.019
G1 X26.015 Y0.431 Z-2.023
G1 X25.98 Y0.534 Z-2.026
G1 X25.938 Y0.636 Z-2.03
G1 X25.888 Y0.733 Z-2.034
G1 X25.831 Y0.827 Z-2.038
G1 X25.768 Y0.917 Z-2.042
G1 X25.698 Y1.001 Z-2.046
G1 X25.622 Y1.081 Z-2.049
G1 X25.54 Y1.154 Z-2.053
G1 X25.454 Y1.222 Z-2.057
G1 X25.363 Y1.283 Z-2.061
G1 X25.267 Y1.337 Z-2.065
G1 X25.168 Y1.384 Z-2.069
G1 X25.066 Y1.424 Z-2.072
G1 X24.961 Y1.457 Z-2.076
G1 X24.854 Y1.481 Z-2.08
G1 X24.746 Y1.498 Z-2.084
G1 X24.636 Y1.507 Z-2.088
G1 X24.527 Y1.508 Z-2.092
G1 X24.417 Y1.5 Z-2.095
G1 X24.308 Y1.485 Z-2.099
G1 X24.201 Y1.462 Z-2.103
G1 X24.096 Y1.432 Z-2.107
G1 X23.993 Y1.393 Z-2.111
G1 X23.893 Y1.348 Z-2.115
G1 X23.797 Y1.295 Z-2.118
G1 X23.705 Y1.235 Z-2.122
G1 X23.617 Y1.169 Z-2.126
G1 X23.535 Y1.097 Z-2.13
G1 X23.458 Y1.018 Z-2.134
G1 X23.387 Y0.935 Z-2.138
G1 X23.322 Y0.846 Z-2.141
G1 X23.264 Y0.753 Z-2.145
G1 X23.212 Y0.656 Z-2.149
G1 X23.168 Y0.556 Z-2.153
G1 X23.131 Y0.452 Z-2.157
G1 X23.102 Y0.347 Z-2.161
G1 X23.081 Y0.239 Z-2.164
G1 X23.068 Y0.13 Z-2.168
G1 X23.062 Y0.02 Z-2.172
G1 X23.065 Y-0.089 Z-2.176
G1 X23.075 Y-0.199 Z-2.18
G1 X23.093 Y-0.307 Z-2.184
G1 X23.12 Y-0.413 Z-2.187
G1 X23.154 Y-0.518 Z-2.191
G1 X23.195 Y-0.619 Z-2.195
G1 X23.244 Y-0.718 Z-2.199
G1 X23.299 Y-0.812 Z-2.203
G1 X23.362 Y-0.903 Z-2.207
G1 X23.431 Y-0.988 Z-2.21
G1 X23.505 Y-1.068 Z-2.214
G1 X23.586 Y-1.143 Z-2.218
G1 X23.672 Y-1.211 Z-2.222
G1 X23.762 Y-1.273 Z-2.226
G1 X23.857 Y-1.329 Z-2.23
G1 X23.955 Y-1.377 Z-2.233
G1 X24.057 Y-1.418 Z-2.237
G1 X24.162 Y-1.452 Z-2.241
G1 X24.268 Y-1.478 Z-2.245
G1 X24.377 Y-1.496 Z-2.249
G1 X24.486 Y-1.506 Z-2.253
G1 X24.596 Y-1.508 Z-2.256
G1 X24.705 Y-1.502 Z-2.26
G1 X24.814 Y-1.488 Z-2.264
G1 X24.922 Y-1.467 Z-2.268
G1 X25.027 Y-1.437 Z-2.272
G1 X25.131 Y-1.4 Z-2.276
G1 X25.231 Y-1.356 Z-2.279
G1 X25.328 Y-1.304 Z-2.283
G1 X25.421 Y-1.245 Z-2.287
G1 X25.509 Y-1.18 Z-2.291
G1 X25.592 Y-1.109 Z-2.295
G1 X25.67 Y-1.032 Z-2.299
G1 X25.742 Y-0.949 Z-2.302
G1 X25.808 Y-0.861 Z-2.306
G1 X25.868 Y-0.769 Z-2.31
G1 X25.92 Y-0.672 Z-2.314
G1 X25.965 Y-0.572 Z-2.318
G1 X26.003 Y-0.469 Z-2.322
G1 X26.034 Y-0.364 Z-2.325
G1 X26.056 Y-0.257 Z-2.329
G1 X26.071 Y-0.148 Z-2.333
G1 X26.078 Y-0.038 Z-2.337
G1 X26.076 Y0.071 Z-2.341
G1 X26.067 Y0.181 Z-2.345
G1 X26.05 Y0.289 Z-2.348
G1 X26.025 Y0.396 Z-2.352
G1 X25.993 Y0.501 Z-2.356
G1 X25.952 Y0.603 Z-2.36
G1 X25.905 Y0.702 Z-2.364
G1 X25.85 Y0.797 Z-2.368
G1 X25.789 Y0.888 Z-2.371
G1 X25.721 Y0.974 Z-2.375
G1 X25.647 Y1.056 Z-2.379
G1 X25.568 Y1.131 Z-2.383
G1 X25.483 Y1.201 Z-2.387
G1 X25.393 Y1.264 Z-2.391
G1 X25.299 Y1.32 Z-2.394
G1 X25.201 Y1.37 Z-2.398
G1 X25.1 Y1.412 Z-2.402
G1 X24.996 Y1.447 Z-2.406
G1 X24.889 Y1.474 Z-2.41
G1 X24.781 Y1.493 Z-2.414
G1 X24.672 Y1.505 Z-2.417
G1 X24.562 Y1.508 Z-2.421
G1 X24.453 Y1.504 Z-2.425
G1 X24.344 Y1.491 Z-2.429
G1 X24.236 Y1.471 Z-2.433
G1 X24.13 Y1.442 Z-2.437
G1 X24.026 Y1.407 Z-2.44
G1 X23.925 Y1.363 Z-2.444
G1 X23.828 Y1.313 Z-2.448
G1 X23.734 Y1.255 Z-2.452
G1 X23.645 Y1.191 Z-2.456
G1 X23.561 Y1.121 Z-2.46
G1 X23.482 Y1.045 Z-2.463
G1 X23.409 Y0.963 Z-2.467
G1 X23.342 Y0.876 Z-2.471
G1 X23.282 Y0.784 Z-2.475
G1 X23.228 Y0.688 Z-2.479
G1 X23.182 Y0.589 Z-2.483
G1 X23.142 Y0.486 Z-2.486
G1 X23.111 Y0.381 Z-2.49
G1 X23.087 Y0.274 Z-2.494
G1 X23.071 Y0.166 Z-2.498
G1 X23.063 Y0.056 Z-2.502
G1 Y-0.054 Z-2.506
G1 X23.071 Y-0.163 Z-2.509
G1 X23.087 Y-0.272 Z-2.513
G1 X23.11 Y-0.379 Z-2.517
G1 X23.142 Y-0.484 Z-2.521
G1 X23.181 Y-0.587 Z-2.525
G1 X23.227 Y-0.686 Z-2.529
G1 X23.28 Y-0.782 Z-2.532
G1 X23.341 Y-0.874 Z-2.536
G1 X23.408 Y-0.961 Z-2.54
G1 X23.48 Y-1.043 Z-2.544
G1 X23.559 Y-1.119 Z-2.548
G1 X23.643 Y-1.19 Z-2.552
G1 X23.732 Y-1.254 Z-2.555
G1 X23.826 Y-1.312 Z-2.559
G1 X23.923 Y-1.362 Z-2.563
G1 X24.024 Y-1.406 Z-2.567
G1 X24.127 Y-1.442 Z-2.571
G1 X24.233 Y-1.47 Z-2.575
G1 X24.341 Y-1.491 Z-2.578
G1 X24.45 Y-1.503 Z-2.582
G1 X24.56 Y-1.508 Z-2.586
G1 X24.67 Y-1.505 Z-2.59
G1 X24.779 Y-1.494 Z-2.594
G1 X24.887 Y-1.474 Z-2.598
G1 X24.993 Y-1.448 Z-2.601
G1 X25.097 Y-1.413 Z-2.605
G1 X25.199 Y-1.371 Z-2.609
G1 X25.297 Y-1.322 Z-2.613
G1 X25.391 Y-1.265 Z-2.617
G1 X25.481 Y-1.202 Z-2.621
G1 X25.566 Y-1.133 Z-2.624
G1 X25.645 Y-1.057 Z-2.628
G1 X25.719 Y-0.976 Z-2.632
G1 X25.787 Y-0.89 Z-2.636
G1 X25.849 Y-0.799 Z-2.64
G1 X25.904 Y-0.704 Z-2.644
G1 X25.951 Y-0.605 Z-2.647
G1 X25.992 Y-0.503 Z-2.651
G1 X26.025 Y-0.399 Z-2.655
G1 X26.05 Y-0.292 Z-2.659
G1 X26.067 Y-0.183 Z-2.663
G1 X26.076 Y-0.074 Z-2.667
G1 X26.078 Y0.036 Z-2.67
G1 X26.071 Y0.145 Z-2.674
G1 X26.057 Y0.254 Z-2.678
G1 X26.034 Y0.362 Z-2.682
G1 X26.004 Y0.467 Z-2.686
G1 X25.966 Y0.57 Z-2.69
G1 X25.921 Y0.67 Z-2.693
G1 X25.869 Y0.767 Z-2.697
G1 X25.81 Y0.859 Z-2.701
G1 X25.744 Y0.947 Z-2.705
G1 X25.672 Y1.03 Z-2.709
G1 X25.594 Y1.107 Z-2.713
G1 X25.511 Y1.179 Z-2.716
G1 X25.423 Y1.244 Z-2.72
G1 X25.33 Y1.303 Z-2.724
G1 X25.233 Y1.354 Z-2.728
G1 X25.133 Y1.399 Z-2.732
G1 X25.03 Y1.436 Z-2.736
G1 X24.924 Y1.466 Z-2.739
G1 X24.817 Y1.488 Z-2.743
G1 X24.708 Y1.502 Z-2.747
G1 X24.598 Y1.508 Z-2.751
G1 X24.488 Y1.506 Z-2.755
G1 X24.379 Y1.496 Z-2.759
G1 X24.271 Y1.478 Z-2.762
G1 X24.164 Y1.452 Z-2.766
G1 X24.06 Y1.419 Z-2.77
G1 X23.958 Y1.378 Z-2.774
G1 X23.859 Y1.33 Z-2.778
G1 X23.764 Y1.275 Z-2.782
G1 X23.674 Y1.213 Z-2.785
G1 X23.588 Y1.144 Z-2.789
G1 X23.507 Y1.07 Z-2.793
G1 X23.432 Y0.99 Z-2.797
G1 X23.363 Y0.905 Z-2.801
G1 X23.301 Y0.814 Z-2.805
G1 X23.245 Y0.72 Z-2.808
G1 X23.196 Y0.622 Z-2.812
G1 X23.154 Y0.52 Z-2.816
G1 X23.12 Y0.416 Z-2.82
G1 X23.094 Y0.309 Z-2.824
G1 X23.075 Y0.201 Z-2.828
G1 X23.065 Y0.092 Z-2.831
G1 X23.062 Y-0.018 Z-2.835
G1 X23.067 Y-0.127 Z-2.839
G1 X23.081 Y-0.236 Z-2.843
G1 X23.102 Y-0.344 Z-2.847
G1 X23.131 Y-0.45 Z-2.851
G1 X23.167 Y-0.553 Z-2.854
G1 X23.211 Y-0.654 Z-2.858
G1 X23.262 Y-0.751 Z-2.862
G1 X23.32 Y-0.844 Z-2.866
G1 X23.385 Y-0.933 Z-2.87
G1 X23.456 Y-1.017 Z-2.874
G1 X23.533 Y-1.095 Z-2.877
G1 X23.615 Y-1.167 Z-2.881
G1 X23.703 Y-1.234 Z-2.885
G1 X23.795 Y-1.294 Z-2.889
G1 X23.891 Y-1.347 Z-2.893
G1 X23.991 Y-1.392 Z-2.897
G1 X24.093 Y-1.431 Z-2.9
G1 X24.199 Y-1.462 Z-2.904
G1 X24.306 Y-1.485 Z-2.908
G1 X24.415 Y-1.5 Z-2.912
G1 X24.524 Y-1.507 Z-2.916
G1 X24.634 Z-2.92
G1 X24.743 Y-1.498 Z-2.923
G1 X24.852 Y-1.482 Z-2.927
G1 X24.959 Y-1.457 Z-2.931
G1 X25.064 Y-1.425 Z-2.935
G1 X25.166 Y-1.385 Z-2.939
G1 X25.265 Y-1.338 Z-2.943
G1 X25.361 Y-1.284 Z-2.946
G1 X25.452 Y-1.223 Z-2.95
G1 X25.539 Y-1.156 Z-2.954
G1 X25.62 Y-1.083 Z-2.958
G1 X25.696 Y-1.003 Z-2.962
G1 X25.766 Y-0.919 Z-2.966
G1 X25.83 Y-0.829 Z-2.969
G1 X25.887 Y-0.736 Z-2.973
G1 X25.937 Y-0.638 Z-2.977
G1 X25.979 Y-0.537 Z-2.981
G1 X26.015 Y-0.433 Z-2.985
G1 X26.042 Y-0.327 Z-2.989
G1 X26.062 Y-0.219 Z-2.992
G1 X26.074 Y-0.11 Z-2.996
G1 X26.078 Y0 Z-3
; MOVEMENT_CUTTING
G1 Y0.15 F360
G1 X26.074 Y0.213
G1 X26.063 Y0.276
G1 X26.044 Y0.337
G1 X26.018 Y0.395
G1 X25.985 Y0.45
G1 X25.945 Y0.5
G1 X25.9 Y0.545
G1 X25.85 Y0.585
G1 X25.795 Y0.618
G1 X25.737 Y0.644
G1 X25.676 Y0.663
G1 X25.613 Y0.674
G1 X25.55 Y0.678
G1 X-25.245
G1 X-25.319 Y0.674
G1 X-25.391 Y0.662
G1 X-25.462 Y0.643
G1 X-25.53 Y0.615
G1 X-25.595 Y0.581
G1 X-25.656 Y0.54
G1 X-25.712 Y0.492
G1 X-25.762 Y0.439
G1 X-25.807 Y0.381
G1 X-25.844 Y0.318
G1 X-25.875 Y0.251
G1 X-25.899 Y0.181
G1 X-25.915 Y0.11
G1 X-25.922 Y0.037
G1 Y-0.037
G1 X-25.915 Y-0.11
G1 X-25.899 Y-0.181
G1 X-25.875 Y-0.251
G1 X-25.844 Y-0.318
G1 X-25.807 Y-0.381
G1 X-25.762 Y-0.439
G1 X-25.712 Y-0.492
G1 X-25.656 Y-0.54
G1 X-25.595 Y-0.581
G1 X-25.53 Y-0.615
G1 X-25.462 Y-0.643
G1 X-25.391 Y-0.662
G1 X-25.319 Y-0.674
G1 X-25.245 Y-0.678
G1 X25.55
G1 X25.613 Y-0.674
G1 X25.676 Y-0.663
G1 X25.737 Y-0.644
G1 X25.795 Y-0.618
G1 X25.85 Y-0.585
G1 X25.9 Y-0.545
G1 X25.945 Y-0.5
G1 X25.985 Y-0.45
G1 X26.018 Y-0.395
G1 X26.044 Y-0.337
G1 X26.063 Y-0.276
G1 X26.074 Y-0.213
G1 X26.078 Y-0.15
G1 Y0
; MOVEMENT_LINK_TRANSITION
G1 X26.082 Y0.081
G1 X26.093 Y0.161
G1 X26.112 Y0.24
G1 X26.139 Y0.317
G1 X26.172 Y0.391
G1 X26.212 Y0.461
G1 X26.259 Y0.528
G1 X26.312 Y0.589
G1 X26.37 Y0.646
G1 X26.433 Y0.696
G1 X26.501 Y0.741
G1 X26.573 Y0.779
G1 X26.648 Y0.809
G1 X26.726 Y0.833
G1 X26.805 Y0.85
G1 X26.87 Y0.863
G1 X26.932 Y0.884
G1 X26.992 Y0.912
G1 X27.049 Y0.946
G1 X27.101 Y0.986
G1 X27.149 Y1.032
G1 X27.191 Y1.083
G1 X27.227 Y1.138
G1 X27.257 Y1.197
G1 X27.281 Y1.258
G1 X27.297 Y1.322
G1 X27.306 Y1.388
G1 X27.308 Y1.454
G1 X27.302 Y1.52
G1 X27.29 Y1.584
G1 X27.27 Y1.647
G1 X27.243 Y1.708
G1 X27.21 Y1.765
G1 X27.171 Y1.818
G1 X27.126 Y1.866
G1 X27.076 Y1.909
G1 X27.021 Y1.946
; MOVEMENT_CUTTING
G1 X26.944 Y1.988
G1 X26.864 Y2.023
G1 X26.781 Y2.05
G1 X26.696 Y2.07
G1 X26.61 Y2.082
G1 X26.522 Y2.086
G1 X-26.522
G1 X-26.606 Y2.082
G1 X-26.69 Y2.071
G1 X-26.772 Y2.053
G1 X-26.852 Y2.028
G1 X-26.929 Y1.995
G1 X-27.004 Y1.957
G1 X-27.075 Y1.911
G1 X-27.142 Y1.86
G1 X-27.204 Y1.804
G1 X-27.26 Y1.742
G1 X-27.311 Y1.675
G1 X-27.357 Y1.604
G1 X-27.395 Y1.529
G1 X-27.428 Y1.452
G1 X-27.453 Y1.372
G1 X-27.471 Y1.29
G1 X-27.482 Y1.206
G1 X-27.486 Y1.122
G1 Y-1.122
G1 X-27.482 Y-1.206
G1 X-27.471 Y-1.29
G1 X-27.453 Y-1.372
G1 X-27.428 Y-1.452
G1 X-27.395 Y-1.529
G1 X-27.357 Y-1.604
G1 X-27.311 Y-1.675
G1 X-27.26 Y-1.742
G1 X-27.204 Y-1.804
G1 X-27.142 Y-1.86
G1 X-27.075 Y-1.911
G1 X-27.004 Y-1.957
G1 X-26.929 Y-1.995
G1 X-26.852 Y-2.028
G1 X-26.772 Y-2.053
G1 X-26.69 Y-2.071
G1 X-26.606 Y-2.082
G1 X-26.522 Y-2.086
G1 X26.522
G1 X26.606 Y-2.082
G1 X26.69 Y-2.071
G1 X26.772 Y-2.053
G1 X26.852 Y-2.028
G1 X26.929 Y-1.995
G1 X27.004 Y-1.957
G1 X27.075 Y-1.911
G1 X27.142 Y-1.86
G1 X27.204 Y-1.804
G1 X27.26 Y-1.742
G1 X27.311 Y-1.675
G1 X27.357 Y-1.604
G1 X27.395 Y-1.529
G1 X27.428 Y-1.452
G1 X27.453 Y-1.372
G1 X27.471 Y-1.29
G1 X27.482 Y-1.206
G1 X27.486 Y-1.122
G1 Y1.122
G1 X27.482 Y1.205
G1 X27.472 Y1.286
G1 X27.454 Y1.367
G1 X27.43 Y1.446
G1 X27.399 Y1.522
G1 X27.362 Y1.595
G1 X27.318 Y1.665
G1 X27.269 Y1.731
G1 X27.214 Y1.793
G1 X27.154 Y1.85
G1 X27.09 Y1.901
G1 X27.021 Y1.946
; MOVEMENT_LINK_TRANSITION
G1 X26.896 Y2.027
G1 X26.774 Y2.113
G1 X26.657 Y2.204
G1 X26.544 Y2.301
G1 X26.436 Y2.404
G1 X26.332 Y2.511
G1 X26.234 Y2.623
G1 X26.142 Y2.74
G1 X26.055 Y2.861
G1 X25.974 Y2.986
G1 X25.899 Y3.114
G1 X25.83 Y3.246
G1 X25.767 Y3.381
G1 X25.719 Y3.483
G1 X25.665 Y3.581
G1 X25.605 Y3.675
G1 X25.538 Y3.765
G1 X25.466 Y3.851
G1 X25.388 Y3.931
G1 X25.306 Y4.007
G1 X25.218 Y4.077
G1 X25.127 Y4.142
G1 X25.031 Y4.2
G1 X24.932 Y4.252
G1 X24.83 Y4.298
G1 X24.725 Y4.337
G1 X24.617 Y4.369
G1 X24.508 Y4.394
G1 X24.398 Y4.412
G1 X24.286 Y4.423
G1 X24.174 Y4.426
; MOVEMENT_CUTTING
G1 X-28.863
G1 X-28.947 Y4.423
G1 X-29.03 Y4.412
G1 X-29.112 Y4.393
G1 X-29.193 Y4.368
G1 X-29.27 Y4.336
G1 X-29.345 Y4.297
G1 X-29.416 Y4.252
G1 X-29.482 Y4.201
G1 X-29.544 Y4.144
G1 X-29.601 Y4.082
G1 X-29.652 Y4.016
G1 X-29.697 Y3.945
G1 X-29.736 Y3.87
G1 X-29.768 Y3.793
G1 X-29.793 Y3.712
G1 X-29.812 Y3.63
G1 X-29.823 Y3.547
G1 X-29.826 Y3.463
G1 Y-3.463
G1 X-29.823 Y-3.547
G1 X-29.812 Y-3.63
G1 X-29.793 Y-3.712
G1 X-29.768 Y-3.793
G1 X-29.736 Y-3.87
G1 X-29.697 Y-3.945
G1 X-29.652 Y-4.016
G1 X-29.601 Y-4.082
G1 X-29.544 Y-4.144
G1 X-29.482 Y-4.201
G1 X-29.416 Y-4.252
G1 X-29.345 Y-4.297
G1 X-29.27 Y-4.336
G1 X-29.193 Y-4.368
G1 X-29.112 Y-4.393
G1 X-29.03 Y-4.412
G1 X-28.947 Y-4.423
G1 X-28.863 Y-4.426
G1 X28.863
G1 X28.947 Y-4.423
G1 X29.03 Y-4.412
G1 X29.112 Y-4.393
G1 X29.193 Y-4.368
G1 X29.27 Y-4.336
G1 X29.345 Y-4.297
G1 X29.416 Y-4.252
G1 X29.482 Y-4.201
G1 X29.544 Y-4.144
G1 X29.601 Y-4.082
G1 X29.652 Y-4.016
G1 X29.697 Y-3.945
G1 X29.736 Y-3.87
G1 X29.768 Y-3.793
G1 X29.793 Y-3.712
G1 X29.812 Y-3.63
G1 X29.823 Y-3.547
G1 X29.826 Y-3.463
G1 Y3.463
G1 X29.823 Y3.547
G1 X29.812 Y3.63
G1 X29.793 Y3.712
G1 X29.768 Y3.793
G1 X29.736 Y3.87
G1 X29.697 Y3.945
G1 X29.652 Y4.016
G1 X29.601 Y4.082
G1 X29.544 Y4.144
G1 X29.482 Y4.201
G1 X29.416 Y4.252
G1 X29.345 Y4.297
G1 X29.27 Y4.336
G1 X29.193 Y4.368
G1 X29.112 Y4.393
G1 X29.03 Y4.412
G1 X28.947 Y4.423
G1 X28.863 Y4.426
G1 X24.174
; MOVEMENT_LINK_TRANSITION
G1 X24.056 Y4.43
G1 X23.939 Y4.441
G1 X23.823 Y4.459
G1 X23.708 Y4.484
G1 X23.595 Y4.517
G1 X23.484 Y4.556
G1 X23.376 Y4.602
G1 X23.27 Y4.655
G1 X23.169 Y4.714
G1 X23.071 Y4.779
G1 X22.977 Y4.85
G1 X22.888 Y4.927
G1 X22.804 Y5.009
G1 X22.725 Y5.097
G1 X22.651 Y5.189
G1 X22.584 Y5.285
G1 X22.522 Y5.385
G1 X22.467 Y5.489
G1 X22.419 Y5.597
G1 X22.37 Y5.704
G1 X22.315 Y5.808
G1 X22.253 Y5.908
G1 X22.186 Y6.005
G1 X22.112 Y6.097
G1 X22.033 Y6.184
G1 X21.949 Y6.266
G1 X21.86 Y6.343
G1 X21.766 Y6.414
G1 X21.668 Y6.479
G1 X21.567 Y6.539
G1 X21.461 Y6.591
G1 X21.353 Y6.637
G1 X21.242 Y6.677
G1 X21.129 Y6.709
G1 X21.014 Y6.734
G1 X20.898 Y6.752
G1 X20.781 Y6.763
G1 X20.663 Y6.767
; MOVEMENT_CUTTING
G1 X-31.204
G1 X-31.288 Y6.763
G1 X-31.371 Y6.752
G1 X-31.453 Y6.734
G1 X-31.533 Y6.709
G1 X-31.611 Y6.677
G1 X-31.685 Y6.638
G1 X-31.756 Y6.593
G1 X-31.823 Y6.542
G1 X-31.885 Y6.485
G1 X-31.942 Y6.423
G1 X-31.993 Y6.356
G1 X-32.038 Y6.285
G1 X-32.077 Y6.211
G1 X-32.109 Y6.133
G1 X-32.134 Y6.053
G1 X-32.152 Y5.971
G1 X-32.163 Y5.888
G1 X-32.167 Y5.804
G1 Y-5.804
G1 X-32.163 Y-5.888
G1 X-32.152 Y-5.971
G1 X-32.134 Y-6.053
G1 X-32.109 Y-6.133
G1 X-32.077 Y-6.211
G1 X-32.038 Y-6.285
G1 X-31.993 Y-6.356
G1 X-31.942 Y-6.423
G1 X-31.885 Y-6.485
G1 X-31.823 Y-6.542
G1 X-31.756 Y-6.593
G1 X-31.685 Y-6.638
G1 X-31.611 Y-6.677
G1 X-31.533 Y-6.709
G1 X-31.453 Y-6.734
G1 X-31.371 Y-6.752
G1 X-31.288 Y-6.763
G1 X-31.204 Y-6.767
G1 X31.204
G1 X31.288 Y-6.763
G1 X31.371 Y-6.752
G1 X31.453 Y-6.734
G1 X31.533 Y-6.709
G1 X31.611 Y-6.677
G1 X31.685 Y-6.638
G1 X31.756 Y-6.593
G1 X31.823 Y-6.542
G1 X31.885 Y-6.485
G1 X31.942 Y-6.423
G1 X31.993 Y-6.356
G1 X32.038 Y-6.285
G1 X32.077 Y-6.211
G1 X32.109 Y-6.133
G1 X32.134 Y-6.053
G1 X32.152 Y-5.971
G1 X32.163 Y-5.888
G1 X32.167 Y-5.804
G1 Y5.804
G1 X32.163 Y5.888
G1 X32.152 Y5.971
G1 X32.134 Y6.053
G1 X32.109 Y6.133
G1 X32.077 Y6.211
G1 X32.038 Y6.285
G1 X31.993 Y6.356
G1 X31.942 Y6.423
G1 X31.885 Y6.485
G1 X31.823 Y6.542
G1 X31.756 Y6.593
G1 X31.685 Y6.638
G1 X31.611 Y6.677
G1 X31.533 Y6.709
G1 X31.453 Y6.734
G1 X31.371 Y6.752
G1 X31.288 Y6.763
G1 X31.204 Y6.767
G1 X20.663
; MOVEMENT_LINK_TRANSITION
G1 X20.545 Y6.771
G1 X20.428 Y6.782
G1 X20.312 Y6.8
G1 X20.197 Y6.825
G1 X20.084 Y6.857
G1 X19.973 Y6.897
G1 X19.865 Y6.943
G1 X19.759 Y6.995
G1 X19.658 Y7.054
G1 X19.56 Y7.12
G1 X19.466 Y7.191
G1 X19.377 Y7.268
G1 X19.293 Y7.35
G1 X19.214 Y7.437
G1 X19.14 Y7.529
G1 X19.073 Y7.626
G1 X19.011 Y7.726
G1 X18.956 Y7.83
G1 X18.908 Y7.937
G1 X18.859 Y8.044
G1 X18.804 Y8.148
G1 X18.742 Y8.249
G1 X18.675 Y8.345
G1 X18.601 Y8.437
G1 X18.522 Y8.524
G1 X18.438 Y8.607
G1 X18.349 Y8.684
G1 X18.255 Y8.755
G1 X18.158 Y8.82
G1 X18.056 Y8.879
G1 X17.951 Y8.932
G1 X17.842 Y8.978
G1 X17.731 Y9.017
G1 X17.618 Y9.05
G1 X17.503 Y9.075
G1 X17.387 Y9.093
G1 X17.27 Y9.104
G1 X17.152 Y9.108
; MOVEMENT_CUTTING
G1 X-33.544
G1 X-33.628 Y9.104
G1 X-33.712 Y9.093
G1 X-33.794 Y9.075
G1 X-33.874 Y9.05
G1 X-33.951 Y9.017
G1 X-34.026 Y8.979
G1 X-34.097 Y8.933
G1 X-34.164 Y8.882
G1 X-34.225 Y8.825
G1 X-34.282 Y8.764
G1 X-34.333 Y8.697
G1 X-34.379 Y8.626
G1 X-34.417 Y8.551
G1 X-34.45 Y8.474
G1 X-34.475 Y8.394
G1 X-34.493 Y8.312
G1 X-34.504 Y8.228
G1 X-34.508 Y8.144
G1 Y-8.144
G1 X-34.504 Y-8.228
G1 X-34.493 Y-8.312
G1 X-34.475 Y-8.394
G1 X-34.45 Y-8.474
G1 X-34.417 Y-8.551
G1 X-34.379 Y-8.626
G1 X-34.333 Y-8.697
G1 X-34.282 Y-8.764
G1 X-34.225 Y-8.825
G1 X-34.164 Y-8.882
G1 X-34.097 Y-8.933
G1 X-34.026 Y-8.979
G1 X-33.951 Y-9.017
G1 X-33.874 Y-9.05
G1 X-33.794 Y-9.075
G1 X-33.712 Y-9.093
G1 X-33.628 Y-9.104
G1 X-33.544 Y-9.108
G1 X33.544
G1 X33.628 Y-9.104
G1 X33.712 Y-9.093
G1 X33.794 Y-9.075
G1 X33.874 Y-9.05
G1 X33.951 Y-9.017
G1 X34.026 Y-8.979
G1 X34.097 Y-8.933
G1 X34.164 Y-8.882
G1 X34.225 Y-8.825
G1 X34.282 Y-8.764
G1 X34.333 Y-8.697
G1 X34.379 Y-8.626
G1 X34.417 Y-8.551
G1 X34.45 Y-8.474
G1 X34.475 Y-8.394
G1 X34.493 Y-8.312
G1 X34.504 Y-8.228
G1 X34.508 Y-8.144
G1 Y8.144
G1 X34.504 Y8.228
G1 X34.493 Y8.312
G1 X34.475 Y8.394
G1 X34.45 Y8.474
G1 X34.417 Y8.551
G1 X34.379 Y8.626
G1 X34.333 Y8.697
G1 X34.282 Y8.764
G1 X34.225 Y8.825
G1 X34.164 Y8.882
G1 X34.097 Y8.933
G1 X34.026 Y8.979
G1 X33.951 Y9.017
G1 X33.874 Y9.05
G1 X33.794 Y9.075
G1 X33.712 Y9.093
G1 X33.628 Y9.104
G1 X33.544 Y9.108
G1 X17.152
; MOVEMENT_LINK_TRANSITION
G1 X17.034 Y9.111
G1 X16.917 Y9.122
G1 X16.801 Y9.14
G1 X16.686 Y9.166
G1 X16.573 Y9.198
G1 X16.462 Y9.237
G1 X16.354 Y9.283
G1 X16.248 Y9.336
G1 X16.147 Y9.395
G1 X16.049 Y9.46
G1 X15.955 Y9.532
G1 X15.866 Y9.609
G1 X15.782 Y9.691
G1 X15.703 Y9.778
G1 X15.629 Y9.87
G1 X15.562 Y9.966
G1 X15.5 Y10.067
G1 X15.445 Y10.171
G1 X15.397 Y10.278
G1 X15.348 Y10.385
G1 X15.293 Y10.489
G1 X15.231 Y10.589
G1 X15.164 Y10.686
G1 X15.09 Y10.778
G1 X15.011 Y10.865
G1 X14.927 Y10.947
G1 X14.838 Y11.024
G1 X14.744 Y11.095
G1 X14.647 Y11.161
G1 X14.545 Y11.22
G1 X14.44 Y11.273
G1 X14.331 Y11.319
G1 X14.22 Y11.358
G1 X14.107 Y11.39
G1 X13.992 Y11.416
G1 X13.876 Y11.434
G1 X13.759 Y11.445
G1 X13.641 Y11.448
; MOVEMENT_CUTTING
G1 X-35.885
G1 X-35.969 Y11.445
G1 X-36.052 Y11.434
G1 X-36.134 Y11.415
G1 X-36.214 Y11.39
G1 X-36.292 Y11.358
G1 X-36.367 Y11.319
G1 X-36.438 Y11.274
G1 X-36.504 Y11.223
G1 X-36.566 Y11.166
G1 X-36.623 Y11.104
G1 X-36.674 Y11.038
G1 X-36.719 Y10.967
G1 X-36.758 Y10.892
G1 X-36.79 Y10.814
G1 X-36.815 Y10.734
G1 X-36.834 Y10.652
G1 X-36.845 Y10.569
G1 X-36.848 Y10.485
G1 Y-10.485
G1 X-36.845 Y-10.569
G1 X-36.834 Y-10.652
G1 X-36.815 Y-10.734
G1 X-36.79 Y-10.814
G1 X-36.758 Y-10.892
G1 X-36.719 Y-10.967
G1 X-36.674 Y-11.038
G1 X-36.623 Y-11.104
G1 X-36.566 Y-11.166
G1 X-36.504 Y-11.223
G1 X-36.438 Y-11.274
G1 X-36.367 Y-11.319
G1 X-36.292 Y-11.358
G1 X-36.214 Y-11.39
G1 X-36.134 Y-11.415
G1 X-36.052 Y-11.434
G1 X-35.969 Y-11.445
G1 X-35.885 Y-11.448
G1 X35.885
G1 X35.969 Y-11.445
G1 X36.052 Y-11.434
G1 X36.134 Y-11.415
G1 X36.214 Y-11.39
G1 X36.292 Y-11.358
G1 X36.367 Y-11.319
G1 X36.438 Y-11.274
G1 X36.504 Y-11.223
G1 X36.566 Y-11.166
G1 X36.623 Y-11.104
G1 X36.674 Y-11.038
G1 X36.719 Y-10.967
G1 X36.758 Y-10.892
G1 X36.79 Y-10.814
G1 X36.815 Y-10.734
G1 X36.834 Y-10.652
G1 X36.845 Y-10.569
G1 X36.848 Y-10.485
G1 Y10.485
G1 X36.845 Y10.569
G1 X36.834 Y10.652
G1 X36.815 Y10.734
G1 X36.79 Y10.814
G1 X36.758 Y10.892
G1 X36.719 Y10.967
G1 X36.674 Y11.038
G1 X36.623 Y11.104
G1 X36.566 Y11.166
G1 X36.504 Y11.223
G1 X36.438 Y11.274
G1 X36.367 Y11.319
G1 X36.292 Y11.358
G1 X36.214 Y11.39
G1 X36.134 Y11.415
G1 X36.052 Y11.434
G1 X35.969 Y11.445
G1 X35.885 Y11.448
G1 X13.641
; MOVEMENT_LINK_TRANSITION
G1 X13.523 Y11.452
G1 X13.406 Y11.463
G1 X13.29 Y11.481
G1 X13.175 Y11.506
G1 X13.062 Y11.539
G1 X12.951 Y11.578
G1 X12.843 Y11.624
G1 X12.737 Y11.677
G1 X12.636 Y11.736
G1 X12.538 Y11.801
G1 X12.444 Y11.872
G1 X12.355 Y11.949
G1 X12.271 Y12.031
G1 X12.192 Y12.119
G1 X12.118 Y12.211
G1 X12.051 Y12.307
G1 X11.989 Y12.407
G1 X11.934 Y12.511
G1 X11.886 Y12.619
G1 X11.837 Y12.726
G1 X11.782 Y12.83
G1 X11.72 Y12.93
G1 X11.653 Y13.026
G1 X11.579 Y13.119
G1 X11.5 Y13.206
G1 X11.416 Y13.288
G1 X11.327 Y13.365
G1 X11.233 Y13.436
G1 X11.136 Y13.501
G1 X11.034 Y13.561
G1 X10.929 Y13.613
G1 X10.82 Y13.659
G1 X10.709 Y13.699
G1 X10.596 Y13.731
G1 X10.481 Y13.756
G1 X10.365 Y13.774
G1 X10.248 Y13.785
G1 X10.13 Y13.789
; MOVEMENT_CUTTING
G1 X-38.226
G1 X-38.31 Y13.785
G1 X-38.393 Y13.774
G1 X-38.475 Y13.756
G1 X-38.555 Y13.731
G1 X-38.633 Y13.699
G1 X-38.707 Y13.66
G1 X-38.778 Y13.615
G1 X-38.845 Y13.564
G1 X-38.907 Y13.507
G1 X-38.964 Y13.445
G1 X-39.015 Y13.378
G1 X-39.06 Y13.307
G1 X-39.099 Y13.233
G1 X-39.131 Y13.155
G1 X-39.156 Y13.075
G1 X-39.174 Y12.993
G1 X-39.185 Y12.91
G1 X-39.189 Y12.826
G1 Y-12.826
G1 X-39.185 Y-12.91
G1 X-39.174 Y-12.993
G1 X-39.156 Y-13.075
G1 X-39.131 Y-13.155
G1 X-39.099 Y-13.233
G1 X-39.06 Y-13.307
G1 X-39.015 Y-13.378
G1 X-38.964 Y-13.445
G1 X-38.907 Y-13.507
G1 X-38.845 Y-13.564
G1 X-38.778 Y-13.615
G1 X-38.707 Y-13.66
G1 X-38.633 Y-13.699
G1 X-38.555 Y-13.731
G1 X-38.475 Y-13.756
G1 X-38.393 Y-13.774
G1 X-38.31 Y-13.785
G1 X-38.226 Y-13.789
G1 X38.226
G1 X38.31 Y-13.785
G1 X38.393 Y-13.774
G1 X38.475 Y-13.756
G1 X38.555 Y-13.731
G1 X38.633 Y-13.699
G1 X38.707 Y-13.66
G1 X38.778 Y-13.615
G1 X38.845 Y-13.564
G1 X38.907 Y-13.507
G1 X38.964 Y-13.445
G1 X39.015 Y-13.378
G1 X39.06 Y-13.307
G1 X39.099 Y-13.233
G1 X39.131 Y-13.155
G1 X39.156 Y-13.075
G1 X39.174 Y-12.993
G1 X39.185 Y-12.91
G1 X39.189 Y-12.826
G1 Y12.826
G1 X39.185 Y12.91
G1 X39.174 Y12.993
G1 X39.156 Y13.075
G1 X39.131 Y13.155
G1 X39.099 Y13.233
G1 X39.06 Y13.307
G1 X39.015 Y13.378
G1 X38.964 Y13.445
G1 X38.907 Y13.507
G1 X38.845 Y13.564
G1 X38.778 Y13.615
G1 X38.707 Y13.66
G1 X38.633 Y13.699
G1 X38.555 Y13.731
G1 X38.475 Y13.756
G1 X38.393 Y13.774
G1 X38.31 Y13.785
G1 X38.226 Y13.789
G1 X10.13
; MOVEMENT_LINK_TRANSITION
G1 X10.012 Y13.793
G1 X9.895 Y13.803
G1 X9.779 Y13.822
G1 X9.664 Y13.847
G1 X9.551 Y13.879
G1 X9.44 Y13.919
G1 X9.332 Y13.965
G1 X9.226 Y14.017
G1 X9.125 Y14.076
G1 X9.027 Y14.142
G1 X8.933 Y14.213
G1 X8.844 Y14.29
G1 X8.76 Y14.372
G1 X8.681 Y14.459
G1 X8.607 Y14.551
G1 X8.54 Y14.648
G1 X8.478 Y14.748
G1 X8.423 Y14.852
G1 X8.375 Y14.959
G1 X8.326 Y15.066
G1 X8.271 Y15.17
G1 X8.209 Y15.271
G1 X8.142 Y15.367
G1 X8.068 Y15.459
G1 X7.989 Y15.546
G1 X7.905 Y15.629
G1 X7.816 Y15.706
G1 X7.722 Y15.777
G1 X7.625 Y15.842
G1 X7.523 Y15.901
G1 X7.418 Y15.954
G1 X7.309 Y16
G1 X7.198 Y16.039
G1 X7.085 Y16.072
G1 X6.97 Y16.097
G1 X6.854 Y16.115
G1 X6.737 Y16.126
G1 X6.619 Y16.13
; MOVEMENT_CUTTING
G1 X-40.566
G1 X-40.65 Y16.126
G1 X-40.734 Y16.115
G1 X-40.816 Y16.097
G1 X-40.896 Y16.071
G1 X-40.973 Y16.039
G1 X-41.048 Y16.001
G1 X-41.119 Y15.955
G1 X-41.186 Y15.904
G1 X-41.247 Y15.847
G1 X-41.304 Y15.786
G1 X-41.355 Y15.719
G1 X-41.401 Y15.648
G1 X-41.439 Y15.573
G1 X-41.472 Y15.496
G1 X-41.497 Y15.416
G1 X-41.515 Y15.334
G1 X-41.526 Y15.25
G1 X-41.53 Y15.166
G1 Y-15.166
G1 X-41.526 Y-15.25
G1 X-41.515 Y-15.334
G1 X-41.497 Y-15.416
G1 X-41.471 Y-15.496
G1 X-41.439 Y-15.573
G1 X-41.401 Y-15.648
G1 X-41.355 Y-15.719
G1 X-41.304 Y-15.786
G1 X-41.247 Y-15.847
G1 X-41.186 Y-15.904
G1 X-41.119 Y-15.955
G1 X-41.048 Y-16.001
G1 X-40.973 Y-16.039
G1 X-40.896 Y-16.071
G1 X-40.816 Y-16.097
G1 X-40.734 Y-16.115
G1 X-40.65 Y-16.126
G1 X-40.566 Y-16.13
G1 X40.566
G1 X40.65 Y-16.126
G1 X40.734 Y-16.115
G1 X40.816 Y-16.097
G1 X40.896 Y-16.071
G1 X40.973 Y-16.039
G1 X41.048 Y-16.001
G1 X41.119 Y-15.955
G1 X41.186 Y-15.904
G1 X41.247 Y-15.847
G1 X41.304 Y-15.786
G1 X41.355 Y-15.719
G1 X41.401 Y-15.648
G1 X41.439 Y-15.573
G1 X41.471 Y-15.496
G1 X41.497 Y-15.416
G1 X41.515 Y-15.334
G1 X41.526 Y-15.25
G1 X41.53 Y-15.166
G1 Y15.166
G1 X41.526 Y15.25
G1 X41.515 Y15.334
G1 X41.497 Y15.416
G1 X41.471 Y15.496
G1 X41.439 Y15.573
G1 X41.401 Y15.648
G1 X41.355 Y15.719
G1 X41.304 Y15.786
G1 X41.247 Y15.847
G1 X41.186 Y15.904
G1 X41.119 Y15.955
G1 X41.048 Y16.001
G1 X40.973 Y16.039
G1 X40.896 Y16.072
G1 X40.816 Y16.097
G1 X40.734 Y16.115
G1 X40.65 Y16.126
G1 X40.566 Y16.13
G1 X6.619
; MOVEMENT_LINK_TRANSITION
G1 X6.501 Y16.133
G1 X6.384 Y16.144
G1 X6.268 Y16.162
G1 X6.153 Y16.188
G1 X6.04 Y16.22
G1 X5.929 Y16.259
G1 X5.821 Y16.305
G1 X5.715 Y16.358
G1 X5.614 Y16.417
G1 X5.516 Y16.482
G1 X5.422 Y16.554
G1 X5.333 Y16.63
G1 X5.249 Y16.713
G1 X5.17 Y16.8
G1 X5.096 Y16.892
G1 X5.029 Y16.988
G1 X4.967 Y17.089
G1 X4.912 Y17.193
G1 X4.864 Y17.3
G1 X4.815 Y17.407
G1 X4.76 Y17.511
G1 X4.698 Y17.611
G1 X4.631 Y17.708
G1 X4.557 Y17.8
G1 X4.479 Y17.887
G1 X4.394 Y17.969
G1 X4.305 Y18.046
G1 X4.212 Y18.117
G1 X4.114 Y18.183
G1 X4.012 Y18.242
G1 X3.907 Y18.295
G1 X3.798 Y18.341
G1 X3.687 Y18.38
G1 X3.574 Y18.412
G1 X3.459 Y18.438
G1 X3.343 Y18.456
G1 X3.226 Y18.467
G1 X3.108 Y18.47
; MOVEMENT_CUTTING
G1 X-42.907
G1 X-42.991 Y18.467
G1 X-43.074 Y18.456
G1 X-43.156 Y18.437
G1 X-43.236 Y18.412
G1 X-43.314 Y18.38
G1 X-43.389 Y18.341
G1 X-43.459 Y18.296
G1 X-43.526 Y18.245
G1 X-43.588 Y18.188
G1 X-43.645 Y18.126
G1 X-43.696 Y18.059
G1 X-43.741 Y17.989
G1 X-43.78 Y17.914
G1 X-43.812 Y17.836
G1 X-43.837 Y17.756
G1 X-43.856 Y17.674
G1 X-43.867 Y17.591
G1 X-43.87 Y17.507
G1 Y-17.507
G1 X-43.867 Y-17.591
G1 X-43.856 Y-17.674
G1 X-43.837 Y-17.756
G1 X-43.812 Y-17.836
G1 X-43.78 Y-17.914
G1 X-43.741 Y-17.989
G1 X-43.696 Y-18.059
G1 X-43.645 Y-18.126
G1 X-43.588 Y-18.188
G1 X-43.526 Y-18.245
G1 X-43.459 Y-18.296
G1 X-43.389 Y-18.341
G1 X-43.314 Y-18.38
G1 X-43.236 Y-18.412
G1 X-43.156 Y-18.437
G1 X-43.074 Y-18.456
G1 X-42.991 Y-18.467
G1 X-42.907 Y-18.47
G1 X42.907
G1 X42.991 Y-18.467
G1 X43.074 Y-18.456
G1 X43.156 Y-18.437
G1 X43.236 Y-18.412
G1 X43.314 Y-18.38
G1 X43.389 Y-18.341
G1 X43.459 Y-18.296
G1 X43.526 Y-18.245
G1 X43.588 Y-18.188
G1 X43.645 Y-18.126
G1 X43.696 Y-18.059
G1 X43.741 Y-17.989
G1 X43.78 Y-17.914
G1 X43.812 Y-17.836
G1 X43.837 Y-17.756
G1 X43.856 Y-17.674
G1 X43.867 Y-17.591
G1 X43.87 Y-17.507
G1 Y17.507
G1 X43.867 Y17.591
G1 X43.856 Y17.674
G1 X43.837 Y17.756
G1 X43.812 Y17.836
G1 X43.78 Y17.914
G1 X43.741 Y17.989
G1 X43.696 Y18.06
G1 X43.645 Y18.126
G1 X43.588 Y18.188
G1 X43.526 Y18.245
G1 X43.459 Y18.296
G1 X43.389 Y18.341
G1 X43.314 Y18.38
G1 X43.236 Y18.412
G1 X43.156 Y18.437
G1 X43.074 Y18.456
G1 X42.991 Y18.467
G1 X42.907 Y18.47
G1 X3.108
; MOVEMENT_LINK_TRANSITION
G1 X2.99 Y18.474
G1 X2.873 Y18.485
G1 X2.757 Y18.503
G1 X2.642 Y18.528
G1 X2.529 Y18.561
G1 X2.418 Y18.6
G1 X2.31 Y18.646
G1 X2.204 Y18.699
G1 X2.103 Y18.758
G1 X2.005 Y18.823
G1 X1.911 Y18.894
G1 X1.822 Y18.971
G1 X1.738 Y19.053
G1 X1.659 Y19.141
G1 X1.585 Y19.233
G1 X1.518 Y19.329
G1 X1.456 Y19.429
G1 X1.401 Y19.533
G1 X1.353 Y19.641
G1 X1.304 Y19.748
G1 X1.249 Y19.852
G1 X1.187 Y19.952
G1 X1.12 Y20.048
G1 X1.046 Y20.14
G1 X0.968 Y20.228
G1 X0.883 Y20.31
G1 X0.794 Y20.387
G1 X0.701 Y20.458
G1 X0.603 Y20.523
G1 X0.501 Y20.582
G1 X0.396 Y20.635
G1 X0.287 Y20.681
G1 X0.176 Y20.721
G1 X0.063 Y20.753
G1 X-0.052 Y20.778
G1 X-0.168 Y20.796
G1 X-0.285 Y20.807
G1 X-0.403 Y20.811
; MOVEMENT_CUTTING
G1 X-45.248
G1 X-45.332 Y20.807
G1 X-45.415 Y20.796
G1 X-45.497 Y20.778
G1 X-45.577 Y20.753
G1 X-45.655 Y20.721
G1 X-45.729 Y20.682
G1 X-45.8 Y20.637
G1 X-45.867 Y20.586
G1 X-45.929 Y20.529
G1 X-45.986 Y20.467
G1 X-46.037 Y20.4
G1 X-46.082 Y20.329
G1 X-46.121 Y20.255
G1 X-46.153 Y20.177
G1 X-46.178 Y20.097
G1 X-46.196 Y20.015
G1 X-46.207 Y19.932
G1 X-46.211 Y19.848
G1 Y-19.848
G1 X-46.207 Y-19.932
G1 X-46.196 Y-20.015
G1 X-46.178 Y-20.097
G1 X-46.153 Y-20.177
G1 X-46.121 Y-20.255
G1 X-46.082 Y-20.329
G1 X-46.037 Y-20.4
G1 X-45.986 Y-20.467
G1 X-45.929 Y-20.529
G1 X-45.867 Y-20.586
G1 X-45.8 Y-20.637
G1 X-45.729 Y-20.682
G1 X-45.655 Y-20.721
G1 X-45.577 Y-20.753
G1 X-45.497 Y-20.778
G1 X-45.415 Y-20.796
G1 X-45.332 Y-20.807
G1 X-45.248 Y-20.811
G1 X45.248
G1 X45.332 Y-20.807
G1 X45.415 Y-20.796
G1 X45.497 Y-20.778
G1 X45.577 Y-20.753
G1 X45.655 Y-20.721
G1 X45.729 Y-20.682
G1 X45.8 Y-20.637
G1 X45.867 Y-20.586
G1 X45.929 Y-20.529
G1 X45.986 Y-20.467
G1 X46.037 Y-20.4
G1 X46.082 Y-20.329
G1 X46.121 Y-20.255
G1 X46.153 Y-20.177
G1 X46.178 Y-20.097
G1 X46.196 Y-20.015
G1 X46.207 Y-19.932
G1 X46.211 Y-19.848
G1 Y19.848
G1 X46.207 Y19.932
G1 X46.196 Y20.015
G1 X46.178 Y20.097
G1 X46.153 Y20.177
G1 X46.121 Y20.255
G1 X46.082 Y20.329
G1 X46.037 Y20.4
G1 X45.986 Y20.467
G1 X45.929 Y20.529
G1 X45.867 Y20.586
G1 X45.8 Y20.637
G1 X45.729 Y20.682
G1 X45.655 Y20.721
G1 X45.577 Y20.753
G1 X45.497 Y20.778
G1 X45.415 Y20.796
G1 X45.332 Y20.807
G1 X45.248 Y20.811
G1 X-0.403
; MOVEMENT_LINK_TRANSITION
G1 X-0.52 Y20.815
G1 X-0.638 Y20.825
G1 X-0.754 Y20.844
G1 X-0.869 Y20.869
G1 X-0.982 Y20.901
G1 X-1.093 Y20.941
G1 X-1.201 Y20.987
G1 X-1.307 Y21.039
G1 X-1.408 Y21.098
G1 X-1.506 Y21.164
G1 X-1.6 Y21.235
G1 X-1.689 Y21.312
G1 X-1.773 Y21.394
G1 X-1.852 Y21.481
G1 X-1.926 Y21.573
G1 X-1.993 Y21.67
G1 X-2.055 Y21.77
G1 X-2.11 Y21.874
G1 X-2.158 Y21.981
G1 X-2.207 Y22.088
G1 X-2.262 Y22.192
G1 X-2.324 Y22.293
G1 X-2.391 Y22.389
G1 X-2.465 Y22.481
G1 X-2.543 Y22.568
G1 X-2.628 Y22.651
G1 X-2.717 Y22.728
G1 X-2.81 Y22.799
G1 X-2.908 Y22.864
G1 X-3.01 Y22.923
G1 X-3.115 Y22.976
G1 X-3.224 Y23.022
G1 X-3.335 Y23.061
G1 X-3.448 Y23.094
G1 X-3.563 Y23.119
G1 X-3.679 Y23.137
G1 X-3.796 Y23.148
G1 X-3.914 Y23.152
; MOVEMENT_CUTTING
G1 X-47.588
G1 X-47.672 Y23.148
G1 X-47.756 Y23.137
G1 X-47.838 Y23.119
G1 X-47.918 Y23.093
G1 X-47.995 Y23.061
G1 X-48.07 Y23.023
G1 X-48.141 Y22.977
G1 X-48.207 Y22.926
G1 X-48.269 Y22.869
G1 X-48.326 Y22.807
G1 X-48.377 Y22.741
G1 X-48.423 Y22.67
G1 X-48.461 Y22.595
G1 X-48.493 Y22.518
G1 X-48.519 Y22.438
G1 X-48.537 Y22.356
G1 X-48.548 Y22.272
G1 X-48.552 Y22.188
G1 Y-22.188
G1 X-48.548 Y-22.272
G1 X-48.537 Y-22.356
G1 X-48.519 Y-22.438
G1 X-48.493 Y-22.518
G1 X-48.461 Y-22.595
G1 X-48.423 Y-22.67
G1 X-48.377 Y-22.741
G1 X-48.326 Y-22.807
G1 X-48.269 Y-22.869
G1 X-48.207 Y-22.926
G1 X-48.141 Y-22.977
G1 X-48.07 Y-23.023
G1 X-47.995 Y-23.061
G1 X-47.918 Y-23.093
G1 X-47.838 Y-23.119
G1 X-47.756 Y-23.137
G1 X-47.672 Y-23.148
G1 X-47.588 Y-23.152
G1 X47.588
G1 X47.672 Y-23.148
G1 X47.756 Y-23.137
G1 X47.838 Y-23.119
G1 X47.918 Y-23.093
G1 X47.995 Y-23.061
G1 X48.07 Y-23.023
G1 X48.141 Y-22.977
G1 X48.207 Y-22.926
G1 X48.269 Y-22.869
G1 X48.326 Y-22.807
G1 X48.377 Y-22.741
G1 X48.423 Y-22.67
G1 X48.461 Y-22.595
G1 X48.493 Y-22.518
G1 X48.519 Y-22.438
G1 X48.537 Y-22.356
G1 X48.548 Y-22.272
G1 X48.552 Y-22.188
G1 Y22.188
G1 X48.548 Y22.272
G1 X48.537 Y22.356
G1 X48.519 Y22.438
G1 X48.493 Y22.518
G1 X48.461 Y22.595
G1 X48.423 Y22.67
G1 X48.377 Y22.741
G1 X48.326 Y22.807
G1 X48.269 Y22.869
G1 X48.207 Y22.926
G1 X48.141 Y22.977
G1 X48.07 Y23.023
G1 X47.995 Y23.061
G1 X47.918 Y23.093
G1 X47.838 Y23.119
G1 X47.756 Y23.137
G1 X47.672 Y23.148
G1 X47.588 Y23.152
G1 X-3.914
; MOVEMENT_LINK_TRANSITION
G1 X-4.031 Y23.155
G1 X-4.149 Y23.166
G1 X-4.265 Y23.184
G1 X-4.38 Y23.21
G1 X-4.493 Y23.242
G1 X-4.604 Y23.281
G1 X-4.712 Y23.327
G1 X-4.818 Y23.38
G1 X-4.919 Y23.439
G1 X-5.017 Y23.504
G1 X-5.111 Y23.576
G1 X-5.2 Y23.652
G1 X-5.284 Y23.735
G1 X-5.363 Y23.822
G1 X-5.437 Y23.914
G1 X-5.504 Y24.01
G1 X-5.566 Y24.111
G1 X-5.621 Y24.215
G1 X-5.669 Y24.322
G1 X-5.718 Y24.429
G1 X-5.773 Y24.533
G1 X-5.835 Y24.633
G1 X-5.902 Y24.73
G1 X-5.976 Y24.822
G1 X-6.054 Y24.909
G1 X-6.139 Y24.991
G1 X-6.228 Y25.068
G1 X-6.321 Y25.139
G1 X-6.419 Y25.205
G1 X-6.521 Y25.264
G1 X-6.626 Y25.316
G1 X-6.735 Y25.363
G1 X-6.846 Y25.402
G1 X-6.959 Y25.434
G1 X-7.074 Y25.46
G1 X-7.19 Y25.478
G1 X-7.307 Y25.489
G1 X-7.425 Y25.492
; MOVEMENT_CUTTING
G1 X-49.929
G1 X-50.013 Y25.489
G1 X-50.096 Y25.478
G1 X-50.178 Y25.459
G1 X-50.258 Y25.434
G1 X-50.336 Y25.402
G1 X-50.411 Y25.363
G1 X-50.481 Y25.318
G1 X-50.548 Y25.267
G1 X-50.61 Y25.21
G1 X-50.667 Y25.148
G1 X-50.718 Y25.081
G1 X-50.763 Y25.011
G1 X-50.802 Y24.936
G1 X-50.834 Y24.858
G1 X-50.859 Y24.778
G1 X-50.878 Y24.696
G1 X-50.889 Y24.613
G1 X-50.892 Y24.529
G1 Y-24.529
G1 X-50.889 Y-24.613
G1 X-50.878 Y-24.696
G1 X-50.859 Y-24.778
G1 X-50.834 Y-24.858
G1 X-50.802 Y-24.936
G1 X-50.763 Y-25.011
G1 X-50.718 Y-25.081
G1 X-50.667 Y-25.148
G1 X-50.61 Y-25.21
G1 X-50.548 Y-25.267
G1 X-50.481 Y-25.318
G1 X-50.411 Y-25.363
G1 X-50.336 Y-25.402
G1 X-50.258 Y-25.434
G1 X-50.178 Y-25.459
G1 X-50.096 Y-25.478
G1 X-50.013 Y-25.489
G1 X-49.929 Y-25.492
G1 X49.929
G1 X50.013 Y-25.489
G1 X50.096 Y-25.478
G1 X50.178 Y-25.459
G1 X50.258 Y-25.434
G1 X50.336 Y-25.402
G1 X50.411 Y-25.363
G1 X50.481 Y-25.318
G1 X50.548 Y-25.267
G1 X50.61 Y-25.21
G1 X50.667 Y-25.148
G1 X50.718 Y-25.081
G1 X50.763 Y-25.011
G1 X50.802 Y-24.936
G1 X50.834 Y-24.858
G1 X50.859 Y-24.778
G1 X50.878 Y-24.696
G1 X50.889 Y-24.613
G1 X50.892 Y-24.529
G1 Y24.529
G1 X50.889 Y24.613
G1 X50.878 Y24.696
G1 X50.859 Y24.778
G1 X50.834 Y24.858
G1 X50.802 Y24.936
G1 X50.763 Y25.011
G1 X50.718 Y25.081
G1 X50.667 Y25.148
G1 X50.61 Y25.21
G1 X50.548 Y25.267
G1 X50.481 Y25.318
G1 X50.411 Y25.363
G1 X50.336 Y25.402
G1 X50.258 Y25.434
G1 X50.178 Y25.459
G1 X50.096 Y25.478
G1 X50.013 Y25.489
G1 X49.929 Y25.492
G1 X-7.425
; MOVEMENT_LINK_TRANSITION
G1 X-7.542 Y25.496
G1 X-7.66 Y25.507
G1 X-7.776 Y25.525
G1 X-7.891 Y25.55
G1 X-8.004 Y25.583
G1 X-8.115 Y25.622
G1 X-8.223 Y25.668
G1 X-8.329 Y25.721
G1 X-8.43 Y25.78
G1 X-8.528 Y25.845
G1 X-8.622 Y25.916
G1 X-8.711 Y25.993
G1 X-8.795 Y26.075
G1 X-8.874 Y26.163
G1 X-8.948 Y26.255
G1 X-9.015 Y26.351
G1 X-9.077 Y26.451
G1 X-9.132 Y26.555
G1 X-9.18 Y26.663
G1 X-9.229 Y26.77
G1 X-9.284 Y26.874
G1 X-9.346 Y26.974
G1 X-9.413 Y27.07
G1 X-9.486 Y27.162
G1 X-9.565 Y27.25
G1 X-9.65 Y27.332
G1 X-9.739 Y27.409
G1 X-9.832 Y27.48
G1 X-9.93 Y27.545
G1 X-10.032 Y27.604
G1 X-10.137 Y27.657
G1 X-10.246 Y27.703
G1 X-10.357 Y27.743
G1 X-10.47 Y27.775
G1 X-10.585 Y27.8
G1 X-10.701 Y27.818
G1 X-10.818 Y27.829
G1 X-10.936 Y27.833
; MOVEMENT_CUTTING
G1 X-52.27
G1 X-52.354 Y27.829
G1 X-52.437 Y27.818
G1 X-52.519 Y27.8
G1 X-52.599 Y27.775
G1 X-52.677 Y27.743
G1 X-52.751 Y27.704
G1 X-52.822 Y27.659
G1 X-52.889 Y27.608
G1 X-52.951 Y27.551
G1 X-53.008 Y27.489
G1 X-53.059 Y27.422
G1 X-53.104 Y27.351
G1 X-53.143 Y27.277
G1 X-53.175 Y27.199
G1 X-53.2 Y27.119
G1 X-53.218 Y27.037
G1 X-53.229 Y26.954
G1 X-53.233 Y26.87
G1 Y-26.87
G1 X-53.229 Y-26.954
G1 X-53.218 Y-27.037
G1 X-53.2 Y-27.119
G1 X-53.175 Y-27.199
G1 X-53.143 Y-27.277
G1 X-53.104 Y-27.351
G1 X-53.059 Y-27.422
G1 X-53.008 Y-27.489
G1 X-52.951 Y-27.551
G1 X-52.889 Y-27.608
G1 X-52.822 Y-27.659
G1 X-52.751 Y-27.704
G1 X-52.677 Y-27.743
G1 X-52.599 Y-27.775
G1 X-52.519 Y-27.8
G1 X-52.437 Y-27.818
G1 X-52.354 Y-27.829
G1 X-52.27 Y-27.833
G1 X52.27
G1 X52.354 Y-27.829
G1 X52.437 Y-27.818
G1 X52.519 Y-27.8
G1 X52.599 Y-27.775
G1 X52.677 Y-27.743
G1 X52.751 Y-27.704
G1 X52.822 Y-27.659
G1 X52.889 Y-27.608
G1 X52.951 Y-27.551
G1 X53.008 Y-27.489
G1 X53.059 Y-27.422
G1 X53.104 Y-27.351
G1 X53.143 Y-27.277
G1 X53.175 Y-27.199
G1 X53.2 Y-27.119
G1 X53.218 Y-27.037
G1 X53.229 Y-26.954
G1 X53.233 Y-26.87
G1 Y26.87
G1 X53.229 Y26.954
G1 X53.218 Y27.037
G1 X53.2 Y27.119
G1 X53.175 Y27.199
G1 X53.143 Y27.277
G1 X53.104 Y27.351
G1 X53.059 Y27.422
G1 X53.008 Y27.489
G1 X52.951 Y27.551
G1 X52.889 Y27.608
G1 X52.822 Y27.659
G1 X52.751 Y27.704
G1 X52.677 Y27.743
G1 X52.599 Y27.775
G1 X52.519 Y27.8
G1 X52.437 Y27.818
G1 X52.354 Y27.829
G1 X52.27 Y27.833
G1 X-10.936
; MOVEMENT_LINK_TRANSITION
G1 X-11.053 Y27.837
G1 X-11.171 Y27.847
G1 X-11.287 Y27.866
G1 X-11.402 Y27.891
G1 X-11.515 Y27.923
G1 X-11.626 Y27.963
G1 X-11.734 Y28.009
G1 X-11.839 Y28.061
G1 X-11.941 Y28.12
G1 X-12.039 Y28.186
G1 X-12.133 Y28.257
G1 X-12.222 Y28.334
G1 X-12.306 Y28.416
G1 X-12.385 Y28.503
G1 X-12.459 Y28.595
G1 X-12.526 Y28.692
G1 X-12.588 Y28.792
G1 X-12.643 Y28.896
G1 X-12.691 Y29.003
G1 X-12.74 Y29.11
G1 X-12.795 Y29.214
G1 X-12.857 Y29.315
G1 X-12.924 Y29.411
G1 X-12.997 Y29.503
G1 X-13.076 Y29.59
G1 X-13.161 Y29.673
G1 X-13.25 Y29.75
G1 X-13.343 Y29.821
G1 X-13.441 Y29.886
G1 X-13.543 Y29.945
G1 X-13.648 Y29.998
G1 X-13.757 Y30.044
G1 X-13.868 Y30.083
G1 X-13.981 Y30.116
G1 X-14.096 Y30.141
G1 X-14.212 Y30.159
G1 X-14.329 Y30.17
G1 X-14.447 Y30.174
; MOVEMENT_CUTTING
G1 X-54.61
G1 X-54.694 Y30.17
G1 X-54.778 Y30.159
G1 X-54.86 Y30.141
G1 X-54.94 Y30.115
G1 X-55.017 Y30.083
G1 X-55.092 Y30.044
G1 X-55.163 Y29.999
G1 X-55.229 Y29.948
G1 X-55.291 Y29.891
G1 X-55.348 Y29.829
G1 X-55.399 Y29.763
G1 X-55.444 Y29.692
G1 X-55.483 Y29.617
G1 X-55.515 Y29.54
G1 X-55.541 Y29.46
G1 X-55.559 Y29.378
G1 X-55.57 Y29.294
G1 X-55.574 Y29.21
G1 Y-29.21
G1 X-55.57 Y-29.294
G1 X-55.559 Y-29.378
G1 X-55.541 Y-29.46
G1 X-55.515 Y-29.54
G1 X-55.483 Y-29.617
G1 X-55.444 Y-29.692
G1 X-55.399 Y-29.763
G1 X-55.348 Y-29.829
G1 X-55.291 Y-29.891
G1 X-55.229 Y-29.948
G1 X-55.163 Y-29.999
G1 X-55.092 Y-30.044
G1 X-55.017 Y-30.083
G1 X-54.94 Y-30.115
G1 X-54.86 Y-30.141
G1 X-54.778 Y-30.159
G1 X-54.694 Y-30.17
G1 X-54.61 Y-30.174
G1 X54.61
G1 X54.694 Y-30.17
G1 X54.778 Y-30.159
G1 X54.86 Y-30.141
G1 X54.94 Y-30.115
G1 X55.017 Y-30.083
G1 X55.092 Y-30.044
G1 X55.163 Y-29.999
G1 X55.229 Y-29.948
G1 X55.291 Y-29.891
G1 X55.348 Y-29.829
G1 X55.399 Y-29.763
G1 X55.444 Y-29.692
G1 X55.483 Y-29.617
G1 X55.515 Y-29.54
G1 X55.541 Y-29.46
G1 X55.559 Y-29.378
G1 X55.57 Y-29.294
G1 X55.574 Y-29.21
G1 Y29.21
G1 X55.57 Y29.294
G1 X55.559 Y29.378
G1 X55.541 Y29.46
G1 X55.515 Y29.54
G1 X55.483 Y29.617
G1 X55.444 Y29.692
G1 X55.399 Y29.763
G1 X55.348 Y29.829
G1 X55.291 Y29.891
G1 X55.229 Y29.948
G1 X55.163 Y29.999
G1 X55.092 Y30.044
G1 X55.017 Y30.083
G1 X54.94 Y30.115
G1 X54.86 Y30.141
G1 X54.778 Y30.159
G1 X54.694 Y30.17
G1 X54.61 Y30.174
G1 X-14.447
; MOVEMENT_LINK_TRANSITION
G1 X-14.564 Y30.177
G1 X-14.682 Y30.188
G1 X-14.798 Y30.206
G1 X-14.913 Y30.232
G1 X-15.026 Y30.264
G1 X-15.137 Y30.303
G1 X-15.245 Y30.349
G1 X-15.35 Y30.402
G1 X-15.452 Y30.461
G1 X-15.55 Y30.526
G1 X-15.644 Y30.598
G1 X-15.733 Y30.674
G1 X-15.817 Y30.757
G1 X-15.896 Y30.844
G1 X-15.97 Y30.936
G1 X-16.037 Y31.032
G1 X-16.099 Y31.133
G1 X-16.154 Y31.237
G1 X-16.202 Y31.344
G1 X-16.251 Y31.451
G1 X-16.306 Y31.555
G1 X-16.368 Y31.655
G1 X-16.435 Y31.752
G1 X-16.508 Y31.844
G1 X-16.587 Y31.931
G1 X-16.672 Y32.013
G1 X-16.761 Y32.09
G1 X-16.854 Y32.161
G1 X-16.952 Y32.227
G1 X-17.054 Y32.286
G1 X-17.159 Y32.338
G1 X-17.268 Y32.385
G1 X-17.379 Y32.424
G1 X-17.492 Y32.456
G1 X-17.607 Y32.481
G1 X-17.723 Y32.5
G1 X-17.84 Y32.511
G1 X-17.958 Y32.514
; MOVEMENT_CUTTING
G1 X-56.951
G1 X-57.035 Y32.511
G1 X-57.118 Y32.5
G1 X-57.2 Y32.481
G1 X-57.28 Y32.456
G1 X-57.358 Y32.424
G1 X-57.433 Y32.385
G1 X-57.503 Y32.34
G1 X-57.57 Y32.289
G1 X-57.632 Y32.232
G1 X-57.689 Y32.17
G1 X-57.74 Y32.103
G1 X-57.785 Y32.033
G1 X-57.824 Y31.958
G1 X-57.856 Y31.88
G1 X-57.881 Y31.8
G1 X-57.9 Y31.718
G1 X-57.911 Y31.635
G1 X-57.914 Y31.551
G1 Y-31.551
G1 X-57.911 Y-31.635
G1 X-57.9 Y-31.718
G1 X-57.881 Y-31.8
G1 X-57.856 Y-31.88
G1 X-57.824 Y-31.958
G1 X-57.785 Y-32.033
G1 X-57.74 Y-32.103
G1 X-57.689 Y-32.17
G1 X-57.632 Y-32.232
G1 X-57.57 Y-32.289
G1 X-57.503 Y-32.34
G1 X-57.433 Y-32.385
G1 X-57.358 Y-32.424
G1 X-57.28 Y-32.456
G1 X-57.2 Y-32.481
G1 X-57.118 Y-32.5
G1 X-57.035 Y-32.511
G1 X-56.951 Y-32.514
G1 X56.951
G1 X57.035 Y-32.511
G1 X57.118 Y-32.5
G1 X57.2 Y-32.481
G1 X57.28 Y-32.456
G1 X57.358 Y-32.424
G1 X57.433 Y-32.385
G1 X57.503 Y-32.34
G1 X57.57 Y-32.289
G1 X57.632 Y-32.232
G1 X57.689 Y-32.17
G1 X57.74 Y-32.103
G1 X57.785 Y-32.033
G1 X57.824 Y-31.958
G1 X57.856 Y-31.88
G1 X57.881 Y-31.8
G1 X57.9 Y-31.718
G1 X57.911 Y-31.635
G1 X57.914 Y-31.551
G1 Y31.551
G1 X57.911 Y31.635
G1 X57.9 Y31.718
G1 X57.881 Y31.8
G1 X57.856 Y31.88
G1 X57.824 Y31.958
G1 X57.785 Y32.033
G1 X57.74 Y32.103
G1 X57.689 Y32.17
G1 X57.632 Y32.232
G1 X57.57 Y32.289
G1 X57.503 Y32.34
G1 X57.433 Y32.385
G1 X57.358 Y32.424
G1 X57.28 Y32.456
G1 X57.2 Y32.481
G1 X57.118 Y32.5
G1 X57.035 Y32.511
G1 X56.951 Y32.514
G1 X-17.958
; MOVEMENT_LINK_TRANSITION
G1 X-18.075 Y32.518
G1 X-18.193 Y32.529
G1 X-18.309 Y32.547
G1 X-18.424 Y32.572
G1 X-18.537 Y32.605
G1 X-18.648 Y32.644
G1 X-18.756 Y32.69
G1 X-18.861 Y32.743
G1 X-18.963 Y32.802
G1 X-19.061 Y32.867
G1 X-19.155 Y32.938
G1 X-19.244 Y33.015
G1 X-19.328 Y33.097
G1 X-19.407 Y33.185
G1 X-19.48 Y33.277
G1 X-19.548 Y33.373
G1 X-19.61 Y33.473
G1 X-19.665 Y33.577
G1 X-19.713 Y33.685
G1 X-19.762 Y33.792
G1 X-19.817 Y33.896
G1 X-19.878 Y33.996
G1 X-19.946 Y34.092
G1 X-20.019 Y34.184
G1 X-20.098 Y34.272
G1 X-20.183 Y34.354
G1 X-20.272 Y34.431
G1 X-20.365 Y34.502
G1 X-20.463 Y34.567
G1 X-20.565 Y34.626
G1 X-20.67 Y34.679
G1 X-20.779 Y34.725
G1 X-20.89 Y34.764
G1 X-21.003 Y34.797
G1 X-21.118 Y34.822
G1 X-21.234 Y34.84
G1 X-21.351 Y34.851
G1 X-21.469 Y34.855
; MOVEMENT_CUTTING
G1 X-59.292
G1 X-59.376 Y34.851
G1 X-59.459 Y34.84
G1 X-59.541 Y34.822
G1 X-59.621 Y34.797
G1 X-59.699 Y34.765
G1 X-59.773 Y34.726
G1 X-59.844 Y34.681
G1 X-59.911 Y34.629
G1 X-59.973 Y34.573
G1 X-60.029 Y34.511
G1 X-60.081 Y34.444
G1 X-60.126 Y34.373
G1 X-60.165 Y34.299
G1 X-60.197 Y34.221
G1 X-60.222 Y34.141
G1 X-60.24 Y34.059
G1 X-60.251 Y33.976
G1 X-60.255 Y33.892
G1 Y-33.892
G1 X-60.251 Y-33.976
G1 X-60.24 Y-34.059
G1 X-60.222 Y-34.141
G1 X-60.197 Y-34.221
G1 X-60.165 Y-34.299
G1 X-60.126 Y-34.373
G1 X-60.081 Y-34.444
G1 X-60.029 Y-34.511
G1 X-59.973 Y-34.573
G1 X-59.911 Y-34.629
G1 X-59.844 Y-34.681
G1 X-59.773 Y-34.726
G1 X-59.699 Y-34.765
G1 X-59.621 Y-34.797
G1 X-59.541 Y-34.822
G1 X-59.459 Y-34.84
G1 X-59.376 Y-34.851
G1 X-59.292 Y-34.855
G1 X59.292
G1 X59.376 Y-34.851
G1 X59.459 Y-34.84
G1 X59.541 Y-34.822
G1 X59.621 Y-34.797
G1 X59.699 Y-34.765
G1 X59.773 Y-34.726
G1 X59.844 Y-34.681
G1 X59.911 Y-34.629
G1 X59.973 Y-34.573
G1 X60.029 Y-34.511
G1 X60.081 Y-34.444
G1 X60.126 Y-34.373
G1 X60.165 Y-34.299
G1 X60.197 Y-34.221
G1 X60.222 Y-34.141
G1 X60.24 Y-34.059
G1 X60.251 Y-33.976
G1 X60.255 Y-33.892
G1 Y33.892
G1 X60.251 Y33.976
G1 X60.24 Y34.059
G1 X60.222 Y34.141
G1 X60.197 Y34.221
G1 X60.165 Y34.299
G1 X60.126 Y34.373
G1 X60.081 Y34.444
G1 X60.029 Y34.511
G1 X59.973 Y34.573
G1 X59.911 Y34.629
G1 X59.844 Y34.681
G1 X59.773 Y34.726
G1 X59.699 Y34.765
G1 X59.621 Y34.797
G1 X59.541 Y34.822
G1 X59.459 Y34.84
G1 X59.376 Y34.851
G1 X59.292 Y34.855
G1 X-21.469
; MOVEMENT_LINK_TRANSITION
G1 X-21.586 Y34.858
G1 X-21.704 Y34.869
G1 X-21.82 Y34.888
G1 X-21.935 Y34.913
G1 X-22.048 Y34.945
G1 X-22.159 Y34.984
G1 X-22.267 Y35.031
G1 X-22.372 Y35.083
G1 X-22.474 Y35.142
G1 X-22.572 Y35.208
G1 X-22.666 Y35.279
G1 X-22.755 Y35.356
G1 X-22.839 Y35.438
G1 X-22.918 Y35.525
G1 X-22.991 Y35.617
G1 X-23.059 Y35.714
G1 X-23.121 Y35.814
G1 X-23.176 Y35.918
G1 X-23.224 Y36.025
G1 X-23.273 Y36.132
G1 X-23.328 Y36.236
G1 X-23.389 Y36.337
G1 X-23.457 Y36.433
G1 X-23.53 Y36.525
G1 X-23.609 Y36.612
G1 X-23.694 Y36.695
G1 X-23.783 Y36.771
G1 X-23.876 Y36.843
G1 X-23.974 Y36.908
G1 X-24.076 Y36.967
G1 X-24.181 Y37.02
G1 X-24.29 Y37.066
G1 X-24.401 Y37.105
G1 X-24.514 Y37.138
G1 X-24.629 Y37.163
G1 X-24.745 Y37.181
G1 X-24.862 Y37.192
G1 X-24.98 Y37.195
; MOVEMENT_CUTTING
G1 X-61.632
G1 X-61.716 Y37.192
G1 X-61.8 Y37.181
G1 X-61.882 Y37.163
G1 X-61.962 Y37.137
G1 X-62.039 Y37.105
G1 X-62.114 Y37.066
G1 X-62.185 Y37.021
G1 X-62.251 Y36.97
G1 X-62.313 Y36.913
G1 X-62.37 Y36.851
G1 X-62.421 Y36.785
G1 X-62.466 Y36.714
G1 X-62.505 Y36.639
G1 X-62.537 Y36.562
G1 X-62.563 Y36.482
G1 X-62.581 Y36.4
G1 X-62.592 Y36.316
G1 X-62.595 Y36.232
G1 Y-36.23
G1 X-62.592 Y-36.314
G1 X-62.581 Y-36.398
G1 X-62.563 Y-36.48
G1 X-62.537 Y-36.56
G1 X-62.505 Y-36.638
G1 X-62.466 Y-36.712
G1 X-62.421 Y-36.783
G1 X-62.37 Y-36.85
G1 X-62.313 Y-36.912
G1 X-62.251 Y-36.969
G1 X-62.185 Y-37.02
G1 X-62.114 Y-37.065
G1 X-62.039 Y-37.104
G1 X-61.962 Y-37.137
G1 X-61.881 Y-37.162
G1 X-61.799 Y-37.18
G1 X-61.716 Y-37.191
G1 X-61.632 Y-37.195
G1 X61.632
G1 X61.716 Y-37.192
G1 X61.8 Y-37.181
G1 X61.882 Y-37.163
G1 X61.962 Y-37.137
G1 X62.039 Y-37.105
G1 X62.114 Y-37.066
G1 X62.185 Y-37.021
G1 X62.251 Y-36.97
G1 X62.313 Y-36.913
G1 X62.37 Y-36.851
G1 X62.421 Y-36.785
G1 X62.466 Y-36.714
G1 X62.505 Y-36.639
G1 X62.537 Y-36.562
G1 X62.563 Y-36.482
G1 X62.581 Y-36.4
G1 X62.592 Y-36.316
G1 X62.595 Y-36.232
G1 Y36.231
G1 X62.592 Y36.315
G1 X62.581 Y36.398
G1 X62.563 Y36.481
G1 X62.537 Y36.561
G1 X62.505 Y36.639
G1 X62.466 Y36.713
G1 X62.421 Y36.784
G1 X62.37 Y36.851
G1 X62.313 Y36.913
G1 X62.251 Y36.97
G1 X62.184 Y37.021
G1 X62.113 Y37.066
G1 X62.039 Y37.105
G1 X61.961 Y37.137
G1 X61.881 Y37.163
G1 X61.798 Y37.181
G1 X61.715 Y37.192
G1 X61.631 Y37.195
G1 X-24.98
; MOVEMENT_LINK_TRANSITION
G1 X-25.097 Y37.199
G1 X-25.214 Y37.21
G1 X-25.331 Y37.228
G1 X-25.446 Y37.253
G1 X-25.559 Y37.286
G1 X-25.67 Y37.325
G1 X-25.778 Y37.371
G1 X-25.883 Y37.424
G1 X-25.985 Y37.483
G1 X-26.083 Y37.548
G1 X-26.176 Y37.619
G1 X-26.265 Y37.696
G1 X-26.349 Y37.778
G1 X-26.428 Y37.866
G1 X-26.502 Y37.958
G1 X-26.569 Y38.054
G1 X-26.631 Y38.154
G1 X-26.686 Y38.258
G1 X-26.734 Y38.365
G1 X-26.783 Y38.472
G1 X-26.838 Y38.576
G1 X-26.9 Y38.677
G1 X-26.967 Y38.773
G1 X-27.04 Y38.865
G1 X-27.119 Y38.952
G1 X-27.203 Y39.034
G1 X-27.293 Y39.111
G1 X-27.386 Y39.182
G1 X-27.484 Y39.248
G1 X-27.586 Y39.307
G1 X-27.691 Y39.359
G1 X-27.799 Y39.405
G1 X-27.91 Y39.445
G1 X-28.023 Y39.477
G1 X-28.138 Y39.502
G1 X-28.254 Y39.521
G1 X-28.371 Y39.531
G1 X-28.489 Y39.535
; MOVEMENT_CUTTING
G1 X-63.963 Y39.536
G1 X-64.047 Y39.532
G1 X-64.131 Y39.521
G1 X-64.214 Y39.503
G1 X-64.294 Y39.478
G1 X-64.372 Y39.446
G1 X-64.447 Y39.407
G1 X-64.519 Y39.361
G1 X-64.586 Y39.31
G1 X-64.648 Y39.253
G1 X-64.706 Y39.191
G1 X-64.757 Y39.124
G1 X-64.803 Y39.053
G1 X-64.842 Y38.978
G1 X-64.875 Y38.9
G1 X-64.901 Y38.82
G1 X-64.919 Y38.737
G1 X-64.931 Y38.654
G1 X-64.935 Y38.569
G1 X-64.936 Y-38.564
G1 X-64.932 Y-38.649
G1 X-64.921 Y-38.732
G1 X-64.903 Y-38.815
G1 X-64.878 Y-38.895
G1 X-64.846 Y-38.973
G1 X-64.807 Y-39.048
G1 X-64.761 Y-39.119
G1 X-64.71 Y-39.186
G1 X-64.653 Y-39.248
G1 X-64.591 Y-39.305
G1 X-64.524 Y-39.357
G1 X-64.453 Y-39.402
G1 X-64.378 Y-39.441
G1 X-64.301 Y-39.473
G1 X-64.22 Y-39.499
G1 X-64.138 Y-39.517
G1 X-64.054 Y-39.528
G1 X-63.97 Y-39.532
G1 X63.963 Y-39.536
G1 X64.048 Y-39.532
G1 X64.131 Y-39.521
G1 X64.214 Y-39.503
G1 X64.294 Y-39.478
G1 X64.373 Y-39.446
G1 X64.448 Y-39.407
G1 X64.519 Y-39.361
G1 X64.586 Y-39.31
G1 X64.649 Y-39.253
G1 X64.706 Y-39.191
G1 X64.757 Y-39.124
G1 X64.803 Y-39.053
G1 X64.842 Y-38.978
G1 X64.875 Y-38.9
G1 X64.901 Y-38.82
G1 X64.919 Y-38.737
G1 X64.931 Y-38.654
G1 X64.935 Y-38.569
G1 X64.936 Y38.564
G1 X64.932 Y38.649
G1 X64.921 Y38.732
G1 X64.903 Y38.815
G1 X64.878 Y38.895
G1 X64.846 Y38.973
G1 X64.807 Y39.048
G1 X64.761 Y39.119
G1 X64.71 Y39.186
G1 X64.653 Y39.248
G1 X64.591 Y39.305
G1 X64.524 Y39.357
G1 X64.453 Y39.402
G1 X64.378 Y39.441
G1 X64.301 Y39.473
G1 X64.22 Y39.499
G1 X64.138 Y39.517
G1 X64.054 Y39.529
G1 X63.97 Y39.532
G1 X-28.489 Y39.535
; MOVEMENT_LINK_TRANSITION
G1 X-28.612 Y39.539
G1 X-28.735 Y39.55
G1 X-28.857 Y39.568
G1 X-28.977 Y39.593
G1 X-29.096 Y39.625
G1 X-29.213 Y39.664
G1 X-29.327 Y39.71
G1 X-29.438 Y39.763
G1 X-29.546 Y39.822
G1 X-29.651 Y39.887
G1 X-29.751 Y39.958
G1 X-29.847 Y40.035
G1 X-29.939 Y40.118
G1 X-30.025 Y40.206
G1 X-30.106 Y40.298
G1 X-30.181 Y40.396
G1 X-30.251 Y40.497
G1 X-30.315 Y40.603
G1 X-30.372 Y40.712
G1 X-30.422 Y40.824
G1 X-30.473 Y40.936
G1 X-30.53 Y41.045
G1 X-30.594 Y41.151
G1 X-30.663 Y41.253
G1 X-30.739 Y41.35
G1 X-30.82 Y41.443
G1 X-30.906 Y41.53
G1 X-30.998 Y41.613
G1 X-31.094 Y41.69
G1 X-31.194 Y41.761
G1 X-31.298 Y41.827
G1 X-31.407 Y41.886
G1 X-31.518 Y41.938
G1 X-31.632 Y41.984
G1 X-31.749 Y42.023
G1 X-31.868 Y42.055
G1 X-31.988 Y42.081
G1 X-32.11 Y42.099
G1 X-32.233 Y42.109
G1 X-32.356 Y42.113
; MOVEMENT_CUTTING
G1 X-64.602
G1 X-65.01 Y42.106
G1 X-65.662 Y42.042
G1 X-66.207 Y41.872
G1 X-66.235 Y41.857
G1 X-66.642 Y41.615
G1 X-67.007 Y41.256
G1 X-67.082 Y41.147
G1 X-67.151 Y41.034
G1 X-67.214 Y40.918
G1 X-67.271 Y40.798
G1 X-67.322 Y40.676
G1 X-67.366 Y40.551
G1 X-67.404 Y40.424
G1 X-67.435 Y40.295
G1 X-67.459 Y40.165
G1 X-67.506 Y39.638
G1 X-67.513 Y38.334
G1 Y-39.217
G1 X-67.505 Y-39.622
G1 X-67.437 Y-40.287
G1 X-67.428 Y-40.318
G1 X-67.276 Y-40.795
G1 X-67.012 Y-41.247
G1 X-66.668 Y-41.596
G1 X-66.556 Y-41.674
G1 X-66.441 Y-41.746
G1 X-66.322 Y-41.811
G1 X-66.2 Y-41.87
G1 X-66.074 Y-41.923
G1 X-65.946 Y-41.968
G1 X-65.815 Y-42.006
G1 X-65.683 Y-42.037
G1 X-65.549 Y-42.06
G1 X-65.022 Y-42.108
G1 X-61.478 Y-42.113
G1 X64.604
G1 X65.012 Y-42.106
G1 X65.668 Y-42.041
G1 X66.195 Y-41.876
G1 X66.446 Y-41.735
G1 X66.55 Y-41.67
G1 X66.65 Y-41.599
G1 X66.745 Y-41.521
G1 X66.835 Y-41.438
G1 X66.92 Y-41.35
G1 X67 Y-41.257
G1 X67.073 Y-41.159
G1 X67.141 Y-41.057
G1 X67.202 Y-40.95
G1 X67.256 Y-40.841
G1 X67.304 Y-40.728
G1 X67.367 Y-40.547
G1 X67.418 Y-40.365
G1 X67.463 Y-40.164
G1 X67.507 Y-39.636
G1 X67.513 Y-38.332
G1 Y39.219
G1 X67.504 Y39.625
G1 X67.439 Y40.278
G1 X67.275 Y40.799
G1 X67.012 Y41.247
G1 X66.667 Y41.597
G1 X66.557 Y41.676
G1 X66.442 Y41.748
G1 X66.323 Y41.814
G1 X66.2 Y41.873
G1 X66.075 Y41.925
G1 X65.947 Y41.97
G1 X65.816 Y42.008
G1 X65.684 Y42.038
G1 X65.55 Y42.061
G1 X65.025 Y42.107
G1 X61.928 Y42.113
G1 X-32.356
; MOVEMENT_LEAD_OUT
G1 X-32.405 Y42.109 Z-2.992 F180
G1 X-32.453 Y42.098 Z-2.984
G1 X-32.494 Y42.082 Z-2.962
G1 X-32.532 Y42.06 Z-2.939
G1 X-32.56 Y42.039 Z-2.904
G1 X-32.586 Y42.015 Z-2.869
G1 X-32.614 Y41.98 Z-2.781
G1 X-32.623 Y41.967 Z-2.683
; MOVEMENT_RAPID
G0 Z5 F300
G0 X-23.922 Y0.445 F2500
G0 Z4 F300
; MOVEMENT_PLUNGE
G1 Z-1.133 F180
; MOVEMENT_RAMP_HELIX
G1 X-23.919 Y0.46 Z-1.229
G1 X-23.912 Y0.502 Z-1.316
G1 X-23.902 Y0.569 Z-1.386
G1 X-23.894 Y0.654 Z-1.432
G1 X-23.891 Y0.749 Z-1.45
G1 X-23.895 Y0.859 Z-1.454
G1 X-23.907 Y0.968 Z-1.458
G1 X-23.926 Y1.076 Z-1.461
G1 X-23.954 Y1.182 Z-1.465
G1 X-23.989 Y1.286 Z-1.469
G1 X-24.031 Y1.387 Z-1.473
G1 X-24.081 Y1.485 Z-1.477
G1 X-24.138 Y1.579 Z-1.481
G1 X-24.202 Y1.669 Z-1.484
G1 X-24.272 Y1.753 Z-1.488
G1 X-24.347 Y1.833 Z-1.492
G1 X-24.429 Y1.906 Z-1.496
G1 X-24.515 Y1.974 Z-1.5
G1 X-24.606 Y2.035 Z-1.504
G1 X-24.702 Y2.089 Z-1.507
G1 X-24.801 Y2.136 Z-1.511
G1 X-24.903 Y2.176 Z-1.515
G1 X-25.008 Y2.208 Z-1.519
G1 X-25.115 Y2.233 Z-1.523
G1 X-25.224 Y2.249 Z-1.527
G1 X-25.333 Y2.258 Z-1.53
G1 X-25.443 Y2.259 Z-1.534
G1 X-25.552 Y2.252 Z-1.538
G1 X-25.661 Y2.237 Z-1.542
G1 X-25.768 Y2.214 Z-1.546
G1 X-25.874 Y2.183 Z-1.55
G1 X-25.976 Y2.145 Z-1.553
G1 X-26.076 Y2.099 Z-1.557
G1 X-26.172 Y2.046 Z-1.561
G1 X-26.265 Y1.987 Z-1.565
G1 X-26.352 Y1.92 Z-1.569
G1 X-26.435 Y1.848 Z-1.573
G1 X-26.512 Y1.77 Z-1.576
G1 X-26.583 Y1.686 Z-1.58
G1 X-26.647 Y1.598 Z-1.584
G1 X-26.706 Y1.505 Z-1.588
G1 X-26.757 Y1.408 Z-1.592
G1 X-26.801 Y1.307 Z-1.596
G1 X-26.838 Y1.204 Z-1.599
G1 X-26.867 Y1.098 Z-1.603
G1 X-26.888 Y0.99 Z-1.607
G1 X-26.902 Y0.881 Z-1.611
G1 X-26.907 Y0.772 Z-1.615
G1 X-26.905 Y0.662 Z-1.619
G1 X-26.894 Y0.553 Z-1.622
G1 X-26.876 Y0.445 Z-1.626
G1 X-26.849 Y0.338 Z-1.63
G1 X-26.815 Y0.234 Z-1.634
G1 X-26.774 Y0.132 Z-1.638
G1 X-26.725 Y0.034 Z-1.642
G1 X-26.67 Y-0.061 Z-1.645
G1 X-26.607 Y-0.151 Z-1.649
G1 X-26.538 Y-0.237 Z-1.653
G1 X-26.463 Y-0.317 Z-1.657
G1 X-26.383 Y-0.391 Z-1.661
G1 X-26.297 Y-0.46 Z-1.665
G1 X-26.207 Y-0.522 Z-1.668
G1 X-26.112 Y-0.577 Z-1.672
G1 X-26.013 Y-0.626 Z-1.676
G1 X-25.912 Y-0.667 Z-1.68
G1 X-25.807 Y-0.7 Z-1.684
G1 X-25.701 Y-0.726 Z-1.688
G1 X-25.592 Y-0.744 Z-1.691
G1 X-25.483 Y-0.754 Z-1.695
G1 X-25.373 Y-0.756 Z-1.699
G1 X-25.264 Y-0.75 Z-1.703
G1 X-25.155 Y-0.737 Z-1.707
G1 X-25.047 Y-0.715 Z-1.711
G1 X-24.942 Y-0.685 Z-1.714
G1 X-24.838 Y-0.648 Z-1.718
G1 X-24.738 Y-0.604 Z-1.722
G1 X-24.641 Y-0.552 Z-1.726
G1 X-24.548 Y-0.494 Z-1.73
G1 X-24.46 Y-0.428 Z-1.734
G1 X-24.377 Y-0.357 Z-1.737
G1 X-24.299 Y-0.28 Z-1.741
G1 X-24.227 Y-0.197 Z-1.745
G1 X-24.161 Y-0.109 Z-1.749
G1 X-24.101 Y-0.017 Z-1.753
G1 X-24.049 Y0.079 Z-1.757
G1 X-24.004 Y0.179 Z-1.76
G1 X-23.966 Y0.282 Z-1.764
G1 X-23.935 Y0.388 Z-1.768
G1 X-23.913 Y0.495 Z-1.772
G1 X-23.898 Y0.604 Z-1.776
G1 X-23.891 Y0.714 Z-1.78
G1 X-23.893 Y0.823 Z-1.783
G1 X-23.902 Y0.933 Z-1.787
G1 X-23.919 Y1.041 Z-1.791
G1 X-23.944 Y1.148 Z-1.795
G1 X-23.977 Y1.253 Z-1.799
G1 X-24.017 Y1.355 Z-1.803
G1 X-24.064 Y1.454 Z-1.806
G1 X-24.119 Y1.549 Z-1.81
G1 X-24.18 Y1.64 Z-1.814
G1 X-24.248 Y1.726 Z-1.818
G1 X-24.322 Y1.807 Z-1.822
G1 X-24.402 Y1.883 Z-1.826
G1 X-24.487 Y1.952 Z-1.829
G1 X-24.576 Y2.016 Z-1.833
G1 X-24.67 Y2.072 Z-1.837
G1 X-24.768 Y2.121 Z-1.841
G1 X-24.87 Y2.164 Z-1.845
G1 X-24.974 Y2.198 Z-1.849
G1 X-25.08 Y2.226 Z-1.852
G1 X-25.188 Y2.245 Z-1.856
G1 X-25.297 Y2.256 Z-1.86
G1 X-25.407 Y2.26 Z-1.864
G1 X-25.517 Y2.255 Z-1.868
G1 X-25.626 Y2.243 Z-1.872
G1 X-25.733 Y2.222 Z-1.875
G1 X-25.839 Y2.194 Z-1.879
G1 X-25.943 Y2.158 Z-1.883
G1 X-26.044 Y2.115 Z-1.887
G1 X-26.141 Y2.064 Z-1.891
G1 X-26.235 Y2.007 Z-1.895
G1 X-26.324 Y1.943 Z-1.898
G1 X-26.408 Y1.872 Z-1.902
G1 X-26.487 Y1.796 Z-1.906
G1 X-26.56 Y1.714 Z-1.91
G1 X-26.627 Y1.627 Z-1.914
G1 X-26.687 Y1.535 Z-1.918
G1 X-26.741 Y1.44 Z-1.921
G1 X-26.788 Y1.34 Z-1.925
G1 X-26.827 Y1.238 Z-1.929
G1 X-26.858 Y1.133 Z-1.933
G1 X-26.882 Y1.026 Z-1.937
G1 X-26.898 Y0.917 Z-1.941
G1 X-26.906 Y0.808 Z-1.944
G1 Y0.698 Z-1.948
G1 X-26.898 Y0.588 Z-1.952
G1 X-26.882 Y0.48 Z-1.956
G1 X-26.859 Y0.373 Z-1.96
G1 X-26.827 Y0.267 Z-1.964
G1 X-26.788 Y0.165 Z-1.967
G1 X-26.742 Y0.065 Z-1.971
G1 X-26.689 Y-0.03 Z-1.975
G1 X-26.628 Y-0.122 Z-1.979
G1 X-26.561 Y-0.209 Z-1.983
G1 X-26.488 Y-0.291 Z-1.987
G1 X-26.41 Y-0.368 Z-1.99
G1 X-26.326 Y-0.438 Z-1.994
G1 X-26.237 Y-0.502 Z-1.998
G1 X-26.143 Y-0.56 Z-2.002
G1 X-26.046 Y-0.611 Z-2.006
G1 X-25.945 Y-0.654 Z-2.01
G1 X-25.841 Y-0.69 Z-2.013
G1 X-25.735 Y-0.719 Z-2.017
G1 X-25.628 Y-0.739 Z-2.021
G1 X-25.519 Y-0.752 Z-2.025
G1 X-25.409 Y-0.756 Z-2.029
G1 X-25.299 Y-0.753 Z-2.033
G1 X-25.19 Y-0.742 Z-2.036
G1 X-25.082 Y-0.723 Z-2.04
G1 X-24.976 Y-0.696 Z-2.044
G1 X-24.872 Y-0.661 Z-2.048
G1 X-24.77 Y-0.619 Z-2.052
G1 X-24.672 Y-0.57 Z-2.056
G1 X-24.578 Y-0.513 Z-2.059
G1 X-24.488 Y-0.45 Z-2.063
G1 X-24.403 Y-0.381 Z-2.067
G1 X-24.323 Y-0.306 Z-2.071
G1 X-24.249 Y-0.225 Z-2.075
G1 X-24.182 Y-0.138 Z-2.079
G1 X-24.12 Y-0.047 Z-2.082
G1 X-24.065 Y0.048 Z-2.086
G1 X-24.018 Y0.146 Z-2.09
G1 X-23.977 Y0.249 Z-2.094
G1 X-23.944 Y0.353 Z-2.098
G1 X-23.919 Y0.46 Z-2.102
G1 X-23.902 Y0.568 Z-2.105
G1 X-23.893 Y0.678 Z-2.109
G1 X-23.891 Y0.788 Z-2.113
G1 X-23.898 Y0.897 Z-2.117
G1 X-23.913 Y1.006 Z-2.121
G1 X-23.935 Y1.113 Z-2.125
G1 X-23.965 Y1.219 Z-2.128
G1 X-24.003 Y1.322 Z-2.132
G1 X-24.048 Y1.422 Z-2.136
G1 X-24.1 Y1.518 Z-2.14
G1 X-24.16 Y1.611 Z-2.144
G1 X-24.225 Y1.699 Z-2.148
G1 X-24.297 Y1.781 Z-2.151
G1 X-24.375 Y1.859 Z-2.155
G1 X-24.458 Y1.93 Z-2.159
G1 X-24.547 Y1.996 Z-2.163
G1 X-24.639 Y2.054 Z-2.167
G1 X-24.736 Y2.106 Z-2.171
G1 X-24.836 Y2.151 Z-2.174
G1 X-24.94 Y2.188 Z-2.178
G1 X-25.045 Y2.218 Z-2.182
G1 X-25.153 Y2.239 Z-2.186
G1 X-25.262 Y2.253 Z-2.19
G1 X-25.371 Y2.259 Z-2.194
G1 X-25.481 Y2.257 Z-2.197
G1 X-25.59 Y2.248 Z-2.201
G1 X-25.698 Y2.23 Z-2.205
G1 X-25.805 Y2.204 Z-2.209
G1 X-25.91 Y2.171 Z-2.213
G1 X-26.012 Y2.13 Z-2.217
G1 X-26.11 Y2.082 Z-2.22
G1 X-26.205 Y2.026 Z-2.224
G1 X-26.296 Y1.964 Z-2.228
G1 X-26.381 Y1.896 Z-2.232
G1 X-26.462 Y1.821 Z-2.236
G1 X-26.537 Y1.741 Z-2.24
G1 X-26.606 Y1.656 Z-2.243
G1 X-26.669 Y1.566 Z-2.247
G1 X-26.724 Y1.471 Z-2.251
G1 X-26.773 Y1.373 Z-2.255
G1 X-26.815 Y1.271 Z-2.259
G1 X-26.849 Y1.167 Z-2.263
G1 X-26.875 Y1.061 Z-2.266
G1 X-26.894 Y0.952 Z-2.27
G1 X-26.904 Y0.843 Z-2.274
G1 X-26.907 Y0.734 Z-2.278
G1 X-26.902 Y0.624 Z-2.282
G1 X-26.888 Y0.515 Z-2.286
G1 X-26.867 Y0.407 Z-2.289
G1 X-26.838 Y0.301 Z-2.293
G1 X-26.802 Y0.198 Z-2.297
G1 X-26.758 Y0.097 Z-2.301
G1 X-26.707 Y0 Z-2.305
G1 X-26.649 Y-0.093 Z-2.309
G1 X-26.584 Y-0.181 Z-2.312
G1 X-26.513 Y-0.265 Z-2.316
G1 X-26.436 Y-0.343 Z-2.32
G1 X-26.354 Y-0.416 Z-2.324
G1 X-26.266 Y-0.482 Z-2.328
G1 X-26.174 Y-0.542 Z-2.332
G1 X-26.078 Y-0.595 Z-2.335
G1 X-25.978 Y-0.641 Z-2.339
G1 X-25.876 Y-0.679 Z-2.343
G1 X-25.77 Y-0.71 Z-2.347
G1 X-25.663 Y-0.733 Z-2.351
G1 X-25.554 Y-0.749 Z-2.355
G1 X-25.445 Y-0.756 Z-2.358
G1 X-25.335 Y-0.755 Z-2.362
G1 X-25.226 Y-0.747 Z-2.366
G1 X-25.117 Y-0.73 Z-2.37
G1 X-25.01 Y-0.706 Z-2.374
G1 X-24.905 Y-0.673 Z-2.378
G1 X-24.803 Y-0.634 Z-2.381
G1 X-24.704 Y-0.587 Z-2.385
G1 X-24.608 Y-0.533 Z-2.389
G1 X-24.517 Y-0.472 Z-2.393
G1 X-24.43 Y-0.404 Z-2.397
G1 X-24.349 Y-0.331 Z-2.401
G1 X-24.273 Y-0.252 Z-2.404
G1 X-24.203 Y-0.167 Z-2.408
G1 X-24.139 Y-0.078 Z-2.412
G1 X-24.082 Y0.016 Z-2.416
G1 X-24.032 Y0.114 Z-2.42
G1 X-23.99 Y0.215 Z-2.424
G1 X-23.954 Y0.319 Z-2.427
G1 X-23.927 Y0.425 Z-2.431
G1 X-23.907 Y0.533 Z-2.435
G1 X-23.895 Y0.642 Z-2.439
G1 X-23.891 Y0.752 Z-2.443
G1 X-23.895 Y0.861 Z-2.447
G1 X-23.907 Y0.971 Z-2.45
G1 X-23.927 Y1.078 Z-2.454
G1 X-23.954 Y1.185 Z-2.458
G1 X-23.99 Y1.289 Z-2.462
G1 X-24.033 Y1.39 Z-2.466
G1 X-24.083 Y1.487 Z-2.47
G1 X-24.14 Y1.581 Z-2.473
G1 X-24.203 Y1.671 Z-2.477
G1 X-24.273 Y1.755 Z-2.481
G1 X-24.349 Y1.834 Z-2.485
G1 X-24.431 Y1.908 Z-2.489
G1 X-24.517 Y1.975 Z-2.493
G1 X-24.609 Y2.036 Z-2.496
G1 X-24.704 Y2.09 Z-2.5
G1 X-24.803 Y2.137 Z-2.504
G1 X-24.906 Y2.177 Z-2.508
G1 X-25.011 Y2.209 Z-2.512
G1 X-25.118 Y2.233 Z-2.516
G1 X-25.226 Y2.25 Z-2.519
G1 X-25.335 Y2.258 Z-2.523
G1 X-25.445 Y2.259 Z-2.527
G1 X-25.555 Y2.252 Z-2.531
G1 X-25.663 Y2.236 Z-2.535
G1 X-25.771 Y2.213 Z-2.539
G1 X-25.876 Y2.182 Z-2.542
G1 X-25.979 Y2.144 Z-2.546
G1 X-26.078 Y2.098 Z-2.55
G1 X-26.175 Y2.045 Z-2.554
G1 X-26.267 Y1.985 Z-2.558
G1 X-26.354 Y1.919 Z-2.562
G1 X-26.436 Y1.846 Z-2.565
G1 X-26.513 Y1.768 Z-2.569
G1 X-26.584 Y1.684 Z-2.573
G1 X-26.649 Y1.596 Z-2.577
G1 X-26.707 Y1.503 Z-2.581
G1 X-26.758 Y1.405 Z-2.585
G1 X-26.802 Y1.305 Z-2.588
G1 X-26.839 Y1.201 Z-2.592
G1 X-26.867 Y1.096 Z-2.596
G1 X-26.889 Y0.988 Z-2.6
G1 X-26.902 Y0.879 Z-2.604
G1 X-26.907 Y0.769 Z-2.608
G1 X-26.904 Y0.66 Z-2.611
G1 X-26.894 Y0.55 Z-2.615
G1 X-26.875 Y0.442 Z-2.619
G1 X-26.849 Y0.336 Z-2.623
G1 X-26.815 Y0.231 Z-2.627
G1 X-26.773 Y0.13 Z-2.631
G1 X-26.724 Y0.032 Z-2.634
G1 X-26.668 Y-0.063 Z-2.638
G1 X-26.606 Y-0.153 Z-2.642
G1 X-26.537 Y-0.238 Z-2.646
G1 X-26.462 Y-0.319 Z-2.65
G1 X-26.381 Y-0.393 Z-2.654
G1 X-26.295 Y-0.461 Z-2.657
G1 X-26.205 Y-0.523 Z-2.661
G1 X-26.11 Y-0.579 Z-2.665
G1 X-26.011 Y-0.627 Z-2.669
G1 X-25.909 Y-0.668 Z-2.673
G1 X-25.805 Y-0.701 Z-2.677
G1 X-25.698 Y-0.727 Z-2.68
G1 X-25.59 Y-0.744 Z-2.684
G1 X-25.481 Y-0.754 Z-2.688
G1 X-25.371 Y-0.756 Z-2.692
G1 X-25.261 Y-0.75 Z-2.696
G1 X-25.152 Y-0.736 Z-2.7
G1 X-25.045 Y-0.714 Z-2.703
G1 X-24.939 Y-0.685 Z-2.707
G1 X-24.836 Y-0.647 Z-2.711
G1 X-24.736 Y-0.603 Z-2.715
G1 X-24.639 Y-0.551 Z-2.719
G1 X-24.546 Y-0.492 Z-2.723
G1 X-24.458 Y-0.427 Z-2.726
G1 X-24.375 Y-0.355 Z-2.73
G1 X-24.297 Y-0.278 Z-2.734
G1 X-24.225 Y-0.195 Z-2.738
G1 X-24.159 Y-0.107 Z-2.742
G1 X-24.1 Y-0.015 Z-2.746
G1 X-24.048 Y0.082 Z-2.749
G1 X-24.003 Y0.182 Z-2.753
G1 X-23.965 Y0.285 Z-2.757
G1 X-23.935 Y0.39 Z-2.761
G1 X-23.912 Y0.498 Z-2.765
G1 X-23.898 Y0.606 Z-2.769
G1 X-23.891 Y0.716 Z-2.772
G1 X-23.893 Y0.826 Z-2.776
G1 X-23.902 Y0.935 Z-2.78
G1 X-23.919 Y1.043 Z-2.784
G1 X-23.945 Y1.15 Z-2.788
G1 X-23.977 Y1.255 Z-2.792
G1 X-24.018 Y1.357 Z-2.795
G1 X-24.065 Y1.456 Z-2.799
G1 X-24.12 Y1.551 Z-2.803
G1 X-24.182 Y1.642 Z-2.807
G1 X-24.25 Y1.728 Z-2.811
G1 X-24.324 Y1.809 Z-2.815
G1 X-24.404 Y1.884 Z-2.818
G1 X-24.489 Y1.954 Z-2.822
G1 X-24.578 Y2.017 Z-2.826
G1 X-24.673 Y2.073 Z-2.83
G1 X-24.771 Y2.123 Z-2.834
G1 X-24.872 Y2.165 Z-2.838
G1 X-24.976 Y2.199 Z-2.841
G1 X-25.083 Y2.226 Z-2.845
G1 X-25.191 Y2.245 Z-2.849
G1 X-25.3 Y2.256 Z-2.853
G1 X-25.409 Y2.26 Z-2.857
G1 X-25.519 Y2.255 Z-2.861
G1 X-25.628 Y2.242 Z-2.864
G1 X-25.736 Y2.222 Z-2.868
G1 X-25.842 Y2.193 Z-2.872
G1 X-25.946 Y2.157 Z-2.876
G1 X-26.046 Y2.114 Z-2.88
G1 X-26.144 Y2.063 Z-2.884
G1 X-26.237 Y2.005 Z-2.887
G1 X-26.326 Y1.941 Z-2.891
G1 X-26.41 Y1.871 Z-2.895
G1 X-26.489 Y1.794 Z-2.899
G1 X-26.562 Y1.712 Z-2.903
G1 X-26.628 Y1.625 Z-2.907
G1 X-26.689 Y1.533 Z-2.91
G1 X-26.742 Y1.437 Z-2.914
G1 X-26.789 Y1.338 Z-2.918
G1 X-26.827 Y1.235 Z-2.922
G1 X-26.859 Y1.13 Z-2.926
G1 X-26.883 Y1.023 Z-2.93
G1 X-26.898 Y0.914 Z-2.933
G1 X-26.906 Y0.805 Z-2.937
G1 Y0.695 Z-2.941
G1 X-26.898 Y0.586 Z-2.945
G1 X-26.882 Y0.477 Z-2.949
G1 X-26.858 Y0.37 Z-2.953
G1 X-26.827 Y0.265 Z-2.956
G1 X-26.787 Y0.163 Z-2.96
G1 X-26.741 Y0.063 Z-2.964
G1 X-26.687 Y-0.033 Z-2.968
G1 X-26.627 Y-0.124 Z-2.972
G1 X-26.56 Y-0.211 Z-2.976
G1 X-26.487 Y-0.293 Z-2.979
G1 X-26.408 Y-0.369 Z-2.983
G1 X-26.324 Y-0.44 Z-2.987
G1 X-26.235 Y-0.504 Z-2.991
G1 X-26.141 Y-0.561 Z-2.995
G1 X-26.044 Y-0.612 Z-2.999
G1 X-25.943 Y-0.655 Z-3.002
G1 X-25.839 Y-0.691 Z-3.006
G1 X-25.733 Y-0.719 Z-3.01
G1 X-25.625 Y-0.739 Z-3.014
G1 X-25.516 Y-0.752 Z-3.018
G1 X-25.407 Y-0.757 Z-3.022
G1 X-25.297 Y-0.753 Z-3.025
G1 X-25.188 Y-0.742 Z-3.029
G1 X-25.08 Y-0.722 Z-3.033
G1 X-24.973 Y-0.695 Z-3.037
G1 X-24.869 Y-0.66 Z-3.041
G1 X-24.768 Y-0.618 Z-3.045
G1 X-24.67 Y-0.569 Z-3.048
G1 X-24.576 Y-0.512 Z-3.052
G1 X-24.486 Y-0.449 Z-3.056
G1 X-24.401 Y-0.379 Z-3.06
G1 X-24.322 Y-0.304 Z-3.064
G1 X-24.248 Y-0.223 Z-3.068
G1 X-24.18 Y-0.136 Z-3.071
G1 X-24.119 Y-0.045 Z-3.075
G1 X-24.064 Y0.05 Z-3.079
G1 X-24.017 Y0.149 Z-3.083
G1 X-23.976 Y0.251 Z-3.087
G1 X-23.944 Y0.356 Z-3.091
G1 X-23.919 Y0.463 Z-3.094
G1 X-23.902 Y0.571 Z-3.098
G1 X-23.893 Y0.68 Z-3.102
G1 X-23.891 Y0.79 Z-3.106
G1 X-23.898 Y0.9 Z-3.11
G1 X-23.913 Y1.008 Z-3.114
G1 X-23.936 Y1.116 Z-3.117
G1 X-23.966 Y1.221 Z-3.121
G1 X-24.004 Y1.324 Z-3.125
G1 X-24.049 Y1.424 Z-3.129
G1 X-24.102 Y1.52 Z-3.133
G1 X-24.161 Y1.613 Z-3.137
G1 X-24.227 Y1.701 Z-3.14
G1 X-24.299 Y1.783 Z-3.144
G1 X-24.377 Y1.861 Z-3.148
G1 X-24.46 Y1.932 Z-3.152
G1 X-24.549 Y1.997 Z-3.156
G1 X-24.641 Y2.056 Z-3.16
G1 X-24.738 Y2.107 Z-3.163
G1 X-24.839 Y2.152 Z-3.167
G1 X-24.942 Y2.189 Z-3.171
G1 X-25.048 Y2.218 Z-3.175
G1 X-25.155 Y2.24 Z-3.179
G1 X-25.264 Y2.254 Z-3.183
G1 X-25.374 Y2.26 Z-3.186
G1 X-25.483 Y2.257 Z-3.19
G1 X-25.593 Y2.247 Z-3.194
G1 X-25.701 Y2.229 Z-3.198
G1 X-25.808 Y2.203 Z-3.202
G1 X-25.912 Y2.17 Z-3.206
G1 X-26.014 Y2.129 Z-3.209
G1 X-26.112 Y2.08 Z-3.213
G1 X-26.207 Y2.025 Z-3.217
G1 X-26.298 Y1.963 Z-3.221
G1 X-26.383 Y1.894 Z-3.225
G1 X-26.464 Y1.82 Z-3.229
G1 X-26.539 Y1.739 Z-3.232
G1 X-26.607 Y1.654 Z-3.236
G1 X-26.67 Y1.564 Z-3.24
G1 X-26.726 Y1.469 Z-3.244
G1 X-26.774 Y1.371 Z-3.248
G1 X-26.816 Y1.269 Z-3.252
G1 X-26.849 Y1.165 Z-3.255
G1 X-26.876 Y1.058 Z-3.259
G1 X-26.894 Y0.95 Z-3.263
G1 X-26.905 Y0.841 Z-3.267
G1 X-26.907 Y0.731 Z-3.271
G1 X-26.902 Y0.621 Z-3.275
G1 X-26.888 Y0.512 Z-3.278
G1 X-26.867 Y0.405 Z-3.282
G1 X-26.838 Y0.299 Z-3.286
G1 X-26.801 Y0.196 Z-3.29
G1 X-26.757 Y0.095 Z-3.294
G1 X-26.705 Y-0.002 Z-3.298
G1 X-26.647 Y-0.095 Z-3.301
G1 X-26.582 Y-0.183 Z-3.305
G1 X-26.511 Y-0.267 Z-3.309
G1 X-26.434 Y-0.345 Z-3.313
G1 X-26.352 Y-0.418 Z-3.317
G1 X-26.264 Y-0.484 Z-3.321
G1 X-26.172 Y-0.543 Z-3.324
G1 X-26.076 Y-0.596 Z-3.328
G1 X-25.976 Y-0.642 Z-3.332
G1 X-25.873 Y-0.68 Z-3.336
G1 X-25.768 Y-0.711 Z-3.34
G1 X-25.66 Y-0.734 Z-3.344
G1 X-25.552 Y-0.749 Z-3.347
G1 X-25.442 Y-0.756 Z-3.351
G1 X-25.333 Y-0.755 Z-3.355
G1 X-25.223 Y-0.746 Z-3.359
G1 X-25.115 Y-0.729 Z-3.363
G1 X-25.008 Y-0.705 Z-3.367
G1 X-24.903 Y-0.673 Z-3.37
G1 X-24.801 Y-0.633 Z-3.374
G1 X-24.702 Y-0.586 Z-3.378
G1 X-24.606 Y-0.531 Z-3.382
G1 X-24.515 Y-0.47 Z-3.386
G1 X-24.428 Y-0.403 Z-3.39
G1 X-24.347 Y-0.329 Z-3.393
G1 X-24.271 Y-0.25 Z-3.397
G1 X-24.201 Y-0.165 Z-3.401
G1 X-24.138 Y-0.076 Z-3.405
G1 X-24.081 Y0.018 Z-3.409
G1 X-24.031 Y0.116 Z-3.413
G1 X-23.989 Y0.217 Z-3.416
G1 X-23.954 Y0.321 Z-3.42
G1 X-23.926 Y0.428 Z-3.424
G1 X-23.906 Y0.536 Z-3.428
G1 X-23.895 Y0.645 Z-3.432
G1 X-23.891 Y0.754 Z-3.436
G1 X-23.895 Y0.864 Z-3.439
G1 X-23.907 Y0.973 Z-3.443
G1 X-23.927 Y1.081 Z-3.447
G1 X-23.955 Y1.187 Z-3.451
G1 X-23.991 Y1.291 Z-3.455
G1 X-24.034 Y1.392 Z-3.459
G1 X-24.084 Y1.49 Z-3.462
G1 X-24.141 Y1.583 Z-3.466
G1 X-24.205 Y1.672 Z-3.47
G1 X-24.275 Y1.757 Z-3.474
G1 X-24.351 Y1.836 Z-3.478
G1 X-24.433 Y1.909 Z-3.482
G1 X-24.519 Y1.977 Z-3.485
G1 X-24.611 Y2.037 Z-3.489
G1 X-24.706 Y2.091 Z-3.493
G1 X-24.806 Y2.138 Z-3.497
G1 X-24.908 Y2.178 Z-3.501
G1 X-25.013 Y2.209 Z-3.505
G1 X-25.12 Y2.234 Z-3.508
G1 X-25.229 Y2.25 Z-3.512
G1 X-25.338 Y2.258 Z-3.516
G1 X-25.448 Y2.259 Z-3.52
G1 X-25.557 Y2.251 Z-3.524
G1 X-25.666 Y2.236 Z-3.528
G1 X-25.773 Y2.213 Z-3.531
G1 X-25.878 Y2.182 Z-3.535
G1 X-25.981 Y2.143 Z-3.539
G1 X-26.081 Y2.097 Z-3.543
G1 X-26.177 Y2.044 Z-3.547
G1 X-26.269 Y1.984 Z-3.551
G1 X-26.356 Y1.917 Z-3.554
G1 X-26.438 Y1.845 Z-3.558
G1 X-26.515 Y1.766 Z-3.562
G1 X-26.586 Y1.682 Z-3.566
G1 X-26.65 Y1.594 Z-3.57
G1 X-26.708 Y1.5 Z-3.574
G1 X-26.759 Y1.403 Z-3.577
G1 X-26.803 Y1.303 Z-3.581
G1 X-26.839 Y1.199 Z-3.585
G1 X-26.868 Y1.093 Z-3.589
G1 X-26.889 Y0.985 Z-3.593
G1 X-26.902 Y0.876 Z-3.597
G1 X-26.907 Y0.767 Z-3.6
G1 X-26.904 Y0.657 Z-3.604
G1 X-26.893 Y0.548 Z-3.608
G1 X-26.875 Y0.44 Z-3.612
G1 X-26.848 Y0.333 Z-3.616
G1 X-26.814 Y0.229 Z-3.62
G1 X-26.772 Y0.128 Z-3.623
G1 X-26.723 Y0.029 Z-3.627
G1 X-26.667 Y-0.065 Z-3.631
G1 X-26.604 Y-0.155 Z-3.635
G1 X-26.535 Y-0.24 Z-3.639
G1 X-26.46 Y-0.32 Z-3.643
G1 X-26.379 Y-0.395 Z-3.646
G1 X-26.293 Y-0.463 Z-3.65
G1 X-26.203 Y-0.525 Z-3.654
G1 X-26.108 Y-0.58 Z-3.658
G1 X-26.009 Y-0.628 Z-3.662
G1 X-25.907 Y-0.668 Z-3.666
G1 X-25.802 Y-0.702 Z-3.669
G1 X-25.696 Y-0.727 Z-3.673
G1 X-25.587 Y-0.745 Z-3.677
G1 X-25.478 Y-0.754 Z-3.681
G1 X-25.368 Y-0.756 Z-3.685
G1 X-25.259 Y-0.75 Z-3.689
G1 X-25.15 Y-0.736 Z-3.692
G1 X-25.042 Y-0.714 Z-3.696
G1 X-24.937 Y-0.684 Z-3.7
G1 X-24.834 Y-0.647 Z-3.704
G1 X-24.733 Y-0.602 Z-3.708
G1 X-24.637 Y-0.55 Z-3.712
G1 X-24.544 Y-0.491 Z-3.715
G1 X-24.456 Y-0.425 Z-3.719
G1 X-24.373 Y-0.354 Z-3.723
G1 X-24.295 Y-0.276 Z-3.727
G1 X-24.224 Y-0.193 Z-3.731
G1 X-24.158 Y-0.105 Z-3.735
G1 X-24.099 Y-0.013 Z-3.738
G1 X-24.047 Y0.084 Z-3.742
G1 X-24.002 Y0.184 Z-3.746
G1 X-23.964 Y0.287 Z-3.75
G1 X-23.934 Y0.393 Z-3.754
G1 X-23.912 Y0.5 Z-3.758
G1 X-23.898 Y0.609 Z-3.761
G1 X-23.891 Y0.719 Z-3.765
G1 X-23.893 Y0.828 Z-3.769
G1 X-23.902 Y0.938 Z-3.773
G1 X-23.92 Y1.046 Z-3.777
G1 X-23.945 Y1.153 Z-3.781
G1 X-23.978 Y1.257 Z-3.784
G1 X-24.019 Y1.359 Z-3.788
G1 X-24.067 Y1.458 Z-3.792
G1 X-24.122 Y1.553 Z-3.796
G1 X-24.183 Y1.644 Z-3.8
G1 X-24.251 Y1.73 Z-3.804
G1 X-24.326 Y1.811 Z-3.807
G1 X-24.405 Y1.886 Z-3.811
G1 X-24.491 Y1.955 Z-3.815
G1 X-24.58 Y2.018 Z-3.819
G1 X-24.675 Y2.074 Z-3.823
G1 X-24.773 Y2.124 Z-3.827
G1 X-24.874 Y2.165 Z-3.83
G1 X-24.979 Y2.2 Z-3.834
G1 X-25.085 Y2.227 Z-3.838
G1 X-25.193 Y2.246 Z-3.842
G1 X-25.302 Y2.257 Z-3.846
G1 X-25.412 Y2.26 Z-3.85
G1 X-25.522 Y2.255 Z-3.853
G1 X-25.631 Y2.242 Z-3.857
G1 X-25.738 Y2.221 Z-3.861
G1 X-25.844 Y2.192 Z-3.865
G1 X-25.948 Y2.156 Z-3.869
G1 X-26.049 Y2.113 Z-3.873
G1 X-26.146 Y2.062 Z-3.876
G1 X-26.239 Y2.004 Z-3.88
G1 X-26.328 Y1.94 Z-3.884
G1 X-26.412 Y1.869 Z-3.888
G1 X-26.491 Y1.792 Z-3.892
G1 X-26.563 Y1.71 Z-3.896
G1 X-26.63 Y1.623 Z-3.899
G1 X-26.69 Y1.531 Z-3.903
G1 X-26.743 Y1.435 Z-3.907
G1 X-26.789 Y1.336 Z-3.911
G1 X-26.828 Y1.233 Z-3.915
G1 X-26.859 Y1.128 Z-3.919
G1 X-26.883 Y1.021 Z-3.922
G1 X-26.899 Y0.912 Z-3.926
G1 X-26.906 Y0.803 Z-3.93
G1 Y0.693 Z-3.934
G1 X-26.898 Y0.583 Z-3.938
G1 X-26.882 Y0.475 Z-3.942
G1 X-26.857 Y0.368 Z-3.945
G1 X-26.826 Y0.263 Z-3.949
G1 X-26.786 Y0.16 Z-3.953
G1 X-26.74 Y0.061 Z-3.957
G1 X-26.686 Y-0.035 Z-3.961
G1 X-26.625 Y-0.126 Z-3.965
G1 X-26.558 Y-0.213 Z-3.968
G1 X-26.485 Y-0.295 Z-3.972
G1 X-26.406 Y-0.371 Z-3.976
G1 X-26.322 Y-0.441 Z-3.98
G1 X-26.233 Y-0.505 Z-3.984
G1 X-26.139 Y-0.563 Z-3.988
G1 X-26.041 Y-0.613 Z-3.991
G1 X-25.941 Y-0.656 Z-3.995
G1 X-25.837 Y-0.692 Z-3.999
G1 X-25.731 Y-0.72 Z-4.003
G1 X-25.623 Y-0.74 Z-4.007
G1 X-25.514 Y-0.752 Z-4.011
G1 X-25.404 Y-0.757 Z-4.014
G1 X-25.294 Y-0.753 Z-4.018
G1 X-25.185 Y-0.741 Z-4.022
G1 X-25.077 Y-0.722 Z-4.026
G1 X-24.971 Y-0.694 Z-4.03
G1 X-24.867 Y-0.66 Z-4.034
G1 X-24.766 Y-0.617 Z-4.037
G1 X-24.668 Y-0.567 Z-4.041
G1 X-24.574 Y-0.511 Z-4.045
G1 X-24.484 Y-0.447 Z-4.049
G1 X-24.399 Y-0.378 Z-4.053
G1 X-24.32 Y-0.302 Z-4.057
G1 X-24.246 Y-0.221 Z-4.06
G1 X-24.179 Y-0.134 Z-4.064
G1 X-24.117 Y-0.043 Z-4.068
G1 X-24.063 Y0.052 Z-4.072
G1 X-24.016 Y0.151 Z-4.076
G1 X-23.976 Y0.253 Z-4.08
G1 X-23.943 Y0.358 Z-4.083
G1 X-23.918 Y0.465 Z-4.087
G1 X-23.901 Y0.573 Z-4.091
G1 X-23.892 Y0.683 Z-4.095
G1 X-23.891 Y0.793 Z-4.099
G1 X-23.898 Y0.902 Z-4.103
G1 X-23.913 Y1.011 Z-4.106
G1 X-23.936 Y1.118 Z-4.11
G1 X-23.967 Y1.224 Z-4.114
G1 X-24.005 Y1.326 Z-4.118
G1 X-24.05 Y1.426 Z-4.122
G1 X-24.103 Y1.523 Z-4.126
G1 X-24.162 Y1.615 Z-4.129
G1 X-24.228 Y1.702 Z-4.133
G1 X-24.301 Y1.785 Z-4.137
G1 X-24.379 Y1.862 Z-4.141
G1 X-24.462 Y1.933 Z-4.145
G1 X-24.551 Y1.998 Z-4.149
G1 X-24.644 Y2.057 Z-4.152
G1 X-24.741 Y2.108 Z-4.156
G1 X-24.841 Y2.153 Z-4.16
G1 X-24.944 Y2.19 Z-4.164
G1 X-25.05 Y2.219 Z-4.168
G1 X-25.158 Y2.24 Z-4.172
G1 X-25.267 Y2.254 Z-4.175
G1 X-25.376 Y2.26 Z-4.179
G1 X-25.486 Y2.257 Z-4.183
G1 X-25.595 Y2.247 Z-4.187
G1 X-25.703 Y2.229 Z-4.191
G1 X-25.81 Y2.203 Z-4.195
G1 X-25.914 Y2.169 Z-4.198
G1 X-26.016 Y2.128 Z-4.202
G1 X-26.115 Y2.079 Z-4.206
G1 X-26.209 Y2.024 Z-4.21
G1 X-26.3 Y1.961 Z-4.214
G1 X-26.385 Y1.893 Z-4.218
G1 X-26.466 Y1.818 Z-4.221
G1 X-26.54 Y1.738 Z-4.225
G1 X-26.609 Y1.652 Z-4.229
G1 X-26.671 Y1.562 Z-4.233
G1 X-26.727 Y1.467 Z-4.237
G1 X-26.775 Y1.368 Z-4.241
G1 X-26.816 Y1.267 Z-4.244
G1 X-26.85 Y1.162 Z-4.248
G1 X-26.876 Y1.056 Z-4.252
G1 X-26.894 Y0.947 Z-4.256
G1 X-26.905 Y0.838 Z-4.26
G1 X-26.907 Y0.729 Z-4.264
G1 X-26.901 Y0.619 Z-4.267
G1 X-26.888 Y0.51 Z-4.271
G1 X-26.866 Y0.402 Z-4.275
G1 X-26.837 Y0.297 Z-4.279
G1 X-26.8 Y0.193 Z-4.283
G1 X-26.756 Y0.093 Z-4.287
G1 X-26.704 Y-0.004 Z-4.29
G1 X-26.646 Y-0.097 Z-4.294
G1 X-26.581 Y-0.185 Z-4.298
G1 X-26.51 Y-0.269 Z-4.302
G1 X-26.432 Y-0.347 Z-4.306
G1 X-26.35 Y-0.419 Z-4.31
G1 X-26.262 Y-0.485 Z-4.313
G1 X-26.17 Y-0.545 Z-4.317
G1 X-26.074 Y-0.597 Z-4.321
G1 X-25.974 Y-0.643 Z-4.325
G1 X-25.871 Y-0.681 Z-4.329
G1 X-25.765 Y-0.711 Z-4.333
G1 X-25.658 Y-0.734 Z-4.336
G1 X-25.549 Y-0.749 Z-4.34
G1 X-25.44 Y-0.756 Z-4.344
G1 X-25.33 Y-0.755 Z-4.348
G1 X-25.221 Y-0.746 Z-4.352
G1 X-25.112 Y-0.729 Z-4.356
G1 X-25.005 Y-0.704 Z-4.359
G1 X-24.901 Y-0.672 Z-4.363
G1 X-24.798 Y-0.632 Z-4.367
G1 X-24.699 Y-0.584 Z-4.371
G1 X-24.604 Y-0.53 Z-4.375
G1 X-24.513 Y-0.469 Z-4.379
G1 X-24.427 Y-0.401 Z-4.382
G1 X-24.345 Y-0.327 Z-4.386
G1 X-24.27 Y-0.248 Z-4.39
G1 X-24.2 Y-0.163 Z-4.394
G1 X-24.137 Y-0.073 Z-4.398
G1 X-24.08 Y0.021 Z-4.402
G1 X-24.03 Y0.118 Z-4.405
G1 X-23.988 Y0.22 Z-4.409
G1 X-23.953 Y0.324 Z-4.413
G1 X-23.926 Y0.43 Z-4.417
G1 X-23.906 Y0.538 Z-4.421
G1 X-23.895 Y0.647 Z-4.425
G1 X-23.891 Y0.757 Z-4.428
G1 X-23.895 Y0.866 Z-4.432
G1 X-23.908 Y0.975 Z-4.436
G1 X-23.928 Y1.083 Z-4.44
G1 X-23.956 Y1.189 Z-4.444
G1 X-23.992 Y1.293 Z-4.448
G1 X-24.035 Y1.394 Z-4.451
G1 X-24.085 Y1.492 Z-4.455
G1 X-24.142 Y1.585 Z-4.459
G1 X-24.206 Y1.674 Z-4.463
G1 X-24.277 Y1.759 Z-4.467
G1 X-24.353 Y1.838 Z-4.471
G1 X-24.435 Y1.911 Z-4.474
G1 X-24.521 Y1.978 Z-4.478
G1 X-24.613 Y2.039 Z-4.482
G1 X-24.709 Y2.092 Z-4.486
G1 X-24.808 Y2.139 Z-4.49
G1 X-24.91 Y2.178 Z-4.494
G1 X-25.015 Y2.21 Z-4.497
G1 X-25.122 Y2.234 Z-4.501
G1 X-25.231 Y2.25 Z-4.505
G1 X-25.34 Y2.259 Z-4.509
G1 X-25.45 Z-4.513
G1 X-25.56 Y2.251 Z-4.517
G1 X-25.668 Y2.235 Z-4.52
G1 X-25.775 Y2.212 Z-4.524
G1 X-25.881 Y2.181 Z-4.528
G1 X-25.983 Y2.142 Z-4.532
G1 X-26.083 Y2.096 Z-4.536
G1 X-26.179 Y2.042 Z-4.54
G1 X-26.271 Y1.982 Z-4.543
G1 X-26.358 Y1.916 Z-4.547
G1 X-26.44 Y1.843 Z-4.551
G1 X-26.517 Y1.764 Z-4.555
G1 X-26.587 Y1.68 Z-4.559
G1 X-26.652 Y1.592 Z-4.563
G1 X-26.709 Y1.498 Z-4.566
G1 X-26.76 Y1.401 Z-4.57
G1 X-26.804 Y1.3 Z-4.574
G1 X-26.84 Y1.197 Z-4.578
G1 X-26.869 Y1.091 Z-4.582
G1 X-26.889 Y0.983 Z-4.586
G1 X-26.902 Y0.874 Z-4.589
G1 X-26.907 Y0.764 Z-4.593
G1 X-26.904 Y0.655 Z-4.597
G1 X-26.893 Y0.545 Z-4.601
G1 X-26.874 Y0.437 Z-4.605
G1 X-26.847 Y0.331 Z-4.609
G1 X-26.813 Y0.227 Z-4.612
G1 X-26.771 Y0.125 Z-4.616
G1 X-26.722 Y0.027 Z-4.62
G1 X-26.666 Y-0.067 Z-4.624
G1 X-26.603 Y-0.157 Z-4.628
G1 X-26.533 Y-0.242 Z-4.632
G1 X-26.458 Y-0.322 Z-4.635
G1 X-26.377 Y-0.396 Z-4.639
G1 X-26.291 Y-0.464 Z-4.643
G1 X-26.2 Y-0.526 Z-4.647
G1 X-26.105 Y-0.581 Z-4.651
G1 X-26.007 Y-0.629 Z-4.655
G1 X-25.905 Y-0.669 Z-4.658
G1 X-25.8 Y-0.702 Z-4.662
G1 X-25.693 Y-0.728 Z-4.666
G1 X-25.585 Y-0.745 Z-4.67
G1 X-25.476 Y-0.755 Z-4.674
G1 X-25.366 Y-0.756 Z-4.678
G1 X-25.256 Y-0.75 Z-4.681
G1 X-25.147 Y-0.735 Z-4.685
