;Fusion 360 CAM 2.0.7421
; Posts processor: DIYCNC_Marlin20.cps
; Gcode generated: Sun Feb  9 02:31:09 2020 GMT
; Document: Untitled
; Setup: Setup1
; 
; Ranges table:
; X: Min=-80.471 Max=80.471 Size=160.943
; Y: Min=-51.407 Max=47.758 Size=99.165
; Z: Min=-6.3 Max=5 Size=11.3
; 
; Tools table:
; T1 D=6.35 CR=0 - ZMIN=-6.3 - face mill 

; *** START begin ***
G90
G21
M84 S0
G92 X0 Y0 Z5
; *** START end ***

; *** SECTION begin ***
;Face1 - Milling - Tool: 1 -  face mill
; X Min: -80.471 - X Max: 80.471
; Y Min: -51.407 - Y Max: 47.758
; Z Min: -6.3 - Z Max: 5
; COMMAND_START_SPINDLE
; COMMAND_SPINDLE_CLOCKWISE
;M0 Turn ON 24000RPM
; COMMAND_COOLANT_ON
;M117  Face1
; MOVEMENT_LEAD_IN
G1 X80.27 Y-51.407 Z5 F360
G1 Z0.335
G1 X80.266 Z0.264
G1 X80.254 Z0.194
G1 X80.234 Z0.125
G1 X80.207 Z0.059
G1 X80.173 Z-0.003
G1 X80.132 Z-0.061
G1 X80.084 Z-0.114
G1 X80.031 Z-0.161
G1 X79.973 Z-0.203
G1 X79.911 Z-0.237
G1 X79.845 Z-0.264
G1 X79.776 Z-0.284
G1 X79.706 Z-0.296
G1 X79.635 Z-0.3
G1 X79.2
; MOVEMENT_CUTTING
G1 X-79.2
; MOVEMENT_LINK_TRANSITION
G1 X-79.3 Y-51.403
G1 X-79.399 Y-51.391
G1 X-79.497 Y-51.372
G1 X-79.593 Y-51.345
G1 X-79.687 Y-51.31
G1 X-79.777 Y-51.268
G1 X-79.864 Y-51.219
G1 X-79.947 Y-51.164
G1 X-80.026 Y-51.102
G1 X-80.099 Y-51.034
G1 X-80.167 Y-50.961
G1 X-80.229 Y-50.883
G1 X-80.284 Y-50.8
G1 X-80.333 Y-50.713
G1 X-80.375 Y-50.622
G1 X-80.409 Y-50.528
G1 X-80.436 Y-50.432
G1 X-80.456 Y-50.334
G1 X-80.467 Y-50.235
G1 X-80.471 Y-50.135
G1 X-80.467 Y-50.036
G1 X-80.456 Y-49.937
G1 X-80.436 Y-49.839
G1 X-80.409 Y-49.743
G1 X-80.375 Y-49.649
G1 X-80.333 Y-49.558
G1 X-80.284 Y-49.471
G1 X-80.229 Y-49.388
G1 X-80.167 Y-49.31
G1 X-80.099 Y-49.236
G1 X-80.026 Y-49.169
G1 X-79.947 Y-49.107
G1 X-79.864 Y-49.051
G1 X-79.777 Y-49.003
G1 X-79.687 Y-48.961
G1 X-79.593 Y-48.926
G1 X-79.497 Y-48.899
G1 X-79.399 Y-48.88
G1 X-79.3 Y-48.868
G1 X-79.2 Y-48.864
; MOVEMENT_CUTTING
G1 X79.2
; MOVEMENT_LINK_TRANSITION
G1 X79.3 Y-48.86
G1 X79.399 Y-48.848
G1 X79.497 Y-48.829
G1 X79.593 Y-48.802
G1 X79.687 Y-48.767
G1 X79.777 Y-48.726
G1 X79.864 Y-48.677
G1 X79.947 Y-48.621
G1 X80.026 Y-48.56
G1 X80.099 Y-48.492
G1 X80.167 Y-48.418
G1 X80.229 Y-48.34
G1 X80.284 Y-48.257
G1 X80.333 Y-48.17
G1 X80.375 Y-48.079
G1 X80.409 Y-47.986
G1 X80.436 Y-47.89
G1 X80.456 Y-47.792
G1 X80.467 Y-47.693
G1 X80.471 Y-47.593
G1 X80.467 Y-47.493
G1 X80.456 Y-47.394
G1 X80.436 Y-47.296
G1 X80.409 Y-47.2
G1 X80.375 Y-47.106
G1 X80.333 Y-47.016
G1 X80.284 Y-46.928
G1 X80.229 Y-46.845
G1 X80.167 Y-46.767
G1 X80.099 Y-46.694
G1 X80.026 Y-46.626
G1 X79.947 Y-46.564
G1 X79.864 Y-46.509
G1 X79.777 Y-46.46
G1 X79.687 Y-46.418
G1 X79.593 Y-46.384
G1 X79.497 Y-46.357
G1 X79.399 Y-46.337
G1 X79.3 Y-46.325
G1 X79.2 Y-46.321
; MOVEMENT_CUTTING
G1 X-79.2
; MOVEMENT_LINK_TRANSITION
G1 X-79.3 Y-46.317
G1 X-79.399 Y-46.306
G1 X-79.497 Y-46.286
G1 X-79.593 Y-46.259
G1 X-79.687 Y-46.225
G1 X-79.777 Y-46.183
G1 X-79.864 Y-46.134
G1 X-79.947 Y-46.079
G1 X-80.026 Y-46.017
G1 X-80.099 Y-45.949
G1 X-80.167 Y-45.876
G1 X-80.229 Y-45.797
G1 X-80.284 Y-45.714
G1 X-80.333 Y-45.627
G1 X-80.375 Y-45.537
G1 X-80.409 Y-45.443
G1 X-80.436 Y-45.347
G1 X-80.456 Y-45.249
G1 X-80.467 Y-45.15
G1 X-80.471 Y-45.05
G1 X-80.467 Y-44.95
G1 X-80.456 Y-44.851
G1 X-80.436 Y-44.753
G1 X-80.409 Y-44.657
G1 X-80.375 Y-44.564
G1 X-80.333 Y-44.473
G1 X-80.284 Y-44.386
G1 X-80.229 Y-44.303
G1 X-80.167 Y-44.224
G1 X-80.099 Y-44.151
G1 X-80.026 Y-44.083
G1 X-79.947 Y-44.022
G1 X-79.864 Y-43.966
G1 X-79.777 Y-43.917
G1 X-79.687 Y-43.876
G1 X-79.593 Y-43.841
G1 X-79.497 Y-43.814
G1 X-79.399 Y-43.794
G1 X-79.3 Y-43.783
G1 X-79.2 Y-43.779
; MOVEMENT_CUTTING
G1 X79.2
; MOVEMENT_LINK_TRANSITION
G1 X79.3 Y-43.775
G1 X79.399 Y-43.763
G1 X79.497 Y-43.744
G1 X79.593 Y-43.717
G1 X79.687 Y-43.682
G1 X79.777 Y-43.64
G1 X79.864 Y-43.591
G1 X79.947 Y-43.536
G1 X80.026 Y-43.474
G1 X80.099 Y-43.406
G1 X80.167 Y-43.333
G1 X80.229 Y-43.255
G1 X80.284 Y-43.172
G1 X80.333 Y-43.085
G1 X80.375 Y-42.994
G1 X80.409 Y-42.9
G1 X80.436 Y-42.804
G1 X80.456 Y-42.706
G1 X80.467 Y-42.607
G1 X80.471 Y-42.507
G1 X80.467 Y-42.408
G1 X80.456 Y-42.308
G1 X80.436 Y-42.211
G1 X80.409 Y-42.115
G1 X80.375 Y-42.021
G1 X80.333 Y-41.93
G1 X80.284 Y-41.843
G1 X80.229 Y-41.76
G1 X80.167 Y-41.682
G1 X80.099 Y-41.608
G1 X80.026 Y-41.541
G1 X79.947 Y-41.479
G1 X79.864 Y-41.423
G1 X79.777 Y-41.375
G1 X79.687 Y-41.333
G1 X79.593 Y-41.298
G1 X79.497 Y-41.271
G1 X79.399 Y-41.252
G1 X79.3 Y-41.24
G1 X79.2 Y-41.236
; MOVEMENT_CUTTING
G1 X-79.2
; MOVEMENT_LINK_TRANSITION
G1 X-79.3 Y-41.232
G1 X-79.399 Y-41.22
G1 X-79.497 Y-41.201
G1 X-79.593 Y-41.174
G1 X-79.687 Y-41.139
G1 X-79.777 Y-41.097
G1 X-79.864 Y-41.049
G1 X-79.947 Y-40.993
G1 X-80.026 Y-40.931
G1 X-80.099 Y-40.864
G1 X-80.167 Y-40.79
G1 X-80.229 Y-40.712
G1 X-80.284 Y-40.629
G1 X-80.333 Y-40.542
G1 X-80.375 Y-40.451
G1 X-80.409 Y-40.358
G1 X-80.436 Y-40.261
G1 X-80.456 Y-40.164
G1 X-80.467 Y-40.064
G1 X-80.471 Y-39.965
G1 X-80.467 Y-39.865
G1 X-80.456 Y-39.766
G1 X-80.436 Y-39.668
G1 X-80.409 Y-39.572
G1 X-80.375 Y-39.478
G1 X-80.333 Y-39.388
G1 X-80.284 Y-39.3
G1 X-80.229 Y-39.217
G1 X-80.167 Y-39.139
G1 X-80.099 Y-39.066
G1 X-80.026 Y-38.998
G1 X-79.947 Y-38.936
G1 X-79.864 Y-38.881
G1 X-79.777 Y-38.832
G1 X-79.687 Y-38.79
G1 X-79.593 Y-38.756
G1 X-79.497 Y-38.728
G1 X-79.399 Y-38.709
G1 X-79.3 Y-38.697
G1 X-79.2 Y-38.693
; MOVEMENT_CUTTING
G1 X79.2
; MOVEMENT_LINK_TRANSITION
G1 X79.3 Y-38.689
G1 X79.399 Y-38.678
G1 X79.497 Y-38.658
G1 X79.593 Y-38.631
G1 X79.687 Y-38.597
G1 X79.777 Y-38.555
G1 X79.864 Y-38.506
G1 X79.947 Y-38.451
G1 X80.026 Y-38.389
G1 X80.099 Y-38.321
G1 X80.167 Y-38.248
G1 X80.229 Y-38.169
G1 X80.284 Y-38.086
G1 X80.333 Y-37.999
G1 X80.375 Y-37.909
G1 X80.409 Y-37.815
G1 X80.436 Y-37.719
G1 X80.456 Y-37.621
G1 X80.467 Y-37.522
G1 X80.471 Y-37.422
G1 X80.467 Y-37.322
G1 X80.456 Y-37.223
G1 X80.436 Y-37.125
G1 X80.409 Y-37.029
G1 X80.375 Y-36.935
G1 X80.333 Y-36.845
G1 X80.284 Y-36.758
G1 X80.229 Y-36.675
G1 X80.167 Y-36.596
G1 X80.099 Y-36.523
G1 X80.026 Y-36.455
G1 X79.947 Y-36.393
G1 X79.864 Y-36.338
G1 X79.777 Y-36.289
G1 X79.687 Y-36.247
G1 X79.593 Y-36.213
G1 X79.497 Y-36.186
G1 X79.399 Y-36.166
G1 X79.3 Y-36.155
G1 X79.2 Y-36.151
; MOVEMENT_CUTTING
G1 X-79.2
; MOVEMENT_LINK_TRANSITION
G1 X-79.3 Y-36.147
G1 X-79.399 Y-36.135
G1 X-79.497 Y-36.116
G1 X-79.593 Y-36.088
G1 X-79.687 Y-36.054
G1 X-79.777 Y-36.012
G1 X-79.864 Y-35.963
G1 X-79.947 Y-35.908
G1 X-80.026 Y-35.846
G1 X-80.099 Y-35.778
G1 X-80.167 Y-35.705
G1 X-80.229 Y-35.627
G1 X-80.284 Y-35.544
G1 X-80.333 Y-35.456
G1 X-80.375 Y-35.366
G1 X-80.409 Y-35.272
G1 X-80.436 Y-35.176
G1 X-80.456 Y-35.078
G1 X-80.467 Y-34.979
G1 X-80.471 Y-34.879
G1 X-80.467 Y-34.78
G1 X-80.456 Y-34.68
G1 X-80.436 Y-34.583
G1 X-80.409 Y-34.486
G1 X-80.375 Y-34.393
G1 X-80.333 Y-34.302
G1 X-80.284 Y-34.215
G1 X-80.229 Y-34.132
G1 X-80.167 Y-34.054
G1 X-80.099 Y-33.98
G1 X-80.026 Y-33.913
G1 X-79.947 Y-33.851
G1 X-79.864 Y-33.795
G1 X-79.777 Y-33.747
G1 X-79.687 Y-33.705
G1 X-79.593 Y-33.67
G1 X-79.497 Y-33.643
G1 X-79.399 Y-33.624
G1 X-79.3 Y-33.612
G1 X-79.2 Y-33.608
; MOVEMENT_CUTTING
G1 X79.2
; MOVEMENT_LINK_TRANSITION
G1 X79.3 Y-33.604
G1 X79.399 Y-33.592
G1 X79.497 Y-33.573
G1 X79.593 Y-33.546
G1 X79.687 Y-33.511
G1 X79.777 Y-33.469
G1 X79.864 Y-33.421
G1 X79.947 Y-33.365
G1 X80.026 Y-33.303
G1 X80.099 Y-33.236
G1 X80.167 Y-33.162
G1 X80.229 Y-33.084
G1 X80.284 Y-33.001
G1 X80.333 Y-32.914
G1 X80.375 Y-32.823
G1 X80.409 Y-32.729
G1 X80.436 Y-32.633
G1 X80.456 Y-32.535
G1 X80.467 Y-32.436
G1 X80.471 Y-32.337
G1 X80.467 Y-32.237
G1 X80.456 Y-32.138
G1 X80.436 Y-32.04
G1 X80.409 Y-31.944
G1 X80.375 Y-31.85
G1 X80.333 Y-31.759
G1 X80.284 Y-31.672
G1 X80.229 Y-31.589
G1 X80.167 Y-31.511
G1 X80.099 Y-31.438
G1 X80.026 Y-31.37
G1 X79.947 Y-31.308
G1 X79.864 Y-31.253
G1 X79.777 Y-31.204
G1 X79.687 Y-31.162
G1 X79.593 Y-31.127
G1 X79.497 Y-31.1
G1 X79.399 Y-31.081
G1 X79.3 Y-31.069
G1 X79.2 Y-31.065
; MOVEMENT_CUTTING
G1 X-79.2
; MOVEMENT_LINK_TRANSITION
G1 X-79.3 Y-31.061
G1 X-79.399 Y-31.05
G1 X-79.497 Y-31.03
G1 X-79.593 Y-31.003
G1 X-79.687 Y-30.968
G1 X-79.777 Y-30.927
G1 X-79.864 Y-30.878
G1 X-79.947 Y-30.822
G1 X-80.026 Y-30.761
G1 X-80.099 Y-30.693
G1 X-80.167 Y-30.62
G1 X-80.229 Y-30.541
G1 X-80.284 Y-30.458
G1 X-80.333 Y-30.371
G1 X-80.375 Y-30.28
G1 X-80.409 Y-30.187
G1 X-80.436 Y-30.091
G1 X-80.456 Y-29.993
G1 X-80.467 Y-29.894
G1 X-80.471 Y-29.794
G1 X-80.467 Y-29.694
G1 X-80.456 Y-29.595
G1 X-80.436 Y-29.497
G1 X-80.409 Y-29.401
G1 X-80.375 Y-29.307
G1 X-80.333 Y-29.217
G1 X-80.284 Y-29.13
G1 X-80.229 Y-29.047
G1 X-80.167 Y-28.968
G1 X-80.099 Y-28.895
G1 X-80.026 Y-28.827
G1 X-79.947 Y-28.765
G1 X-79.864 Y-28.71
G1 X-79.777 Y-28.661
G1 X-79.687 Y-28.619
G1 X-79.593 Y-28.585
G1 X-79.497 Y-28.558
G1 X-79.399 Y-28.538
G1 X-79.3 Y-28.526
G1 X-79.2 Y-28.523
; MOVEMENT_CUTTING
G1 X79.2
; MOVEMENT_LINK_TRANSITION
G1 X79.3 Y-28.519
G1 X79.399 Y-28.507
G1 X79.497 Y-28.487
G1 X79.593 Y-28.46
G1 X79.687 Y-28.426
G1 X79.777 Y-28.384
G1 X79.864 Y-28.335
G1 X79.947 Y-28.28
G1 X80.026 Y-28.218
G1 X80.099 Y-28.15
G1 X80.167 Y-28.077
G1 X80.229 Y-27.998
G1 X80.284 Y-27.915
G1 X80.333 Y-27.828
G1 X80.375 Y-27.738
G1 X80.409 Y-27.644
G1 X80.436 Y-27.548
G1 X80.456 Y-27.45
G1 X80.467 Y-27.351
G1 X80.471 Y-27.251
G1 X80.467 Y-27.151
G1 X80.456 Y-27.052
G1 X80.436 Y-26.954
G1 X80.409 Y-26.858
G1 X80.375 Y-26.765
G1 X80.333 Y-26.674
G1 X80.284 Y-26.587
G1 X80.229 Y-26.504
G1 X80.167 Y-26.426
G1 X80.099 Y-26.352
G1 X80.026 Y-26.284
G1 X79.947 Y-26.223
G1 X79.864 Y-26.167
G1 X79.777 Y-26.118
G1 X79.687 Y-26.077
G1 X79.593 Y-26.042
G1 X79.497 Y-26.015
G1 X79.399 Y-25.996
G1 X79.3 Y-25.984
G1 X79.2 Y-25.98
; MOVEMENT_CUTTING
G1 X-79.2
; MOVEMENT_LINK_TRANSITION
G1 X-79.3 Y-25.976
G1 X-79.399 Y-25.964
G1 X-79.497 Y-25.945
G1 X-79.593 Y-25.918
G1 X-79.687 Y-25.883
G1 X-79.777 Y-25.841
G1 X-79.864 Y-25.793
G1 X-79.947 Y-25.737
G1 X-80.026 Y-25.675
G1 X-80.099 Y-25.607
G1 X-80.167 Y-25.534
G1 X-80.229 Y-25.456
G1 X-80.284 Y-25.373
G1 X-80.333 Y-25.286
G1 X-80.375 Y-25.195
G1 X-80.409 Y-25.101
G1 X-80.436 Y-25.005
G1 X-80.456 Y-24.907
G1 X-80.467 Y-24.808
G1 X-80.471 Y-24.709
G1 X-80.467 Y-24.609
G1 X-80.456 Y-24.51
G1 X-80.436 Y-24.412
G1 X-80.409 Y-24.316
G1 X-80.375 Y-24.222
G1 X-80.333 Y-24.131
G1 X-80.284 Y-24.044
G1 X-80.229 Y-23.961
G1 X-80.167 Y-23.883
G1 X-80.099 Y-23.81
G1 X-80.026 Y-23.742
G1 X-79.947 Y-23.68
G1 X-79.864 Y-23.625
G1 X-79.777 Y-23.576
G1 X-79.687 Y-23.534
G1 X-79.593 Y-23.499
G1 X-79.497 Y-23.472
G1 X-79.399 Y-23.453
G1 X-79.3 Y-23.441
G1 X-79.2 Y-23.437
; MOVEMENT_CUTTING
G1 X79.2
; MOVEMENT_LINK_TRANSITION
G1 X79.3 Y-23.433
G1 X79.399 Y-23.422
G1 X79.497 Y-23.402
G1 X79.593 Y-23.375
G1 X79.687 Y-23.34
G1 X79.777 Y-23.299
G1 X79.864 Y-23.25
G1 X79.947 Y-23.194
G1 X80.026 Y-23.133
G1 X80.099 Y-23.065
G1 X80.167 Y-22.992
G1 X80.229 Y-22.913
G1 X80.284 Y-22.83
G1 X80.333 Y-22.743
G1 X80.375 Y-22.652
G1 X80.409 Y-22.559
G1 X80.436 Y-22.463
G1 X80.456 Y-22.365
G1 X80.467 Y-22.266
G1 X80.471 Y-22.166
G1 X80.467 Y-22.066
G1 X80.456 Y-21.967
G1 X80.436 Y-21.869
G1 X80.409 Y-21.773
G1 X80.375 Y-21.679
G1 X80.333 Y-21.589
G1 X80.284 Y-21.502
G1 X80.229 Y-21.419
G1 X80.167 Y-21.34
G1 X80.099 Y-21.267
G1 X80.026 Y-21.199
G1 X79.947 Y-21.137
G1 X79.864 Y-21.082
G1 X79.777 Y-21.033
G1 X79.687 Y-20.991
G1 X79.593 Y-20.957
G1 X79.497 Y-20.93
G1 X79.399 Y-20.91
G1 X79.3 Y-20.898
G1 X79.2 Y-20.894
; MOVEMENT_CUTTING
G1 X-79.2
; MOVEMENT_LINK_TRANSITION
G1 X-79.3 Y-20.891
G1 X-79.399 Y-20.879
G1 X-79.497 Y-20.859
G1 X-79.593 Y-20.832
G1 X-79.687 Y-20.798
G1 X-79.777 Y-20.756
G1 X-79.864 Y-20.707
G1 X-79.947 Y-20.652
G1 X-80.026 Y-20.59
G1 X-80.099 Y-20.522
G1 X-80.167 Y-20.449
G1 X-80.229 Y-20.37
G1 X-80.284 Y-20.287
G1 X-80.333 Y-20.2
G1 X-80.375 Y-20.11
G1 X-80.409 Y-20.016
G1 X-80.436 Y-19.92
G1 X-80.456 Y-19.822
G1 X-80.467 Y-19.723
G1 X-80.471 Y-19.623
G1 X-80.467 Y-19.523
G1 X-80.456 Y-19.424
G1 X-80.436 Y-19.326
G1 X-80.409 Y-19.23
G1 X-80.375 Y-19.137
G1 X-80.333 Y-19.046
G1 X-80.284 Y-18.959
G1 X-80.229 Y-18.876
G1 X-80.167 Y-18.797
G1 X-80.099 Y-18.724
G1 X-80.026 Y-18.656
G1 X-79.947 Y-18.595
G1 X-79.864 Y-18.539
G1 X-79.777 Y-18.49
G1 X-79.687 Y-18.449
G1 X-79.593 Y-18.414
G1 X-79.497 Y-18.387
G1 X-79.399 Y-18.367
G1 X-79.3 Y-18.356
G1 X-79.2 Y-18.352
; MOVEMENT_CUTTING
G1 X79.2
; MOVEMENT_LINK_TRANSITION
G1 X79.3 Y-18.348
G1 X79.399 Y-18.336
G1 X79.497 Y-18.317
G1 X79.593 Y-18.29
G1 X79.687 Y-18.255
G1 X79.777 Y-18.213
G1 X79.864 Y-18.164
G1 X79.947 Y-18.109
G1 X80.026 Y-18.047
G1 X80.099 Y-17.979
G1 X80.167 Y-17.906
G1 X80.229 Y-17.828
G1 X80.284 Y-17.745
G1 X80.333 Y-17.658
G1 X80.375 Y-17.567
G1 X80.409 Y-17.473
G1 X80.436 Y-17.377
G1 X80.456 Y-17.279
G1 X80.467 Y-17.18
G1 X80.471 Y-17.08
G1 X80.467 Y-16.981
G1 X80.456 Y-16.882
G1 X80.436 Y-16.784
G1 X80.409 Y-16.688
G1 X80.375 Y-16.594
G1 X80.333 Y-16.503
G1 X80.284 Y-16.416
G1 X80.229 Y-16.333
G1 X80.167 Y-16.255
G1 X80.099 Y-16.181
G1 X80.026 Y-16.114
G1 X79.947 Y-16.052
G1 X79.864 Y-15.996
G1 X79.777 Y-15.948
G1 X79.687 Y-15.906
G1 X79.593 Y-15.871
G1 X79.497 Y-15.844
G1 X79.399 Y-15.825
G1 X79.3 Y-15.813
G1 X79.2 Y-15.809
; MOVEMENT_CUTTING
G1 X-79.2
; MOVEMENT_LINK_TRANSITION
G1 X-79.3 Y-15.805
G1 X-79.399 Y-15.793
G1 X-79.497 Y-15.774
G1 X-79.593 Y-15.747
G1 X-79.687 Y-15.712
G1 X-79.777 Y-15.671
G1 X-79.864 Y-15.622
G1 X-79.947 Y-15.566
G1 X-80.026 Y-15.504
G1 X-80.099 Y-15.437
G1 X-80.167 Y-15.363
G1 X-80.229 Y-15.285
G1 X-80.284 Y-15.202
G1 X-80.333 Y-15.115
G1 X-80.375 Y-15.024
G1 X-80.409 Y-14.931
G1 X-80.436 Y-14.835
G1 X-80.456 Y-14.737
G1 X-80.467 Y-14.637
G1 X-80.471 Y-14.538
G1 X-80.467 Y-14.438
G1 X-80.456 Y-14.339
G1 X-80.436 Y-14.241
G1 X-80.409 Y-14.145
G1 X-80.375 Y-14.051
G1 X-80.333 Y-13.961
G1 X-80.284 Y-13.873
G1 X-80.229 Y-13.79
G1 X-80.167 Y-13.712
G1 X-80.099 Y-13.639
G1 X-80.026 Y-13.571
G1 X-79.947 Y-13.509
G1 X-79.864 Y-13.454
G1 X-79.777 Y-13.405
G1 X-79.687 Y-13.363
G1 X-79.593 Y-13.329
G1 X-79.497 Y-13.302
G1 X-79.399 Y-13.282
G1 X-79.3 Y-13.27
G1 X-79.2 Y-13.266
; MOVEMENT_CUTTING
G1 X79.2
; MOVEMENT_LINK_TRANSITION
G1 X79.3 Y-13.262
G1 X79.399 Y-13.251
G1 X79.497 Y-13.231
G1 X79.593 Y-13.204
G1 X79.687 Y-13.17
G1 X79.777 Y-13.128
G1 X79.864 Y-13.079
G1 X79.947 Y-13.024
G1 X80.026 Y-12.962
G1 X80.099 Y-12.894
G1 X80.167 Y-12.821
G1 X80.229 Y-12.742
G1 X80.284 Y-12.659
G1 X80.333 Y-12.572
G1 X80.375 Y-12.482
G1 X80.409 Y-12.388
G1 X80.436 Y-12.292
G1 X80.456 Y-12.194
G1 X80.467 Y-12.095
G1 X80.471 Y-11.995
G1 X80.467 Y-11.895
G1 X80.456 Y-11.796
G1 X80.436 Y-11.698
G1 X80.409 Y-11.602
G1 X80.375 Y-11.509
G1 X80.333 Y-11.418
G1 X80.284 Y-11.331
G1 X80.229 Y-11.248
G1 X80.167 Y-11.169
G1 X80.099 Y-11.096
G1 X80.026 Y-11.028
G1 X79.947 Y-10.967
G1 X79.864 Y-10.911
G1 X79.777 Y-10.862
G1 X79.687 Y-10.82
G1 X79.593 Y-10.786
G1 X79.497 Y-10.759
G1 X79.399 Y-10.739
G1 X79.3 Y-10.728
G1 X79.2 Y-10.724
; MOVEMENT_CUTTING
G1 X-79.2
; MOVEMENT_LINK_TRANSITION
G1 X-79.3 Y-10.72
G1 X-79.399 Y-10.708
G1 X-79.497 Y-10.689
G1 X-79.593 Y-10.661
G1 X-79.687 Y-10.627
G1 X-79.777 Y-10.585
G1 X-79.864 Y-10.536
G1 X-79.947 Y-10.481
G1 X-80.026 Y-10.419
G1 X-80.099 Y-10.351
G1 X-80.167 Y-10.278
G1 X-80.229 Y-10.2
G1 X-80.284 Y-10.117
G1 X-80.333 Y-10.03
G1 X-80.375 Y-9.939
G1 X-80.409 Y-9.845
G1 X-80.436 Y-9.749
G1 X-80.456 Y-9.651
G1 X-80.467 Y-9.552
G1 X-80.471 Y-9.452
G1 X-80.467 Y-9.353
G1 X-80.456 Y-9.253
G1 X-80.436 Y-9.156
G1 X-80.409 Y-9.059
G1 X-80.375 Y-8.966
G1 X-80.333 Y-8.875
G1 X-80.284 Y-8.788
G1 X-80.229 Y-8.705
G1 X-80.167 Y-8.627
G1 X-80.099 Y-8.553
G1 X-80.026 Y-8.486
G1 X-79.947 Y-8.424
G1 X-79.864 Y-8.368
G1 X-79.777 Y-8.32
G1 X-79.687 Y-8.278
G1 X-79.593 Y-8.243
G1 X-79.497 Y-8.216
G1 X-79.399 Y-8.197
G1 X-79.3 Y-8.185
G1 X-79.2 Y-8.181
; MOVEMENT_CUTTING
G1 X79.2
; MOVEMENT_LINK_TRANSITION
G1 X79.3 Y-8.177
G1 X79.399 Y-8.165
G1 X79.497 Y-8.146
G1 X79.593 Y-8.119
G1 X79.687 Y-8.084
G1 X79.777 Y-8.042
G1 X79.864 Y-7.994
G1 X79.947 Y-7.938
G1 X80.026 Y-7.876
G1 X80.099 Y-7.809
G1 X80.167 Y-7.735
G1 X80.229 Y-7.657
G1 X80.284 Y-7.574
G1 X80.333 Y-7.487
G1 X80.375 Y-7.396
G1 X80.409 Y-7.303
G1 X80.436 Y-7.206
G1 X80.456 Y-7.109
G1 X80.467 Y-7.009
G1 X80.471 Y-6.91
G1 X80.467 Y-6.81
G1 X80.456 Y-6.711
G1 X80.436 Y-6.613
G1 X80.409 Y-6.517
G1 X80.375 Y-6.423
G1 X80.333 Y-6.332
G1 X80.284 Y-6.245
G1 X80.229 Y-6.162
G1 X80.167 Y-6.084
G1 X80.099 Y-6.011
G1 X80.026 Y-5.943
G1 X79.947 Y-5.881
G1 X79.864 Y-5.826
G1 X79.777 Y-5.777
G1 X79.687 Y-5.735
G1 X79.593 Y-5.701
G1 X79.497 Y-5.673
G1 X79.399 Y-5.654
G1 X79.3 Y-5.642
G1 X79.2 Y-5.638
; MOVEMENT_CUTTING
G1 X-79.2
; MOVEMENT_LINK_TRANSITION
G1 X-79.3 Y-5.634
G1 X-79.399 Y-5.623
G1 X-79.497 Y-5.603
G1 X-79.593 Y-5.576
G1 X-79.687 Y-5.542
G1 X-79.777 Y-5.5
G1 X-79.864 Y-5.451
G1 X-79.947 Y-5.396
G1 X-80.026 Y-5.334
G1 X-80.099 Y-5.266
G1 X-80.167 Y-5.193
G1 X-80.229 Y-5.114
G1 X-80.284 Y-5.031
G1 X-80.333 Y-4.944
G1 X-80.375 Y-4.853
G1 X-80.409 Y-4.76
G1 X-80.436 Y-4.664
G1 X-80.456 Y-4.566
G1 X-80.467 Y-4.467
G1 X-80.471 Y-4.367
G1 X-80.467 Y-4.267
G1 X-80.456 Y-4.168
G1 X-80.436 Y-4.07
G1 X-80.409 Y-3.974
G1 X-80.375 Y-3.88
G1 X-80.333 Y-3.79
G1 X-80.284 Y-3.703
G1 X-80.229 Y-3.62
G1 X-80.167 Y-3.541
G1 X-80.099 Y-3.468
G1 X-80.026 Y-3.4
G1 X-79.947 Y-3.338
G1 X-79.864 Y-3.283
G1 X-79.777 Y-3.234
G1 X-79.687 Y-3.192
G1 X-79.593 Y-3.158
G1 X-79.497 Y-3.131
G1 X-79.399 Y-3.111
G1 X-79.3 Y-3.1
G1 X-79.2 Y-3.096
; MOVEMENT_CUTTING
G1 X79.2
; MOVEMENT_LINK_TRANSITION
G1 X79.3 Y-3.092
G1 X79.399 Y-3.08
G1 X79.497 Y-3.06
G1 X79.593 Y-3.033
G1 X79.687 Y-2.999
G1 X79.777 Y-2.957
G1 X79.864 Y-2.908
G1 X79.947 Y-2.853
G1 X80.026 Y-2.791
G1 X80.099 Y-2.723
G1 X80.167 Y-2.65
G1 X80.229 Y-2.572
G1 X80.284 Y-2.489
G1 X80.333 Y-2.401
G1 X80.375 Y-2.311
G1 X80.409 Y-2.217
G1 X80.436 Y-2.121
G1 X80.456 Y-2.023
G1 X80.467 Y-1.924
G1 X80.471 Y-1.824
G1 X80.467 Y-1.725
G1 X80.456 Y-1.625
G1 X80.436 Y-1.527
G1 X80.409 Y-1.431
G1 X80.375 Y-1.338
G1 X80.333 Y-1.247
G1 X80.284 Y-1.16
G1 X80.229 Y-1.077
G1 X80.167 Y-0.999
G1 X80.099 Y-0.925
G1 X80.026 Y-0.858
G1 X79.947 Y-0.796
G1 X79.864 Y-0.74
G1 X79.777 Y-0.691
G1 X79.687 Y-0.65
G1 X79.593 Y-0.615
G1 X79.497 Y-0.588
G1 X79.399 Y-0.569
G1 X79.3 Y-0.557
G1 X79.2 Y-0.553
; MOVEMENT_CUTTING
G1 X-79.2
; MOVEMENT_LINK_TRANSITION
G1 X-79.3 Y-0.549
G1 X-79.399 Y-0.537
G1 X-79.497 Y-0.518
G1 X-79.593 Y-0.491
G1 X-79.687 Y-0.456
G1 X-79.777 Y-0.414
G1 X-79.864 Y-0.366
G1 X-79.947 Y-0.31
G1 X-80.026 Y-0.248
G1 X-80.099 Y-0.181
G1 X-80.167 Y-0.107
G1 X-80.229 Y-0.029
G1 X-80.284 Y0.054
G1 X-80.333 Y0.141
G1 X-80.375 Y0.232
G1 X-80.409 Y0.326
G1 X-80.436 Y0.422
G1 X-80.456 Y0.52
G1 X-80.467 Y0.619
G1 X-80.471 Y0.718
G1 X-80.467 Y0.818
G1 X-80.456 Y0.917
G1 X-80.436 Y1.015
G1 X-80.409 Y1.111
G1 X-80.375 Y1.205
G1 X-80.333 Y1.296
G1 X-80.284 Y1.383
G1 X-80.229 Y1.466
G1 X-80.167 Y1.544
G1 X-80.099 Y1.617
G1 X-80.026 Y1.685
G1 X-79.947 Y1.747
G1 X-79.864 Y1.802
G1 X-79.777 Y1.851
G1 X-79.687 Y1.893
G1 X-79.593 Y1.928
G1 X-79.497 Y1.955
G1 X-79.399 Y1.974
G1 X-79.3 Y1.986
G1 X-79.2 Y1.99
; MOVEMENT_CUTTING
G1 X79.2
; MOVEMENT_LINK_TRANSITION
G1 X79.3 Y1.994
G1 X79.399 Y2.005
G1 X79.497 Y2.025
G1 X79.593 Y2.052
G1 X79.687 Y2.087
G1 X79.777 Y2.128
G1 X79.864 Y2.177
G1 X79.947 Y2.233
G1 X80.026 Y2.294
G1 X80.099 Y2.362
G1 X80.167 Y2.435
G1 X80.229 Y2.514
G1 X80.284 Y2.597
G1 X80.333 Y2.684
G1 X80.375 Y2.775
G1 X80.409 Y2.868
G1 X80.436 Y2.964
G1 X80.456 Y3.062
G1 X80.467 Y3.161
G1 X80.471 Y3.261
G1 X80.467 Y3.361
G1 X80.456 Y3.46
G1 X80.436 Y3.558
G1 X80.409 Y3.654
G1 X80.375 Y3.748
G1 X80.333 Y3.838
G1 X80.284 Y3.925
G1 X80.229 Y4.008
G1 X80.167 Y4.087
G1 X80.099 Y4.16
G1 X80.026 Y4.228
G1 X79.947 Y4.29
G1 X79.864 Y4.345
G1 X79.777 Y4.394
G1 X79.687 Y4.436
G1 X79.593 Y4.47
G1 X79.497 Y4.497
G1 X79.399 Y4.517
G1 X79.3 Y4.529
G1 X79.2 Y4.532
; MOVEMENT_CUTTING
G1 X-79.2
; MOVEMENT_LINK_TRANSITION
G1 X-79.3 Y4.536
G1 X-79.399 Y4.548
G1 X-79.497 Y4.568
G1 X-79.593 Y4.595
G1 X-79.687 Y4.629
G1 X-79.777 Y4.671
G1 X-79.864 Y4.72
G1 X-79.947 Y4.775
G1 X-80.026 Y4.837
G1 X-80.099 Y4.905
G1 X-80.167 Y4.978
G1 X-80.229 Y5.057
G1 X-80.284 Y5.14
G1 X-80.333 Y5.227
G1 X-80.375 Y5.317
G1 X-80.409 Y5.411
G1 X-80.436 Y5.507
G1 X-80.456 Y5.605
G1 X-80.467 Y5.704
G1 X-80.471 Y5.804
G1 X-80.467 Y5.904
G1 X-80.456 Y6.003
G1 X-80.436 Y6.101
G1 X-80.409 Y6.197
G1 X-80.375 Y6.29
G1 X-80.333 Y6.381
G1 X-80.284 Y6.468
G1 X-80.229 Y6.551
G1 X-80.167 Y6.629
G1 X-80.099 Y6.703
G1 X-80.026 Y6.771
G1 X-79.947 Y6.832
G1 X-79.864 Y6.888
G1 X-79.777 Y6.937
G1 X-79.687 Y6.978
G1 X-79.593 Y7.013
G1 X-79.497 Y7.04
G1 X-79.399 Y7.059
G1 X-79.3 Y7.071
G1 X-79.2 Y7.075
; MOVEMENT_CUTTING
G1 X79.2
; MOVEMENT_LINK_TRANSITION
G1 X79.3 Y7.079
G1 X79.399 Y7.091
G1 X79.497 Y7.11
G1 X79.593 Y7.137
G1 X79.687 Y7.172
G1 X79.777 Y7.214
G1 X79.864 Y7.262
G1 X79.947 Y7.318
G1 X80.026 Y7.38
G1 X80.099 Y7.448
G1 X80.167 Y7.521
G1 X80.229 Y7.599
G1 X80.284 Y7.682
G1 X80.333 Y7.769
G1 X80.375 Y7.86
G1 X80.409 Y7.954
G1 X80.436 Y8.05
G1 X80.456 Y8.148
G1 X80.467 Y8.247
G1 X80.471 Y8.346
G1 X80.467 Y8.446
G1 X80.456 Y8.545
G1 X80.436 Y8.643
G1 X80.409 Y8.739
G1 X80.375 Y8.833
G1 X80.333 Y8.924
G1 X80.284 Y9.011
G1 X80.229 Y9.094
G1 X80.167 Y9.172
G1 X80.099 Y9.245
G1 X80.026 Y9.313
G1 X79.947 Y9.375
G1 X79.864 Y9.43
G1 X79.777 Y9.479
G1 X79.687 Y9.521
G1 X79.593 Y9.556
G1 X79.497 Y9.583
G1 X79.399 Y9.602
G1 X79.3 Y9.614
G1 X79.2 Y9.618
; MOVEMENT_CUTTING
G1 X-79.2
; MOVEMENT_LINK_TRANSITION
G1 X-79.3 Y9.622
G1 X-79.399 Y9.633
G1 X-79.497 Y9.653
G1 X-79.593 Y9.68
G1 X-79.687 Y9.715
G1 X-79.777 Y9.756
G1 X-79.864 Y9.805
G1 X-79.947 Y9.861
G1 X-80.026 Y9.922
G1 X-80.099 Y9.99
G1 X-80.167 Y10.064
G1 X-80.229 Y10.142
G1 X-80.284 Y10.225
G1 X-80.333 Y10.312
G1 X-80.375 Y10.403
G1 X-80.409 Y10.496
G1 X-80.436 Y10.592
G1 X-80.456 Y10.69
G1 X-80.467 Y10.789
G1 X-80.471 Y10.889
G1 X-80.467 Y10.989
G1 X-80.456 Y11.088
G1 X-80.436 Y11.186
G1 X-80.409 Y11.282
G1 X-80.375 Y11.376
G1 X-80.333 Y11.466
G1 X-80.284 Y11.553
G1 X-80.229 Y11.636
G1 X-80.167 Y11.715
G1 X-80.099 Y11.788
G1 X-80.026 Y11.856
G1 X-79.947 Y11.918
G1 X-79.864 Y11.973
G1 X-79.777 Y12.022
G1 X-79.687 Y12.064
G1 X-79.593 Y12.098
G1 X-79.497 Y12.125
G1 X-79.399 Y12.145
G1 X-79.3 Y12.157
G1 X-79.2 Y12.161
; MOVEMENT_CUTTING
G1 X79.2
; MOVEMENT_LINK_TRANSITION
G1 X79.3 Y12.164
G1 X79.399 Y12.176
G1 X79.497 Y12.196
G1 X79.593 Y12.223
G1 X79.687 Y12.257
G1 X79.777 Y12.299
G1 X79.864 Y12.348
G1 X79.947 Y12.403
G1 X80.026 Y12.465
G1 X80.099 Y12.533
G1 X80.167 Y12.606
G1 X80.229 Y12.685
G1 X80.284 Y12.768
G1 X80.333 Y12.855
G1 X80.375 Y12.945
G1 X80.409 Y13.039
G1 X80.436 Y13.135
G1 X80.456 Y13.233
G1 X80.467 Y13.332
G1 X80.471 Y13.432
G1 X80.467 Y13.532
G1 X80.456 Y13.631
G1 X80.436 Y13.729
G1 X80.409 Y13.825
G1 X80.375 Y13.918
G1 X80.333 Y14.009
G1 X80.284 Y14.096
G1 X80.229 Y14.179
G1 X80.167 Y14.258
G1 X80.099 Y14.331
G1 X80.026 Y14.399
G1 X79.947 Y14.46
G1 X79.864 Y14.516
G1 X79.777 Y14.565
G1 X79.687 Y14.606
G1 X79.593 Y14.641
G1 X79.497 Y14.668
G1 X79.399 Y14.688
G1 X79.3 Y14.699
G1 X79.2 Y14.703
; MOVEMENT_CUTTING
G1 X-79.2
; MOVEMENT_LINK_TRANSITION
G1 X-79.3 Y14.707
G1 X-79.399 Y14.719
G1 X-79.497 Y14.738
G1 X-79.593 Y14.765
G1 X-79.687 Y14.8
G1 X-79.777 Y14.842
G1 X-79.864 Y14.891
G1 X-79.947 Y14.946
G1 X-80.026 Y15.008
G1 X-80.099 Y15.076
G1 X-80.167 Y15.149
G1 X-80.229 Y15.227
G1 X-80.284 Y15.31
G1 X-80.333 Y15.397
G1 X-80.375 Y15.488
G1 X-80.409 Y15.582
G1 X-80.436 Y15.678
G1 X-80.456 Y15.776
G1 X-80.467 Y15.875
G1 X-80.471 Y15.975
G1 X-80.467 Y16.074
G1 X-80.456 Y16.173
G1 X-80.436 Y16.271
G1 X-80.409 Y16.367
G1 X-80.375 Y16.461
G1 X-80.333 Y16.552
G1 X-80.284 Y16.639
G1 X-80.229 Y16.722
G1 X-80.167 Y16.8
G1 X-80.099 Y16.874
G1 X-80.026 Y16.941
G1 X-79.947 Y17.003
G1 X-79.864 Y17.059
G1 X-79.777 Y17.107
G1 X-79.687 Y17.149
G1 X-79.593 Y17.184
G1 X-79.497 Y17.211
G1 X-79.399 Y17.23
G1 X-79.3 Y17.242
G1 X-79.2 Y17.246
; MOVEMENT_CUTTING
G1 X79.2
; MOVEMENT_LINK_TRANSITION
G1 X79.3 Y17.25
G1 X79.399 Y17.262
G1 X79.497 Y17.281
G1 X79.593 Y17.308
G1 X79.687 Y17.343
G1 X79.777 Y17.384
G1 X79.864 Y17.433
G1 X79.947 Y17.489
G1 X80.026 Y17.551
G1 X80.099 Y17.618
G1 X80.167 Y17.692
G1 X80.229 Y17.77
G1 X80.284 Y17.853
G1 X80.333 Y17.94
G1 X80.375 Y18.031
G1 X80.409 Y18.124
G1 X80.436 Y18.22
G1 X80.456 Y18.318
G1 X80.467 Y18.418
G1 X80.471 Y18.517
G1 X80.467 Y18.617
G1 X80.456 Y18.716
G1 X80.436 Y18.814
G1 X80.409 Y18.91
G1 X80.375 Y19.004
G1 X80.333 Y19.094
G1 X80.284 Y19.182
G1 X80.229 Y19.265
G1 X80.167 Y19.343
G1 X80.099 Y19.416
G1 X80.026 Y19.484
G1 X79.947 Y19.546
G1 X79.864 Y19.601
G1 X79.777 Y19.65
G1 X79.687 Y19.692
G1 X79.593 Y19.726
G1 X79.497 Y19.753
G1 X79.399 Y19.773
G1 X79.3 Y19.785
G1 X79.2 Y19.789
; MOVEMENT_CUTTING
G1 X-79.2
; MOVEMENT_LINK_TRANSITION
G1 X-79.3 Y19.793
G1 X-79.399 Y19.804
G1 X-79.497 Y19.824
G1 X-79.593 Y19.851
G1 X-79.687 Y19.885
G1 X-79.777 Y19.927
G1 X-79.864 Y19.976
G1 X-79.947 Y20.031
G1 X-80.026 Y20.093
G1 X-80.099 Y20.161
G1 X-80.167 Y20.234
G1 X-80.229 Y20.313
G1 X-80.284 Y20.396
G1 X-80.333 Y20.483
G1 X-80.375 Y20.573
G1 X-80.409 Y20.667
G1 X-80.436 Y20.763
G1 X-80.456 Y20.861
G1 X-80.467 Y20.96
G1 X-80.471 Y21.06
G1 X-80.467 Y21.16
G1 X-80.456 Y21.259
G1 X-80.436 Y21.357
G1 X-80.409 Y21.453
G1 X-80.375 Y21.546
G1 X-80.333 Y21.637
G1 X-80.284 Y21.724
G1 X-80.229 Y21.807
G1 X-80.167 Y21.886
G1 X-80.099 Y21.959
G1 X-80.026 Y22.027
G1 X-79.947 Y22.089
G1 X-79.864 Y22.144
G1 X-79.777 Y22.193
G1 X-79.687 Y22.235
G1 X-79.593 Y22.269
G1 X-79.497 Y22.296
G1 X-79.399 Y22.316
G1 X-79.3 Y22.327
G1 X-79.2 Y22.331
; MOVEMENT_CUTTING
G1 X79.2
; MOVEMENT_LINK_TRANSITION
G1 X79.3 Y22.335
G1 X79.399 Y22.347
G1 X79.497 Y22.366
G1 X79.593 Y22.394
G1 X79.687 Y22.428
G1 X79.777 Y22.47
G1 X79.864 Y22.519
G1 X79.947 Y22.574
G1 X80.026 Y22.636
G1 X80.099 Y22.704
G1 X80.167 Y22.777
G1 X80.229 Y22.855
G1 X80.284 Y22.938
G1 X80.333 Y23.025
G1 X80.375 Y23.116
G1 X80.409 Y23.21
G1 X80.436 Y23.306
G1 X80.456 Y23.404
G1 X80.467 Y23.503
G1 X80.471 Y23.603
G1 X80.467 Y23.702
G1 X80.456 Y23.802
G1 X80.436 Y23.899
G1 X80.409 Y23.996
G1 X80.375 Y24.089
G1 X80.333 Y24.18
G1 X80.284 Y24.267
G1 X80.229 Y24.35
G1 X80.167 Y24.428
G1 X80.099 Y24.502
G1 X80.026 Y24.569
G1 X79.947 Y24.631
G1 X79.864 Y24.687
G1 X79.777 Y24.735
G1 X79.687 Y24.777
G1 X79.593 Y24.812
G1 X79.497 Y24.839
G1 X79.399 Y24.858
G1 X79.3 Y24.87
G1 X79.2 Y24.874
; MOVEMENT_CUTTING
G1 X-79.2
; MOVEMENT_LINK_TRANSITION
G1 X-79.3 Y24.878
G1 X-79.399 Y24.89
G1 X-79.497 Y24.909
G1 X-79.593 Y24.936
G1 X-79.687 Y24.971
G1 X-79.777 Y25.013
G1 X-79.864 Y25.061
G1 X-79.947 Y25.117
G1 X-80.026 Y25.179
G1 X-80.099 Y25.246
G1 X-80.167 Y25.32
G1 X-80.229 Y25.398
G1 X-80.284 Y25.481
G1 X-80.333 Y25.568
G1 X-80.375 Y25.659
G1 X-80.409 Y25.752
G1 X-80.436 Y25.849
G1 X-80.456 Y25.946
G1 X-80.467 Y26.046
G1 X-80.471 Y26.145
G1 X-80.467 Y26.245
G1 X-80.456 Y26.344
G1 X-80.436 Y26.442
G1 X-80.409 Y26.538
G1 X-80.375 Y26.632
G1 X-80.333 Y26.723
G1 X-80.284 Y26.81
G1 X-80.229 Y26.893
G1 X-80.167 Y26.971
G1 X-80.099 Y27.044
G1 X-80.026 Y27.112
G1 X-79.947 Y27.174
G1 X-79.864 Y27.229
G1 X-79.777 Y27.278
G1 X-79.687 Y27.32
G1 X-79.593 Y27.354
G1 X-79.497 Y27.382
G1 X-79.399 Y27.401
G1 X-79.3 Y27.413
G1 X-79.2 Y27.417
; MOVEMENT_CUTTING
G1 X79.2
; MOVEMENT_LINK_TRANSITION
G1 X79.3 Y27.421
G1 X79.399 Y27.432
G1 X79.497 Y27.452
G1 X79.593 Y27.479
G1 X79.687 Y27.513
G1 X79.777 Y27.555
G1 X79.864 Y27.604
G1 X79.947 Y27.66
G1 X80.026 Y27.721
G1 X80.099 Y27.789
G1 X80.167 Y27.862
G1 X80.229 Y27.941
G1 X80.284 Y28.024
G1 X80.333 Y28.111
G1 X80.375 Y28.202
G1 X80.409 Y28.295
G1 X80.436 Y28.391
G1 X80.456 Y28.489
G1 X80.467 Y28.588
G1 X80.471 Y28.688
G1 X80.467 Y28.788
G1 X80.456 Y28.887
G1 X80.436 Y28.985
G1 X80.409 Y29.081
G1 X80.375 Y29.175
G1 X80.333 Y29.265
G1 X80.284 Y29.352
G1 X80.229 Y29.435
G1 X80.167 Y29.514
G1 X80.099 Y29.587
G1 X80.026 Y29.655
G1 X79.947 Y29.717
G1 X79.864 Y29.772
G1 X79.777 Y29.821
G1 X79.687 Y29.863
G1 X79.593 Y29.897
G1 X79.497 Y29.924
G1 X79.399 Y29.944
G1 X79.3 Y29.955
G1 X79.2 Y29.959
; MOVEMENT_CUTTING
G1 X-79.2
; MOVEMENT_LINK_TRANSITION
G1 X-79.3 Y29.963
G1 X-79.399 Y29.975
G1 X-79.497 Y29.995
G1 X-79.593 Y30.022
G1 X-79.687 Y30.056
G1 X-79.777 Y30.098
G1 X-79.864 Y30.147
G1 X-79.947 Y30.202
G1 X-80.026 Y30.264
G1 X-80.099 Y30.332
G1 X-80.167 Y30.405
G1 X-80.229 Y30.483
G1 X-80.284 Y30.566
G1 X-80.333 Y30.654
G1 X-80.375 Y30.744
G1 X-80.409 Y30.838
G1 X-80.436 Y30.934
G1 X-80.456 Y31.032
G1 X-80.467 Y31.131
G1 X-80.471 Y31.231
G1 X-80.467 Y31.33
G1 X-80.456 Y31.43
G1 X-80.436 Y31.528
G1 X-80.409 Y31.624
G1 X-80.375 Y31.717
G1 X-80.333 Y31.808
G1 X-80.284 Y31.895
G1 X-80.229 Y31.978
G1 X-80.167 Y32.056
G1 X-80.099 Y32.13
G1 X-80.026 Y32.197
G1 X-79.947 Y32.259
G1 X-79.864 Y32.315
G1 X-79.777 Y32.364
G1 X-79.687 Y32.405
G1 X-79.593 Y32.44
G1 X-79.497 Y32.467
G1 X-79.399 Y32.486
G1 X-79.3 Y32.498
G1 X-79.2 Y32.502
; MOVEMENT_CUTTING
G1 X79.2
; MOVEMENT_LINK_TRANSITION
G1 X79.3 Y32.506
G1 X79.399 Y32.518
G1 X79.497 Y32.537
G1 X79.593 Y32.564
G1 X79.687 Y32.599
G1 X79.777 Y32.641
G1 X79.864 Y32.689
G1 X79.947 Y32.745
G1 X80.026 Y32.807
G1 X80.099 Y32.874
G1 X80.167 Y32.948
G1 X80.229 Y33.026
G1 X80.284 Y33.109
G1 X80.333 Y33.196
G1 X80.375 Y33.287
G1 X80.409 Y33.381
G1 X80.436 Y33.477
G1 X80.456 Y33.575
G1 X80.467 Y33.674
G1 X80.471 Y33.773
G1 X80.467 Y33.873
G1 X80.456 Y33.972
G1 X80.436 Y34.07
G1 X80.409 Y34.166
G1 X80.375 Y34.26
G1 X80.333 Y34.351
G1 X80.284 Y34.438
G1 X80.229 Y34.521
G1 X80.167 Y34.599
G1 X80.099 Y34.672
G1 X80.026 Y34.74
G1 X79.947 Y34.802
G1 X79.864 Y34.857
G1 X79.777 Y34.906
G1 X79.687 Y34.948
G1 X79.593 Y34.983
G1 X79.497 Y35.01
G1 X79.399 Y35.029
G1 X79.3 Y35.041
G1 X79.2 Y35.045
; MOVEMENT_CUTTING
G1 X-79.2
; MOVEMENT_LINK_TRANSITION
G1 X-79.3 Y35.049
G1 X-79.399 Y35.06
G1 X-79.497 Y35.08
G1 X-79.593 Y35.107
G1 X-79.687 Y35.142
G1 X-79.777 Y35.183
G1 X-79.864 Y35.232
G1 X-79.947 Y35.288
G1 X-80.026 Y35.349
G1 X-80.099 Y35.417
G1 X-80.167 Y35.49
G1 X-80.229 Y35.569
G1 X-80.284 Y35.652
G1 X-80.333 Y35.739
G1 X-80.375 Y35.83
G1 X-80.409 Y35.923
G1 X-80.436 Y36.019
G1 X-80.456 Y36.117
G1 X-80.467 Y36.216
G1 X-80.471 Y36.316
G1 X-80.467 Y36.416
G1 X-80.456 Y36.515
G1 X-80.436 Y36.613
G1 X-80.409 Y36.709
G1 X-80.375 Y36.803
G1 X-80.333 Y36.893
G1 X-80.284 Y36.98
G1 X-80.229 Y37.063
G1 X-80.167 Y37.142
G1 X-80.099 Y37.215
G1 X-80.026 Y37.283
G1 X-79.947 Y37.345
G1 X-79.864 Y37.4
G1 X-79.777 Y37.449
G1 X-79.687 Y37.491
G1 X-79.593 Y37.525
G1 X-79.497 Y37.552
G1 X-79.399 Y37.572
G1 X-79.3 Y37.584
G1 X-79.2 Y37.587
; MOVEMENT_CUTTING
G1 X79.2
; MOVEMENT_LINK_TRANSITION
G1 X79.3 Y37.591
G1 X79.399 Y37.603
G1 X79.497 Y37.623
G1 X79.593 Y37.65
G1 X79.687 Y37.684
G1 X79.777 Y37.726
G1 X79.864 Y37.775
G1 X79.947 Y37.83
G1 X80.026 Y37.892
G1 X80.099 Y37.96
G1 X80.167 Y38.033
G1 X80.229 Y38.112
G1 X80.284 Y38.195
G1 X80.333 Y38.282
G1 X80.375 Y38.372
G1 X80.409 Y38.466
G1 X80.436 Y38.562
G1 X80.456 Y38.66
G1 X80.467 Y38.759
G1 X80.471 Y38.859
G1 X80.467 Y38.959
G1 X80.456 Y39.058
G1 X80.436 Y39.156
G1 X80.409 Y39.252
G1 X80.375 Y39.345
G1 X80.333 Y39.436
G1 X80.284 Y39.523
G1 X80.229 Y39.606
G1 X80.167 Y39.684
G1 X80.099 Y39.758
G1 X80.026 Y39.826
G1 X79.947 Y39.887
G1 X79.864 Y39.943
G1 X79.777 Y39.992
G1 X79.687 Y40.033
G1 X79.593 Y40.068
G1 X79.497 Y40.095
G1 X79.399 Y40.115
G1 X79.3 Y40.126
G1 X79.2 Y40.13
; MOVEMENT_CUTTING
G1 X-79.2
; MOVEMENT_LINK_TRANSITION
G1 X-79.3 Y40.134
G1 X-79.399 Y40.146
G1 X-79.497 Y40.165
G1 X-79.593 Y40.192
G1 X-79.687 Y40.227
G1 X-79.777 Y40.269
G1 X-79.864 Y40.318
G1 X-79.947 Y40.373
G1 X-80.026 Y40.435
G1 X-80.099 Y40.503
G1 X-80.167 Y40.576
G1 X-80.229 Y40.654
G1 X-80.284 Y40.737
G1 X-80.333 Y40.824
G1 X-80.375 Y40.915
G1 X-80.409 Y41.009
G1 X-80.436 Y41.105
G1 X-80.456 Y41.203
G1 X-80.467 Y41.302
G1 X-80.471 Y41.402
G1 X-80.467 Y41.501
G1 X-80.456 Y41.6
G1 X-80.436 Y41.698
G1 X-80.409 Y41.794
G1 X-80.375 Y41.888
G1 X-80.333 Y41.979
G1 X-80.284 Y42.066
G1 X-80.229 Y42.149
G1 X-80.167 Y42.227
G1 X-80.099 Y42.3
G1 X-80.026 Y42.368
G1 X-79.947 Y42.43
G1 X-79.864 Y42.486
G1 X-79.777 Y42.534
G1 X-79.687 Y42.576
G1 X-79.593 Y42.611
G1 X-79.497 Y42.638
G1 X-79.399 Y42.657
G1 X-79.3 Y42.669
G1 X-79.2 Y42.673
; MOVEMENT_CUTTING
G1 X79.2
; MOVEMENT_LINK_TRANSITION
G1 X79.3 Y42.677
G1 X79.399 Y42.689
G1 X79.497 Y42.708
G1 X79.593 Y42.735
G1 X79.687 Y42.77
G1 X79.777 Y42.811
G1 X79.864 Y42.86
G1 X79.947 Y42.916
G1 X80.026 Y42.977
G1 X80.099 Y43.045
G1 X80.167 Y43.119
G1 X80.229 Y43.197
G1 X80.284 Y43.28
G1 X80.333 Y43.367
G1 X80.375 Y43.458
G1 X80.409 Y43.551
G1 X80.436 Y43.647
G1 X80.456 Y43.745
G1 X80.467 Y43.844
G1 X80.471 Y43.944
G1 X80.467 Y44.044
G1 X80.456 Y44.143
G1 X80.436 Y44.241
G1 X80.409 Y44.337
G1 X80.375 Y44.431
G1 X80.333 Y44.521
G1 X80.284 Y44.608
G1 X80.229 Y44.691
G1 X80.167 Y44.77
G1 X80.099 Y44.843
G1 X80.026 Y44.911
G1 X79.947 Y44.973
G1 X79.864 Y45.028
G1 X79.777 Y45.077
G1 X79.687 Y45.119
G1 X79.593 Y45.153
G1 X79.497 Y45.18
G1 X79.399 Y45.2
G1 X79.3 Y45.212
G1 X79.2 Y45.216
; MOVEMENT_CUTTING
G1 X-79.2
; MOVEMENT_LINK_TRANSITION
G1 X-79.3 Y45.219
G1 X-79.399 Y45.231
G1 X-79.497 Y45.251
G1 X-79.593 Y45.278
G1 X-79.687 Y45.312
G1 X-79.777 Y45.354
G1 X-79.864 Y45.403
G1 X-79.947 Y45.458
G1 X-80.026 Y45.52
G1 X-80.099 Y45.588
G1 X-80.167 Y45.661
G1 X-80.229 Y45.74
G1 X-80.284 Y45.823
G1 X-80.333 Y45.91
G1 X-80.375 Y46
G1 X-80.409 Y46.094
G1 X-80.436 Y46.19
G1 X-80.456 Y46.288
G1 X-80.467 Y46.387
G1 X-80.471 Y46.487
G1 X-80.467 Y46.587
G1 X-80.456 Y46.686
G1 X-80.436 Y46.784
G1 X-80.409 Y46.88
G1 X-80.375 Y46.973
G1 X-80.333 Y47.064
G1 X-80.284 Y47.151
G1 X-80.229 Y47.234
G1 X-80.167 Y47.313
G1 X-80.099 Y47.386
G1 X-80.026 Y47.454
G1 X-79.947 Y47.515
G1 X-79.864 Y47.571
G1 X-79.777 Y47.62
G1 X-79.687 Y47.661
G1 X-79.593 Y47.696
G1 X-79.497 Y47.723
G1 X-79.399 Y47.743
G1 X-79.3 Y47.754
G1 X-79.2 Y47.758
; MOVEMENT_CUTTING
G1 X79.2
; MOVEMENT_LEAD_OUT
G1 X79.271 Z-0.296
G1 X79.341 Z-0.284
G1 X79.41 Z-0.264
G1 X79.476 Z-0.237
G1 X79.538 Z-0.203
G1 X79.596 Z-0.161
G1 X79.649 Z-0.114
G1 X79.696 Z-0.061
G1 X79.738 Z-0.003
G1 X79.772 Z0.059
G1 X79.799 Z0.125
G1 X79.819 Z0.194
G1 X79.831 Z0.264
G1 X79.835 Z0.335
; MOVEMENT_RAPID
G0 Z5 F300
G0 X80.27 Y-51.407 F2500
; MOVEMENT_LEAD_IN
G1 Z-1.665 F360
G1 X80.266 Z-1.736
G1 X80.254 Z-1.806
G1 X80.234 Z-1.875
G1 X80.207 Z-1.941
G1 X80.173 Z-2.003
G1 X80.132 Z-2.061
G1 X80.084 Z-2.114
G1 X80.031 Z-2.161
G1 X79.973 Z-2.203
G1 X79.911 Z-2.237
G1 X79.845 Z-2.264
G1 X79.776 Z-2.284
G1 X79.706 Z-2.296
G1 X79.635 Z-2.3
G1 X79.2
; MOVEMENT_CUTTING
G1 X-79.2
; MOVEMENT_LINK_TRANSITION
G1 X-79.3 Y-51.403
G1 X-79.399 Y-51.391
G1 X-79.497 Y-51.372
G1 X-79.593 Y-51.345
G1 X-79.687 Y-51.31
G1 X-79.777 Y-51.268
G1 X-79.864 Y-51.219
G1 X-79.947 Y-51.164
G1 X-80.026 Y-51.102
G1 X-80.099 Y-51.034
G1 X-80.167 Y-50.961
G1 X-80.229 Y-50.883
G1 X-80.284 Y-50.8
G1 X-80.333 Y-50.713
G1 X-80.375 Y-50.622
G1 X-80.409 Y-50.528
G1 X-80.436 Y-50.432
G1 X-80.456 Y-50.334
G1 X-80.467 Y-50.235
G1 X-80.471 Y-50.135
G1 X-80.467 Y-50.036
G1 X-80.456 Y-49.937
G1 X-80.436 Y-49.839
G1 X-80.409 Y-49.743
G1 X-80.375 Y-49.649
G1 X-80.333 Y-49.558
G1 X-80.284 Y-49.471
G1 X-80.229 Y-49.388
G1 X-80.167 Y-49.31
G1 X-80.099 Y-49.236
G1 X-80.026 Y-49.169
G1 X-79.947 Y-49.107
G1 X-79.864 Y-49.051
G1 X-79.777 Y-49.003
G1 X-79.687 Y-48.961
G1 X-79.593 Y-48.926
G1 X-79.497 Y-48.899
G1 X-79.399 Y-48.88
G1 X-79.3 Y-48.868
G1 X-79.2 Y-48.864
; MOVEMENT_CUTTING
G1 X79.2
; MOVEMENT_LINK_TRANSITION
G1 X79.3 Y-48.86
G1 X79.399 Y-48.848
G1 X79.497 Y-48.829
G1 X79.593 Y-48.802
G1 X79.687 Y-48.767
G1 X79.777 Y-48.726
G1 X79.864 Y-48.677
G1 X79.947 Y-48.621
G1 X80.026 Y-48.56
G1 X80.099 Y-48.492
G1 X80.167 Y-48.418
G1 X80.229 Y-48.34
G1 X80.284 Y-48.257
G1 X80.333 Y-48.17
G1 X80.375 Y-48.079
G1 X80.409 Y-47.986
G1 X80.436 Y-47.89
G1 X80.456 Y-47.792
G1 X80.467 Y-47.693
G1 X80.471 Y-47.593
G1 X80.467 Y-47.493
G1 X80.456 Y-47.394
G1 X80.436 Y-47.296
G1 X80.409 Y-47.2
G1 X80.375 Y-47.106
G1 X80.333 Y-47.016
G1 X80.284 Y-46.928
G1 X80.229 Y-46.845
G1 X80.167 Y-46.767
G1 X80.099 Y-46.694
G1 X80.026 Y-46.626
G1 X79.947 Y-46.564
G1 X79.864 Y-46.509
G1 X79.777 Y-46.46
G1 X79.687 Y-46.418
G1 X79.593 Y-46.384
G1 X79.497 Y-46.357
G1 X79.399 Y-46.337
G1 X79.3 Y-46.325
G1 X79.2 Y-46.321
; MOVEMENT_CUTTING
G1 X-79.2
; MOVEMENT_LINK_TRANSITION
G1 X-79.3 Y-46.317
G1 X-79.399 Y-46.306
G1 X-79.497 Y-46.286
G1 X-79.593 Y-46.259
G1 X-79.687 Y-46.225
G1 X-79.777 Y-46.183
G1 X-79.864 Y-46.134
G1 X-79.947 Y-46.079
G1 X-80.026 Y-46.017
G1 X-80.099 Y-45.949
G1 X-80.167 Y-45.876
G1 X-80.229 Y-45.797
G1 X-80.284 Y-45.714
G1 X-80.333 Y-45.627
G1 X-80.375 Y-45.537
G1 X-80.409 Y-45.443
G1 X-80.436 Y-45.347
G1 X-80.456 Y-45.249
G1 X-80.467 Y-45.15
G1 X-80.471 Y-45.05
G1 X-80.467 Y-44.95
G1 X-80.456 Y-44.851
G1 X-80.436 Y-44.753
G1 X-80.409 Y-44.657
G1 X-80.375 Y-44.564
G1 X-80.333 Y-44.473
G1 X-80.284 Y-44.386
G1 X-80.229 Y-44.303
G1 X-80.167 Y-44.224
G1 X-80.099 Y-44.151
G1 X-80.026 Y-44.083
G1 X-79.947 Y-44.022
G1 X-79.864 Y-43.966
G1 X-79.777 Y-43.917
G1 X-79.687 Y-43.876
G1 X-79.593 Y-43.841
G1 X-79.497 Y-43.814
G1 X-79.399 Y-43.794
G1 X-79.3 Y-43.783
G1 X-79.2 Y-43.779
; MOVEMENT_CUTTING
G1 X79.2
; MOVEMENT_LINK_TRANSITION
G1 X79.3 Y-43.775
G1 X79.399 Y-43.763
G1 X79.497 Y-43.744
G1 X79.593 Y-43.717
G1 X79.687 Y-43.682
G1 X79.777 Y-43.64
G1 X79.864 Y-43.591
G1 X79.947 Y-43.536
G1 X80.026 Y-43.474
G1 X80.099 Y-43.406
G1 X80.167 Y-43.333
G1 X80.229 Y-43.255
G1 X80.284 Y-43.172
G1 X80.333 Y-43.085
G1 X80.375 Y-42.994
G1 X80.409 Y-42.9
G1 X80.436 Y-42.804
G1 X80.456 Y-42.706
G1 X80.467 Y-42.607
G1 X80.471 Y-42.507
G1 X80.467 Y-42.408
G1 X80.456 Y-42.308
G1 X80.436 Y-42.211
G1 X80.409 Y-42.115
G1 X80.375 Y-42.021
G1 X80.333 Y-41.93
G1 X80.284 Y-41.843
G1 X80.229 Y-41.76
G1 X80.167 Y-41.682
G1 X80.099 Y-41.608
G1 X80.026 Y-41.541
G1 X79.947 Y-41.479
G1 X79.864 Y-41.423
G1 X79.777 Y-41.375
G1 X79.687 Y-41.333
G1 X79.593 Y-41.298
G1 X79.497 Y-41.271
G1 X79.399 Y-41.252
G1 X79.3 Y-41.24
G1 X79.2 Y-41.236
; MOVEMENT_CUTTING
G1 X-79.2
; MOVEMENT_LINK_TRANSITION
G1 X-79.3 Y-41.232
G1 X-79.399 Y-41.22
G1 X-79.497 Y-41.201
G1 X-79.593 Y-41.174
G1 X-79.687 Y-41.139
G1 X-79.777 Y-41.097
G1 X-79.864 Y-41.049
G1 X-79.947 Y-40.993
G1 X-80.026 Y-40.931
G1 X-80.099 Y-40.864
G1 X-80.167 Y-40.79
G1 X-80.229 Y-40.712
G1 X-80.284 Y-40.629
G1 X-80.333 Y-40.542
G1 X-80.375 Y-40.451
G1 X-80.409 Y-40.358
G1 X-80.436 Y-40.261
G1 X-80.456 Y-40.164
G1 X-80.467 Y-40.064
G1 X-80.471 Y-39.965
G1 X-80.467 Y-39.865
G1 X-80.456 Y-39.766
G1 X-80.436 Y-39.668
G1 X-80.409 Y-39.572
G1 X-80.375 Y-39.478
G1 X-80.333 Y-39.388
G1 X-80.284 Y-39.3
G1 X-80.229 Y-39.217
G1 X-80.167 Y-39.139
G1 X-80.099 Y-39.066
G1 X-80.026 Y-38.998
G1 X-79.947 Y-38.936
G1 X-79.864 Y-38.881
G1 X-79.777 Y-38.832
G1 X-79.687 Y-38.79
G1 X-79.593 Y-38.756
G1 X-79.497 Y-38.728
G1 X-79.399 Y-38.709
G1 X-79.3 Y-38.697
G1 X-79.2 Y-38.693
; MOVEMENT_CUTTING
G1 X79.2
; MOVEMENT_LINK_TRANSITION
G1 X79.3 Y-38.689
G1 X79.399 Y-38.678
G1 X79.497 Y-38.658
G1 X79.593 Y-38.631
G1 X79.687 Y-38.597
G1 X79.777 Y-38.555
G1 X79.864 Y-38.506
G1 X79.947 Y-38.451
G1 X80.026 Y-38.389
G1 X80.099 Y-38.321
G1 X80.167 Y-38.248
G1 X80.229 Y-38.169
G1 X80.284 Y-38.086
G1 X80.333 Y-37.999
G1 X80.375 Y-37.909
G1 X80.409 Y-37.815
G1 X80.436 Y-37.719
G1 X80.456 Y-37.621
G1 X80.467 Y-37.522
G1 X80.471 Y-37.422
G1 X80.467 Y-37.322
G1 X80.456 Y-37.223
G1 X80.436 Y-37.125
G1 X80.409 Y-37.029
G1 X80.375 Y-36.935
G1 X80.333 Y-36.845
G1 X80.284 Y-36.758
G1 X80.229 Y-36.675
G1 X80.167 Y-36.596
G1 X80.099 Y-36.523
G1 X80.026 Y-36.455
G1 X79.947 Y-36.393
G1 X79.864 Y-36.338
G1 X79.777 Y-36.289
G1 X79.687 Y-36.247
G1 X79.593 Y-36.213
G1 X79.497 Y-36.186
G1 X79.399 Y-36.166
G1 X79.3 Y-36.155
G1 X79.2 Y-36.151
; MOVEMENT_CUTTING
G1 X-79.2
; MOVEMENT_LINK_TRANSITION
G1 X-79.3 Y-36.147
G1 X-79.399 Y-36.135
G1 X-79.497 Y-36.116
G1 X-79.593 Y-36.088
G1 X-79.687 Y-36.054
G1 X-79.777 Y-36.012
G1 X-79.864 Y-35.963
G1 X-79.947 Y-35.908
G1 X-80.026 Y-35.846
G1 X-80.099 Y-35.778
G1 X-80.167 Y-35.705
G1 X-80.229 Y-35.627
G1 X-80.284 Y-35.544
G1 X-80.333 Y-35.456
G1 X-80.375 Y-35.366
G1 X-80.409 Y-35.272
G1 X-80.436 Y-35.176
G1 X-80.456 Y-35.078
G1 X-80.467 Y-34.979
G1 X-80.471 Y-34.879
G1 X-80.467 Y-34.78
G1 X-80.456 Y-34.68
G1 X-80.436 Y-34.583
G1 X-80.409 Y-34.486
G1 X-80.375 Y-34.393
G1 X-80.333 Y-34.302
G1 X-80.284 Y-34.215
G1 X-80.229 Y-34.132
G1 X-80.167 Y-34.054
G1 X-80.099 Y-33.98
G1 X-80.026 Y-33.913
G1 X-79.947 Y-33.851
G1 X-79.864 Y-33.795
G1 X-79.777 Y-33.747
G1 X-79.687 Y-33.705
G1 X-79.593 Y-33.67
G1 X-79.497 Y-33.643
G1 X-79.399 Y-33.624
G1 X-79.3 Y-33.612
G1 X-79.2 Y-33.608
; MOVEMENT_CUTTING
G1 X79.2
; MOVEMENT_LINK_TRANSITION
G1 X79.3 Y-33.604
G1 X79.399 Y-33.592
G1 X79.497 Y-33.573
G1 X79.593 Y-33.546
G1 X79.687 Y-33.511
G1 X79.777 Y-33.469
G1 X79.864 Y-33.421
G1 X79.947 Y-33.365
G1 X80.026 Y-33.303
G1 X80.099 Y-33.236
G1 X80.167 Y-33.162
G1 X80.229 Y-33.084
G1 X80.284 Y-33.001
G1 X80.333 Y-32.914
G1 X80.375 Y-32.823
G1 X80.409 Y-32.729
G1 X80.436 Y-32.633
G1 X80.456 Y-32.535
G1 X80.467 Y-32.436
G1 X80.471 Y-32.337
G1 X80.467 Y-32.237
G1 X80.456 Y-32.138
G1 X80.436 Y-32.04
G1 X80.409 Y-31.944
G1 X80.375 Y-31.85
G1 X80.333 Y-31.759
G1 X80.284 Y-31.672
G1 X80.229 Y-31.589
G1 X80.167 Y-31.511
G1 X80.099 Y-31.438
G1 X80.026 Y-31.37
G1 X79.947 Y-31.308
G1 X79.864 Y-31.253
G1 X79.777 Y-31.204
G1 X79.687 Y-31.162
G1 X79.593 Y-31.127
G1 X79.497 Y-31.1
G1 X79.399 Y-31.081
G1 X79.3 Y-31.069
G1 X79.2 Y-31.065
; MOVEMENT_CUTTING
G1 X-79.2
; MOVEMENT_LINK_TRANSITION
G1 X-79.3 Y-31.061
G1 X-79.399 Y-31.05
G1 X-79.497 Y-31.03
G1 X-79.593 Y-31.003
G1 X-79.687 Y-30.968
G1 X-79.777 Y-30.927
G1 X-79.864 Y-30.878
G1 X-79.947 Y-30.822
G1 X-80.026 Y-30.761
G1 X-80.099 Y-30.693
G1 X-80.167 Y-30.62
G1 X-80.229 Y-30.541
G1 X-80.284 Y-30.458
G1 X-80.333 Y-30.371
G1 X-80.375 Y-30.28
G1 X-80.409 Y-30.187
G1 X-80.436 Y-30.091
G1 X-80.456 Y-29.993
G1 X-80.467 Y-29.894
G1 X-80.471 Y-29.794
G1 X-80.467 Y-29.694
G1 X-80.456 Y-29.595
G1 X-80.436 Y-29.497
G1 X-80.409 Y-29.401
G1 X-80.375 Y-29.307
G1 X-80.333 Y-29.217
G1 X-80.284 Y-29.13
G1 X-80.229 Y-29.047
G1 X-80.167 Y-28.968
G1 X-80.099 Y-28.895
G1 X-80.026 Y-28.827
G1 X-79.947 Y-28.765
G1 X-79.864 Y-28.71
G1 X-79.777 Y-28.661
G1 X-79.687 Y-28.619
G1 X-79.593 Y-28.585
G1 X-79.497 Y-28.558
G1 X-79.399 Y-28.538
G1 X-79.3 Y-28.526
G1 X-79.2 Y-28.523
; MOVEMENT_CUTTING
G1 X79.2
; MOVEMENT_LINK_TRANSITION
G1 X79.3 Y-28.519
G1 X79.399 Y-28.507
G1 X79.497 Y-28.487
G1 X79.593 Y-28.46
G1 X79.687 Y-28.426
G1 X79.777 Y-28.384
G1 X79.864 Y-28.335
G1 X79.947 Y-28.28
G1 X80.026 Y-28.218
G1 X80.099 Y-28.15
G1 X80.167 Y-28.077
G1 X80.229 Y-27.998
G1 X80.284 Y-27.915
G1 X80.333 Y-27.828
G1 X80.375 Y-27.738
G1 X80.409 Y-27.644
G1 X80.436 Y-27.548
G1 X80.456 Y-27.45
G1 X80.467 Y-27.351
G1 X80.471 Y-27.251
G1 X80.467 Y-27.151
G1 X80.456 Y-27.052
G1 X80.436 Y-26.954
G1 X80.409 Y-26.858
G1 X80.375 Y-26.765
G1 X80.333 Y-26.674
G1 X80.284 Y-26.587
G1 X80.229 Y-26.504
G1 X80.167 Y-26.426
G1 X80.099 Y-26.352
G1 X80.026 Y-26.284
G1 X79.947 Y-26.223
G1 X79.864 Y-26.167
G1 X79.777 Y-26.118
G1 X79.687 Y-26.077
G1 X79.593 Y-26.042
G1 X79.497 Y-26.015
G1 X79.399 Y-25.996
G1 X79.3 Y-25.984
G1 X79.2 Y-25.98
; MOVEMENT_CUTTING
G1 X-79.2
; MOVEMENT_LINK_TRANSITION
G1 X-79.3 Y-25.976
G1 X-79.399 Y-25.964
G1 X-79.497 Y-25.945
G1 X-79.593 Y-25.918
G1 X-79.687 Y-25.883
G1 X-79.777 Y-25.841
G1 X-79.864 Y-25.793
G1 X-79.947 Y-25.737
G1 X-80.026 Y-25.675
G1 X-80.099 Y-25.607
G1 X-80.167 Y-25.534
G1 X-80.229 Y-25.456
G1 X-80.284 Y-25.373
G1 X-80.333 Y-25.286
G1 X-80.375 Y-25.195
G1 X-80.409 Y-25.101
G1 X-80.436 Y-25.005
G1 X-80.456 Y-24.907
G1 X-80.467 Y-24.808
G1 X-80.471 Y-24.709
G1 X-80.467 Y-24.609
G1 X-80.456 Y-24.51
G1 X-80.436 Y-24.412
G1 X-80.409 Y-24.316
G1 X-80.375 Y-24.222
G1 X-80.333 Y-24.131
G1 X-80.284 Y-24.044
G1 X-80.229 Y-23.961
G1 X-80.167 Y-23.883
G1 X-80.099 Y-23.81
G1 X-80.026 Y-23.742
G1 X-79.947 Y-23.68
G1 X-79.864 Y-23.625
G1 X-79.777 Y-23.576
G1 X-79.687 Y-23.534
G1 X-79.593 Y-23.499
G1 X-79.497 Y-23.472
G1 X-79.399 Y-23.453
G1 X-79.3 Y-23.441
G1 X-79.2 Y-23.437
; MOVEMENT_CUTTING
G1 X79.2
; MOVEMENT_LINK_TRANSITION
G1 X79.3 Y-23.433
G1 X79.399 Y-23.422
G1 X79.497 Y-23.402
G1 X79.593 Y-23.375
G1 X79.687 Y-23.34
G1 X79.777 Y-23.299
G1 X79.864 Y-23.25
G1 X79.947 Y-23.194
G1 X80.026 Y-23.133
G1 X80.099 Y-23.065
G1 X80.167 Y-22.992
G1 X80.229 Y-22.913
G1 X80.284 Y-22.83
G1 X80.333 Y-22.743
G1 X80.375 Y-22.652
G1 X80.409 Y-22.559
G1 X80.436 Y-22.463
G1 X80.456 Y-22.365
G1 X80.467 Y-22.266
G1 X80.471 Y-22.166
G1 X80.467 Y-22.066
G1 X80.456 Y-21.967
G1 X80.436 Y-21.869
G1 X80.409 Y-21.773
G1 X80.375 Y-21.679
G1 X80.333 Y-21.589
G1 X80.284 Y-21.502
G1 X80.229 Y-21.419
G1 X80.167 Y-21.34
G1 X80.099 Y-21.267
G1 X80.026 Y-21.199
G1 X79.947 Y-21.137
G1 X79.864 Y-21.082
G1 X79.777 Y-21.033
G1 X79.687 Y-20.991
G1 X79.593 Y-20.957
G1 X79.497 Y-20.93
G1 X79.399 Y-20.91
G1 X79.3 Y-20.898
G1 X79.2 Y-20.894
; MOVEMENT_CUTTING
G1 X-79.2
; MOVEMENT_LINK_TRANSITION
G1 X-79.3 Y-20.891
G1 X-79.399 Y-20.879
G1 X-79.497 Y-20.859
G1 X-79.593 Y-20.832
G1 X-79.687 Y-20.798
G1 X-79.777 Y-20.756
G1 X-79.864 Y-20.707
G1 X-79.947 Y-20.652
G1 X-80.026 Y-20.59
G1 X-80.099 Y-20.522
G1 X-80.167 Y-20.449
G1 X-80.229 Y-20.37
G1 X-80.284 Y-20.287
G1 X-80.333 Y-20.2
G1 X-80.375 Y-20.11
G1 X-80.409 Y-20.016
G1 X-80.436 Y-19.92
G1 X-80.456 Y-19.822
G1 X-80.467 Y-19.723
G1 X-80.471 Y-19.623
G1 X-80.467 Y-19.523
G1 X-80.456 Y-19.424
G1 X-80.436 Y-19.326
G1 X-80.409 Y-19.23
G1 X-80.375 Y-19.137
G1 X-80.333 Y-19.046
G1 X-80.284 Y-18.959
G1 X-80.229 Y-18.876
G1 X-80.167 Y-18.797
G1 X-80.099 Y-18.724
G1 X-80.026 Y-18.656
G1 X-79.947 Y-18.595
G1 X-79.864 Y-18.539
G1 X-79.777 Y-18.49
G1 X-79.687 Y-18.449
G1 X-79.593 Y-18.414
G1 X-79.497 Y-18.387
G1 X-79.399 Y-18.367
G1 X-79.3 Y-18.356
G1 X-79.2 Y-18.352
; MOVEMENT_CUTTING
G1 X79.2
; MOVEMENT_LINK_TRANSITION
G1 X79.3 Y-18.348
G1 X79.399 Y-18.336
G1 X79.497 Y-18.317
G1 X79.593 Y-18.29
G1 X79.687 Y-18.255
G1 X79.777 Y-18.213
G1 X79.864 Y-18.164
G1 X79.947 Y-18.109
G1 X80.026 Y-18.047
G1 X80.099 Y-17.979
G1 X80.167 Y-17.906
G1 X80.229 Y-17.828
G1 X80.284 Y-17.745
G1 X80.333 Y-17.658
G1 X80.375 Y-17.567
G1 X80.409 Y-17.473
G1 X80.436 Y-17.377
G1 X80.456 Y-17.279
G1 X80.467 Y-17.18
G1 X80.471 Y-17.08
G1 X80.467 Y-16.981
G1 X80.456 Y-16.882
G1 X80.436 Y-16.784
G1 X80.409 Y-16.688
G1 X80.375 Y-16.594
G1 X80.333 Y-16.503
G1 X80.284 Y-16.416
G1 X80.229 Y-16.333
G1 X80.167 Y-16.255
G1 X80.099 Y-16.181
G1 X80.026 Y-16.114
G1 X79.947 Y-16.052
G1 X79.864 Y-15.996
G1 X79.777 Y-15.948
G1 X79.687 Y-15.906
G1 X79.593 Y-15.871
G1 X79.497 Y-15.844
G1 X79.399 Y-15.825
G1 X79.3 Y-15.813
G1 X79.2 Y-15.809
; MOVEMENT_CUTTING
G1 X-79.2
; MOVEMENT_LINK_TRANSITION
G1 X-79.3 Y-15.805
G1 X-79.399 Y-15.793
G1 X-79.497 Y-15.774
G1 X-79.593 Y-15.747
G1 X-79.687 Y-15.712
G1 X-79.777 Y-15.671
G1 X-79.864 Y-15.622
G1 X-79.947 Y-15.566
G1 X-80.026 Y-15.504
G1 X-80.099 Y-15.437
G1 X-80.167 Y-15.363
G1 X-80.229 Y-15.285
G1 X-80.284 Y-15.202
G1 X-80.333 Y-15.115
G1 X-80.375 Y-15.024
G1 X-80.409 Y-14.931
G1 X-80.436 Y-14.835
G1 X-80.456 Y-14.737
G1 X-80.467 Y-14.637
G1 X-80.471 Y-14.538
G1 X-80.467 Y-14.438
G1 X-80.456 Y-14.339
G1 X-80.436 Y-14.241
G1 X-80.409 Y-14.145
G1 X-80.375 Y-14.051
G1 X-80.333 Y-13.961
G1 X-80.284 Y-13.873
G1 X-80.229 Y-13.79
G1 X-80.167 Y-13.712
G1 X-80.099 Y-13.639
G1 X-80.026 Y-13.571
G1 X-79.947 Y-13.509
G1 X-79.864 Y-13.454
G1 X-79.777 Y-13.405
G1 X-79.687 Y-13.363
G1 X-79.593 Y-13.329
G1 X-79.497 Y-13.302
G1 X-79.399 Y-13.282
G1 X-79.3 Y-13.27
G1 X-79.2 Y-13.266
; MOVEMENT_CUTTING
G1 X79.2
; MOVEMENT_LINK_TRANSITION
G1 X79.3 Y-13.262
G1 X79.399 Y-13.251
G1 X79.497 Y-13.231
G1 X79.593 Y-13.204
G1 X79.687 Y-13.17
G1 X79.777 Y-13.128
G1 X79.864 Y-13.079
G1 X79.947 Y-13.024
G1 X80.026 Y-12.962
G1 X80.099 Y-12.894
G1 X80.167 Y-12.821
G1 X80.229 Y-12.742
G1 X80.284 Y-12.659
G1 X80.333 Y-12.572
G1 X80.375 Y-12.482
G1 X80.409 Y-12.388
G1 X80.436 Y-12.292
G1 X80.456 Y-12.194
G1 X80.467 Y-12.095
G1 X80.471 Y-11.995
G1 X80.467 Y-11.895
G1 X80.456 Y-11.796
G1 X80.436 Y-11.698
G1 X80.409 Y-11.602
G1 X80.375 Y-11.509
G1 X80.333 Y-11.418
G1 X80.284 Y-11.331
G1 X80.229 Y-11.248
G1 X80.167 Y-11.169
G1 X80.099 Y-11.096
G1 X80.026 Y-11.028
G1 X79.947 Y-10.967
G1 X79.864 Y-10.911
G1 X79.777 Y-10.862
G1 X79.687 Y-10.82
G1 X79.593 Y-10.786
G1 X79.497 Y-10.759
G1 X79.399 Y-10.739
G1 X79.3 Y-10.728
G1 X79.2 Y-10.724
; MOVEMENT_CUTTING
G1 X-79.2
; MOVEMENT_LINK_TRANSITION
G1 X-79.3 Y-10.72
G1 X-79.399 Y-10.708
G1 X-79.497 Y-10.689
G1 X-79.593 Y-10.661
G1 X-79.687 Y-10.627
G1 X-79.777 Y-10.585
G1 X-79.864 Y-10.536
G1 X-79.947 Y-10.481
G1 X-80.026 Y-10.419
G1 X-80.099 Y-10.351
G1 X-80.167 Y-10.278
G1 X-80.229 Y-10.2
G1 X-80.284 Y-10.117
G1 X-80.333 Y-10.03
G1 X-80.375 Y-9.939
G1 X-80.409 Y-9.845
G1 X-80.436 Y-9.749
G1 X-80.456 Y-9.651
G1 X-80.467 Y-9.552
G1 X-80.471 Y-9.452
G1 X-80.467 Y-9.353
G1 X-80.456 Y-9.253
G1 X-80.436 Y-9.156
G1 X-80.409 Y-9.059
G1 X-80.375 Y-8.966
G1 X-80.333 Y-8.875
G1 X-80.284 Y-8.788
G1 X-80.229 Y-8.705
G1 X-80.167 Y-8.627
G1 X-80.099 Y-8.553
G1 X-80.026 Y-8.486
G1 X-79.947 Y-8.424
G1 X-79.864 Y-8.368
G1 X-79.777 Y-8.32
G1 X-79.687 Y-8.278
G1 X-79.593 Y-8.243
G1 X-79.497 Y-8.216
G1 X-79.399 Y-8.197
G1 X-79.3 Y-8.185
G1 X-79.2 Y-8.181
; MOVEMENT_CUTTING
G1 X79.2
; MOVEMENT_LINK_TRANSITION
G1 X79.3 Y-8.177
G1 X79.399 Y-8.165
G1 X79.497 Y-8.146
G1 X79.593 Y-8.119
G1 X79.687 Y-8.084
G1 X79.777 Y-8.042
G1 X79.864 Y-7.994
G1 X79.947 Y-7.938
G1 X80.026 Y-7.876
G1 X80.099 Y-7.809
G1 X80.167 Y-7.735
G1 X80.229 Y-7.657
G1 X80.284 Y-7.574
G1 X80.333 Y-7.487
G1 X80.375 Y-7.396
G1 X80.409 Y-7.303
G1 X80.436 Y-7.206
G1 X80.456 Y-7.109
G1 X80.467 Y-7.009
G1 X80.471 Y-6.91
G1 X80.467 Y-6.81
G1 X80.456 Y-6.711
G1 X80.436 Y-6.613
G1 X80.409 Y-6.517
G1 X80.375 Y-6.423
G1 X80.333 Y-6.332
G1 X80.284 Y-6.245
G1 X80.229 Y-6.162
G1 X80.167 Y-6.084
G1 X80.099 Y-6.011
G1 X80.026 Y-5.943
G1 X79.947 Y-5.881
G1 X79.864 Y-5.826
G1 X79.777 Y-5.777
G1 X79.687 Y-5.735
G1 X79.593 Y-5.701
G1 X79.497 Y-5.673
G1 X79.399 Y-5.654
G1 X79.3 Y-5.642
G1 X79.2 Y-5.638
; MOVEMENT_CUTTING
G1 X-79.2
; MOVEMENT_LINK_TRANSITION
G1 X-79.3 Y-5.634
G1 X-79.399 Y-5.623
G1 X-79.497 Y-5.603
G1 X-79.593 Y-5.576
G1 X-79.687 Y-5.542
G1 X-79.777 Y-5.5
G1 X-79.864 Y-5.451
G1 X-79.947 Y-5.396
G1 X-80.026 Y-5.334
G1 X-80.099 Y-5.266
G1 X-80.167 Y-5.193
G1 X-80.229 Y-5.114
G1 X-80.284 Y-5.031
G1 X-80.333 Y-4.944
G1 X-80.375 Y-4.853
G1 X-80.409 Y-4.76
G1 X-80.436 Y-4.664
G1 X-80.456 Y-4.566
G1 X-80.467 Y-4.467
G1 X-80.471 Y-4.367
G1 X-80.467 Y-4.267
G1 X-80.456 Y-4.168
G1 X-80.436 Y-4.07
G1 X-80.409 Y-3.974
G1 X-80.375 Y-3.88
G1 X-80.333 Y-3.79
G1 X-80.284 Y-3.703
G1 X-80.229 Y-3.62
G1 X-80.167 Y-3.541
G1 X-80.099 Y-3.468
G1 X-80.026 Y-3.4
G1 X-79.947 Y-3.338
G1 X-79.864 Y-3.283
G1 X-79.777 Y-3.234
G1 X-79.687 Y-3.192
G1 X-79.593 Y-3.158
G1 X-79.497 Y-3.131
G1 X-79.399 Y-3.111
G1 X-79.3 Y-3.1
G1 X-79.2 Y-3.096
; MOVEMENT_CUTTING
G1 X79.2
; MOVEMENT_LINK_TRANSITION
G1 X79.3 Y-3.092
G1 X79.399 Y-3.08
G1 X79.497 Y-3.06
G1 X79.593 Y-3.033
G1 X79.687 Y-2.999
G1 X79.777 Y-2.957
G1 X79.864 Y-2.908
G1 X79.947 Y-2.853
G1 X80.026 Y-2.791
G1 X80.099 Y-2.723
G1 X80.167 Y-2.65
G1 X80.229 Y-2.572
G1 X80.284 Y-2.489
G1 X80.333 Y-2.401
G1 X80.375 Y-2.311
G1 X80.409 Y-2.217
G1 X80.436 Y-2.121
G1 X80.456 Y-2.023
G1 X80.467 Y-1.924
G1 X80.471 Y-1.824
G1 X80.467 Y-1.725
G1 X80.456 Y-1.625
G1 X80.436 Y-1.527
G1 X80.409 Y-1.431
G1 X80.375 Y-1.338
G1 X80.333 Y-1.247
G1 X80.284 Y-1.16
G1 X80.229 Y-1.077
G1 X80.167 Y-0.999
G1 X80.099 Y-0.925
G1 X80.026 Y-0.858
G1 X79.947 Y-0.796
G1 X79.864 Y-0.74
G1 X79.777 Y-0.691
G1 X79.687 Y-0.65
G1 X79.593 Y-0.615
G1 X79.497 Y-0.588
G1 X79.399 Y-0.569
G1 X79.3 Y-0.557
G1 X79.2 Y-0.553
; MOVEMENT_CUTTING
G1 X-79.2
; MOVEMENT_LINK_TRANSITION
G1 X-79.3 Y-0.549
G1 X-79.399 Y-0.537
G1 X-79.497 Y-0.518
G1 X-79.593 Y-0.491
G1 X-79.687 Y-0.456
G1 X-79.777 Y-0.414
G1 X-79.864 Y-0.366
G1 X-79.947 Y-0.31
G1 X-80.026 Y-0.248
G1 X-80.099 Y-0.181
G1 X-80.167 Y-0.107
G1 X-80.229 Y-0.029
G1 X-80.284 Y0.054
G1 X-80.333 Y0.141
G1 X-80.375 Y0.232
G1 X-80.409 Y0.326
G1 X-80.436 Y0.422
G1 X-80.456 Y0.52
G1 X-80.467 Y0.619
G1 X-80.471 Y0.718
G1 X-80.467 Y0.818
G1 X-80.456 Y0.917
G1 X-80.436 Y1.015
G1 X-80.409 Y1.111
G1 X-80.375 Y1.205
G1 X-80.333 Y1.296
G1 X-80.284 Y1.383
G1 X-80.229 Y1.466
G1 X-80.167 Y1.544
G1 X-80.099 Y1.617
G1 X-80.026 Y1.685
G1 X-79.947 Y1.747
G1 X-79.864 Y1.802
G1 X-79.777 Y1.851
G1 X-79.687 Y1.893
G1 X-79.593 Y1.928
G1 X-79.497 Y1.955
G1 X-79.399 Y1.974
G1 X-79.3 Y1.986
G1 X-79.2 Y1.99
; MOVEMENT_CUTTING
G1 X79.2
; MOVEMENT_LINK_TRANSITION
G1 X79.3 Y1.994
G1 X79.399 Y2.005
G1 X79.497 Y2.025
G1 X79.593 Y2.052
G1 X79.687 Y2.087
G1 X79.777 Y2.128
G1 X79.864 Y2.177
G1 X79.947 Y2.233
G1 X80.026 Y2.294
G1 X80.099 Y2.362
G1 X80.167 Y2.435
G1 X80.229 Y2.514
G1 X80.284 Y2.597
G1 X80.333 Y2.684
G1 X80.375 Y2.775
G1 X80.409 Y2.868
G1 X80.436 Y2.964
G1 X80.456 Y3.062
G1 X80.467 Y3.161
G1 X80.471 Y3.261
G1 X80.467 Y3.361
G1 X80.456 Y3.46
G1 X80.436 Y3.558
G1 X80.409 Y3.654
G1 X80.375 Y3.748
G1 X80.333 Y3.838
G1 X80.284 Y3.925
G1 X80.229 Y4.008
G1 X80.167 Y4.087
G1 X80.099 Y4.16
G1 X80.026 Y4.228
G1 X79.947 Y4.29
G1 X79.864 Y4.345
G1 X79.777 Y4.394
G1 X79.687 Y4.436
G1 X79.593 Y4.47
G1 X79.497 Y4.497
G1 X79.399 Y4.517
G1 X79.3 Y4.529
G1 X79.2 Y4.532
; MOVEMENT_CUTTING
G1 X-79.2
; MOVEMENT_LINK_TRANSITION
G1 X-79.3 Y4.536
G1 X-79.399 Y4.548
G1 X-79.497 Y4.568
G1 X-79.593 Y4.595
G1 X-79.687 Y4.629
G1 X-79.777 Y4.671
G1 X-79.864 Y4.72
G1 X-79.947 Y4.775
G1 X-80.026 Y4.837
G1 X-80.099 Y4.905
G1 X-80.167 Y4.978
G1 X-80.229 Y5.057
G1 X-80.284 Y5.14
G1 X-80.333 Y5.227
G1 X-80.375 Y5.317
G1 X-80.409 Y5.411
G1 X-80.436 Y5.507
G1 X-80.456 Y5.605
G1 X-80.467 Y5.704
G1 X-80.471 Y5.804
G1 X-80.467 Y5.904
G1 X-80.456 Y6.003
G1 X-80.436 Y6.101
G1 X-80.409 Y6.197
G1 X-80.375 Y6.29
G1 X-80.333 Y6.381
G1 X-80.284 Y6.468
G1 X-80.229 Y6.551
G1 X-80.167 Y6.629
G1 X-80.099 Y6.703
G1 X-80.026 Y6.771
G1 X-79.947 Y6.832
G1 X-79.864 Y6.888
G1 X-79.777 Y6.937
G1 X-79.687 Y6.978
G1 X-79.593 Y7.013
G1 X-79.497 Y7.04
G1 X-79.399 Y7.059
G1 X-79.3 Y7.071
G1 X-79.2 Y7.075
; MOVEMENT_CUTTING
G1 X79.2
; MOVEMENT_LINK_TRANSITION
G1 X79.3 Y7.079
G1 X79.399 Y7.091
G1 X79.497 Y7.11
G1 X79.593 Y7.137
G1 X79.687 Y7.172
G1 X79.777 Y7.214
G1 X79.864 Y7.262
G1 X79.947 Y7.318
G1 X80.026 Y7.38
G1 X80.099 Y7.448
G1 X80.167 Y7.521
G1 X80.229 Y7.599
G1 X80.284 Y7.682
G1 X80.333 Y7.769
G1 X80.375 Y7.86
G1 X80.409 Y7.954
G1 X80.436 Y8.05
G1 X80.456 Y8.148
G1 X80.467 Y8.247
G1 X80.471 Y8.346
G1 X80.467 Y8.446
G1 X80.456 Y8.545
G1 X80.436 Y8.643
G1 X80.409 Y8.739
G1 X80.375 Y8.833
G1 X80.333 Y8.924
G1 X80.284 Y9.011
G1 X80.229 Y9.094
G1 X80.167 Y9.172
G1 X80.099 Y9.245
G1 X80.026 Y9.313
G1 X79.947 Y9.375
G1 X79.864 Y9.43
G1 X79.777 Y9.479
G1 X79.687 Y9.521
G1 X79.593 Y9.556
G1 X79.497 Y9.583
G1 X79.399 Y9.602
G1 X79.3 Y9.614
G1 X79.2 Y9.618
; MOVEMENT_CUTTING
G1 X-79.2
; MOVEMENT_LINK_TRANSITION
G1 X-79.3 Y9.622
G1 X-79.399 Y9.633
G1 X-79.497 Y9.653
G1 X-79.593 Y9.68
G1 X-79.687 Y9.715
G1 X-79.777 Y9.756
G1 X-79.864 Y9.805
G1 X-79.947 Y9.861
G1 X-80.026 Y9.922
G1 X-80.099 Y9.99
G1 X-80.167 Y10.064
G1 X-80.229 Y10.142
G1 X-80.284 Y10.225
G1 X-80.333 Y10.312
G1 X-80.375 Y10.403
G1 X-80.409 Y10.496
G1 X-80.436 Y10.592
G1 X-80.456 Y10.69
G1 X-80.467 Y10.789
G1 X-80.471 Y10.889
G1 X-80.467 Y10.989
G1 X-80.456 Y11.088
G1 X-80.436 Y11.186
G1 X-80.409 Y11.282
G1 X-80.375 Y11.376
G1 X-80.333 Y11.466
G1 X-80.284 Y11.553
G1 X-80.229 Y11.636
G1 X-80.167 Y11.715
G1 X-80.099 Y11.788
G1 X-80.026 Y11.856
G1 X-79.947 Y11.918
G1 X-79.864 Y11.973
G1 X-79.777 Y12.022
G1 X-79.687 Y12.064
G1 X-79.593 Y12.098
G1 X-79.497 Y12.125
G1 X-79.399 Y12.145
G1 X-79.3 Y12.157
G1 X-79.2 Y12.161
; MOVEMENT_CUTTING
G1 X79.2
; MOVEMENT_LINK_TRANSITION
G1 X79.3 Y12.164
G1 X79.399 Y12.176
G1 X79.497 Y12.196
G1 X79.593 Y12.223
G1 X79.687 Y12.257
G1 X79.777 Y12.299
G1 X79.864 Y12.348
G1 X79.947 Y12.403
G1 X80.026 Y12.465
G1 X80.099 Y12.533
G1 X80.167 Y12.606
G1 X80.229 Y12.685
G1 X80.284 Y12.768
G1 X80.333 Y12.855
G1 X80.375 Y12.945
G1 X80.409 Y13.039
G1 X80.436 Y13.135
G1 X80.456 Y13.233
G1 X80.467 Y13.332
G1 X80.471 Y13.432
G1 X80.467 Y13.532
G1 X80.456 Y13.631
G1 X80.436 Y13.729
G1 X80.409 Y13.825
G1 X80.375 Y13.918
G1 X80.333 Y14.009
G1 X80.284 Y14.096
G1 X80.229 Y14.179
G1 X80.167 Y14.258
G1 X80.099 Y14.331
G1 X80.026 Y14.399
G1 X79.947 Y14.46
G1 X79.864 Y14.516
G1 X79.777 Y14.565
G1 X79.687 Y14.606
G1 X79.593 Y14.641
G1 X79.497 Y14.668
G1 X79.399 Y14.688
G1 X79.3 Y14.699
G1 X79.2 Y14.703
; MOVEMENT_CUTTING
G1 X-79.2
; MOVEMENT_LINK_TRANSITION
G1 X-79.3 Y14.707
G1 X-79.399 Y14.719
G1 X-79.497 Y14.738
G1 X-79.593 Y14.765
G1 X-79.687 Y14.8
G1 X-79.777 Y14.842
G1 X-79.864 Y14.891
G1 X-79.947 Y14.946
G1 X-80.026 Y15.008
G1 X-80.099 Y15.076
G1 X-80.167 Y15.149
G1 X-80.229 Y15.227
G1 X-80.284 Y15.31
G1 X-80.333 Y15.397
G1 X-80.375 Y15.488
G1 X-80.409 Y15.582
G1 X-80.436 Y15.678
G1 X-80.456 Y15.776
G1 X-80.467 Y15.875
G1 X-80.471 Y15.975
G1 X-80.467 Y16.074
G1 X-80.456 Y16.173
G1 X-80.436 Y16.271
G1 X-80.409 Y16.367
G1 X-80.375 Y16.461
G1 X-80.333 Y16.552
G1 X-80.284 Y16.639
G1 X-80.229 Y16.722
G1 X-80.167 Y16.8
G1 X-80.099 Y16.874
G1 X-80.026 Y16.941
G1 X-79.947 Y17.003
G1 X-79.864 Y17.059
G1 X-79.777 Y17.107
G1 X-79.687 Y17.149
G1 X-79.593 Y17.184
G1 X-79.497 Y17.211
G1 X-79.399 Y17.23
G1 X-79.3 Y17.242
G1 X-79.2 Y17.246
; MOVEMENT_CUTTING
G1 X79.2
; MOVEMENT_LINK_TRANSITION
G1 X79.3 Y17.25
G1 X79.399 Y17.262
G1 X79.497 Y17.281
G1 X79.593 Y17.308
G1 X79.687 Y17.343
G1 X79.777 Y17.384
G1 X79.864 Y17.433
G1 X79.947 Y17.489
G1 X80.026 Y17.551
G1 X80.099 Y17.618
G1 X80.167 Y17.692
G1 X80.229 Y17.77
G1 X80.284 Y17.853
G1 X80.333 Y17.94
G1 X80.375 Y18.031
G1 X80.409 Y18.124
G1 X80.436 Y18.22
G1 X80.456 Y18.318
G1 X80.467 Y18.418
G1 X80.471 Y18.517
G1 X80.467 Y18.617
G1 X80.456 Y18.716
G1 X80.436 Y18.814
G1 X80.409 Y18.91
G1 X80.375 Y19.004
G1 X80.333 Y19.094
G1 X80.284 Y19.182
G1 X80.229 Y19.265
G1 X80.167 Y19.343
G1 X80.099 Y19.416
G1 X80.026 Y19.484
G1 X79.947 Y19.546
G1 X79.864 Y19.601
G1 X79.777 Y19.65
G1 X79.687 Y19.692
G1 X79.593 Y19.726
G1 X79.497 Y19.753
G1 X79.399 Y19.773
G1 X79.3 Y19.785
G1 X79.2 Y19.789
; MOVEMENT_CUTTING
G1 X-79.2
; MOVEMENT_LINK_TRANSITION
G1 X-79.3 Y19.793
G1 X-79.399 Y19.804
G1 X-79.497 Y19.824
G1 X-79.593 Y19.851
G1 X-79.687 Y19.885
G1 X-79.777 Y19.927
G1 X-79.864 Y19.976
G1 X-79.947 Y20.031
G1 X-80.026 Y20.093
G1 X-80.099 Y20.161
G1 X-80.167 Y20.234
G1 X-80.229 Y20.313
G1 X-80.284 Y20.396
G1 X-80.333 Y20.483
G1 X-80.375 Y20.573
G1 X-80.409 Y20.667
G1 X-80.436 Y20.763
G1 X-80.456 Y20.861
G1 X-80.467 Y20.96
G1 X-80.471 Y21.06
G1 X-80.467 Y21.16
G1 X-80.456 Y21.259
G1 X-80.436 Y21.357
G1 X-80.409 Y21.453
G1 X-80.375 Y21.546
G1 X-80.333 Y21.637
G1 X-80.284 Y21.724
G1 X-80.229 Y21.807
G1 X-80.167 Y21.886
G1 X-80.099 Y21.959
G1 X-80.026 Y22.027
G1 X-79.947 Y22.089
G1 X-79.864 Y22.144
G1 X-79.777 Y22.193
G1 X-79.687 Y22.235
G1 X-79.593 Y22.269
G1 X-79.497 Y22.296
G1 X-79.399 Y22.316
G1 X-79.3 Y22.327
G1 X-79.2 Y22.331
; MOVEMENT_CUTTING
G1 X79.2
; MOVEMENT_LINK_TRANSITION
G1 X79.3 Y22.335
G1 X79.399 Y22.347
G1 X79.497 Y22.366
G1 X79.593 Y22.394
G1 X79.687 Y22.428
G1 X79.777 Y22.47
G1 X79.864 Y22.519
G1 X79.947 Y22.574
G1 X80.026 Y22.636
G1 X80.099 Y22.704
G1 X80.167 Y22.777
G1 X80.229 Y22.855
G1 X80.284 Y22.938
G1 X80.333 Y23.025
G1 X80.375 Y23.116
G1 X80.409 Y23.21
G1 X80.436 Y23.306
G1 X80.456 Y23.404
G1 X80.467 Y23.503
G1 X80.471 Y23.603
G1 X80.467 Y23.702
G1 X80.456 Y23.802
G1 X80.436 Y23.899
G1 X80.409 Y23.996
G1 X80.375 Y24.089
G1 X80.333 Y24.18
G1 X80.284 Y24.267
G1 X80.229 Y24.35
G1 X80.167 Y24.428
G1 X80.099 Y24.502
G1 X80.026 Y24.569
G1 X79.947 Y24.631
G1 X79.864 Y24.687
G1 X79.777 Y24.735
G1 X79.687 Y24.777
G1 X79.593 Y24.812
G1 X79.497 Y24.839
G1 X79.399 Y24.858
G1 X79.3 Y24.87
G1 X79.2 Y24.874
; MOVEMENT_CUTTING
G1 X-79.2
; MOVEMENT_LINK_TRANSITION
G1 X-79.3 Y24.878
G1 X-79.399 Y24.89
G1 X-79.497 Y24.909
G1 X-79.593 Y24.936
G1 X-79.687 Y24.971
G1 X-79.777 Y25.013
G1 X-79.864 Y25.061
G1 X-79.947 Y25.117
G1 X-80.026 Y25.179
G1 X-80.099 Y25.246
G1 X-80.167 Y25.32
G1 X-80.229 Y25.398
G1 X-80.284 Y25.481
G1 X-80.333 Y25.568
G1 X-80.375 Y25.659
G1 X-80.409 Y25.752
G1 X-80.436 Y25.849
G1 X-80.456 Y25.946
G1 X-80.467 Y26.046
G1 X-80.471 Y26.145
G1 X-80.467 Y26.245
G1 X-80.456 Y26.344
G1 X-80.436 Y26.442
G1 X-80.409 Y26.538
G1 X-80.375 Y26.632
G1 X-80.333 Y26.723
G1 X-80.284 Y26.81
G1 X-80.229 Y26.893
G1 X-80.167 Y26.971
G1 X-80.099 Y27.044
G1 X-80.026 Y27.112
G1 X-79.947 Y27.174
G1 X-79.864 Y27.229
G1 X-79.777 Y27.278
G1 X-79.687 Y27.32
G1 X-79.593 Y27.354
G1 X-79.497 Y27.382
G1 X-79.399 Y27.401
G1 X-79.3 Y27.413
G1 X-79.2 Y27.417
; MOVEMENT_CUTTING
G1 X79.2
; MOVEMENT_LINK_TRANSITION
G1 X79.3 Y27.421
G1 X79.399 Y27.432
G1 X79.497 Y27.452
G1 X79.593 Y27.479
G1 X79.687 Y27.513
G1 X79.777 Y27.555
G1 X79.864 Y27.604
G1 X79.947 Y27.66
G1 X80.026 Y27.721
G1 X80.099 Y27.789
G1 X80.167 Y27.862
G1 X80.229 Y27.941
G1 X80.284 Y28.024
G1 X80.333 Y28.111
G1 X80.375 Y28.202
G1 X80.409 Y28.295
G1 X80.436 Y28.391
G1 X80.456 Y28.489
G1 X80.467 Y28.588
G1 X80.471 Y28.688
G1 X80.467 Y28.788
G1 X80.456 Y28.887
G1 X80.436 Y28.985
G1 X80.409 Y29.081
G1 X80.375 Y29.175
G1 X80.333 Y29.265
G1 X80.284 Y29.352
G1 X80.229 Y29.435
G1 X80.167 Y29.514
G1 X80.099 Y29.587
G1 X80.026 Y29.655
G1 X79.947 Y29.717
G1 X79.864 Y29.772
G1 X79.777 Y29.821
G1 X79.687 Y29.863
G1 X79.593 Y29.897
G1 X79.497 Y29.924
G1 X79.399 Y29.944
G1 X79.3 Y29.955
G1 X79.2 Y29.959
; MOVEMENT_CUTTING
G1 X-79.2
; MOVEMENT_LINK_TRANSITION
G1 X-79.3 Y29.963
G1 X-79.399 Y29.975
G1 X-79.497 Y29.995
G1 X-79.593 Y30.022
G1 X-79.687 Y30.056
G1 X-79.777 Y30.098
G1 X-79.864 Y30.147
G1 X-79.947 Y30.202
G1 X-80.026 Y30.264
G1 X-80.099 Y30.332
G1 X-80.167 Y30.405
G1 X-80.229 Y30.483
G1 X-80.284 Y30.566
G1 X-80.333 Y30.654
G1 X-80.375 Y30.744
G1 X-80.409 Y30.838
G1 X-80.436 Y30.934
G1 X-80.456 Y31.032
G1 X-80.467 Y31.131
G1 X-80.471 Y31.231
G1 X-80.467 Y31.33
G1 X-80.456 Y31.43
G1 X-80.436 Y31.528
G1 X-80.409 Y31.624
G1 X-80.375 Y31.717
G1 X-80.333 Y31.808
G1 X-80.284 Y31.895
G1 X-80.229 Y31.978
G1 X-80.167 Y32.056
G1 X-80.099 Y32.13
G1 X-80.026 Y32.197
G1 X-79.947 Y32.259
G1 X-79.864 Y32.315
G1 X-79.777 Y32.364
G1 X-79.687 Y32.405
G1 X-79.593 Y32.44
G1 X-79.497 Y32.467
G1 X-79.399 Y32.486
G1 X-79.3 Y32.498
G1 X-79.2 Y32.502
; MOVEMENT_CUTTING
G1 X79.2
; MOVEMENT_LINK_TRANSITION
G1 X79.3 Y32.506
G1 X79.399 Y32.518
G1 X79.497 Y32.537
G1 X79.593 Y32.564
G1 X79.687 Y32.599
G1 X79.777 Y32.641
G1 X79.864 Y32.689
G1 X79.947 Y32.745
G1 X80.026 Y32.807
G1 X80.099 Y32.874
G1 X80.167 Y32.948
G1 X80.229 Y33.026
G1 X80.284 Y33.109
G1 X80.333 Y33.196
G1 X80.375 Y33.287
G1 X80.409 Y33.381
G1 X80.436 Y33.477
G1 X80.456 Y33.575
G1 X80.467 Y33.674
G1 X80.471 Y33.773
G1 X80.467 Y33.873
G1 X80.456 Y33.972
G1 X80.436 Y34.07
G1 X80.409 Y34.166
G1 X80.375 Y34.26
G1 X80.333 Y34.351
G1 X80.284 Y34.438
G1 X80.229 Y34.521
G1 X80.167 Y34.599
G1 X80.099 Y34.672
G1 X80.026 Y34.74
G1 X79.947 Y34.802
G1 X79.864 Y34.857
G1 X79.777 Y34.906
G1 X79.687 Y34.948
G1 X79.593 Y34.983
G1 X79.497 Y35.01
G1 X79.399 Y35.029
G1 X79.3 Y35.041
G1 X79.2 Y35.045
; MOVEMENT_CUTTING
G1 X-79.2
; MOVEMENT_LINK_TRANSITION
G1 X-79.3 Y35.049
G1 X-79.399 Y35.06
G1 X-79.497 Y35.08
G1 X-79.593 Y35.107
G1 X-79.687 Y35.142
G1 X-79.777 Y35.183
G1 X-79.864 Y35.232
G1 X-79.947 Y35.288
G1 X-80.026 Y35.349
G1 X-80.099 Y35.417
G1 X-80.167 Y35.49
G1 X-80.229 Y35.569
G1 X-80.284 Y35.652
G1 X-80.333 Y35.739
G1 X-80.375 Y35.83
G1 X-80.409 Y35.923
G1 X-80.436 Y36.019
G1 X-80.456 Y36.117
G1 X-80.467 Y36.216
G1 X-80.471 Y36.316
G1 X-80.467 Y36.416
G1 X-80.456 Y36.515
G1 X-80.436 Y36.613
G1 X-80.409 Y36.709
G1 X-80.375 Y36.803
G1 X-80.333 Y36.893
G1 X-80.284 Y36.98
G1 X-80.229 Y37.063
G1 X-80.167 Y37.142
G1 X-80.099 Y37.215
G1 X-80.026 Y37.283
G1 X-79.947 Y37.345
G1 X-79.864 Y37.4
G1 X-79.777 Y37.449
G1 X-79.687 Y37.491
G1 X-79.593 Y37.525
G1 X-79.497 Y37.552
G1 X-79.399 Y37.572
G1 X-79.3 Y37.584
G1 X-79.2 Y37.587
; MOVEMENT_CUTTING
G1 X79.2
; MOVEMENT_LINK_TRANSITION
G1 X79.3 Y37.591
G1 X79.399 Y37.603
G1 X79.497 Y37.623
G1 X79.593 Y37.65
G1 X79.687 Y37.684
G1 X79.777 Y37.726
G1 X79.864 Y37.775
G1 X79.947 Y37.83
G1 X80.026 Y37.892
G1 X80.099 Y37.96
G1 X80.167 Y38.033
G1 X80.229 Y38.112
G1 X80.284 Y38.195
G1 X80.333 Y38.282
G1 X80.375 Y38.372
G1 X80.409 Y38.466
G1 X80.436 Y38.562
G1 X80.456 Y38.66
G1 X80.467 Y38.759
G1 X80.471 Y38.859
G1 X80.467 Y38.959
G1 X80.456 Y39.058
G1 X80.436 Y39.156
G1 X80.409 Y39.252
G1 X80.375 Y39.345
G1 X80.333 Y39.436
G1 X80.284 Y39.523
G1 X80.229 Y39.606
G1 X80.167 Y39.684
G1 X80.099 Y39.758
G1 X80.026 Y39.826
G1 X79.947 Y39.887
G1 X79.864 Y39.943
G1 X79.777 Y39.992
G1 X79.687 Y40.033
G1 X79.593 Y40.068
G1 X79.497 Y40.095
G1 X79.399 Y40.115
G1 X79.3 Y40.126
G1 X79.2 Y40.13
; MOVEMENT_CUTTING
G1 X-79.2
; MOVEMENT_LINK_TRANSITION
G1 X-79.3 Y40.134
G1 X-79.399 Y40.146
G1 X-79.497 Y40.165
G1 X-79.593 Y40.192
G1 X-79.687 Y40.227
G1 X-79.777 Y40.269
G1 X-79.864 Y40.318
G1 X-79.947 Y40.373
G1 X-80.026 Y40.435
G1 X-80.099 Y40.503
G1 X-80.167 Y40.576
G1 X-80.229 Y40.654
G1 X-80.284 Y40.737
G1 X-80.333 Y40.824
G1 X-80.375 Y40.915
G1 X-80.409 Y41.009
G1 X-80.436 Y41.105
G1 X-80.456 Y41.203
G1 X-80.467 Y41.302
G1 X-80.471 Y41.402
G1 X-80.467 Y41.501
G1 X-80.456 Y41.6
G1 X-80.436 Y41.698
G1 X-80.409 Y41.794
G1 X-80.375 Y41.888
G1 X-80.333 Y41.979
G1 X-80.284 Y42.066
G1 X-80.229 Y42.149
G1 X-80.167 Y42.227
G1 X-80.099 Y42.3
G1 X-80.026 Y42.368
G1 X-79.947 Y42.43
G1 X-79.864 Y42.486
G1 X-79.777 Y42.534
G1 X-79.687 Y42.576
G1 X-79.593 Y42.611
G1 X-79.497 Y42.638
G1 X-79.399 Y42.657
G1 X-79.3 Y42.669
G1 X-79.2 Y42.673
; MOVEMENT_CUTTING
G1 X79.2
; MOVEMENT_LINK_TRANSITION
G1 X79.3 Y42.677
G1 X79.399 Y42.689
G1 X79.497 Y42.708
G1 X79.593 Y42.735
G1 X79.687 Y42.77
G1 X79.777 Y42.811
G1 X79.864 Y42.86
G1 X79.947 Y42.916
G1 X80.026 Y42.977
G1 X80.099 Y43.045
G1 X80.167 Y43.119
G1 X80.229 Y43.197
G1 X80.284 Y43.28
G1 X80.333 Y43.367
G1 X80.375 Y43.458
G1 X80.409 Y43.551
G1 X80.436 Y43.647
G1 X80.456 Y43.745
G1 X80.467 Y43.844
G1 X80.471 Y43.944
G1 X80.467 Y44.044
G1 X80.456 Y44.143
G1 X80.436 Y44.241
G1 X80.409 Y44.337
G1 X80.375 Y44.431
G1 X80.333 Y44.521
G1 X80.284 Y44.608
G1 X80.229 Y44.691
G1 X80.167 Y44.77
G1 X80.099 Y44.843
G1 X80.026 Y44.911
G1 X79.947 Y44.973
G1 X79.864 Y45.028
G1 X79.777 Y45.077
G1 X79.687 Y45.119
G1 X79.593 Y45.153
G1 X79.497 Y45.18
G1 X79.399 Y45.2
G1 X79.3 Y45.212
G1 X79.2 Y45.216
; MOVEMENT_CUTTING
G1 X-79.2
; MOVEMENT_LINK_TRANSITION
G1 X-79.3 Y45.219
G1 X-79.399 Y45.231
G1 X-79.497 Y45.251
G1 X-79.593 Y45.278
G1 X-79.687 Y45.312
G1 X-79.777 Y45.354
G1 X-79.864 Y45.403
G1 X-79.947 Y45.458
G1 X-80.026 Y45.52
G1 X-80.099 Y45.588
G1 X-80.167 Y45.661
G1 X-80.229 Y45.74
G1 X-80.284 Y45.823
G1 X-80.333 Y45.91
G1 X-80.375 Y46
G1 X-80.409 Y46.094
G1 X-80.436 Y46.19
G1 X-80.456 Y46.288
G1 X-80.467 Y46.387
G1 X-80.471 Y46.487
G1 X-80.467 Y46.587
G1 X-80.456 Y46.686
G1 X-80.436 Y46.784
G1 X-80.409 Y46.88
G1 X-80.375 Y46.973
G1 X-80.333 Y47.064
G1 X-80.284 Y47.151
G1 X-80.229 Y47.234
G1 X-80.167 Y47.313
G1 X-80.099 Y47.386
G1 X-80.026 Y47.454
G1 X-79.947 Y47.515
G1 X-79.864 Y47.571
G1 X-79.777 Y47.62
G1 X-79.687 Y47.661
G1 X-79.593 Y47.696
G1 X-79.497 Y47.723
G1 X-79.399 Y47.743
G1 X-79.3 Y47.754
G1 X-79.2 Y47.758
; MOVEMENT_CUTTING
G1 X79.2
; MOVEMENT_LEAD_OUT
G1 X79.271 Z-2.296
G1 X79.341 Z-2.284
G1 X79.41 Z-2.264
G1 X79.476 Z-2.237
G1 X79.538 Z-2.203
G1 X79.596 Z-2.161
G1 X79.649 Z-2.114
G1 X79.696 Z-2.061
G1 X79.738 Z-2.003
G1 X79.772 Z-1.941
G1 X79.799 Z-1.875
G1 X79.819 Z-1.806
G1 X79.831 Z-1.736
G1 X79.835 Z-1.665
; MOVEMENT_RAPID
G0 Z5 F300
G0 X80.27 Y-51.407 F2500
; MOVEMENT_LEAD_IN
G1 Z-3.665 F360
G1 X80.266 Z-3.736
G1 X80.254 Z-3.806
G1 X80.234 Z-3.875
G1 X80.207 Z-3.941
G1 X80.173 Z-4.003
G1 X80.132 Z-4.061
G1 X80.084 Z-4.114
G1 X80.031 Z-4.161
G1 X79.973 Z-4.203
G1 X79.911 Z-4.237
G1 X79.845 Z-4.264
G1 X79.776 Z-4.284
G1 X79.706 Z-4.296
G1 X79.635 Z-4.3
G1 X79.2
; MOVEMENT_CUTTING
G1 X-79.2
; MOVEMENT_LINK_TRANSITION
G1 X-79.3 Y-51.403
G1 X-79.399 Y-51.391
G1 X-79.497 Y-51.372
G1 X-79.593 Y-51.345
G1 X-79.687 Y-51.31
G1 X-79.777 Y-51.268
G1 X-79.864 Y-51.219
G1 X-79.947 Y-51.164
G1 X-80.026 Y-51.102
G1 X-80.099 Y-51.034
G1 X-80.167 Y-50.961
G1 X-80.229 Y-50.883
G1 X-80.284 Y-50.8
G1 X-80.333 Y-50.713
G1 X-80.375 Y-50.622
G1 X-80.409 Y-50.528
G1 X-80.436 Y-50.432
G1 X-80.456 Y-50.334
G1 X-80.467 Y-50.235
G1 X-80.471 Y-50.135
G1 X-80.467 Y-50.036
G1 X-80.456 Y-49.937
G1 X-80.436 Y-49.839
G1 X-80.409 Y-49.743
G1 X-80.375 Y-49.649
G1 X-80.333 Y-49.558
G1 X-80.284 Y-49.471
G1 X-80.229 Y-49.388
G1 X-80.167 Y-49.31
G1 X-80.099 Y-49.236
G1 X-80.026 Y-49.169
G1 X-79.947 Y-49.107
G1 X-79.864 Y-49.051
G1 X-79.777 Y-49.003
G1 X-79.687 Y-48.961
G1 X-79.593 Y-48.926
G1 X-79.497 Y-48.899
G1 X-79.399 Y-48.88
G1 X-79.3 Y-48.868
G1 X-79.2 Y-48.864
; MOVEMENT_CUTTING
G1 X79.2
; MOVEMENT_LINK_TRANSITION
G1 X79.3 Y-48.86
G1 X79.399 Y-48.848
G1 X79.497 Y-48.829
G1 X79.593 Y-48.802
G1 X79.687 Y-48.767
G1 X79.777 Y-48.726
G1 X79.864 Y-48.677
G1 X79.947 Y-48.621
G1 X80.026 Y-48.56
G1 X80.099 Y-48.492
G1 X80.167 Y-48.418
G1 X80.229 Y-48.34
G1 X80.284 Y-48.257
G1 X80.333 Y-48.17
G1 X80.375 Y-48.079
G1 X80.409 Y-47.986
G1 X80.436 Y-47.89
G1 X80.456 Y-47.792
G1 X80.467 Y-47.693
G1 X80.471 Y-47.593
G1 X80.467 Y-47.493
G1 X80.456 Y-47.394
G1 X80.436 Y-47.296
G1 X80.409 Y-47.2
G1 X80.375 Y-47.106
G1 X80.333 Y-47.016
G1 X80.284 Y-46.928
G1 X80.229 Y-46.845
G1 X80.167 Y-46.767
G1 X80.099 Y-46.694
G1 X80.026 Y-46.626
G1 X79.947 Y-46.564
G1 X79.864 Y-46.509
G1 X79.777 Y-46.46
G1 X79.687 Y-46.418
G1 X79.593 Y-46.384
G1 X79.497 Y-46.357
G1 X79.399 Y-46.337
G1 X79.3 Y-46.325
G1 X79.2 Y-46.321
; MOVEMENT_CUTTING
G1 X-79.2
; MOVEMENT_LINK_TRANSITION
G1 X-79.3 Y-46.317
G1 X-79.399 Y-46.306
G1 X-79.497 Y-46.286
G1 X-79.593 Y-46.259
G1 X-79.687 Y-46.225
G1 X-79.777 Y-46.183
G1 X-79.864 Y-46.134
G1 X-79.947 Y-46.079
G1 X-80.026 Y-46.017
G1 X-80.099 Y-45.949
G1 X-80.167 Y-45.876
G1 X-80.229 Y-45.797
G1 X-80.284 Y-45.714
G1 X-80.333 Y-45.627
G1 X-80.375 Y-45.537
G1 X-80.409 Y-45.443
G1 X-80.436 Y-45.347
G1 X-80.456 Y-45.249
G1 X-80.467 Y-45.15
G1 X-80.471 Y-45.05
G1 X-80.467 Y-44.95
G1 X-80.456 Y-44.851
G1 X-80.436 Y-44.753
G1 X-80.409 Y-44.657
G1 X-80.375 Y-44.564
G1 X-80.333 Y-44.473
G1 X-80.284 Y-44.386
G1 X-80.229 Y-44.303
G1 X-80.167 Y-44.224
G1 X-80.099 Y-44.151
G1 X-80.026 Y-44.083
G1 X-79.947 Y-44.022
G1 X-79.864 Y-43.966
G1 X-79.777 Y-43.917
G1 X-79.687 Y-43.876
G1 X-79.593 Y-43.841
G1 X-79.497 Y-43.814
G1 X-79.399 Y-43.794
G1 X-79.3 Y-43.783
G1 X-79.2 Y-43.779
; MOVEMENT_CUTTING
G1 X79.2
; MOVEMENT_LINK_TRANSITION
G1 X79.3 Y-43.775
G1 X79.399 Y-43.763
G1 X79.497 Y-43.744
G1 X79.593 Y-43.717
G1 X79.687 Y-43.682
G1 X79.777 Y-43.64
G1 X79.864 Y-43.591
G1 X79.947 Y-43.536
G1 X80.026 Y-43.474
G1 X80.099 Y-43.406
G1 X80.167 Y-43.333
G1 X80.229 Y-43.255
G1 X80.284 Y-43.172
G1 X80.333 Y-43.085
G1 X80.375 Y-42.994
G1 X80.409 Y-42.9
G1 X80.436 Y-42.804
G1 X80.456 Y-42.706
G1 X80.467 Y-42.607
G1 X80.471 Y-42.507
G1 X80.467 Y-42.408
G1 X80.456 Y-42.308
G1 X80.436 Y-42.211
G1 X80.409 Y-42.115
G1 X80.375 Y-42.021
G1 X80.333 Y-41.93
G1 X80.284 Y-41.843
G1 X80.229 Y-41.76
G1 X80.167 Y-41.682
G1 X80.099 Y-41.608
G1 X80.026 Y-41.541
G1 X79.947 Y-41.479
G1 X79.864 Y-41.423
G1 X79.777 Y-41.375
G1 X79.687 Y-41.333
G1 X79.593 Y-41.298
G1 X79.497 Y-41.271
G1 X79.399 Y-41.252
G1 X79.3 Y-41.24
G1 X79.2 Y-41.236
; MOVEMENT_CUTTING
G1 X-79.2
; MOVEMENT_LINK_TRANSITION
G1 X-79.3 Y-41.232
G1 X-79.399 Y-41.22
G1 X-79.497 Y-41.201
G1 X-79.593 Y-41.174
G1 X-79.687 Y-41.139
G1 X-79.777 Y-41.097
G1 X-79.864 Y-41.049
G1 X-79.947 Y-40.993
G1 X-80.026 Y-40.931
G1 X-80.099 Y-40.864
G1 X-80.167 Y-40.79
G1 X-80.229 Y-40.712
G1 X-80.284 Y-40.629
G1 X-80.333 Y-40.542
G1 X-80.375 Y-40.451
G1 X-80.409 Y-40.358
G1 X-80.436 Y-40.261
G1 X-80.456 Y-40.164
G1 X-80.467 Y-40.064
G1 X-80.471 Y-39.965
G1 X-80.467 Y-39.865
G1 X-80.456 Y-39.766
G1 X-80.436 Y-39.668
G1 X-80.409 Y-39.572
G1 X-80.375 Y-39.478
G1 X-80.333 Y-39.388
G1 X-80.284 Y-39.3
G1 X-80.229 Y-39.217
G1 X-80.167 Y-39.139
G1 X-80.099 Y-39.066
G1 X-80.026 Y-38.998
G1 X-79.947 Y-38.936
G1 X-79.864 Y-38.881
G1 X-79.777 Y-38.832
G1 X-79.687 Y-38.79
G1 X-79.593 Y-38.756
G1 X-79.497 Y-38.728
G1 X-79.399 Y-38.709
G1 X-79.3 Y-38.697
G1 X-79.2 Y-38.693
; MOVEMENT_CUTTING
G1 X79.2
; MOVEMENT_LINK_TRANSITION
G1 X79.3 Y-38.689
G1 X79.399 Y-38.678
G1 X79.497 Y-38.658
G1 X79.593 Y-38.631
G1 X79.687 Y-38.597
G1 X79.777 Y-38.555
G1 X79.864 Y-38.506
G1 X79.947 Y-38.451
G1 X80.026 Y-38.389
G1 X80.099 Y-38.321
G1 X80.167 Y-38.248
G1 X80.229 Y-38.169
G1 X80.284 Y-38.086
G1 X80.333 Y-37.999
G1 X80.375 Y-37.909
G1 X80.409 Y-37.815
G1 X80.436 Y-37.719
G1 X80.456 Y-37.621
G1 X80.467 Y-37.522
G1 X80.471 Y-37.422
G1 X80.467 Y-37.322
G1 X80.456 Y-37.223
G1 X80.436 Y-37.125
G1 X80.409 Y-37.029
G1 X80.375 Y-36.935
G1 X80.333 Y-36.845
G1 X80.284 Y-36.758
G1 X80.229 Y-36.675
G1 X80.167 Y-36.596
G1 X80.099 Y-36.523
G1 X80.026 Y-36.455
G1 X79.947 Y-36.393
G1 X79.864 Y-36.338
G1 X79.777 Y-36.289
G1 X79.687 Y-36.247
G1 X79.593 Y-36.213
G1 X79.497 Y-36.186
G1 X79.399 Y-36.166
G1 X79.3 Y-36.155
G1 X79.2 Y-36.151
; MOVEMENT_CUTTING
G1 X-79.2
; MOVEMENT_LINK_TRANSITION
G1 X-79.3 Y-36.147
G1 X-79.399 Y-36.135
G1 X-79.497 Y-36.116
G1 X-79.593 Y-36.088
G1 X-79.687 Y-36.054
G1 X-79.777 Y-36.012
G1 X-79.864 Y-35.963
G1 X-79.947 Y-35.908
G1 X-80.026 Y-35.846
G1 X-80.099 Y-35.778
G1 X-80.167 Y-35.705
G1 X-80.229 Y-35.627
G1 X-80.284 Y-35.544
G1 X-80.333 Y-35.456
G1 X-80.375 Y-35.366
G1 X-80.409 Y-35.272
G1 X-80.436 Y-35.176
G1 X-80.456 Y-35.078
G1 X-80.467 Y-34.979
G1 X-80.471 Y-34.879
G1 X-80.467 Y-34.78
G1 X-80.456 Y-34.68
G1 X-80.436 Y-34.583
G1 X-80.409 Y-34.486
G1 X-80.375 Y-34.393
G1 X-80.333 Y-34.302
G1 X-80.284 Y-34.215
G1 X-80.229 Y-34.132
G1 X-80.167 Y-34.054
G1 X-80.099 Y-33.98
G1 X-80.026 Y-33.913
G1 X-79.947 Y-33.851
G1 X-79.864 Y-33.795
G1 X-79.777 Y-33.747
G1 X-79.687 Y-33.705
G1 X-79.593 Y-33.67
G1 X-79.497 Y-33.643
G1 X-79.399 Y-33.624
G1 X-79.3 Y-33.612
G1 X-79.2 Y-33.608
; MOVEMENT_CUTTING
G1 X79.2
; MOVEMENT_LINK_TRANSITION
G1 X79.3 Y-33.604
G1 X79.399 Y-33.592
G1 X79.497 Y-33.573
G1 X79.593 Y-33.546
G1 X79.687 Y-33.511
G1 X79.777 Y-33.469
G1 X79.864 Y-33.421
G1 X79.947 Y-33.365
G1 X80.026 Y-33.303
G1 X80.099 Y-33.236
G1 X80.167 Y-33.162
G1 X80.229 Y-33.084
G1 X80.284 Y-33.001
G1 X80.333 Y-32.914
G1 X80.375 Y-32.823
G1 X80.409 Y-32.729
G1 X80.436 Y-32.633
G1 X80.456 Y-32.535
G1 X80.467 Y-32.436
G1 X80.471 Y-32.337
G1 X80.467 Y-32.237
G1 X80.456 Y-32.138
G1 X80.436 Y-32.04
G1 X80.409 Y-31.944
G1 X80.375 Y-31.85
G1 X80.333 Y-31.759
G1 X80.284 Y-31.672
G1 X80.229 Y-31.589
G1 X80.167 Y-31.511
G1 X80.099 Y-31.438
G1 X80.026 Y-31.37
G1 X79.947 Y-31.308
G1 X79.864 Y-31.253
G1 X79.777 Y-31.204
G1 X79.687 Y-31.162
G1 X79.593 Y-31.127
G1 X79.497 Y-31.1
G1 X79.399 Y-31.081
G1 X79.3 Y-31.069
G1 X79.2 Y-31.065
; MOVEMENT_CUTTING
G1 X-79.2
; MOVEMENT_LINK_TRANSITION
G1 X-79.3 Y-31.061
G1 X-79.399 Y-31.05
G1 X-79.497 Y-31.03
G1 X-79.593 Y-31.003
G1 X-79.687 Y-30.968
G1 X-79.777 Y-30.927
G1 X-79.864 Y-30.878
G1 X-79.947 Y-30.822
G1 X-80.026 Y-30.761
G1 X-80.099 Y-30.693
G1 X-80.167 Y-30.62
G1 X-80.229 Y-30.541
G1 X-80.284 Y-30.458
G1 X-80.333 Y-30.371
G1 X-80.375 Y-30.28
G1 X-80.409 Y-30.187
G1 X-80.436 Y-30.091
G1 X-80.456 Y-29.993
G1 X-80.467 Y-29.894
G1 X-80.471 Y-29.794
G1 X-80.467 Y-29.694
G1 X-80.456 Y-29.595
G1 X-80.436 Y-29.497
G1 X-80.409 Y-29.401
G1 X-80.375 Y-29.307
G1 X-80.333 Y-29.217
G1 X-80.284 Y-29.13
G1 X-80.229 Y-29.047
G1 X-80.167 Y-28.968
G1 X-80.099 Y-28.895
G1 X-80.026 Y-28.827
G1 X-79.947 Y-28.765
G1 X-79.864 Y-28.71
G1 X-79.777 Y-28.661
G1 X-79.687 Y-28.619
G1 X-79.593 Y-28.585
G1 X-79.497 Y-28.558
G1 X-79.399 Y-28.538
G1 X-79.3 Y-28.526
G1 X-79.2 Y-28.523
; MOVEMENT_CUTTING
G1 X79.2
; MOVEMENT_LINK_TRANSITION
G1 X79.3 Y-28.519
G1 X79.399 Y-28.507
G1 X79.497 Y-28.487
G1 X79.593 Y-28.46
G1 X79.687 Y-28.426
G1 X79.777 Y-28.384
G1 X79.864 Y-28.335
G1 X79.947 Y-28.28
G1 X80.026 Y-28.218
G1 X80.099 Y-28.15
G1 X80.167 Y-28.077
G1 X80.229 Y-27.998
G1 X80.284 Y-27.915
G1 X80.333 Y-27.828
G1 X80.375 Y-27.738
G1 X80.409 Y-27.644
G1 X80.436 Y-27.548
G1 X80.456 Y-27.45
G1 X80.467 Y-27.351
G1 X80.471 Y-27.251
G1 X80.467 Y-27.151
G1 X80.456 Y-27.052
G1 X80.436 Y-26.954
G1 X80.409 Y-26.858
G1 X80.375 Y-26.765
G1 X80.333 Y-26.674
G1 X80.284 Y-26.587
G1 X80.229 Y-26.504
G1 X80.167 Y-26.426
G1 X80.099 Y-26.352
G1 X80.026 Y-26.284
G1 X79.947 Y-26.223
G1 X79.864 Y-26.167
G1 X79.777 Y-26.118
G1 X79.687 Y-26.077
G1 X79.593 Y-26.042
G1 X79.497 Y-26.015
G1 X79.399 Y-25.996
G1 X79.3 Y-25.984
G1 X79.2 Y-25.98
; MOVEMENT_CUTTING
G1 X-79.2
; MOVEMENT_LINK_TRANSITION
G1 X-79.3 Y-25.976
G1 X-79.399 Y-25.964
G1 X-79.497 Y-25.945
G1 X-79.593 Y-25.918
G1 X-79.687 Y-25.883
G1 X-79.777 Y-25.841
G1 X-79.864 Y-25.793
G1 X-79.947 Y-25.737
G1 X-80.026 Y-25.675
G1 X-80.099 Y-25.607
G1 X-80.167 Y-25.534
G1 X-80.229 Y-25.456
G1 X-80.284 Y-25.373
G1 X-80.333 Y-25.286
G1 X-80.375 Y-25.195
G1 X-80.409 Y-25.101
G1 X-80.436 Y-25.005
G1 X-80.456 Y-24.907
G1 X-80.467 Y-24.808
G1 X-80.471 Y-24.709
G1 X-80.467 Y-24.609
G1 X-80.456 Y-24.51
G1 X-80.436 Y-24.412
G1 X-80.409 Y-24.316
G1 X-80.375 Y-24.222
G1 X-80.333 Y-24.131
G1 X-80.284 Y-24.044
G1 X-80.229 Y-23.961
G1 X-80.167 Y-23.883
G1 X-80.099 Y-23.81
G1 X-80.026 Y-23.742
G1 X-79.947 Y-23.68
G1 X-79.864 Y-23.625
G1 X-79.777 Y-23.576
G1 X-79.687 Y-23.534
G1 X-79.593 Y-23.499
G1 X-79.497 Y-23.472
G1 X-79.399 Y-23.453
G1 X-79.3 Y-23.441
G1 X-79.2 Y-23.437
; MOVEMENT_CUTTING
G1 X79.2
; MOVEMENT_LINK_TRANSITION
G1 X79.3 Y-23.433
G1 X79.399 Y-23.422
G1 X79.497 Y-23.402
G1 X79.593 Y-23.375
G1 X79.687 Y-23.34
G1 X79.777 Y-23.299
G1 X79.864 Y-23.25
G1 X79.947 Y-23.194
G1 X80.026 Y-23.133
G1 X80.099 Y-23.065
G1 X80.167 Y-22.992
G1 X80.229 Y-22.913
G1 X80.284 Y-22.83
G1 X80.333 Y-22.743
G1 X80.375 Y-22.652
G1 X80.409 Y-22.559
G1 X80.436 Y-22.463
G1 X80.456 Y-22.365
G1 X80.467 Y-22.266
G1 X80.471 Y-22.166
G1 X80.467 Y-22.066
G1 X80.456 Y-21.967
G1 X80.436 Y-21.869
G1 X80.409 Y-21.773
G1 X80.375 Y-21.679
G1 X80.333 Y-21.589
G1 X80.284 Y-21.502
G1 X80.229 Y-21.419
G1 X80.167 Y-21.34
G1 X80.099 Y-21.267
G1 X80.026 Y-21.199
G1 X79.947 Y-21.137
G1 X79.864 Y-21.082
G1 X79.777 Y-21.033
G1 X79.687 Y-20.991
G1 X79.593 Y-20.957
G1 X79.497 Y-20.93
G1 X79.399 Y-20.91
G1 X79.3 Y-20.898
G1 X79.2 Y-20.894
; MOVEMENT_CUTTING
G1 X-79.2
; MOVEMENT_LINK_TRANSITION
G1 X-79.3 Y-20.891
G1 X-79.399 Y-20.879
G1 X-79.497 Y-20.859
G1 X-79.593 Y-20.832
G1 X-79.687 Y-20.798
G1 X-79.777 Y-20.756
G1 X-79.864 Y-20.707
G1 X-79.947 Y-20.652
G1 X-80.026 Y-20.59
G1 X-80.099 Y-20.522
G1 X-80.167 Y-20.449
G1 X-80.229 Y-20.37
G1 X-80.284 Y-20.287
G1 X-80.333 Y-20.2
G1 X-80.375 Y-20.11
G1 X-80.409 Y-20.016
G1 X-80.436 Y-19.92
G1 X-80.456 Y-19.822
G1 X-80.467 Y-19.723
G1 X-80.471 Y-19.623
G1 X-80.467 Y-19.523
G1 X-80.456 Y-19.424
G1 X-80.436 Y-19.326
G1 X-80.409 Y-19.23
G1 X-80.375 Y-19.137
G1 X-80.333 Y-19.046
G1 X-80.284 Y-18.959
G1 X-80.229 Y-18.876
G1 X-80.167 Y-18.797
G1 X-80.099 Y-18.724
G1 X-80.026 Y-18.656
G1 X-79.947 Y-18.595
G1 X-79.864 Y-18.539
G1 X-79.777 Y-18.49
G1 X-79.687 Y-18.449
G1 X-79.593 Y-18.414
G1 X-79.497 Y-18.387
G1 X-79.399 Y-18.367
G1 X-79.3 Y-18.356
G1 X-79.2 Y-18.352
; MOVEMENT_CUTTING
G1 X79.2
; MOVEMENT_LINK_TRANSITION
G1 X79.3 Y-18.348
G1 X79.399 Y-18.336
G1 X79.497 Y-18.317
G1 X79.593 Y-18.29
G1 X79.687 Y-18.255
G1 X79.777 Y-18.213
G1 X79.864 Y-18.164
G1 X79.947 Y-18.109
G1 X80.026 Y-18.047
G1 X80.099 Y-17.979
G1 X80.167 Y-17.906
G1 X80.229 Y-17.828
G1 X80.284 Y-17.745
G1 X80.333 Y-17.658
G1 X80.375 Y-17.567
G1 X80.409 Y-17.473
G1 X80.436 Y-17.377
G1 X80.456 Y-17.279
G1 X80.467 Y-17.18
G1 X80.471 Y-17.08
G1 X80.467 Y-16.981
G1 X80.456 Y-16.882
G1 X80.436 Y-16.784
G1 X80.409 Y-16.688
G1 X80.375 Y-16.594
G1 X80.333 Y-16.503
G1 X80.284 Y-16.416
G1 X80.229 Y-16.333
G1 X80.167 Y-16.255
G1 X80.099 Y-16.181
G1 X80.026 Y-16.114
G1 X79.947 Y-16.052
G1 X79.864 Y-15.996
G1 X79.777 Y-15.948
G1 X79.687 Y-15.906
G1 X79.593 Y-15.871
G1 X79.497 Y-15.844
G1 X79.399 Y-15.825
G1 X79.3 Y-15.813
G1 X79.2 Y-15.809
; MOVEMENT_CUTTING
G1 X-79.2
; MOVEMENT_LINK_TRANSITION
G1 X-79.3 Y-15.805
G1 X-79.399 Y-15.793
G1 X-79.497 Y-15.774
G1 X-79.593 Y-15.747
G1 X-79.687 Y-15.712
G1 X-79.777 Y-15.671
G1 X-79.864 Y-15.622
G1 X-79.947 Y-15.566
G1 X-80.026 Y-15.504
G1 X-80.099 Y-15.437
G1 X-80.167 Y-15.363
G1 X-80.229 Y-15.285
G1 X-80.284 Y-15.202
G1 X-80.333 Y-15.115
G1 X-80.375 Y-15.024
G1 X-80.409 Y-14.931
G1 X-80.436 Y-14.835
G1 X-80.456 Y-14.737
G1 X-80.467 Y-14.637
G1 X-80.471 Y-14.538
G1 X-80.467 Y-14.438
G1 X-80.456 Y-14.339
G1 X-80.436 Y-14.241
G1 X-80.409 Y-14.145
G1 X-80.375 Y-14.051
G1 X-80.333 Y-13.961
G1 X-80.284 Y-13.873
G1 X-80.229 Y-13.79
G1 X-80.167 Y-13.712
G1 X-80.099 Y-13.639
G1 X-80.026 Y-13.571
G1 X-79.947 Y-13.509
G1 X-79.864 Y-13.454
G1 X-79.777 Y-13.405
G1 X-79.687 Y-13.363
G1 X-79.593 Y-13.329
G1 X-79.497 Y-13.302
G1 X-79.399 Y-13.282
G1 X-79.3 Y-13.27
G1 X-79.2 Y-13.266
; MOVEMENT_CUTTING
G1 X79.2
; MOVEMENT_LINK_TRANSITION
G1 X79.3 Y-13.262
G1 X79.399 Y-13.251
G1 X79.497 Y-13.231
G1 X79.593 Y-13.204
G1 X79.687 Y-13.17
G1 X79.777 Y-13.128
G1 X79.864 Y-13.079
G1 X79.947 Y-13.024
G1 X80.026 Y-12.962
G1 X80.099 Y-12.894
G1 X80.167 Y-12.821
G1 X80.229 Y-12.742
G1 X80.284 Y-12.659
G1 X80.333 Y-12.572
G1 X80.375 Y-12.482
G1 X80.409 Y-12.388
G1 X80.436 Y-12.292
G1 X80.456 Y-12.194
G1 X80.467 Y-12.095
G1 X80.471 Y-11.995
G1 X80.467 Y-11.895
G1 X80.456 Y-11.796
G1 X80.436 Y-11.698
G1 X80.409 Y-11.602
G1 X80.375 Y-11.509
G1 X80.333 Y-11.418
G1 X80.284 Y-11.331
G1 X80.229 Y-11.248
G1 X80.167 Y-11.169
G1 X80.099 Y-11.096
G1 X80.026 Y-11.028
G1 X79.947 Y-10.967
G1 X79.864 Y-10.911
G1 X79.777 Y-10.862
G1 X79.687 Y-10.82
G1 X79.593 Y-10.786
G1 X79.497 Y-10.759
G1 X79.399 Y-10.739
G1 X79.3 Y-10.728
G1 X79.2 Y-10.724
; MOVEMENT_CUTTING
G1 X-79.2
; MOVEMENT_LINK_TRANSITION
G1 X-79.3 Y-10.72
G1 X-79.399 Y-10.708
G1 X-79.497 Y-10.689
G1 X-79.593 Y-10.661
G1 X-79.687 Y-10.627
G1 X-79.777 Y-10.585
G1 X-79.864 Y-10.536
G1 X-79.947 Y-10.481
G1 X-80.026 Y-10.419
G1 X-80.099 Y-10.351
G1 X-80.167 Y-10.278
G1 X-80.229 Y-10.2
G1 X-80.284 Y-10.117
G1 X-80.333 Y-10.03
G1 X-80.375 Y-9.939
G1 X-80.409 Y-9.845
G1 X-80.436 Y-9.749
G1 X-80.456 Y-9.651
G1 X-80.467 Y-9.552
G1 X-80.471 Y-9.452
G1 X-80.467 Y-9.353
G1 X-80.456 Y-9.253
G1 X-80.436 Y-9.156
G1 X-80.409 Y-9.059
G1 X-80.375 Y-8.966
G1 X-80.333 Y-8.875
G1 X-80.284 Y-8.788
G1 X-80.229 Y-8.705
G1 X-80.167 Y-8.627
G1 X-80.099 Y-8.553
G1 X-80.026 Y-8.486
G1 X-79.947 Y-8.424
G1 X-79.864 Y-8.368
G1 X-79.777 Y-8.32
G1 X-79.687 Y-8.278
G1 X-79.593 Y-8.243
G1 X-79.497 Y-8.216
G1 X-79.399 Y-8.197
G1 X-79.3 Y-8.185
G1 X-79.2 Y-8.181
; MOVEMENT_CUTTING
G1 X79.2
; MOVEMENT_LINK_TRANSITION
G1 X79.3 Y-8.177
G1 X79.399 Y-8.165
G1 X79.497 Y-8.146
G1 X79.593 Y-8.119
G1 X79.687 Y-8.084
G1 X79.777 Y-8.042
G1 X79.864 Y-7.994
G1 X79.947 Y-7.938
G1 X80.026 Y-7.876
G1 X80.099 Y-7.809
G1 X80.167 Y-7.735
G1 X80.229 Y-7.657
G1 X80.284 Y-7.574
G1 X80.333 Y-7.487
G1 X80.375 Y-7.396
G1 X80.409 Y-7.303
G1 X80.436 Y-7.206
G1 X80.456 Y-7.109
G1 X80.467 Y-7.009
G1 X80.471 Y-6.91
G1 X80.467 Y-6.81
G1 X80.456 Y-6.711
G1 X80.436 Y-6.613
G1 X80.409 Y-6.517
G1 X80.375 Y-6.423
G1 X80.333 Y-6.332
G1 X80.284 Y-6.245
G1 X80.229 Y-6.162
G1 X80.167 Y-6.084
G1 X80.099 Y-6.011
G1 X80.026 Y-5.943
G1 X79.947 Y-5.881
G1 X79.864 Y-5.826
G1 X79.777 Y-5.777
G1 X79.687 Y-5.735
G1 X79.593 Y-5.701
G1 X79.497 Y-5.673
G1 X79.399 Y-5.654
G1 X79.3 Y-5.642
G1 X79.2 Y-5.638
; MOVEMENT_CUTTING
G1 X-79.2
; MOVEMENT_LINK_TRANSITION
G1 X-79.3 Y-5.634
G1 X-79.399 Y-5.623
G1 X-79.497 Y-5.603
G1 X-79.593 Y-5.576
G1 X-79.687 Y-5.542
G1 X-79.777 Y-5.5
G1 X-79.864 Y-5.451
G1 X-79.947 Y-5.396
G1 X-80.026 Y-5.334
G1 X-80.099 Y-5.266
G1 X-80.167 Y-5.193
G1 X-80.229 Y-5.114
G1 X-80.284 Y-5.031
G1 X-80.333 Y-4.944
G1 X-80.375 Y-4.853
G1 X-80.409 Y-4.76
G1 X-80.436 Y-4.664
G1 X-80.456 Y-4.566
G1 X-80.467 Y-4.467
G1 X-80.471 Y-4.367
G1 X-80.467 Y-4.267
G1 X-80.456 Y-4.168
G1 X-80.436 Y-4.07
G1 X-80.409 Y-3.974
G1 X-80.375 Y-3.88
G1 X-80.333 Y-3.79
G1 X-80.284 Y-3.703
G1 X-80.229 Y-3.62
G1 X-80.167 Y-3.541
G1 X-80.099 Y-3.468
G1 X-80.026 Y-3.4
G1 X-79.947 Y-3.338
G1 X-79.864 Y-3.283
G1 X-79.777 Y-3.234
G1 X-79.687 Y-3.192
G1 X-79.593 Y-3.158
G1 X-79.497 Y-3.131
G1 X-79.399 Y-3.111
G1 X-79.3 Y-3.1
G1 X-79.2 Y-3.096
; MOVEMENT_CUTTING
G1 X79.2
; MOVEMENT_LINK_TRANSITION
G1 X79.3 Y-3.092
G1 X79.399 Y-3.08
G1 X79.497 Y-3.06
G1 X79.593 Y-3.033
G1 X79.687 Y-2.999
G1 X79.777 Y-2.957
G1 X79.864 Y-2.908
G1 X79.947 Y-2.853
G1 X80.026 Y-2.791
G1 X80.099 Y-2.723
G1 X80.167 Y-2.65
G1 X80.229 Y-2.572
G1 X80.284 Y-2.489
G1 X80.333 Y-2.401
G1 X80.375 Y-2.311
G1 X80.409 Y-2.217
G1 X80.436 Y-2.121
G1 X80.456 Y-2.023
G1 X80.467 Y-1.924
G1 X80.471 Y-1.824
G1 X80.467 Y-1.725
G1 X80.456 Y-1.625
G1 X80.436 Y-1.527
G1 X80.409 Y-1.431
G1 X80.375 Y-1.338
G1 X80.333 Y-1.247
G1 X80.284 Y-1.16
G1 X80.229 Y-1.077
G1 X80.167 Y-0.999
G1 X80.099 Y-0.925
G1 X80.026 Y-0.858
G1 X79.947 Y-0.796
G1 X79.864 Y-0.74
G1 X79.777 Y-0.691
G1 X79.687 Y-0.65
G1 X79.593 Y-0.615
G1 X79.497 Y-0.588
G1 X79.399 Y-0.569
G1 X79.3 Y-0.557
G1 X79.2 Y-0.553
; MOVEMENT_CUTTING
G1 X-79.2
; MOVEMENT_LINK_TRANSITION
G1 X-79.3 Y-0.549
G1 X-79.399 Y-0.537
G1 X-79.497 Y-0.518
G1 X-79.593 Y-0.491
G1 X-79.687 Y-0.456
G1 X-79.777 Y-0.414
G1 X-79.864 Y-0.366
G1 X-79.947 Y-0.31
G1 X-80.026 Y-0.248
G1 X-80.099 Y-0.181
G1 X-80.167 Y-0.107
G1 X-80.229 Y-0.029
G1 X-80.284 Y0.054
G1 X-80.333 Y0.141
G1 X-80.375 Y0.232
G1 X-80.409 Y0.326
G1 X-80.436 Y0.422
G1 X-80.456 Y0.52
G1 X-80.467 Y0.619
G1 X-80.471 Y0.718
G1 X-80.467 Y0.818
G1 X-80.456 Y0.917
G1 X-80.436 Y1.015
G1 X-80.409 Y1.111
G1 X-80.375 Y1.205
G1 X-80.333 Y1.296
G1 X-80.284 Y1.383
G1 X-80.229 Y1.466
G1 X-80.167 Y1.544
G1 X-80.099 Y1.617
G1 X-80.026 Y1.685
G1 X-79.947 Y1.747
G1 X-79.864 Y1.802
G1 X-79.777 Y1.851
G1 X-79.687 Y1.893
G1 X-79.593 Y1.928
G1 X-79.497 Y1.955
G1 X-79.399 Y1.974
G1 X-79.3 Y1.986
G1 X-79.2 Y1.99
; MOVEMENT_CUTTING
G1 X79.2
; MOVEMENT_LINK_TRANSITION
G1 X79.3 Y1.994
G1 X79.399 Y2.005
G1 X79.497 Y2.025
G1 X79.593 Y2.052
G1 X79.687 Y2.087
G1 X79.777 Y2.128
G1 X79.864 Y2.177
G1 X79.947 Y2.233
G1 X80.026 Y2.294
G1 X80.099 Y2.362
G1 X80.167 Y2.435
G1 X80.229 Y2.514
G1 X80.284 Y2.597
G1 X80.333 Y2.684
G1 X80.375 Y2.775
G1 X80.409 Y2.868
G1 X80.436 Y2.964
G1 X80.456 Y3.062
G1 X80.467 Y3.161
G1 X80.471 Y3.261
G1 X80.467 Y3.361
G1 X80.456 Y3.46
G1 X80.436 Y3.558
G1 X80.409 Y3.654
G1 X80.375 Y3.748
G1 X80.333 Y3.838
G1 X80.284 Y3.925
G1 X80.229 Y4.008
G1 X80.167 Y4.087
G1 X80.099 Y4.16
G1 X80.026 Y4.228
G1 X79.947 Y4.29
G1 X79.864 Y4.345
G1 X79.777 Y4.394
G1 X79.687 Y4.436
G1 X79.593 Y4.47
G1 X79.497 Y4.497
G1 X79.399 Y4.517
G1 X79.3 Y4.529
G1 X79.2 Y4.532
; MOVEMENT_CUTTING
G1 X-79.2
; MOVEMENT_LINK_TRANSITION
G1 X-79.3 Y4.536
G1 X-79.399 Y4.548
G1 X-79.497 Y4.568
G1 X-79.593 Y4.595
G1 X-79.687 Y4.629
G1 X-79.777 Y4.671
G1 X-79.864 Y4.72
G1 X-79.947 Y4.775
G1 X-80.026 Y4.837
G1 X-80.099 Y4.905
G1 X-80.167 Y4.978
G1 X-80.229 Y5.057
G1 X-80.284 Y5.14
G1 X-80.333 Y5.227
G1 X-80.375 Y5.317
G1 X-80.409 Y5.411
G1 X-80.436 Y5.507
G1 X-80.456 Y5.605
G1 X-80.467 Y5.704
G1 X-80.471 Y5.804
G1 X-80.467 Y5.904
G1 X-80.456 Y6.003
G1 X-80.436 Y6.101
G1 X-80.409 Y6.197
G1 X-80.375 Y6.29
G1 X-80.333 Y6.381
G1 X-80.284 Y6.468
G1 X-80.229 Y6.551
G1 X-80.167 Y6.629
G1 X-80.099 Y6.703
G1 X-80.026 Y6.771
G1 X-79.947 Y6.832
G1 X-79.864 Y6.888
G1 X-79.777 Y6.937
G1 X-79.687 Y6.978
G1 X-79.593 Y7.013
G1 X-79.497 Y7.04
G1 X-79.399 Y7.059
G1 X-79.3 Y7.071
G1 X-79.2 Y7.075
; MOVEMENT_CUTTING
G1 X79.2
; MOVEMENT_LINK_TRANSITION
G1 X79.3 Y7.079
G1 X79.399 Y7.091
G1 X79.497 Y7.11
G1 X79.593 Y7.137
G1 X79.687 Y7.172
G1 X79.777 Y7.214
G1 X79.864 Y7.262
G1 X79.947 Y7.318
G1 X80.026 Y7.38
G1 X80.099 Y7.448
G1 X80.167 Y7.521
G1 X80.229 Y7.599
G1 X80.284 Y7.682
G1 X80.333 Y7.769
G1 X80.375 Y7.86
G1 X80.409 Y7.954
G1 X80.436 Y8.05
G1 X80.456 Y8.148
G1 X80.467 Y8.247
G1 X80.471 Y8.346
G1 X80.467 Y8.446
G1 X80.456 Y8.545
G1 X80.436 Y8.643
G1 X80.409 Y8.739
G1 X80.375 Y8.833
G1 X80.333 Y8.924
G1 X80.284 Y9.011
G1 X80.229 Y9.094
G1 X80.167 Y9.172
G1 X80.099 Y9.245
G1 X80.026 Y9.313
G1 X79.947 Y9.375
G1 X79.864 Y9.43
G1 X79.777 Y9.479
G1 X79.687 Y9.521
G1 X79.593 Y9.556
G1 X79.497 Y9.583
G1 X79.399 Y9.602
G1 X79.3 Y9.614
G1 X79.2 Y9.618
; MOVEMENT_CUTTING
G1 X-79.2
; MOVEMENT_LINK_TRANSITION
G1 X-79.3 Y9.622
G1 X-79.399 Y9.633
G1 X-79.497 Y9.653
G1 X-79.593 Y9.68
G1 X-79.687 Y9.715
G1 X-79.777 Y9.756
G1 X-79.864 Y9.805
G1 X-79.947 Y9.861
G1 X-80.026 Y9.922
G1 X-80.099 Y9.99
G1 X-80.167 Y10.064
G1 X-80.229 Y10.142
G1 X-80.284 Y10.225
G1 X-80.333 Y10.312
G1 X-80.375 Y10.403
G1 X-80.409 Y10.496
G1 X-80.436 Y10.592
G1 X-80.456 Y10.69
G1 X-80.467 Y10.789
G1 X-80.471 Y10.889
G1 X-80.467 Y10.989
G1 X-80.456 Y11.088
G1 X-80.436 Y11.186
G1 X-80.409 Y11.282
G1 X-80.375 Y11.376
G1 X-80.333 Y11.466
G1 X-80.284 Y11.553
G1 X-80.229 Y11.636
G1 X-80.167 Y11.715
G1 X-80.099 Y11.788
G1 X-80.026 Y11.856
G1 X-79.947 Y11.918
G1 X-79.864 Y11.973
G1 X-79.777 Y12.022
G1 X-79.687 Y12.064
G1 X-79.593 Y12.098
G1 X-79.497 Y12.125
G1 X-79.399 Y12.145
G1 X-79.3 Y12.157
G1 X-79.2 Y12.161
; MOVEMENT_CUTTING
G1 X79.2
; MOVEMENT_LINK_TRANSITION
G1 X79.3 Y12.164
G1 X79.399 Y12.176
G1 X79.497 Y12.196
G1 X79.593 Y12.223
G1 X79.687 Y12.257
G1 X79.777 Y12.299
G1 X79.864 Y12.348
G1 X79.947 Y12.403
G1 X80.026 Y12.465
G1 X80.099 Y12.533
G1 X80.167 Y12.606
G1 X80.229 Y12.685
G1 X80.284 Y12.768
G1 X80.333 Y12.855
G1 X80.375 Y12.945
G1 X80.409 Y13.039
G1 X80.436 Y13.135
G1 X80.456 Y13.233
G1 X80.467 Y13.332
G1 X80.471 Y13.432
G1 X80.467 Y13.532
G1 X80.456 Y13.631
G1 X80.436 Y13.729
G1 X80.409 Y13.825
G1 X80.375 Y13.918
G1 X80.333 Y14.009
G1 X80.284 Y14.096
G1 X80.229 Y14.179
G1 X80.167 Y14.258
G1 X80.099 Y14.331
G1 X80.026 Y14.399
G1 X79.947 Y14.46
G1 X79.864 Y14.516
G1 X79.777 Y14.565
G1 X79.687 Y14.606
G1 X79.593 Y14.641
G1 X79.497 Y14.668
G1 X79.399 Y14.688
G1 X79.3 Y14.699
G1 X79.2 Y14.703
; MOVEMENT_CUTTING
G1 X-79.2
; MOVEMENT_LINK_TRANSITION
G1 X-79.3 Y14.707
G1 X-79.399 Y14.719
G1 X-79.497 Y14.738
G1 X-79.593 Y14.765
G1 X-79.687 Y14.8
G1 X-79.777 Y14.842
G1 X-79.864 Y14.891
G1 X-79.947 Y14.946
G1 X-80.026 Y15.008
G1 X-80.099 Y15.076
G1 X-80.167 Y15.149
G1 X-80.229 Y15.227
G1 X-80.284 Y15.31
G1 X-80.333 Y15.397
G1 X-80.375 Y15.488
G1 X-80.409 Y15.582
G1 X-80.436 Y15.678
G1 X-80.456 Y15.776
G1 X-80.467 Y15.875
G1 X-80.471 Y15.975
G1 X-80.467 Y16.074
G1 X-80.456 Y16.173
G1 X-80.436 Y16.271
G1 X-80.409 Y16.367
G1 X-80.375 Y16.461
G1 X-80.333 Y16.552
G1 X-80.284 Y16.639
G1 X-80.229 Y16.722
G1 X-80.167 Y16.8
G1 X-80.099 Y16.874
G1 X-80.026 Y16.941
G1 X-79.947 Y17.003
G1 X-79.864 Y17.059
G1 X-79.777 Y17.107
G1 X-79.687 Y17.149
G1 X-79.593 Y17.184
G1 X-79.497 Y17.211
G1 X-79.399 Y17.23
G1 X-79.3 Y17.242
G1 X-79.2 Y17.246
; MOVEMENT_CUTTING
G1 X79.2
; MOVEMENT_LINK_TRANSITION
G1 X79.3 Y17.25
G1 X79.399 Y17.262
G1 X79.497 Y17.281
G1 X79.593 Y17.308
G1 X79.687 Y17.343
G1 X79.777 Y17.384
G1 X79.864 Y17.433
G1 X79.947 Y17.489
G1 X80.026 Y17.551
G1 X80.099 Y17.618
G1 X80.167 Y17.692
G1 X80.229 Y17.77
G1 X80.284 Y17.853
G1 X80.333 Y17.94
G1 X80.375 Y18.031
G1 X80.409 Y18.124
G1 X80.436 Y18.22
G1 X80.456 Y18.318
G1 X80.467 Y18.418
G1 X80.471 Y18.517
G1 X80.467 Y18.617
G1 X80.456 Y18.716
G1 X80.436 Y18.814
G1 X80.409 Y18.91
G1 X80.375 Y19.004
G1 X80.333 Y19.094
G1 X80.284 Y19.182
G1 X80.229 Y19.265
G1 X80.167 Y19.343
G1 X80.099 Y19.416
G1 X80.026 Y19.484
G1 X79.947 Y19.546
G1 X79.864 Y19.601
G1 X79.777 Y19.65
G1 X79.687 Y19.692
G1 X79.593 Y19.726
G1 X79.497 Y19.753
G1 X79.399 Y19.773
G1 X79.3 Y19.785
G1 X79.2 Y19.789
; MOVEMENT_CUTTING
G1 X-79.2
; MOVEMENT_LINK_TRANSITION
G1 X-79.3 Y19.793
G1 X-79.399 Y19.804
G1 X-79.497 Y19.824
G1 X-79.593 Y19.851
G1 X-79.687 Y19.885
G1 X-79.777 Y19.927
G1 X-79.864 Y19.976
G1 X-79.947 Y20.031
G1 X-80.026 Y20.093
G1 X-80.099 Y20.161
G1 X-80.167 Y20.234
G1 X-80.229 Y20.313
G1 X-80.284 Y20.396
G1 X-80.333 Y20.483
G1 X-80.375 Y20.573
G1 X-80.409 Y20.667
G1 X-80.436 Y20.763
G1 X-80.456 Y20.861
G1 X-80.467 Y20.96
G1 X-80.471 Y21.06
G1 X-80.467 Y21.16
G1 X-80.456 Y21.259
G1 X-80.436 Y21.357
G1 X-80.409 Y21.453
G1 X-80.375 Y21.546
G1 X-80.333 Y21.637
G1 X-80.284 Y21.724
G1 X-80.229 Y21.807
G1 X-80.167 Y21.886
G1 X-80.099 Y21.959
G1 X-80.026 Y22.027
G1 X-79.947 Y22.089
G1 X-79.864 Y22.144
G1 X-79.777 Y22.193
G1 X-79.687 Y22.235
G1 X-79.593 Y22.269
G1 X-79.497 Y22.296
G1 X-79.399 Y22.316
G1 X-79.3 Y22.327
G1 X-79.2 Y22.331
; MOVEMENT_CUTTING
G1 X79.2
; MOVEMENT_LINK_TRANSITION
G1 X79.3 Y22.335
G1 X79.399 Y22.347
G1 X79.497 Y22.366
G1 X79.593 Y22.394
G1 X79.687 Y22.428
G1 X79.777 Y22.47
G1 X79.864 Y22.519
G1 X79.947 Y22.574
G1 X80.026 Y22.636
G1 X80.099 Y22.704
G1 X80.167 Y22.777
G1 X80.229 Y22.855
G1 X80.284 Y22.938
G1 X80.333 Y23.025
G1 X80.375 Y23.116
G1 X80.409 Y23.21
G1 X80.436 Y23.306
G1 X80.456 Y23.404
G1 X80.467 Y23.503
G1 X80.471 Y23.603
G1 X80.467 Y23.702
G1 X80.456 Y23.802
G1 X80.436 Y23.899
G1 X80.409 Y23.996
G1 X80.375 Y24.089
G1 X80.333 Y24.18
G1 X80.284 Y24.267
G1 X80.229 Y24.35
G1 X80.167 Y24.428
G1 X80.099 Y24.502
G1 X80.026 Y24.569
G1 X79.947 Y24.631
G1 X79.864 Y24.687
G1 X79.777 Y24.735
G1 X79.687 Y24.777
G1 X79.593 Y24.812
G1 X79.497 Y24.839
G1 X79.399 Y24.858
G1 X79.3 Y24.87
G1 X79.2 Y24.874
; MOVEMENT_CUTTING
G1 X-79.2
; MOVEMENT_LINK_TRANSITION
G1 X-79.3 Y24.878
G1 X-79.399 Y24.89
G1 X-79.497 Y24.909
G1 X-79.593 Y24.936
G1 X-79.687 Y24.971
G1 X-79.777 Y25.013
G1 X-79.864 Y25.061
G1 X-79.947 Y25.117
G1 X-80.026 Y25.179
G1 X-80.099 Y25.246
G1 X-80.167 Y25.32
G1 X-80.229 Y25.398
G1 X-80.284 Y25.481
G1 X-80.333 Y25.568
G1 X-80.375 Y25.659
G1 X-80.409 Y25.752
G1 X-80.436 Y25.849
G1 X-80.456 Y25.946
G1 X-80.467 Y26.046
G1 X-80.471 Y26.145
G1 X-80.467 Y26.245
G1 X-80.456 Y26.344
G1 X-80.436 Y26.442
G1 X-80.409 Y26.538
G1 X-80.375 Y26.632
G1 X-80.333 Y26.723
G1 X-80.284 Y26.81
G1 X-80.229 Y26.893
G1 X-80.167 Y26.971
G1 X-80.099 Y27.044
G1 X-80.026 Y27.112
G1 X-79.947 Y27.174
G1 X-79.864 Y27.229
G1 X-79.777 Y27.278
G1 X-79.687 Y27.32
G1 X-79.593 Y27.354
G1 X-79.497 Y27.382
G1 X-79.399 Y27.401
G1 X-79.3 Y27.413
G1 X-79.2 Y27.417
; MOVEMENT_CUTTING
G1 X79.2
; MOVEMENT_LINK_TRANSITION
G1 X79.3 Y27.421
G1 X79.399 Y27.432
G1 X79.497 Y27.452
G1 X79.593 Y27.479
G1 X79.687 Y27.513
G1 X79.777 Y27.555
G1 X79.864 Y27.604
G1 X79.947 Y27.66
G1 X80.026 Y27.721
G1 X80.099 Y27.789
G1 X80.167 Y27.862
G1 X80.229 Y27.941
G1 X80.284 Y28.024
G1 X80.333 Y28.111
G1 X80.375 Y28.202
G1 X80.409 Y28.295
G1 X80.436 Y28.391
G1 X80.456 Y28.489
G1 X80.467 Y28.588
G1 X80.471 Y28.688
G1 X80.467 Y28.788
G1 X80.456 Y28.887
G1 X80.436 Y28.985
G1 X80.409 Y29.081
G1 X80.375 Y29.175
G1 X80.333 Y29.265
G1 X80.284 Y29.352
G1 X80.229 Y29.435
G1 X80.167 Y29.514
G1 X80.099 Y29.587
G1 X80.026 Y29.655
G1 X79.947 Y29.717
G1 X79.864 Y29.772
G1 X79.777 Y29.821
G1 X79.687 Y29.863
G1 X79.593 Y29.897
G1 X79.497 Y29.924
G1 X79.399 Y29.944
G1 X79.3 Y29.955
G1 X79.2 Y29.959
; MOVEMENT_CUTTING
G1 X-79.2
; MOVEMENT_LINK_TRANSITION
G1 X-79.3 Y29.963
G1 X-79.399 Y29.975
G1 X-79.497 Y29.995
G1 X-79.593 Y30.022
G1 X-79.687 Y30.056
G1 X-79.777 Y30.098
G1 X-79.864 Y30.147
G1 X-79.947 Y30.202
G1 X-80.026 Y30.264
G1 X-80.099 Y30.332
G1 X-80.167 Y30.405
G1 X-80.229 Y30.483
G1 X-80.284 Y30.566
G1 X-80.333 Y30.654
G1 X-80.375 Y30.744
G1 X-80.409 Y30.838
G1 X-80.436 Y30.934
G1 X-80.456 Y31.032
G1 X-80.467 Y31.131
G1 X-80.471 Y31.231
G1 X-80.467 Y31.33
G1 X-80.456 Y31.43
