;Fusion 360 CAM 2.0.7421
; Posts processor: DIYCNC_Marlin20.cps
; Gcode generated: Sat Feb  8 02:01:38 2020 GMT
; Document: 4x6 Tray BothSides v1
; Setup: Adaptive1
; 
; Ranges table:
; X: Min=-76.605 Max=76.609 Size=153.213
; Y: Min=-51.205 Max=51.203 Size=102.408
; Z: Min=-6.9 Max=5 Size=11.9
; 
; Tools table:
; T1 D=3.175 CR=0 - ZMIN=-6.9 - flat end mill 

; *** START begin ***
G90
G21
M84 S0
G92 X0 Y0 Z5
; *** START end ***

; *** SECTION begin ***
;Adaptive1 - Milling - Tool: 1 -  flat end mill
; X Min: -76.605 - X Max: 76.609
; Y Min: -51.205 - Y Max: 51.203
; Z Min: -6.9 - Z Max: 5
; COMMAND_START_SPINDLE
; COMMAND_SPINDLE_CLOCKWISE
;M0 Turn ON 20000RPM
; COMMAND_COOLANT_ON
;M117  Adaptive1
G0 Z5 F300
G0 X-69.539 Y45.894 F2500
G0 Z2.003 F300
; MOVEMENT_RAMP_HELIX
G1 X-69.468 Y45.977 Z1.999 F180
G1 X-69.402 Y46.065 Z1.995
G1 X-69.343 Y46.158 Z1.991
G1 X-69.291 Y46.255 Z1.988
G1 X-69.246 Y46.355 Z1.984
G1 X-69.209 Y46.458 Z1.98
G1 X-69.179 Y46.563 Z1.976
G1 X-69.157 Y46.671 Z1.972
G1 X-69.142 Y46.78 Z1.968
G1 X-69.136 Y46.889 Z1.965
G1 X-69.138 Y46.999 Z1.961
G1 X-69.147 Y47.108 Z1.957
G1 X-69.165 Y47.217 Z1.953
G1 X-69.19 Y47.324 Z1.949
G1 X-69.223 Y47.428 Z1.945
G1 X-69.264 Y47.53 Z1.942
G1 X-69.312 Y47.629 Z1.938
G1 X-69.367 Y47.724 Z1.934
G1 X-69.429 Y47.815 Z1.93
G1 X-69.497 Y47.901 Z1.926
G1 X-69.571 Y47.981 Z1.922
G1 X-69.651 Y48.057 Z1.919
G1 X-69.736 Y48.126 Z1.915
G1 X-69.826 Y48.189 Z1.911
G1 X-69.921 Y48.245 Z1.907
G1 X-70.019 Y48.294 Z1.903
G1 X-70.12 Y48.336 Z1.899
G1 X-70.225 Y48.37 Z1.896
G1 X-70.331 Y48.397 Z1.892
G1 X-70.439 Y48.415 Z1.888
G1 X-70.549 Y48.426 Z1.884
G1 X-70.658 Y48.429 Z1.88
G1 X-70.768 Y48.424 Z1.876
G1 X-70.877 Y48.411 Z1.873
G1 X-70.985 Y48.39 Z1.869
G1 X-71.091 Y48.362 Z1.865
G1 X-71.194 Y48.325 Z1.861
G1 X-71.295 Y48.282 Z1.857
G1 X-71.392 Y48.231 Z1.853
G1 X-71.485 Y48.173 Z1.85
G1 X-71.574 Y48.108 Z1.846
G1 X-71.658 Y48.038 Z1.842
G1 X-71.736 Y47.961 Z1.838
G1 X-71.809 Y47.879 Z1.834
G1 X-71.876 Y47.791 Z1.83
G1 X-71.936 Y47.699 Z1.827
G1 X-71.989 Y47.603 Z1.823
G1 X-72.035 Y47.504 Z1.819
G1 X-72.074 Y47.401 Z1.815
G1 X-72.105 Y47.296 Z1.811
G1 X-72.128 Y47.189 Z1.807
G1 X-72.144 Y47.08 Z1.804
G1 X-72.151 Y46.97 Z1.8
G1 Y46.861 Z1.796
G1 X-72.142 Y46.751 Z1.792
G1 X-72.126 Y46.643 Z1.788
G1 X-72.102 Y46.536 Z1.784
G1 X-72.07 Y46.431 Z1.781
G1 X-72.03 Y46.328 Z1.777
G1 X-71.984 Y46.229 Z1.773
G1 X-71.93 Y46.133 Z1.769
G1 X-71.869 Y46.042 Z1.765
G1 X-71.802 Y45.955 Z1.761
G1 X-71.728 Y45.873 Z1.758
G1 X-71.649 Y45.797 Z1.754
G1 X-71.565 Y45.727 Z1.75
G1 X-71.476 Y45.663 Z1.746
G1 X-71.382 Y45.606 Z1.742
G1 X-71.284 Y45.556 Z1.738
G1 X-71.183 Y45.513 Z1.735
G1 X-71.08 Y45.477 Z1.731
G1 X-70.973 Y45.45 Z1.727
G1 X-70.865 Y45.43 Z1.723
G1 X-70.756 Y45.417 Z1.719
G1 X-70.647 Y45.413 Z1.715
G1 X-70.537 Y45.417 Z1.712
G1 X-70.428 Y45.429 Z1.708
G1 X-70.32 Y45.448 Z1.704
G1 X-70.214 Y45.476 Z1.7
G1 X-70.11 Y45.511 Z1.696
G1 X-70.009 Y45.554 Z1.692
G1 X-69.911 Y45.603 Z1.689
G1 X-69.817 Y45.66 Z1.685
G1 X-69.727 Y45.724 Z1.681
G1 X-69.643 Y45.794 Z1.677
G1 X-69.563 Y45.869 Z1.673
G1 X-69.49 Y45.951 Z1.669
G1 X-69.422 Y46.037 Z1.666
G1 X-69.361 Y46.128 Z1.662
G1 X-69.307 Y46.224 Z1.658
G1 X-69.26 Y46.323 Z1.654
G1 X-69.22 Y46.425 Z1.65
G1 X-69.187 Y46.53 Z1.646
G1 X-69.163 Y46.637 Z1.643
G1 X-69.146 Y46.746 Z1.639
G1 X-69.137 Y46.855 Z1.635
G1 X-69.136 Y46.965 Z1.631
G1 X-69.144 Y47.074 Z1.627
G1 X-69.159 Y47.183 Z1.623
G1 X-69.182 Y47.29 Z1.62
G1 X-69.212 Y47.396 Z1.616
G1 X-69.251 Y47.499 Z1.612
G1 X-69.296 Y47.598 Z1.608
G1 X-69.349 Y47.695 Z1.604
G1 X-69.409 Y47.787 Z1.6
G1 X-69.475 Y47.874 Z1.597
G1 X-69.547 Y47.957 Z1.593
G1 X-69.626 Y48.034 Z1.589
G1 X-69.709 Y48.105 Z1.585
G1 X-69.798 Y48.17 Z1.581
G1 X-69.891 Y48.228 Z1.577
G1 X-69.988 Y48.279 Z1.574
G1 X-70.088 Y48.323 Z1.57
G1 X-70.192 Y48.36 Z1.566
G1 X-70.298 Y48.389 Z1.562
G1 X-70.405 Y48.41 Z1.558
G1 X-70.514 Y48.424 Z1.554
G1 X-70.624 Y48.429 Z1.551
G1 X-70.733 Y48.427 Z1.547
G1 X-70.843 Y48.416 Z1.543
G1 X-70.951 Y48.398 Z1.539
G1 X-71.058 Y48.372 Z1.535
G1 X-71.162 Y48.338 Z1.531
G1 X-71.264 Y48.296 Z1.528
G1 X-71.362 Y48.248 Z1.524
G1 X-71.456 Y48.192 Z1.52
G1 X-71.547 Y48.129 Z1.516
G1 X-71.632 Y48.06 Z1.512
G1 X-71.712 Y47.986 Z1.508
G1 X-71.787 Y47.905 Z1.505
G1 X-71.856 Y47.819 Z1.501
G1 X-71.918 Y47.729 Z1.497
G1 X-71.973 Y47.634 Z1.493
G1 X-72.021 Y47.535 Z1.489
G1 X-72.062 Y47.434 Z1.485
G1 X-72.096 Y47.329 Z1.482
G1 X-72.122 Y47.222 Z1.478
G1 X-72.14 Y47.114 Z1.474
G1 X-72.15 Y47.005 Z1.47
G1 X-72.152 Y46.895 Z1.466
G1 X-72.146 Y46.786 Z1.462
G1 X-72.132 Y46.677 Z1.459
G1 X-72.11 Y46.569 Z1.455
G1 X-72.081 Y46.463 Z1.451
G1 X-72.044 Y46.36 Z1.447
G1 X-71.999 Y46.26 Z1.443
G1 X-71.947 Y46.163 Z1.439
G1 X-71.889 Y46.07 Z1.436
G1 X-71.824 Y45.982 Z1.432
G1 X-71.752 Y45.899 Z1.428
G1 X-71.675 Y45.821 Z1.424
G1 X-71.592 Y45.749 Z1.42
G1 X-71.504 Y45.683 Z1.416
G1 X-71.412 Y45.623 Z1.413
G1 X-71.315 Y45.571 Z1.409
G1 X-71.215 Y45.526 Z1.405
G1 X-71.112 Y45.488 Z1.401
G1 X-71.007 Y45.458 Z1.397
G1 X-70.9 Y45.435 Z1.393
G1 X-70.791 Y45.42 Z1.39
G1 X-70.681 Y45.414 Z1.386
G1 X-70.571 Y45.415 Z1.382
G1 X-70.462 Y45.424 Z1.378
G1 X-70.354 Y45.441 Z1.374
G1 X-70.247 Y45.466 Z1.37
G1 X-70.142 Y45.499 Z1.367
G1 X-70.04 Y45.539 Z1.363
G1 X-69.941 Y45.587 Z1.359
G1 X-69.846 Y45.642 Z1.355
G1 X-69.755 Y45.703 Z1.351
G1 X-69.669 Y45.771 Z1.347
G1 X-69.588 Y45.845 Z1.344
G1 X-69.512 Y45.925 Z1.34
G1 X-69.443 Y46.01 Z1.336
G1 X-69.379 Y46.099 Z1.332
G1 X-69.323 Y46.193 Z1.328
G1 X-69.274 Y46.291 Z1.324
G1 X-69.231 Y46.393 Z1.321
G1 X-69.197 Y46.497 Z1.317
G1 X-69.17 Y46.603 Z1.313
G1 X-69.15 Y46.711 Z1.309
G1 X-69.139 Y46.821 Z1.305
G1 X-69.136 Y46.93 Z1.301
G1 X-69.14 Y47.04 Z1.298
G1 X-69.153 Y47.149 Z1.294
G1 X-69.174 Y47.257 Z1.29
G1 X-69.202 Y47.363 Z1.286
G1 X-69.238 Y47.467 Z1.282
G1 X-69.281 Y47.567 Z1.278
G1 X-69.332 Y47.665 Z1.275
G1 X-69.389 Y47.758 Z1.271
G1 X-69.453 Y47.847 Z1.267
G1 X-69.524 Y47.931 Z1.263
G1 X-69.6 Y48.01 Z1.259
G1 X-69.682 Y48.083 Z1.255
G1 X-69.769 Y48.15 Z1.252
G1 X-69.861 Y48.21 Z1.248
G1 X-69.957 Y48.264 Z1.244
G1 X-70.056 Y48.31 Z1.24
G1 X-70.159 Y48.349 Z1.236
G1 X-70.264 Y48.381 Z1.232
G1 X-70.371 Y48.405 Z1.229
G1 X-70.48 Y48.42 Z1.225
G1 X-70.589 Y48.428 Z1.221
G1 X-70.699 Z1.217
G1 X-70.809 Y48.42 Z1.213
G1 X-70.917 Y48.404 Z1.209
G1 X-71.024 Y48.381 Z1.206
G1 X-71.129 Y48.349 Z1.202
G1 X-71.232 Y48.31 Z1.198
G1 X-71.331 Y48.264 Z1.194
G1 X-71.427 Y48.21 Z1.19
G1 X-71.519 Y48.15 Z1.186
G1 X-71.606 Y48.083 Z1.183
G1 X-71.688 Y48.01 Z1.179
G1 X-71.764 Y47.931 Z1.175
G1 X-71.835 Y47.847 Z1.171
G1 X-71.899 Y47.758 Z1.167
G1 X-71.956 Y47.664 Z1.163
G1 X-72.007 Y47.567 Z1.16
G1 X-72.05 Y47.466 Z1.156
G1 X-72.086 Y47.362 Z1.152
G1 X-72.114 Y47.256 Z1.148
G1 X-72.135 Y47.148 Z1.144
G1 X-72.147 Y47.039 Z1.14
G1 X-72.152 Y46.93 Z1.137
G1 X-72.149 Y46.82 Z1.133
G1 X-72.137 Y46.711 Z1.129
G1 X-72.118 Y46.603 Z1.125
G1 X-72.091 Y46.496 Z1.121
G1 X-72.056 Y46.392 Z1.117
G1 X-72.014 Y46.291 Z1.114
G1 X-71.964 Y46.193 Z1.11
G1 X-71.908 Y46.099 Z1.106
G1 X-71.845 Y46.009 Z1.102
G1 X-71.775 Y45.924 Z1.098
G1 X-71.7 Y45.844 Z1.094
G1 X-71.619 Y45.771 Z1.091
G1 X-71.532 Y45.703 Z1.087
G1 X-71.441 Y45.641 Z1.083
G1 X-71.346 Y45.587 Z1.079
G1 X-71.247 Y45.539 Z1.075
G1 X-71.145 Y45.499 Z1.071
G1 X-71.04 Y45.466 Z1.068
G1 X-70.933 Y45.441 Z1.064
G1 X-70.825 Y45.424 Z1.06
G1 X-70.716 Y45.415 Z1.056
G1 X-70.606 Y45.414 Z1.052
G1 X-70.496 Y45.42 Z1.048
G1 X-70.388 Y45.435 Z1.045
G1 X-70.28 Y45.458 Z1.041
G1 X-70.175 Y45.488 Z1.037
G1 X-70.072 Y45.526 Z1.033
G1 X-69.972 Y45.571 Z1.029
G1 X-69.875 Y45.624 Z1.025
G1 X-69.783 Y45.683 Z1.022
G1 X-69.695 Y45.749 Z1.018
G1 X-69.612 Y45.821 Z1.014
G1 X-69.535 Y45.899 Z1.01
G1 X-69.464 Y45.982 Z1.006
G1 X-69.399 Y46.071 Z1.002
G1 X-69.34 Y46.163 Z0.999
G1 X-69.288 Y46.26 Z0.995
G1 X-69.244 Y46.361 Z0.991
G1 X-69.207 Y46.464 Z0.987
G1 X-69.177 Y46.57 Z0.983
G1 X-69.156 Y46.677 Z0.979
G1 X-69.142 Y46.786 Z0.976
G1 X-69.136 Y46.896 Z0.972
G1 X-69.138 Y47.006 Z0.968
G1 X-69.148 Y47.115 Z0.964
G1 X-69.166 Y47.223 Z0.96
G1 X-69.192 Y47.33 Z0.956
G1 X-69.226 Y47.434 Z0.953
G1 X-69.267 Y47.536 Z0.949
G1 X-69.315 Y47.635 Z0.945
G1 X-69.37 Y47.729 Z0.941
G1 X-69.433 Y47.82 Z0.937
G1 X-69.501 Y47.906 Z0.933
G1 X-69.576 Y47.986 Z0.93
G1 X-69.656 Y48.061 Z0.926
G1 X-69.742 Y48.13 Z0.922
G1 X-69.832 Y48.192 Z0.918
G1 X-69.926 Y48.248 Z0.914
G1 X-70.025 Y48.297 Z0.91
G1 X-70.126 Y48.338 Z0.907
G1 X-70.231 Y48.372 Z0.903
G1 X-70.337 Y48.398 Z0.899
G1 X-70.446 Y48.416 Z0.895
G1 X-70.555 Y48.427 Z0.891
G1 X-70.665 Y48.429 Z0.887
G1 X-70.774 Y48.424 Z0.884
G1 X-70.883 Y48.41 Z0.88
G1 X-70.991 Y48.389 Z0.876
G1 X-71.097 Y48.36 Z0.872
G1 X-71.2 Y48.323 Z0.868
G1 X-71.301 Y48.279 Z0.864
G1 X-71.398 Y48.228 Z0.861
G1 X-71.491 Y48.169 Z0.857
G1 X-71.579 Y48.104 Z0.853
G1 X-71.663 Y48.033 Z0.849
G1 X-71.741 Y47.956 Z0.845
G1 X-71.813 Y47.874 Z0.841
G1 X-71.879 Y47.786 Z0.838
G1 X-71.939 Y47.694 Z0.834
G1 X-71.992 Y47.598 Z0.83
G1 X-72.037 Y47.498 Z0.826
G1 X-72.076 Y47.395 Z0.822
G1 X-72.106 Y47.29 Z0.818
G1 X-72.129 Y47.182 Z0.815
G1 X-72.144 Y47.074 Z0.811
G1 X-72.151 Y46.964 Z0.807
G1 X-72.15 Y46.854 Z0.803
G1 X-72.142 Y46.745 Z0.799
G1 X-72.125 Y46.636 Z0.795
G1 X-72.1 Y46.529 Z0.792
G1 X-72.068 Y46.425 Z0.788
G1 X-72.028 Y46.322 Z0.784
G1 X-71.981 Y46.223 Z0.78
G1 X-71.926 Y46.128 Z0.776
G1 X-71.865 Y46.037 Z0.772
G1 X-71.798 Y45.95 Z0.769
G1 X-71.724 Y45.869 Z0.765
G1 X-71.645 Y45.793 Z0.761
G1 X-71.56 Y45.723 Z0.757
G1 X-71.47 Y45.66 Z0.753
G1 X-71.376 Y45.603 Z0.749
G1 X-71.279 Y45.553 Z0.746
G1 X-71.177 Y45.511 Z0.742
G1 X-71.073 Y45.476 Z0.738
G1 X-70.967 Y45.448 Z0.734
G1 X-70.859 Y45.429 Z0.73
G1 X-70.75 Y45.417 Z0.726
G1 X-70.64 Y45.413 Z0.723
G1 X-70.531 Y45.417 Z0.719
G1 X-70.422 Y45.43 Z0.715
G1 X-70.314 Y45.45 Z0.711
G1 X-70.208 Y45.478 Z0.707
G1 X-70.104 Y45.513 Z0.703
G1 X-70.003 Y45.556 Z0.7
G1 X-69.905 Y45.606 Z0.696
G1 X-69.811 Y45.664 Z0.692
G1 X-69.722 Y45.728 Z0.688
G1 X-69.638 Y45.798 Z0.684
G1 X-69.559 Y45.874 Z0.68
G1 X-69.485 Y45.956 Z0.677
G1 X-69.418 Y46.042 Z0.673
G1 X-69.358 Y46.134 Z0.669
G1 X-69.304 Y46.23 Z0.665
G1 X-69.257 Y46.329 Z0.661
G1 X-69.218 Y46.431 Z0.657
G1 X-69.186 Y46.536 Z0.654
G1 X-69.162 Y46.643 Z0.65
G1 X-69.145 Y46.752 Z0.646
G1 X-69.137 Y46.861 Z0.642
G1 Y46.971 Z0.638
G1 X-69.144 Y47.081 Z0.634
G1 X-69.16 Y47.189 Z0.631
G1 X-69.183 Y47.296 Z0.627
G1 X-69.214 Y47.402 Z0.623
G1 X-69.253 Y47.504 Z0.619
G1 X-69.299 Y47.604 Z0.615
G1 X-69.352 Y47.7 Z0.611
G1 X-69.412 Y47.792 Z0.608
G1 X-69.479 Y47.879 Z0.604
G1 X-69.552 Y47.961 Z0.6
G1 X-69.63 Y48.038 Z0.596
G1 X-69.714 Y48.109 Z0.592
G1 X-69.803 Y48.173 Z0.588
G1 X-69.896 Y48.231 Z0.585
G1 X-69.994 Y48.282 Z0.581
G1 X-70.094 Y48.326 Z0.577
G1 X-70.198 Y48.362 Z0.573
G1 X-70.304 Y48.391 Z0.569
G1 X-70.412 Y48.411 Z0.565
G1 X-70.52 Y48.424 Z0.562
G1 X-70.63 Y48.429 Z0.558
G1 X-70.74 Y48.426 Z0.554
G1 X-70.849 Y48.415 Z0.55
G1 X-70.957 Y48.397 Z0.546
G1 X-71.064 Y48.37 Z0.542
G1 X-71.168 Y48.335 Z0.539
G1 X-71.269 Y48.294 Z0.535
G1 X-71.368 Y48.244 Z0.531
G1 X-71.462 Y48.188 Z0.527
G1 X-71.552 Y48.125 Z0.523
G1 X-71.637 Y48.056 Z0.519
G1 X-71.717 Y47.981 Z0.516
G1 X-71.791 Y47.9 Z0.512
G1 X-71.859 Y47.814 Z0.508
G1 X-71.921 Y47.723 Z0.504
G1 X-71.976 Y47.628 Z0.5
G1 X-72.024 Y47.53 Z0.496
G1 X-72.064 Y47.428 Z0.493
G1 X-72.098 Y47.323 Z0.489
G1 X-72.123 Y47.216 Z0.485
G1 X-72.14 Y47.108 Z0.481
G1 X-72.15 Y46.999 Z0.477
G1 X-72.152 Y46.889 Z0.473
G1 X-72.145 Y46.779 Z0.47
G1 X-72.131 Y46.67 Z0.466
G1 X-72.109 Y46.563 Z0.462
G1 X-72.079 Y46.457 Z0.458
G1 X-72.041 Y46.354 Z0.454
G1 X-71.996 Y46.254 Z0.45
G1 X-71.944 Y46.157 Z0.447
G1 X-71.885 Y46.065 Z0.443
G1 X-71.82 Y45.977 Z0.439
G1 X-71.748 Y45.894 Z0.435
G1 X-71.67 Y45.816 Z0.431
G1 X-71.587 Y45.745 Z0.427
G1 X-71.499 Y45.679 Z0.424
G1 X-71.406 Y45.62 Z0.42
G1 X-71.31 Y45.568 Z0.416
G1 X-71.21 Y45.523 Z0.412
G1 X-71.106 Y45.486 Z0.408
G1 X-71.001 Y45.456 Z0.404
G1 X-70.893 Y45.434 Z0.401
G1 X-70.784 Y45.42 Z0.397
G1 X-70.675 Y45.414 Z0.393
G1 X-70.565 Y45.415 Z0.389
G1 X-70.456 Y45.425 Z0.385
G1 X-70.347 Y45.443 Z0.381
G1 X-70.241 Y45.468 Z0.378
G1 X-70.136 Y45.501 Z0.374
G1 X-70.034 Y45.542 Z0.37
G1 X-69.935 Y45.59 Z0.366
G1 X-69.84 Y45.645 Z0.362
G1 X-69.75 Y45.707 Z0.358
G1 X-69.664 Y45.775 Z0.355
G1 X-69.583 Y45.849 Z0.351
G1 X-69.508 Y45.929 Z0.347
G1 X-69.439 Y46.015 Z0.343
G1 X-69.376 Y46.105 Z0.339
G1 X-69.32 Y46.199 Z0.335
G1 X-69.271 Y46.297 Z0.331
G1 X-69.229 Y46.399 Z0.328
G1 X-69.195 Y46.503 Z0.324
G1 X-69.168 Y46.61 Z0.32
G1 X-69.15 Y46.718 Z0.316
G1 X-69.139 Y46.827 Z0.312
G1 X-69.136 Y46.937 Z0.308
G1 X-69.141 Y47.046 Z0.305
G1 X-69.154 Y47.155 Z0.301
G1 X-69.175 Y47.263 Z0.297
G1 X-69.204 Y47.369 Z0.293
G1 X-69.24 Y47.472 Z0.289
G1 X-69.284 Y47.573 Z0.285
G1 X-69.335 Y47.67 Z0.282
G1 X-69.393 Y47.764 Z0.278
G1 X-69.457 Y47.852 Z0.274
G1 X-69.528 Y47.936 Z0.27
G1 X-69.605 Y48.015 Z0.266
G1 X-69.687 Y48.087 Z0.262
G1 X-69.775 Y48.154 Z0.259
G1 X-69.867 Y48.214 Z0.255
G1 X-69.963 Y48.267 Z0.251
G1 X-70.062 Y48.313 Z0.247
G1 X-70.165 Y48.351 Z0.243
G1 X-70.27 Y48.382 Z0.239
G1 X-70.378 Y48.406 Z0.236
G1 X-70.486 Y48.421 Z0.232
G1 X-70.596 Y48.429 Z0.228
G1 X-70.705 Y48.428 Z0.224
G1 X-70.815 Y48.42 Z0.22
G1 X-70.923 Y48.403 Z0.216
G1 X-71.03 Y48.379 Z0.213
G1 X-71.135 Y48.347 Z0.209
G1 X-71.238 Y48.308 Z0.205
G1 X-71.337 Y48.261 Z0.201
G1 X-71.433 Y48.207 Z0.197
G1 X-71.524 Y48.146 Z0.193
G1 X-71.611 Y48.079 Z0.19
G1 X-71.692 Y48.005 Z0.186
G1 X-71.768 Y47.926 Z0.182
G1 X-71.839 Y47.842 Z0.178
G1 X-71.902 Y47.752 Z0.174
G1 X-71.959 Y47.659 Z0.17
G1 X-72.01 Y47.561 Z0.167
G1 X-72.053 Y47.46 Z0.163
G1 X-72.088 Y47.356 Z0.159
G1 X-72.116 Y47.25 Z0.155
G1 X-72.136 Y47.142 Z0.151
G1 X-72.148 Y47.033 Z0.147
G1 X-72.152 Y46.923 Z0.144
G1 X-72.148 Y46.814 Z0.14
G1 X-72.136 Y46.704 Z0.136
G1 X-72.117 Y46.596 Z0.132
G1 X-72.089 Y46.49 Z0.128
G1 X-72.054 Y46.386 Z0.124
G1 X-72.011 Y46.285 Z0.121
G1 X-71.961 Y46.187 Z0.117
G1 X-71.904 Y46.093 Z0.113
G1 X-71.841 Y46.004 Z0.109
G1 X-71.771 Y45.919 Z0.105
G1 X-71.695 Y45.84 Z0.101
G1 X-71.614 Y45.766 Z0.098
G1 X-71.527 Y45.699 Z0.094
G1 X-71.436 Y45.638 Z0.09
G1 X-71.34 Y45.584 Z0.086
G1 X-71.241 Y45.537 Z0.082
G1 X-71.139 Y45.497 Z0.078
G1 X-71.034 Y45.465 Z0.075
G1 X-70.927 Y45.44 Z0.071
G1 X-70.819 Y45.423 Z0.067
G1 X-70.709 Y45.415 Z0.063
G1 X-70.6 Y45.414 Z0.059
G1 X-70.49 Y45.421 Z0.055
G1 X-70.381 Y45.436 Z0.052
G1 X-70.274 Y45.459 Z0.048
G1 X-70.169 Y45.49 Z0.044
G1 X-70.066 Y45.528 Z0.04
G1 X-69.966 Y45.574 Z0.036
G1 X-69.87 Y45.627 Z0.032
G1 X-69.778 Y45.687 Z0.029
G1 X-69.69 Y45.753 Z0.025
G1 X-69.608 Y45.825 Z0.021
G1 X-69.531 Y45.904 Z0.017
G1 X-69.46 Y45.987 Z0.013
G1 X-69.395 Y46.076 Z0.009
G1 X-69.337 Y46.169 Z0.006
G1 X-69.286 Y46.266 Z0.002
G1 X-69.241 Y46.367 Z-0.002
G1 X-69.205 Y46.47 Z-0.006
G1 X-69.176 Y46.576 Z-0.01
G1 X-69.155 Y46.684 Z-0.014
G1 X-69.141 Y46.793 Z-0.017
G1 X-69.136 Y46.902 Z-0.021
G1 X-69.138 Y47.012 Z-0.025
G1 X-69.149 Y47.121 Z-0.029
G1 X-69.168 Y47.229 Z-0.033
G1 X-69.194 Y47.336 Z-0.037
G1 X-69.228 Y47.44 Z-0.04
G1 X-69.269 Y47.542 Z-0.044
G1 X-69.318 Y47.64 Z-0.048
G1 X-69.374 Y47.735 Z-0.052
G1 X-69.436 Y47.825 Z-0.056
G1 X-69.505 Y47.91 Z-0.06
G1 X-69.58 Y47.991 Z-0.063
G1 X-69.661 Y48.065 Z-0.067
G1 X-69.747 Y48.134 Z-0.071
G1 X-69.837 Y48.196 Z-0.075
G1 X-69.932 Y48.251 Z-0.079
G1 X-70.031 Y48.299 Z-0.083
G1 X-70.132 Y48.34 Z-0.086
G1 X-70.237 Y48.374 Z-0.09
G1 X-70.344 Y48.399 Z-0.094
G1 X-70.452 Y48.417 Z-0.098
G1 X-70.561 Y48.427 Z-0.102
G1 X-70.671 Y48.429 Z-0.106
G1 X-70.781 Y48.423 Z-0.109
G1 X-70.889 Y48.409 Z-0.113
G1 X-70.997 Y48.387 Z-0.117
G1 X-71.103 Y48.358 Z-0.121
G1 X-71.206 Y48.321 Z-0.125
G1 X-71.306 Y48.276 Z-0.129
G1 X-71.403 Y48.224 Z-0.132
G1 X-71.496 Y48.166 Z-0.136
G1 X-71.584 Y48.1 Z-0.14
G1 X-71.667 Y48.029 Z-0.144
G1 X-71.745 Y47.952 Z-0.148
G1 X-71.817 Y47.869 Z-0.152
G1 X-71.883 Y47.781 Z-0.155
G1 X-71.942 Y47.689 Z-0.159
G1 X-71.995 Y47.592 Z-0.163
G1 X-72.04 Y47.492 Z-0.167
G1 X-72.078 Y47.389 Z-0.171
G1 X-72.108 Y47.283 Z-0.175
G1 X-72.13 Y47.176 Z-0.178
G1 X-72.145 Y47.067 Z-0.182
G1 X-72.152 Y46.958 Z-0.186
G1 X-72.15 Y46.848 Z-0.19
G1 X-72.141 Y46.739 Z-0.194
G1 X-72.124 Y46.63 Z-0.198
G1 X-72.099 Y46.523 Z-0.201
G1 X-72.066 Y46.419 Z-0.205
G1 X-72.025 Y46.316 Z-0.209
G1 X-71.978 Y46.218 Z-0.213
G1 X-71.923 Y46.122 Z-0.217
G1 X-71.862 Y46.032 Z-0.221
G1 X-71.794 Y45.945 Z-0.224
G1 X-71.72 Y45.864 Z-0.228
G1 X-71.64 Y45.789 Z-0.232
G1 X-71.555 Y45.719 Z-0.236
G1 X-71.465 Y45.656 Z-0.24
G1 X-71.371 Y45.6 Z-0.244
G1 X-71.273 Y45.551 Z-0.247
G1 X-71.171 Y45.508 Z-0.251
G1 X-71.067 Y45.474 Z-0.255
G1 X-70.961 Y45.447 Z-0.259
G1 X-70.853 Y45.428 Z-0.263
G1 X-70.744 Y45.416 Z-0.267
G1 X-70.634 Y45.413 Z-0.27
G1 X-70.524 Y45.418 Z-0.274
G1 X-70.415 Y45.431 Z-0.278
G1 X-70.307 Y45.451 Z-0.282
G1 X-70.201 Y45.48 Z-0.286
G1 X-70.098 Y45.516 Z-0.29
G1 X-69.997 Y45.559 Z-0.293
G1 X-69.9 Y45.61 Z-0.297
G1 X-69.806 Y45.667 Z-0.301
G1 X-69.717 Y45.731 Z-0.305
G1 X-69.633 Y45.802 Z-0.309
G1 X-69.554 Y45.879 Z-0.313
G1 X-69.481 Y45.961 Z-0.316
G1 X-69.415 Y46.048 Z-0.32
G1 X-69.354 Y46.139 Z-0.324
G1 X-69.301 Y46.235 Z-0.328
G1 X-69.255 Y46.335 Z-0.332
G1 X-69.216 Y46.437 Z-0.336
G1 X-69.184 Y46.542 Z-0.339
G1 X-69.16 Y46.65 Z-0.343
G1 X-69.145 Y46.758 Z-0.347
G1 X-69.137 Y46.868 Z-0.351
G1 Y46.977 Z-0.355
G1 X-69.145 Y47.087 Z-0.359
G1 X-69.161 Y47.196 Z-0.362
G1 X-69.185 Y47.303 Z-0.366
G1 X-69.216 Y47.408 Z-0.37
G1 X-69.256 Y47.51 Z-0.374
G1 X-69.302 Y47.61 Z-0.378
G1 X-69.356 Y47.705 Z-0.382
G1 X-69.416 Y47.797 Z-0.385
G1 X-69.483 Y47.884 Z-0.389
G1 X-69.556 Y47.966 Z-0.393
G1 X-69.635 Y48.042 Z-0.397
G1 X-69.719 Y48.113 Z-0.401
G1 X-69.808 Y48.177 Z-0.405
G1 X-69.902 Y48.234 Z-0.408
G1 X-69.999 Y48.285 Z-0.412
G1 X-70.1 Y48.328 Z-0.416
G1 X-70.204 Y48.364 Z-0.42
G1 X-70.31 Y48.392 Z-0.424
G1 X-70.418 Y48.412 Z-0.428
G1 X-70.527 Y48.425 Z-0.431
G1 X-70.637 Y48.429 Z-0.435
G1 X-70.746 Y48.426 Z-0.439
G1 X-70.855 Y48.415 Z-0.443
G1 X-70.963 Y48.395 Z-0.447
G1 X-71.07 Y48.368 Z-0.451
G1 X-71.174 Y48.333 Z-0.454
G1 X-71.275 Y48.291 Z-0.458
G1 X-71.373 Y48.241 Z-0.462
G1 X-71.467 Y48.185 Z-0.466
G1 X-71.557 Y48.122 Z-0.47
G1 X-71.642 Y48.052 Z-0.474
G1 X-71.721 Y47.976 Z-0.477
G1 X-71.795 Y47.895 Z-0.481
G1 X-71.863 Y47.809 Z-0.485
G1 X-71.924 Y47.718 Z-0.489
G1 X-71.979 Y47.623 Z-0.493
G1 X-72.026 Y47.524 Z-0.497
G1 X-72.067 Y47.422 Z-0.5
G1 X-72.099 Y47.317 Z-0.504
G1 X-72.124 Y47.21 Z-0.508
G1 X-72.141 Y47.102 Z-0.512
G1 X-72.15 Y46.992 Z-0.516
G1 X-72.151 Y46.882 Z-0.52
G1 X-72.145 Y46.773 Z-0.523
G1 X-72.13 Y46.664 Z-0.527
G1 X-72.107 Y46.557 Z-0.531
G1 X-72.077 Y46.451 Z-0.535
G1 X-72.039 Y46.348 Z-0.539
G1 X-71.993 Y46.248 Z-0.543
G1 X-71.941 Y46.152 Z-0.546
G1 X-71.882 Y46.06 Z-0.55
G1 X-71.816 Y45.972 Z-0.554
G1 X-71.743 Y45.889 Z-0.558
G1 X-71.665 Y45.812 Z-0.562
G1 X-71.582 Y45.741 Z-0.566
G1 X-71.494 Y45.675 Z-0.569
G1 X-71.401 Y45.617 Z-0.573
G1 X-71.304 Y45.565 Z-0.577
G1 X-71.204 Y45.521 Z-0.581
G1 X-71.1 Y45.484 Z-0.585
G1 X-70.995 Y45.455 Z-0.589
G1 X-70.887 Y45.433 Z-0.592
G1 X-70.778 Y45.419 Z-0.596
G1 X-70.668 Y45.413 Z-0.6
G1 X-70.559 Y45.416 Z-0.604
G1 X-70.449 Y45.426 Z-0.608
G1 X-70.341 Y45.444 Z-0.612
G1 X-70.234 Y45.47 Z-0.615
G1 X-70.13 Y45.503 Z-0.619
G1 X-70.028 Y45.545 Z-0.623
G1 X-69.93 Y45.593 Z-0.627
G1 X-69.835 Y45.648 Z-0.631
G1 X-69.745 Y45.711 Z-0.635
G1 X-69.659 Y45.779 Z-0.638
G1 X-69.578 Y45.854 Z-0.642
G1 X-69.504 Y45.934 Z-0.646
G1 X-69.435 Y46.02 Z-0.65
G1 X-69.373 Y46.11 Z-0.654
G1 X-69.317 Y46.205 Z-0.658
G1 X-69.268 Y46.303 Z-0.661
G1 X-69.227 Y46.405 Z-0.665
G1 X-69.193 Y46.509 Z-0.669
G1 X-69.167 Y46.616 Z-0.673
G1 X-69.149 Y46.724 Z-0.677
G1 X-69.138 Y46.833 Z-0.681
G1 X-69.136 Y46.943 Z-0.684
G1 X-69.141 Y47.053 Z-0.688
G1 X-69.155 Y47.162 Z-0.692
G1 X-69.176 Y47.269 Z-0.696
G1 X-69.206 Y47.375 Z-0.7
G1 X-69.242 Y47.478 Z-0.704
G1 X-69.287 Y47.579 Z-0.707
G1 X-69.338 Y47.676 Z-0.711
G1 X-69.396 Y47.769 Z-0.715
G1 X-69.461 Y47.857 Z-0.719
G1 X-69.533 Y47.941 Z-0.723
G1 X-69.61 Y48.019 Z-0.727
G1 X-69.692 Y48.091 Z-0.73
G1 X-69.78 Y48.157 Z-0.734
G1 X-69.872 Y48.217 Z-0.738
G1 X-69.968 Y48.27 Z-0.742
G1 X-70.068 Y48.315 Z-0.746
G1 X-70.171 Y48.353 Z-0.75
G1 X-70.276 Y48.384 Z-0.753
G1 X-70.384 Y48.407 Z-0.757
G1 X-70.493 Y48.422 Z-0.761
G1 X-70.602 Y48.429 Z-0.765
G1 X-70.712 Y48.428 Z-0.769
G1 X-70.821 Y48.419 Z-0.773
G1 X-70.93 Y48.402 Z-0.776
G1 X-71.037 Y48.377 Z-0.78
G1 X-71.141 Y48.345 Z-0.784
G1 X-71.244 Y48.305 Z-0.788
G1 X-71.343 Y48.258 Z-0.792
G1 X-71.438 Y48.203 Z-0.796
G1 X-71.529 Y48.142 Z-0.799
G1 X-71.616 Y48.075 Z-0.803
G1 X-71.697 Y48.001 Z-0.807
G1 X-71.773 Y47.921 Z-0.811
G1 X-71.842 Y47.837 Z-0.815
G1 X-71.906 Y47.747 Z-0.819
G1 X-71.963 Y47.653 Z-0.822
G1 X-72.012 Y47.555 Z-0.826
G1 X-72.055 Y47.454 Z-0.83
G1 X-72.09 Y47.35 Z-0.834
G1 X-72.117 Y47.244 Z-0.838
G1 X-72.137 Y47.136 Z-0.842
G1 X-72.148 Y47.027 Z-0.845
G1 X-72.152 Y46.917 Z-0.849
G1 X-72.148 Y46.807 Z-0.853
G1 X-72.135 Y46.698 Z-0.857
G1 X-72.115 Y46.59 Z-0.861
G1 X-72.087 Y46.484 Z-0.865
G1 X-72.052 Y46.38 Z-0.868
G1 X-72.009 Y46.279 Z-0.872
G1 X-71.958 Y46.182 Z-0.876
G1 X-71.901 Y46.088 Z-0.88
G1 X-71.837 Y45.999 Z-0.884
G1 X-71.767 Y45.915 Z-0.888
G1 X-71.691 Y45.836 Z-0.891
G1 X-71.609 Y45.762 Z-0.895
G1 X-71.522 Y45.695 Z-0.899
G1 X-71.43 Y45.635 Z-0.903
G1 X-71.335 Y45.581 Z-0.907
G1 X-71.235 Y45.534 Z-0.911
G1 X-71.133 Y45.495 Z-0.914
G1 X-71.028 Y45.463 Z-0.918
G1 X-70.921 Y45.439 Z-0.922
G1 X-70.812 Y45.423 Z-0.926
G1 X-70.703 Y45.414 Z-0.93
G1 X-70.593 Z-0.934
G1 X-70.484 Y45.422 Z-0.937
G1 X-70.375 Y45.437 Z-0.941
G1 X-70.268 Y45.461 Z-0.945
G1 X-70.163 Y45.492 Z-0.949
G1 X-70.06 Y45.531 Z-0.953
G1 X-69.96 Y45.577 Z-0.957
G1 X-69.864 Y45.63 Z-0.96
G1 X-69.772 Y45.69 Z-0.964
G1 X-69.685 Y45.757 Z-0.968
G1 X-69.603 Y45.83 Z-0.972
G1 X-69.527 Y45.908 Z-0.976
G1 X-69.456 Y45.992 Z-0.98
G1 X-69.391 Y46.081 Z-0.983
G1 X-69.334 Y46.175 Z-0.987
G1 X-69.283 Y46.272 Z-0.991
G1 X-69.239 Y46.373 Z-0.995
G1 X-69.203 Y46.476 Z-0.999
G1 X-69.174 Y46.582 Z-1.003
G1 X-69.154 Y46.69 Z-1.006
G1 X-69.141 Y46.799 Z-1.01
G1 X-69.136 Y46.909 Z-1.014
G1 X-69.139 Y47.018 Z-1.018
G1 X-69.15 Y47.127 Z-1.022
G1 X-69.169 Y47.236 Z-1.026
G1 X-69.196 Y47.342 Z-1.029
G1 X-69.23 Y47.446 Z-1.033
G1 X-69.272 Y47.548 Z-1.037
G1 X-69.321 Y47.646 Z-1.041
G1 X-69.377 Y47.74 Z-1.045
G1 X-69.44 Y47.83 Z-1.049
G1 X-69.51 Y47.915 Z-1.052
G1 X-69.585 Y47.995 Z-1.056
G1 X-69.666 Y48.069 Z-1.06
G1 X-69.752 Y48.137 Z-1.064
G1 X-69.843 Y48.199 Z-1.068
G1 X-69.938 Y48.254 Z-1.072
G1 X-70.036 Y48.302 Z-1.075
G1 X-70.138 Y48.342 Z-1.079
G1 X-70.243 Y48.375 Z-1.083
G1 X-70.35 Y48.401 Z-1.087
G1 X-70.458 Y48.418 Z-1.091
G1 X-70.568 Y48.428 Z-1.095
G1 X-70.677 Y48.429 Z-1.098
G1 X-70.787 Y48.423 Z-1.102
G1 X-70.896 Y48.408 Z-1.106
G1 X-71.003 Y48.386 Z-1.11
G1 X-71.109 Y48.356 Z-1.114
G1 X-71.212 Y48.318 Z-1.118
G1 X-71.312 Y48.273 Z-1.121
G1 X-71.409 Y48.221 Z-1.125
G1 X-71.501 Y48.162 Z-1.129
G1 X-71.589 Y48.096 Z-1.133
G1 X-71.672 Y48.025 Z-1.137
G1 X-71.75 Y47.947 Z-1.141
G1 X-71.821 Y47.864 Z-1.144
G1 X-71.887 Y47.776 Z-1.148
G1 X-71.945 Y47.683 Z-1.152
G1 X-71.997 Y47.586 Z-1.156
G1 X-72.042 Y47.486 Z-1.16
G1 X-72.08 Y47.383 Z-1.164
G1 X-72.109 Y47.277 Z-1.167
G1 X-72.131 Y47.17 Z-1.171
G1 X-72.146 Y47.061 Z-1.175
G1 X-72.152 Y46.951 Z-1.179
G1 X-72.15 Y46.842 Z-1.183
G1 X-72.14 Y46.732 Z-1.187
G1 X-72.122 Y46.624 Z-1.19
G1 X-72.097 Y46.517 Z-1.194
G1 X-72.064 Y46.413 Z-1.198
G1 X-72.023 Y46.311 Z-1.202
G1 X-71.975 Y46.212 Z-1.206
G1 X-71.92 Y46.117 Z-1.21
G1 X-71.858 Y46.026 Z-1.213
G1 X-71.789 Y45.94 Z-1.217
G1 X-71.715 Y45.86 Z-1.221
G1 X-71.635 Y45.785 Z-1.225
G1 X-71.55 Y45.716 Z-1.229
G1 X-71.46 Y45.653 Z-1.233
G1 X-71.365 Y45.597 Z-1.236
G1 X-71.267 Y45.548 Z-1.24
G1 X-71.165 Y45.506 Z-1.244
G1 X-71.061 Y45.472 Z-1.248
G1 X-70.955 Y45.446 Z-1.252
G1 X-70.847 Y45.427 Z-1.256
G1 X-70.737 Y45.416 Z-1.259
G1 X-70.628 Y45.413 Z-1.263
G1 X-70.518 Y45.418 Z-1.267
G1 X-70.409 Y45.432 Z-1.271
G1 X-70.301 Y45.453 Z-1.275
G1 X-70.195 Y45.481 Z-1.279
G1 X-70.092 Y45.518 Z-1.282
G1 X-69.991 Y45.562 Z-1.286
G1 X-69.894 Y45.613 Z-1.29
G1 X-69.801 Y45.671 Z-1.294
G1 X-69.712 Y45.735 Z-1.298
G1 X-69.628 Y45.806 Z-1.302
G1 X-69.55 Y45.883 Z-1.305
G1 X-69.477 Y45.965 Z-1.309
G1 X-69.411 Y46.053 Z-1.313
G1 X-69.351 Y46.145 Z-1.317
G1 X-69.298 Y46.241 Z-1.321
G1 X-69.252 Y46.341 Z-1.325
G1 X-69.213 Y46.443 Z-1.328
G1 X-69.183 Y46.549 Z-1.332
G1 X-69.159 Y46.656 Z-1.336
G1 X-69.144 Y46.765 Z-1.34
G1 X-69.136 Y46.874 Z-1.344
G1 X-69.137 Y46.984 Z-1.348
G1 X-69.146 Y47.093 Z-1.352
G1 X-69.162 Y47.202 Z-1.355
G1 X-69.186 Y47.309 Z-1.359
G1 X-69.218 Y47.414 Z-1.363
G1 X-69.258 Y47.516 Z-1.367
G1 X-69.305 Y47.615 Z-1.371
G1 X-69.359 Y47.711 Z-1.375
G1 X-69.42 Y47.802 Z-1.378
G1 X-69.487 Y47.889 Z-1.382
G1 X-69.561 Y47.971 Z-1.386
G1 X-69.64 Y48.047 Z-1.39
G1 X-69.724 Y48.117 Z-1.394
G1 X-69.814 Y48.18 Z-1.398
G1 X-69.907 Y48.237 Z-1.401
G1 X-70.005 Y48.287 Z-1.405
G1 X-70.106 Y48.33 Z-1.409
G1 X-70.21 Y48.366 Z-1.413
G1 X-70.316 Y48.393 Z-1.417
G1 X-70.424 Y48.413 Z-1.421
G1 X-70.533 Y48.425 Z-1.424
G1 X-70.643 Y48.429 Z-1.428
G1 X-70.753 Y48.426 Z-1.432
G1 X-70.862 Y48.414 Z-1.436
G1 X-70.97 Y48.394 Z-1.44
G1 X-71.076 Y48.366 Z-1.444
G1 X-71.18 Y48.331 Z-1.447
G1 X-71.281 Y48.288 Z-1.451
G1 X-71.379 Y48.238 Z-1.455
G1 X-71.473 Y48.181 Z-1.459
G1 X-71.562 Y48.118 Z-1.463
G1 X-71.647 Y48.048 Z-1.467
G1 X-71.726 Y47.972 Z-1.47
G1 X-71.799 Y47.89 Z-1.474
G1 X-71.867 Y47.804 Z-1.478
G1 X-71.928 Y47.713 Z-1.482
G1 X-71.982 Y47.617 Z-1.486
G1 X-72.029 Y47.518 Z-1.49
G1 X-72.069 Y47.416 Z-1.493
G1 X-72.101 Y47.311 Z-1.497
G1 X-72.125 Y47.204 Z-1.501
G1 X-72.142 Y47.095 Z-1.505
G1 X-72.151 Y46.986 Z-1.509
G1 Y46.876 Z-1.513
G1 X-72.144 Y46.766 Z-1.516
G1 X-72.129 Y46.658 Z-1.52
G1 X-72.106 Y46.55 Z-1.524
G1 X-72.075 Y46.445 Z-1.528
G1 X-72.036 Y46.342 Z-1.532
G1 X-71.991 Y46.243 Z-1.536
G1 X-71.938 Y46.146 Z-1.539
G1 X-71.878 Y46.054 Z-1.543
G1 X-71.812 Y45.967 Z-1.547
G1 X-71.739 Y45.885 Z-1.551
G1 X-71.661 Y45.808 Z-1.555
G1 X-71.577 Y45.737 Z-1.559
G1 X-71.488 Y45.672 Z-1.562
G1 X-71.395 Y45.614 Z-1.566
G1 X-71.298 Y45.563 Z-1.57
G1 X-71.198 Y45.519 Z-1.574
G1 X-71.094 Y45.482 Z-1.578
G1 X-70.988 Y45.453 Z-1.582
G1 X-70.881 Y45.432 Z-1.585
G1 X-70.772 Y45.419 Z-1.589
G1 X-70.662 Y45.413 Z-1.593
G1 X-70.552 Y45.416 Z-1.597
G1 X-70.443 Y45.427 Z-1.601
G1 X-70.335 Y45.445 Z-1.605
G1 X-70.228 Y45.472 Z-1.608
G1 X-70.124 Y45.506 Z-1.612
G1 X-70.022 Y45.547 Z-1.616
G1 X-69.924 Y45.596 Z-1.62
G1 X-69.83 Y45.652 Z-1.624
G1 X-69.739 Y45.714 Z-1.628
G1 X-69.654 Y45.783 Z-1.631
G1 X-69.574 Y45.858 Z-1.635
G1 X-69.499 Y45.939 Z-1.639
G1 X-69.431 Y46.025 Z-1.643
G1 X-69.369 Y46.115 Z-1.647
G1 X-69.314 Y46.21 Z-1.651
G1 X-69.266 Y46.309 Z-1.654
G1 X-69.225 Y46.411 Z-1.658
G1 X-69.191 Y46.515 Z-1.662
G1 X-69.166 Y46.622 Z-1.666
G1 X-69.148 Y46.73 Z-1.67
G1 X-69.138 Y46.84 Z-1.674
G1 X-69.136 Y46.949 Z-1.677
G1 X-69.142 Y47.059 Z-1.681
G1 X-69.156 Y47.168 Z-1.685
G1 X-69.178 Y47.275 Z-1.689
G1 X-69.208 Y47.381 Z-1.693
G1 X-69.245 Y47.484 Z-1.697
G1 X-69.289 Y47.585 Z-1.7
G1 X-69.341 Y47.681 Z-1.704
G1 X-69.4 Y47.774 Z-1.708
G1 X-69.465 Y47.862 Z-1.712
G1 X-69.537 Y47.946 Z-1.716
G1 X-69.614 Y48.023 Z-1.72
G1 X-69.697 Y48.095 Z-1.723
G1 X-69.785 Y48.161 Z-1.727
G1 X-69.877 Y48.22 Z-1.731
G1 X-69.974 Y48.272 Z-1.735
G1 X-70.074 Y48.318 Z-1.739
G1 X-70.177 Y48.355 Z-1.743
G1 X-70.283 Y48.386 Z-1.746
G1 X-70.39 Y48.408 Z-1.75
G1 X-70.499 Y48.422 Z-1.754
G1 X-70.608 Y48.429 Z-1.758
G1 X-70.718 Y48.428 Z-1.762
G1 X-70.828 Y48.418 Z-1.766
G1 X-70.936 Y48.401 Z-1.769
G1 X-71.043 Y48.376 Z-1.773
G1 X-71.147 Y48.343 Z-1.777
G1 X-71.25 Y48.302 Z-1.781
G1 X-71.348 Y48.255 Z-1.785
G1 X-71.444 Y48.2 Z-1.789
G1 X-71.534 Y48.138 Z-1.792
G1 X-71.621 Y48.07 Z-1.796
G1 X-71.702 Y47.996 Z-1.8
G1 X-71.777 Y47.917 Z-1.804
G1 X-71.846 Y47.832 Z-1.808
G1 X-71.909 Y47.742 Z-1.812
G1 X-71.966 Y47.647 Z-1.815
G1 X-72.015 Y47.549 Z-1.819
G1 X-72.057 Y47.448 Z-1.823
G1 X-72.092 Y47.344 Z-1.827
G1 X-72.118 Y47.237 Z-1.831
G1 X-72.138 Y47.129 Z-1.835
G1 X-72.149 Y47.02 Z-1.838
G1 X-72.152 Y46.91 Z-1.842
G1 X-72.147 Y46.801 Z-1.846
G1 X-72.134 Y46.692 Z-1.85
G1 X-72.114 Y46.584 Z-1.854
G1 X-72.085 Y46.478 Z-1.858
G1 X-72.049 Y46.374 Z-1.861
G1 X-72.006 Y46.274 Z-1.865
G1 X-71.955 Y46.176 Z-1.869
G1 X-71.897 Y46.083 Z-1.873
G1 X-71.833 Y45.994 Z-1.877
G1 X-71.762 Y45.91 Z-1.881
G1 X-71.686 Y45.831 Z-1.884
G1 X-71.604 Y45.758 Z-1.888
G1 X-71.517 Y45.691 Z-1.892
G1 X-71.425 Y45.631 Z-1.896
G1 X-71.329 Y45.578 Z-1.9
G1 X-71.23 Y45.532 Z-1.904
G1 X-71.127 Y45.493 Z-1.907
G1 X-71.022 Y45.461 Z-1.911
G1 X-70.915 Y45.438 Z-1.915
G1 X-70.806 Y45.422 Z-1.919
G1 X-70.697 Y45.414 Z-1.923
G1 X-70.587 Z-1.927
G1 X-70.477 Y45.422 Z-1.93
G1 X-70.369 Y45.438 Z-1.934
G1 X-70.262 Y45.462 Z-1.938
G1 X-70.157 Y45.494 Z-1.942
G1 X-70.054 Y45.533 Z-1.946
G1 X-69.955 Y45.58 Z-1.95
G1 X-69.859 Y45.634 Z-1.953
G1 X-69.767 Y45.694 Z-1.957
G1 X-69.68 Y45.761 Z-1.961
G1 X-69.599 Y45.834 Z-1.965
G1 X-69.522 Y45.913 Z-1.969
G1 X-69.452 Y45.997 Z-1.973
G1 X-69.388 Y46.087 Z-1.976
G1 X-69.33 Y46.18 Z-1.98
G1 X-69.28 Y46.278 Z-1.984
G1 X-69.237 Y46.378 Z-1.988
G1 X-69.201 Y46.482 Z-1.992
G1 X-69.173 Y46.588 Z-1.996
G1 X-69.153 Y46.696 Z-1.999
G1 X-69.14 Y46.805 Z-2.003
G1 X-69.136 Y46.915 Z-2.007
G1 X-69.139 Y47.025 Z-2.011
G1 X-69.151 Y47.134 Z-2.015
G1 X-69.17 Y47.242 Z-2.019
G1 X-69.197 Y47.348 Z-2.022
G1 X-69.232 Y47.452 Z-2.026
G1 X-69.275 Y47.553 Z-2.03
G1 X-69.324 Y47.651 Z-2.034
G1 X-69.381 Y47.745 Z-2.038
G1 X-69.444 Y47.835 Z-2.042
G1 X-69.514 Y47.92 Z-2.045
G1 X-69.589 Y47.999 Z-2.049
G1 X-69.671 Y48.073 Z-2.053
G1 X-69.757 Y48.141 Z-2.057
G1 X-69.848 Y48.202 Z-2.061
G1 X-69.943 Y48.257 Z-2.065
G1 X-70.042 Y48.304 Z-2.068
G1 X-70.144 Y48.344 Z-2.072
G1 X-70.249 Y48.377 Z-2.076
G1 X-70.356 Y48.402 Z-2.08
G1 X-70.465 Y48.419 Z-2.084
G1 X-70.574 Y48.428 Z-2.088
G1 X-70.684 Y48.429 Z-2.091
G1 X-70.793 Y48.422 Z-2.095
G1 X-70.902 Y48.407 Z-2.099
G1 X-71.009 Y48.384 Z-2.103
G1 X-71.115 Y48.354 Z-2.107
G1 X-71.218 Y48.316 Z-2.111
G1 X-71.318 Y48.271 Z-2.114
G1 X-71.414 Y48.218 Z-2.118
G1 X-71.506 Y48.158 Z-2.122
G1 X-71.594 Y48.092 Z-2.126
G1 X-71.677 Y48.02 Z-2.13
G1 X-71.754 Y47.942 Z-2.134
G1 X-71.825 Y47.859 Z-2.137
G1 X-71.89 Y47.77 Z-2.141
G1 X-71.949 Y47.677 Z-2.145
G1 X-72 Y47.581 Z-2.149
G1 X-72.045 Y47.48 Z-2.153
G1 X-72.082 Y47.377 Z-2.157
G1 X-72.111 Y47.271 Z-2.16
G1 X-72.132 Y47.163 Z-2.164
G1 X-72.146 Y47.055 Z-2.168
G1 X-72.152 Y46.945 Z-2.172
G1 X-72.15 Y46.835 Z-2.176
G1 X-72.139 Y46.726 Z-2.18
G1 X-72.121 Y46.618 Z-2.183
G1 X-72.095 Y46.511 Z-2.187
G1 X-72.061 Y46.407 Z-2.191
G1 X-72.02 Y46.305 Z-2.195
G1 X-71.972 Y46.206 Z-2.199
G1 X-71.916 Y46.112 Z-2.203
G1 X-71.854 Y46.021 Z-2.206
G1 X-71.785 Y45.936 Z-2.21
G1 X-71.711 Y45.855 Z-2.214
G1 X-71.63 Y45.78 Z-2.218
G1 X-71.545 Y45.712 Z-2.222
G1 X-71.454 Y45.649 Z-2.226
G1 X-71.36 Y45.594 Z-2.229
G1 X-71.261 Y45.545 Z-2.233
G1 X-71.16 Y45.504 Z-2.237
G1 X-71.055 Y45.47 Z-2.241
G1 X-70.948 Y45.444 Z-2.245
G1 X-70.84 Y45.426 Z-2.249
G1 X-70.731 Y45.416 Z-2.252
G1 X-70.621 Y45.413 Z-2.256
G1 X-70.512 Y45.419 Z-2.26
G1 X-70.403 Y45.433 Z-2.264
G1 X-70.295 Y45.454 Z-2.268
G1 X-70.189 Y45.483 Z-2.272
G1 X-70.086 Y45.52 Z-2.275
G1 X-69.985 Y45.565 Z-2.279
G1 X-69.889 Y45.616 Z-2.283
G1 X-69.796 Y45.674 Z-2.287
G1 X-69.707 Y45.739 Z-2.291
G1 X-69.624 Y45.811 Z-2.295
G1 X-69.546 Y45.888 Z-2.298
G1 X-69.473 Y45.97 Z-2.302
G1 X-69.407 Y46.058 Z-2.306
G1 X-69.348 Y46.15 Z-2.31
G1 X-69.295 Y46.247 Z-2.314
G1 X-69.25 Y46.346 Z-2.318
G1 X-69.211 Y46.449 Z-2.321
G1 X-69.181 Y46.555 Z-2.325
G1 X-69.158 Y46.662 Z-2.329
G1 X-69.143 Y46.771 Z-2.333
G1 X-69.136 Y46.88 Z-2.337
G1 X-69.137 Y46.99 Z-2.341
G1 X-69.146 Y47.1 Z-2.344
G1 X-69.163 Y47.208 Z-2.348
G1 X-69.188 Y47.315 Z-2.352
G1 X-69.221 Y47.42 Z-2.356
G1 X-69.261 Y47.522 Z-2.36
G1 X-69.308 Y47.621 Z-2.364
G1 X-69.362 Y47.716 Z-2.367
G1 X-69.424 Y47.807 Z-2.371
G1 X-69.491 Y47.894 Z-2.375
G1 X-69.565 Y47.975 Z-2.379
G1 X-69.645 Y48.051 Z-2.383
G1 X-69.729 Y48.12 Z-2.387
G1 X-69.819 Y48.184 Z-2.39
G1 X-69.913 Y48.24 Z-2.394
G1 X-70.011 Y48.29 Z-2.398
G1 X-70.112 Y48.333 Z-2.402
G1 X-70.216 Y48.368 Z-2.406
G1 X-70.322 Y48.395 Z-2.41
G1 X-70.43 Y48.414 Z-2.413
G1 X-70.54 Y48.426 Z-2.417
G1 X-70.649 Y48.429 Z-2.421
G1 X-70.759 Y48.425 Z-2.425
G1 X-70.868 Y48.413 Z-2.429
G1 X-70.976 Y48.392 Z-2.433
G1 X-71.082 Y48.364 Z-2.436
G1 X-71.186 Y48.329 Z-2.44
G1 X-71.287 Y48.286 Z-2.444
G1 X-71.384 Y48.235 Z-2.448
G1 X-71.478 Y48.178 Z-2.452
G1 X-71.567 Y48.114 Z-2.456
G1 X-71.651 Y48.044 Z-2.459
G1 X-71.73 Y47.967 Z-2.463
G1 X-71.803 Y47.886 Z-2.467
G1 X-71.871 Y47.799 Z-2.471
G1 X-71.931 Y47.707 Z-2.475
G1 X-71.985 Y47.611 Z-2.479
G1 X-72.031 Y47.512 Z-2.482
G1 X-72.071 Y47.41 Z-2.486
G1 X-72.102 Y47.304 Z-2.49
G1 X-72.126 Y47.197 Z-2.494
G1 X-72.143 Y47.089 Z-2.498
G1 X-72.151 Y46.979 Z-2.502
G1 Y46.87 Z-2.505
G1 X-72.143 Y46.76 Z-2.509
G1 X-72.128 Y46.652 Z-2.513
G1 X-72.104 Y46.544 Z-2.517
G1 X-72.073 Y46.439 Z-2.521
G1 X-72.034 Y46.336 Z-2.525
G1 X-71.988 Y46.237 Z-2.528
G1 X-71.934 Y46.141 Z-2.532
G1 X-71.874 Y46.049 Z-2.536
G1 X-71.808 Y45.962 Z-2.54
G1 X-71.735 Y45.88 Z-2.544
G1 X-71.656 Y45.803 Z-2.548
G1 X-71.572 Y45.733 Z-2.551
G1 X-71.483 Y45.668 Z-2.555
G1 X-71.39 Y45.611 Z-2.559
G1 X-71.292 Y45.56 Z-2.563
G1 X-71.192 Y45.516 Z-2.567
G1 X-71.088 Y45.48 Z-2.571
G1 X-70.982 Y45.452 Z-2.574
G1 X-70.874 Y45.431 Z-2.578
G1 X-70.765 Y45.418 Z-2.582
G1 X-70.656 Y45.413 Z-2.586
G1 X-70.546 Y45.416 Z-2.59
G1 X-70.437 Y45.427 Z-2.594
G1 X-70.329 Y45.446 Z-2.597
G1 X-70.222 Y45.473 Z-2.601
G1 X-70.118 Y45.508 Z-2.605
G1 X-70.017 Y45.55 Z-2.609
G1 X-69.919 Y45.599 Z-2.613
G1 X-69.824 Y45.655 Z-2.617
G1 X-69.734 Y45.718 Z-2.62
G1 X-69.649 Y45.788 Z-2.624
G1 X-69.569 Y45.863 Z-2.628
G1 X-69.495 Y45.944 Z-2.632
G1 X-69.427 Y46.03 Z-2.636
G1 X-69.366 Y46.121 Z-2.64
G1 X-69.311 Y46.216 Z-2.643
G1 X-69.263 Y46.315 Z-2.647
G1 X-69.223 Y46.417 Z-2.651
G1 X-69.19 Y46.521 Z-2.655
G1 X-69.164 Y46.628 Z-2.659
G1 X-69.147 Y46.737 Z-2.663
G1 X-69.138 Y46.846 Z-2.666
G1 X-69.136 Y46.956 Z-2.67
G1 X-69.143 Y47.065 Z-2.674
G1 X-69.157 Y47.174 Z-2.678
G1 X-69.179 Y47.282 Z-2.682
G1 X-69.209 Y47.387 Z-2.686
G1 X-69.247 Y47.49 Z-2.689
G1 X-69.292 Y47.59 Z-2.693
G1 X-69.344 Y47.687 Z-2.697
G1 X-69.404 Y47.779 Z-2.701
G1 X-69.469 Y47.867 Z-2.705
G1 X-69.541 Y47.95 Z-2.709
G1 X-69.619 Y48.028 Z-2.712
G1 X-69.702 Y48.099 Z-2.716
G1 X-69.79 Y48.165 Z-2.72
G1 X-69.883 Y48.223 Z-2.724
G1 X-69.98 Y48.275 Z-2.728
G1 X-70.08 Y48.32 Z-2.732
G1 X-70.183 Y48.357 Z-2.735
G1 X-70.289 Y48.387 Z-2.739
G1 X-70.396 Y48.409 Z-2.743
G1 X-70.505 Y48.423 Z-2.747
G1 X-70.615 Y48.429 Z-2.751
G1 X-70.725 Y48.427 Z-2.755
G1 X-70.834 Y48.417 Z-2.758
G1 X-70.942 Y48.4 Z-2.762
G1 X-71.049 Y48.374 Z-2.766
G1 X-71.154 Y48.341 Z-2.77
G1 X-71.255 Y48.3 Z-2.774
G1 X-71.354 Y48.252 Z-2.778
G1 X-71.449 Y48.197 Z-2.781
G1 X-71.54 Y48.135 Z-2.785
G1 X-71.625 Y48.066 Z-2.789
G1 X-71.706 Y47.992 Z-2.793
G1 X-71.781 Y47.912 Z-2.797
G1 X-71.85 Y47.826 Z-2.801
G1 X-71.913 Y47.736 Z-2.804
G1 X-71.969 Y47.642 Z-2.808
G1 X-72.018 Y47.544 Z-2.812
G1 X-72.059 Y47.442 Z-2.816
G1 X-72.093 Y47.338 Z-2.82
G1 X-72.12 Y47.231 Z-2.824
G1 X-72.138 Y47.123 Z-2.827
G1 X-72.149 Y47.014 Z-2.831
G1 X-72.152 Y46.904 Z-2.835
G1 X-72.147 Y46.794 Z-2.839
G1 X-72.133 Y46.685 Z-2.843
G1 X-72.112 Y46.578 Z-2.847
G1 X-72.083 Y46.472 Z-2.85
G1 X-72.047 Y46.368 Z-2.854
G1 X-72.003 Y46.268 Z-2.858
G1 X-71.952 Y46.171 Z-2.862
G1 X-71.894 Y46.078 Z-2.866
G1 X-71.829 Y45.989 Z-2.87
G1 X-71.758 Y45.905 Z-2.873
G1 X-71.681 Y45.827 Z-2.877
G1 X-71.599 Y45.754 Z-2.881
G1 X-71.512 Y45.688 Z-2.885
G1 X-71.42 Y45.628 Z-2.889
G1 X-71.323 Y45.575 Z-2.893
G1 X-71.224 Y45.529 Z-2.896
G1 X-71.121 Y45.491 Z-2.9
G1 X-71.016 Y45.46 Z-2.904
G1 X-70.908 Y45.437 Z-2.908
G1 X-70.8 Y45.421 Z-2.912
G1 X-70.69 Y45.414 Z-2.916
G1 X-70.58 Y45.415 Z-2.919
G1 X-70.471 Y45.423 Z-2.923
G1 X-70.362 Y45.44 Z-2.927
G1 X-70.255 Y45.464 Z-2.931
G1 X-70.15 Y45.496 Z-2.935
G1 X-70.048 Y45.536 Z-2.939
G1 X-69.949 Y45.583 Z-2.942
G1 X-69.853 Y45.637 Z-2.946
G1 X-69.762 Y45.698 Z-2.95
G1 X-69.675 Y45.765 Z-2.954
G1 X-69.594 Y45.839 Z-2.958
G1 X-69.518 Y45.918 Z-2.962
G1 X-69.448 Y46.002 Z-2.965
G1 X-69.384 Y46.092 Z-2.969
G1 X-69.327 Y46.186 Z-2.973
G1 X-69.277 Y46.283 Z-2.977
G1 X-69.235 Y46.384 Z-2.981
G1 X-69.199 Y46.488 Z-2.985
G1 X-69.172 Y46.595 Z-2.988
G1 X-69.152 Y46.703 Z-2.992
G1 X-69.14 Y46.812 Z-2.996
G1 X-69.136 Y46.921 Z-3
G1 X-69.14 Y47.029
G1 X-69.151 Y47.136
G1 X-69.17 Y47.242
G1 X-69.197 Y47.346
G1 X-69.231 Y47.448
G1 X-69.272 Y47.548
G1 X-69.32 Y47.644
G1 X-69.375 Y47.737
G1 X-69.437 Y47.825
G1 X-69.504 Y47.909
G1 X-69.577 Y47.988
G1 X-69.656 Y48.061
G1 X-69.74 Y48.129
G1 X-69.829 Y48.19
G1 X-69.921 Y48.245
G1 X-70.017 Y48.293
G1 X-70.117 Y48.334
G1 X-70.219 Y48.368
G1 X-70.323 Y48.395
G1 X-70.429 Y48.414
G1 X-70.536 Y48.426
G1 X-70.644 Y48.429
G1 X-70.751 Y48.426
G1 X-70.858 Y48.414
G1 X-70.964 Y48.395
G1 X-71.069 Y48.368
G1 X-71.171 Y48.334
G1 X-71.27 Y48.293
G1 X-71.367 Y48.245
G1 X-71.459 Y48.19
G1 X-71.548 Y48.129
G1 X-71.631 Y48.061
G1 X-71.71 Y47.988
G1 X-71.784 Y47.909
G1 X-71.851 Y47.825
G1 X-71.913 Y47.737
G1 X-71.968 Y47.644
G1 X-72.016 Y47.548
G1 X-72.057 Y47.448
G1 X-72.091 Y47.346
G1 X-72.118 Y47.242
G1 X-72.137 Y47.136
G1 X-72.148 Y47.029
G1 X-72.152 Y46.921
G1 X-72.148 Y46.814
G1 X-72.137 Y46.707
G1 X-72.118 Y46.601
G1 X-72.091 Y46.496
G1 X-72.057 Y46.394
G1 X-72.016 Y46.295
G1 X-71.968 Y46.199
G1 X-71.913 Y46.106
G1 X-71.851 Y46.018
G1 X-71.784 Y45.934
G1 X-71.71 Y45.855
G1 X-71.631 Y45.782
G1 X-71.548 Y45.714
G1 X-71.459 Y45.653
G1 X-71.367 Y45.598
G1 X-71.27 Y45.549
G1 X-71.171 Y45.508
G1 X-71.069 Y45.474
G1 X-70.964 Y45.448
G1 X-70.858 Y45.429
G1 X-70.751 Y45.417
G1 X-70.644 Y45.413
G1 X-70.536 Y45.417
G1 X-70.429 Y45.429
G1 X-70.323 Y45.448
G1 X-70.219 Y45.474
G1 X-70.117 Y45.508
G1 X-70.017 Y45.549
G1 X-69.921 Y45.598
G1 X-69.829 Y45.653
G1 X-69.74 Y45.714
G1 X-69.656 Y45.782
G1 X-69.577 Y45.855
G1 X-69.504 Y45.934
G1 X-69.437 Y46.018
G1 X-69.375 Y46.106
G1 X-69.32 Y46.199
G1 X-69.272 Y46.295
G1 X-69.231 Y46.394
G1 X-69.197 Y46.496
G1 X-69.17 Y46.601
G1 X-69.151 Y46.707
G1 X-69.14 Y46.814
G1 X-69.136 Y46.921
; MOVEMENT_CUTTING
G1 X-69.132 Y47.082 F360
G1 X-69.001 Y47.607
G1 X-68.982 Y47.698
G1 X-68.97 Y47.789
G1 X-68.965 Y47.881
G1 X-68.968 Y47.973
G1 X-68.978 Y48.065
G1 X-68.996 Y48.155
G1 X-69.021 Y48.244
G1 X-69.053 Y48.331
G1 X-69.091 Y48.415
G1 X-69.137 Y48.495
G1 X-69.188 Y48.571
G1 X-69.246 Y48.643
G1 X-69.309 Y48.711
G1 X-69.375 Y48.786
G1 X-69.446 Y48.856
G1 X-69.521 Y48.922
G1 X-69.601 Y48.983
G1 X-69.684 Y49.039
G1 X-69.77 Y49.089
G1 X-69.828 Y49.138
G1 X-69.881 Y49.192
G1 X-69.928 Y49.251
G1 X-69.969 Y49.315
G1 X-70.003 Y49.383
G1 X-70.03 Y49.453
G1 X-70.049 Y49.527
G1 X-70.061 Y49.601
G1 X-70.065 Y49.677
G1 X-70.062 Y49.752
G1 X-70.051 Y49.827
G1 X-70.032 Y49.901
G1 X-70.006 Y49.972
G1 X-69.973 Y50.04
G1 X-69.933 Y50.104
G1 X-69.887 Y50.164
G1 X-69.835 Y50.219
G1 X-69.579 Y50.413
G1 X-68.982 Y50.649
G1 X-68.734 Y50.718
G1 X-68.485 Y50.78
G1 X-68.234 Y50.836
G1 X-67.982 Y50.884
G1 X-67.729 Y50.925
G1 X-67.474 Y50.96
G1 X-67.219 Y50.987
G1 X-66.962 Y51.007
G1 X-66.706 Y51.02
G1 X-66.449 Y51.026
G1 X-65.7 Y51.049
G1 X-64.951 Y51.067
G1 X-64.202 Y51.079
G1 X-63.453 Y51.086
G1 X-62.704 Y51.087
G1 X-61.954 Y51.082
G1 X-58.101 Y51.086
G1 X-22.781
G1 X-22.232 Y51.121
G1 X-21.682 Y51.149
G1 X-21.132 Y51.17
G1 X-20.582 Y51.185
G1 X-20.032 Y51.194
G1 X-19.481 Y51.196
G1 X-18.931 Y51.192
G1 X-17.646 Y51.199
G1 X-14.435 Y51.201
G1 X26.665
G1 X65.838
G1 X66.159 Y51.203
G1 X66.48 Y51.198
G1 X66.801 Y51.187
G1 X67.122 Y51.17
G1 X67.442 Y51.145
G1 X67.761 Y51.115
G1 X68.08 Y51.078
G1 X68.398 Y51.034
G1 X68.715 Y50.984
G1 X69.032 Y50.927
G1 X69.293 Y50.869
G1 X69.552 Y50.803
G1 X69.81 Y50.73
G1 X70.065 Y50.649
G1 X70.318 Y50.562
G1 X70.568 Y50.467
G1 X70.816 Y50.365
G1 X71.06 Y50.257
G1 X71.302 Y50.141
G1 X71.54 Y50.019
G1 X71.774 Y49.89
G1 X72.005 Y49.754
G1 X72.232 Y49.612
G1 X72.455 Y49.464
G1 X72.673 Y49.31
G1 X72.887 Y49.149
G1 X73.096 Y48.982
G1 X73.301 Y48.81
G1 X73.501 Y48.631
G1 X73.695 Y48.448
G1 X73.884 Y48.258
G1 X74.068 Y48.064
G1 X74.247 Y47.864
G1 X74.419 Y47.66
G1 X74.586 Y47.447
G1 X74.746 Y47.229
G1 X74.9 Y47.006
G1 X75.047 Y46.78
G1 X75.188 Y46.549
G1 X75.322 Y46.314
G1 X75.45 Y46.076
G1 X75.57 Y45.833
G1 X75.684 Y45.588
G1 X75.79 Y45.339
G1 X75.889 Y45.088
G1 X75.981 Y44.833
G1 X76.066 Y44.577
G1 X76.143 Y44.317
G1 X76.213 Y44.056
G1 X76.275 Y43.793
G1 X76.329 Y43.528
G1 X76.376 Y43.262
G1 X76.415 Y42.994
G1 X76.46 Y42.595
G1 X76.497 Y42.196
G1 X76.528 Y41.795
G1 X76.553 Y41.395
G1 X76.57 Y40.994
G1 X76.581 Y40.593
G1 X76.585 Y40.191
G1 X76.583 Y39.79
G1 X76.596 Y38.345
G1 X76.603 Y36.9
G1 X76.604 Y35.455
G1 X76.6 Y34.01
G1 X76.601 Y-3.236
G1 Y-40.483
G1 X76.602 Y-40.804
G1 X76.597 Y-41.125
G1 X76.585 Y-41.446
G1 X76.567 Y-41.767
G1 X76.542 Y-42.087
G1 X76.51 Y-42.406
G1 X76.472 Y-42.725
G1 X76.427 Y-43.043
G1 X76.375 Y-43.36
G1 X76.317 Y-43.676
G1 X76.257 Y-43.94
G1 X76.189 Y-44.201
G1 X76.114 Y-44.461
G1 X76.031 Y-44.718
G1 X75.941 Y-44.973
G1 X75.844 Y-45.226
G1 X75.739 Y-45.475
G1 X75.628 Y-45.722
G1 X75.51 Y-45.965
G1 X75.384 Y-46.205
G1 X75.252 Y-46.441
G1 X75.114 Y-46.673
G1 X74.968 Y-46.901
G1 X74.817 Y-47.125
G1 X74.659 Y-47.344
G1 X74.494 Y-47.559
G1 X74.324 Y-47.769
G1 X74.148 Y-47.974
G1 X73.966 Y-48.175
G1 X73.779 Y-48.366
G1 X73.587 Y-48.553
G1 X73.39 Y-48.733
G1 X73.187 Y-48.908
G1 X72.98 Y-49.077
G1 X72.768 Y-49.24
G1 X72.551 Y-49.397
G1 X72.33 Y-49.548
G1 X72.104 Y-49.692
G1 X71.875 Y-49.83
G1 X71.642 Y-49.961
G1 X71.405 Y-50.086
G1 X71.164 Y-50.203
G1 X70.921 Y-50.314
G1 X70.674 Y-50.417
G1 X70.424 Y-50.514
G1 X70.172 Y-50.603
G1 X69.917 Y-50.685
G1 X69.66 Y-50.76
G1 X69.401 Y-50.827
G1 X69.14 Y-50.887
G1 X68.878 Y-50.939
G1 X68.614 Y-50.984
G1 X68.349 Y-51.021
G1 X67.95 Y-51.064
G1 X67.55 Y-51.101
G1 X67.15 Y-51.131
G1 X66.749 Y-51.155
G1 X66.348 Y-51.172
G1 X65.947 Y-51.182
G1 X65.546 Y-51.186
G1 X65.145 Y-51.184
G1 X63.7 Y-51.196
G1 X62.255 Y-51.203
G1 X60.81 Y-51.204
G1 X59.365 Y-51.201
G1 X20.191
G1 X-65.861
G1 X-66.182 Y-51.202
G1 X-66.504 Y-51.198
G1 X-66.824 Y-51.186
G1 X-67.145 Y-51.168
G1 X-67.465 Y-51.144
G1 X-67.785 Y-51.112
G1 X-68.104 Y-51.075
G1 X-68.422 Y-51.03
G1 X-68.739 Y-50.979
G1 X-69.055 Y-50.922
G1 X-69.318 Y-50.862
G1 X-69.58 Y-50.795
G1 X-69.84 Y-50.72
G1 X-70.098 Y-50.638
G1 X-70.353 Y-50.548
G1 X-70.605 Y-50.452
G1 X-70.855 Y-50.348
G1 X-71.102 Y-50.237
G1 X-71.345 Y-50.119
G1 X-71.585 Y-49.994
G1 X-71.822 Y-49.863
G1 X-72.054 Y-49.725
G1 X-72.283 Y-49.58
G1 X-72.507 Y-49.429
G1 X-72.727 Y-49.272
G1 X-72.942 Y-49.108
G1 X-73.153 Y-48.939
G1 X-73.359 Y-48.763
G1 X-73.559 Y-48.582
G1 X-73.751 Y-48.396
G1 X-73.938 Y-48.204
G1 X-74.119 Y-48.007
G1 X-74.295 Y-47.805
G1 X-74.464 Y-47.598
G1 X-74.628 Y-47.386
G1 X-74.785 Y-47.169
G1 X-74.936 Y-46.949
G1 X-75.081 Y-46.723
G1 X-75.219 Y-46.494
G1 X-75.351 Y-46.261
G1 X-75.476 Y-46.025
G1 X-75.594 Y-45.784
G1 X-75.705 Y-45.541
G1 X-75.809 Y-45.294
G1 X-75.906 Y-45.045
G1 X-75.996 Y-44.793
G1 X-76.078 Y-44.538
G1 X-76.154 Y-44.281
G1 X-76.221 Y-44.023
G1 X-76.282 Y-43.762
G1 X-76.335 Y-43.499
G1 X-76.38 Y-43.236
G1 X-76.418 Y-42.971
G1 X-76.462 Y-42.572
G1 X-76.499 Y-42.172
G1 X-76.53 Y-41.772
G1 X-76.554 Y-41.371
G1 X-76.571 Y-40.97
G1 X-76.582 Y-40.569
G1 X-76.586 Y-40.168
G1 X-76.583 Y-39.767
G1 X-76.596 Y-38.322
G1 X-76.603 Y-36.877
G1 X-76.604 Y-35.432
G1 X-76.6 Y-33.987
G1 X-76.601 Y6.471
G1 Y40.507
G1 X-76.602 Y40.828
G1 X-76.596 Y41.149
G1 X-76.584 Y41.47
G1 X-76.565 Y41.79
G1 X-76.54 Y42.11
G1 X-76.508 Y42.43
G1 X-76.469 Y42.748
G1 X-76.423 Y43.066
G1 X-76.371 Y43.383
G1 X-76.312 Y43.699
G1 X-76.252 Y43.958
G1 X-76.185 Y44.215
G1 X-76.111 Y44.471
G1 X-76.029 Y44.724
G1 X-75.94 Y44.974
G1 X-75.845 Y45.223
G1 X-75.742 Y45.468
G1 X-75.633 Y45.71
G1 X-75.516 Y45.949
G1 X-75.393 Y46.185
G1 X-75.263 Y46.417
G1 X-75.127 Y46.646
G1 X-74.985 Y46.87
G1 X-74.836 Y47.091
G1 X-74.681 Y47.307
G1 X-74.52 Y47.519
; MOVEMENT_LEAD_OUT
G1 X-74.51 Y47.535 F180
G1 X-74.504 Y47.554
G1 X-74.501 Y47.573
G1 X-74.505 Y47.599
G1 X-74.516 Y47.622
G1 X-74.533 Y47.642
G1 X-74.554 Y47.656
G1 X-74.579 Y47.663
G1 X-74.605
G1 X-74.629 Y47.656
G1 X-74.651 Y47.642
G1 X-74.668 Y47.622
G1 X-74.679 Y47.599
G1 X-74.682 Y47.573
G1 X-74.679 Y47.55
G1 X-74.67 Y47.528
G1 X-74.656 Y47.51
G1 X-74.638 Y47.495
G1 X-74.616 Y47.486
G1 X-74.593 Y47.483
G1 X-74.569 Y47.486
G1 X-74.301 Y47.555
; MOVEMENT_LINK_DIRECT
G1 X-70.165 Y48.618 F480
; MOVEMENT_LEAD_IN
G1 X-69.446 Y48.803 F180
G1 X-69.426 Y48.811
G1 X-69.408 Y48.823
; MOVEMENT_CUTTING
G1 X-69.293 Y48.935 F360
G1 X-68.744 Y49.269
G1 X-68.498 Y49.342
G1 X-68.25 Y49.408
G1 X-68 Y49.468
G1 X-67.749 Y49.522
G1 X-67.496 Y49.569
G1 X-67.243 Y49.61
G1 X-66.988 Y49.644
G1 X-66.733 Y49.672
G1 X-66.477 Y49.693
G1 X-66.22 Y49.708
G1 X-65.487 Y49.744
G1 X-64.754 Y49.772
G1 X-64.02 Y49.793
G1 X-63.286 Y49.808
G1 X-62.553 Y49.815
G1 X-61.819
G1 X-61.085 Y49.808
G1 X-58.516 Y49.816
G1 X-23.838
G1 X-22.646 Y49.853
G1 X-21.454 Y49.883
G1 X-20.261 Y49.905
G1 X-19.069 Y49.922
G1 X-17.876 Y49.931
G1 X-16.684 Y49.934
G1 X-15.491 Y49.93
G1 X-5.216 Y49.931
G1 X64.782
G1 X65.184 Y49.935
G1 X65.585 Y49.933
G1 X65.986 Y49.923
G1 X66.387 Y49.906
G1 X66.788 Y49.882
G1 X67.188 Y49.851
G1 X67.588 Y49.812
G1 X67.986 Y49.767
G1 X68.25 Y49.724
G1 X68.513 Y49.673
G1 X68.774 Y49.614
G1 X69.034 Y49.548
G1 X69.291 Y49.475
G1 X69.546 Y49.394
G1 X69.799 Y49.306
G1 X70.049 Y49.21
G1 X70.296 Y49.107
G1 X70.54 Y48.998
G1 X70.781 Y48.881
G1 X71.018 Y48.757
G1 X71.237 Y48.631
G1 X71.452 Y48.498
G1 X71.662 Y48.359
G1 X71.868 Y48.213
G1 X72.069 Y48.06
G1 X72.265 Y47.901
G1 X72.456 Y47.736
G1 X72.642 Y47.566
G1 X72.822 Y47.389
G1 X72.997 Y47.207
G1 X73.165 Y47.019
G1 X73.328 Y46.826
G1 X73.485 Y46.629
G1 X73.635 Y46.426
G1 X73.779 Y46.219
G1 X73.916 Y46.007
G1 X74.047 Y45.791
G1 X74.17 Y45.571
G1 X74.287 Y45.347
G1 X74.396 Y45.12
G1 X74.499 Y44.889
G1 X74.594 Y44.655
G1 X74.681 Y44.418
G1 X74.761 Y44.179
G1 X74.833 Y43.937
G1 X74.898 Y43.693
G1 X74.955 Y43.447
G1 X75.004 Y43.2
G1 X75.063 Y42.848
G1 X75.116 Y42.495
G1 X75.161 Y42.141
G1 X75.199 Y41.787
G1 X75.231 Y41.431
G1 X75.256 Y41.075
G1 X75.273 Y40.719
G1 X75.284 Y40.363
G1 X75.288 Y40.006
G1 X75.31 Y38.722
G1 X75.326 Y37.437
G1 X75.334 Y36.153
G1 X75.336 Y34.869
G1 X75.33 Y33.584
G1 X75.331 Y-9.442
G1 X75.33 Y-39.625
G1 X75.333 Y-39.982
G1 X75.33 Y-40.338
G1 X75.32 Y-40.695
G1 X75.304 Y-41.051
G1 X75.281 Y-41.407
G1 X75.252 Y-41.763
G1 X75.217 Y-42.118
G1 X75.175 Y-42.472
G1 X75.126 Y-42.826
G1 X75.08 Y-43.079
G1 X75.027 Y-43.33
G1 X74.966 Y-43.58
G1 X74.897 Y-43.827
G1 X74.822 Y-44.073
G1 X74.739 Y-44.316
G1 X74.649 Y-44.557
G1 X74.552 Y-44.795
G1 X74.449 Y-45.03
G1 X74.338 Y-45.262
G1 X74.221 Y-45.49
G1 X74.097 Y-45.715
G1 X73.966 Y-45.937
G1 X73.829 Y-46.154
G1 X73.685 Y-46.367
G1 X73.539 Y-46.566
G1 X73.387 Y-46.761
G1 X73.228 Y-46.95
G1 X73.064 Y-47.135
G1 X72.895 Y-47.315
G1 X72.72 Y-47.489
G1 X72.539 Y-47.658
G1 X72.354 Y-47.821
G1 X72.163 Y-47.978
G1 X71.968 Y-48.13
G1 X71.768 Y-48.275
G1 X71.564 Y-48.414
G1 X71.356 Y-48.547
G1 X71.144 Y-48.673
G1 X70.927 Y-48.793
G1 X70.708 Y-48.906
G1 X70.485 Y-49.012
G1 X70.259 Y-49.112
G1 X70.029 Y-49.204
G1 X69.797 Y-49.289
G1 X69.563 Y-49.367
G1 X69.326 Y-49.438
G1 X69.088 Y-49.501
G1 X68.847 Y-49.558
G1 X68.605 Y-49.606
G1 X68.361 Y-49.647
G1 X67.964 Y-49.705
G1 X67.566 Y-49.756
G1 X67.167 Y-49.798
G1 X66.767 Y-49.833
G1 X66.366 Y-49.86
G1 X65.966 Y-49.879
G1 X65.564 Y-49.89
G1 X65.163 Y-49.894
G1 X63.879 Y-49.914
G1 X62.595 Y-49.927
G1 X61.31 Y-49.932
G1 X60.026 Y-49.93
G1 X47.182 Y-49.931
G1 X-64.558
G1 X-65.017 Y-49.935
G1 X-65.476 Y-49.932
G1 X-65.934 Y-49.921
G1 X-66.392 Y-49.902
G1 X-66.85 Y-49.875
G1 X-67.308 Y-49.84
G1 X-67.764 Y-49.797
G1 X-68.019 Y-49.762
G1 X-68.272 Y-49.721
G1 X-68.525 Y-49.672
G1 X-68.775 Y-49.615
G1 X-69.024 Y-49.552
G1 X-69.272 Y-49.482
G1 X-69.517 Y-49.405
G1 X-69.76 Y-49.321
G1 X-70 Y-49.23
G1 X-70.237 Y-49.132
G1 X-70.472 Y-49.028
G1 X-70.704 Y-48.917
G1 X-70.933 Y-48.799
G1 X-71.158 Y-48.675
G1 X-71.379 Y-48.545
G1 X-71.587 Y-48.411
G1 X-71.79 Y-48.27
G1 X-71.988 Y-48.123
G1 X-72.182 Y-47.971
G1 X-72.372 Y-47.812
G1 X-72.556 Y-47.647
G1 X-72.735 Y-47.477
G1 X-72.909 Y-47.301
G1 X-73.077 Y-47.12
G1 X-73.239 Y-46.934
G1 X-73.396 Y-46.743
G1 X-73.547 Y-46.547
G1 X-73.691 Y-46.347
G1 X-73.83 Y-46.142
G1 X-73.962 Y-45.933
G1 X-74.087 Y-45.721
G1 X-74.206 Y-45.504
G1 X-74.318 Y-45.284
G1 X-74.423 Y-45.06
G1 X-74.521 Y-44.834
G1 X-74.612 Y-44.604
G1 X-74.696 Y-44.372
G1 X-74.773 Y-44.137
G1 X-74.843 Y-43.9
G1 X-74.905 Y-43.661
G1 X-74.96 Y-43.42
G1 X-75.025 Y-43.069
G1 X-75.083 Y-42.717
G1 X-75.134 Y-42.364
G1 X-75.177 Y-42.01
G1 X-75.213 Y-41.655
G1 X-75.241 Y-41.299
G1 X-75.262 Y-40.943
G1 X-75.275 Y-40.586
G1 X-75.281 Y-40.23
G1 X-75.304 Y-39.053
G1 X-75.32 Y-37.875
G1 X-75.332 Y-36.698
G1 X-75.337 Y-35.521
G1 Y-34.343
G1 X-75.33 Y-33.166
G1 X-75.331 Y16.924
G1 Y39.401
G1 X-75.335 Y39.802
G1 X-75.332 Y40.204
G1 X-75.322 Y40.605
G1 X-75.304 Y41.006
G1 X-75.28 Y41.406
G1 X-75.249 Y41.807
G1 X-75.21 Y42.206
G1 X-75.164 Y42.605
G1 X-75.122 Y42.86
G1 X-75.073 Y43.114
G1 X-75.017 Y43.367
G1 X-74.953 Y43.617
G1 X-74.882 Y43.866
G1 X-74.803 Y44.113
G1 X-74.718 Y44.357
G1 X-74.626 Y44.598
G1 X-74.526 Y44.837
G1 X-74.485 Y44.898
G1 X-74.439 Y44.954
G1 X-74.387 Y45.006
G1 X-74.33 Y45.052
G1 X-74.269 Y45.093
G1 X-74.205 Y45.128
G1 X-74.137 Y45.156
G1 X-74.068 Y45.178
G1 X-73.996 Y45.193
G1 X-73.923 Y45.201
G1 X-73.85
G1 X-73.215 Y45.102
G1 X-72.641 Y44.815
G1 X-72.485 Y44.739
G1 X-72.326 Y44.669
G1 X-72.163 Y44.606
G1 X-71.999 Y44.551
G1 X-71.832 Y44.503
G1 X-71.663 Y44.462
G1 X-71.492 Y44.428
G1 X-71.32 Y44.402
G1 X-71.147 Y44.384
G1 X-70.974 Y44.373
G1 X-70.8 Y44.369
G1 X-70.655 Y44.376
G1 X-70.511 Y44.391
G1 X-70.368 Y44.413
G1 X-70.226 Y44.444
G1 X-70.086 Y44.481
G1 X-69.949 Y44.526
G1 X-69.813 Y44.579
G1 X-69.681 Y44.638
G1 X-69.553 Y44.705
G1 X-69.428 Y44.778
G1 X-69.307 Y44.858
G1 X-69.191 Y44.945
G1 X-69.079 Y45.037
G1 X-68.973 Y45.135
G1 X-68.872 Y45.239
G1 X-68.776 Y45.348
G1 X-68.687 Y45.463
G1 X-68.604 Y45.581
G1 X-68.528 Y45.704
G1 X-68.458 Y45.831
G1 X-68.248 Y46.267
G1 X-68.014 Y46.865
G1 X-67.85 Y47.141
G1 X-67.421 Y47.619
G1 X-66.869 Y47.946
G1 X-66.264 Y48.162
G1 X-65.986 Y48.226
G1 X-65.706 Y48.282
G1 X-65.425 Y48.332
G1 X-65.143 Y48.374
G1 X-64.859 Y48.41
G1 X-64.575 Y48.438
G1 X-64.291 Y48.46
G1 X-64.006 Y48.474
G1 X-63.72 Y48.482
G1 X-62.544 Y48.511
G1 X-61.366 Y48.533
G1 X-60.189 Y48.547
G1 X-59.012 Y48.554
G1 X-57.834 Y48.552
G1 X-56.657 Y48.542
G1 X-54.088 Y48.546
G1 X-25.19
G1 X-24.066 Y48.557
G1 X-22.943 Y48.575
G1 X-21.819 Y48.6
G1 X-20.696 Y48.632
G1 X-18.769 Y48.648
G1 X-16.843 Y48.657
G1 X-14.916 Y48.66
G1 X-8.494 Y48.661
G1 X-3.999
G1 X46.092
G1 X64.073 Y48.66
G1 X64.531 Y48.664
G1 X64.99 Y48.661
G1 X65.449 Y48.649
G1 X65.907 Y48.631
G1 X66.365 Y48.605
G1 X66.822 Y48.571
G1 X67.279 Y48.53
G1 X67.534 Y48.495
G1 X67.787 Y48.453
G1 X68.04 Y48.404
G1 X68.29 Y48.348
G1 X68.539 Y48.284
G1 X68.786 Y48.213
G1 X69.031 Y48.135
G1 X69.273 Y48.05
G1 X69.513 Y47.958
G1 X69.75 Y47.859
G1 X69.956 Y47.764
G1 X70.159 Y47.662
G1 X70.357 Y47.553
G1 X70.553 Y47.437
G1 X70.744 Y47.315
G1 X70.931 Y47.187
G1 X71.113 Y47.053
G1 X71.291 Y46.912
G1 X71.465 Y46.766
G1 X71.633 Y46.614
G1 X71.796 Y46.457
G1 X71.954 Y46.294
G1 X72.106 Y46.126
G1 X72.253 Y45.953
G1 X72.393 Y45.775
G1 X72.528 Y45.592
G1 X72.656 Y45.406
G1 X72.78 Y45.207
G1 X72.897 Y45.005
G1 X73.008 Y44.8
G1 X73.111 Y44.59
G1 X73.208 Y44.378
G1 X73.298 Y44.162
G1 X73.38 Y43.943
G1 X73.456 Y43.722
G1 X73.524 Y43.499
G1 X73.585 Y43.273
G1 X73.638 Y43.046
G1 X73.708 Y42.696
G1 X73.77 Y42.345
G1 X73.824 Y41.992
G1 X73.871 Y41.639
G1 X73.911 Y41.284
G1 X73.943 Y40.929
G1 X73.967 Y40.573
G1 X73.984 Y40.216
G1 X73.993 Y39.86
G1 X74.021 Y38.79
G1 X74.042 Y37.72
G1 X74.057 Y36.649
G1 X74.064 Y35.579
G1 X74.065 Y34.509
G1 X74.06 Y33.439
G1 X74.061 Y23.164
G1 Y-26.927
G1 X74.06 Y-38.486
G1 X74.064 Y-38.945
G1 X74.062 Y-39.404
G1 X74.053 Y-39.862
G1 X74.037 Y-40.321
G1 X74.016 Y-40.779
G1 X73.987 Y-41.237
G1 X73.952 Y-41.694
G1 X73.924 Y-41.939
G1 X73.889 Y-42.184
G1 X73.848 Y-42.428
G1 X73.799 Y-42.67
G1 X73.743 Y-42.911
G1 X73.681 Y-43.15
G1 X73.612 Y-43.387
G1 X73.537 Y-43.622
G1 X73.455 Y-43.855
G1 X73.366 Y-44.086
G1 X73.271 Y-44.314
G1 X73.17 Y-44.539
G1 X73.062 Y-44.761
G1 X72.953 Y-44.96
G1 X72.837 Y-45.155
G1 X72.715 Y-45.346
G1 X72.587 Y-45.533
G1 X72.452 Y-45.716
G1 X72.311 Y-45.894
G1 X72.165 Y-46.067
G1 X72.013 Y-46.235
G1 X71.855 Y-46.398
G1 X71.692 Y-46.555
G1 X71.524 Y-46.707
G1 X71.351 Y-46.854
G1 X71.173 Y-46.994
G1 X70.99 Y-47.128
G1 X70.803 Y-47.257
G1 X70.612 Y-47.379
G1 X70.417 Y-47.494
G1 X70.21 Y-47.603
G1 X70 Y-47.705
G1 X69.787 Y-47.801
G1 X69.571 Y-47.891
G1 X69.353 Y-47.974
G1 X69.132 Y-48.05
G1 X68.909 Y-48.12
G1 X68.684 Y-48.183
G1 X68.458 Y-48.239
G1 X68.229 Y-48.288
G1 X68 Y-48.331
G1 X67.576 Y-48.395
G1 X67.152 Y-48.451
G1 X66.726 Y-48.499
G1 X66.3 Y-48.539
G1 X65.873 Y-48.572
G1 X65.446 Y-48.596
G1 X65.018 Y-48.613
G1 X64.59 Y-48.622
G1 X64.162 Y-48.623
G1 X62.878 Y-48.643
G1 X61.594 Y-48.656
G1 X60.309 Y-48.664
G1 X59.025 Y-48.665
G1 X57.741 Y-48.66
G1 X42.328 Y-48.661
G1 X-63.633
G1 X-64.114 Y-48.668
G1 X-64.596
G1 X-65.077 Y-48.66
G1 X-65.559 Y-48.644
G1 X-66.04 Y-48.621
G1 X-66.52 Y-48.591
G1 X-67 Y-48.552
G1 X-67.48 Y-48.506
G1 X-67.734 Y-48.465
G1 X-67.986 Y-48.417
G1 X-68.237 Y-48.362
G1 X-68.486 Y-48.299
G1 X-68.733 Y-48.229
G1 X-68.979 Y-48.152
G1 X-69.222 Y-48.069
G1 X-69.462 Y-47.978
G1 X-69.7 Y-47.88
G1 X-69.934 Y-47.775
G1 X-70.137 Y-47.674
G1 X-70.336 Y-47.565
G1 X-70.532 Y-47.451
G1 X-70.723 Y-47.329
G1 X-70.911 Y-47.202
G1 X-71.094 Y-47.068
G1 X-71.272 Y-46.928
G1 X-71.446 Y-46.782
G1 X-71.615 Y-46.631
G1 X-71.779 Y-46.474
G1 X-71.937 Y-46.312
G1 X-72.09 Y-46.144
G1 X-72.237 Y-45.972
G1 X-72.378 Y-45.794
G1 X-72.513 Y-45.612
G1 X-72.642 Y-45.426
G1 X-72.765 Y-45.235
G1 X-72.882 Y-45.033
G1 X-72.993 Y-44.827
G1 X-73.097 Y-44.618
G1 X-73.194 Y-44.406
G1 X-73.285 Y-44.191
G1 X-73.368 Y-43.972
G1 X-73.445 Y-43.752
G1 X-73.515 Y-43.529
G1 X-73.578 Y-43.304
G1 X-73.634 Y-43.077
G1 X-73.682 Y-42.849
G1 X-73.748 Y-42.469
G1 X-73.806 Y-42.088
G1 X-73.857 Y-41.706
G1 X-73.901 Y-41.324
G1 X-73.938 Y-40.94
G1 X-73.968 Y-40.556
G1 X-73.991 Y-40.171
G1 X-74.007 Y-39.786
G1 X-74.015 Y-39.401
G1 X-74.017 Y-39.016
G1 X-74.04 Y-37.732
G1 X-74.055 Y-36.447
G1 X-74.064 Y-35.163
G1 X-74.065 Y-33.879
G1 X-74.06 Y-32.594
G1 X-74.061 Y-11.402
G1 X-74.06 Y38.688
G1 X-74.064 Y39.147
G1 X-74.06 Y39.606
G1 X-74.049 Y40.064
G1 X-74.03 Y40.523
G1 X-74.003 Y40.98
G1 X-73.969 Y41.438
G1 X-73.928 Y41.895
G1 X-73.899 Y42.053
G1 X-73.84 Y42.202
G1 X-73.751 Y42.336
G1 X-73.518 Y42.557
G1 X-72.932 Y42.82
G1 X-72.302 Y42.943
G1 X-71.663 Y43.009
G1 X-71.025 Y43.077
G1 X-70.84 Y43.101
G1 X-70.656 Y43.131
G1 X-70.473 Y43.168
G1 X-70.292 Y43.213
G1 X-70.112 Y43.264
G1 X-69.935 Y43.321
G1 X-69.76 Y43.386
G1 X-69.588 Y43.456
G1 X-69.418 Y43.534
G1 X-69.251 Y43.617
G1 X-69.088 Y43.707
G1 X-68.928 Y43.803
G1 X-68.839 Y43.883
G1 X-68.748 Y43.96
G1 X-68.653 Y44.032
G1 X-68.288 Y44.354
G1 X-68.035 Y44.614
G1 X-67.799 Y44.901
G1 X-67.432 Y45.428
G1 X-67.044 Y45.939
G1 X-66.546 Y46.345
G1 X-65.977 Y46.643
G1 X-65.37 Y46.853
G1 X-65.092 Y46.918
G1 X-64.813 Y46.977
G1 X-64.532 Y47.029
G1 X-64.25 Y47.074
G1 X-63.967 Y47.112
G1 X-63.684 Y47.143
G1 X-63.399 Y47.168
G1 X-63.115 Y47.186
G1 X-62.829 Y47.196
G1 X-61.974 Y47.226
G1 X-61.118 Y47.249
G1 X-60.262 Y47.265
G1 X-59.405 Y47.274
G1 X-58.549 Y47.276
G1 X-57.693 Y47.27
G1 X-55.124 Y47.276
G1 X-26.226
G1 X-24.941 Y47.285
G1 X-23.657 Y47.298
G1 X-22.373 Y47.318
G1 X-21.089 Y47.343
G1 X-19.805 Y47.373
G1 X-16.594 Y47.385
G1 X-13.383 Y47.39
G1 X6.525 Y47.391
G1 X30.286
G1 X63.037
G1 X63.519 Y47.397
G1 X64
G1 X64.482 Y47.39
G1 X64.963 Y47.376
G1 X65.444 Y47.356
G1 X65.925 Y47.329
G1 X66.406 Y47.295
G1 X66.886 Y47.254
G1 X67.117 Y47.221
G1 X67.347 Y47.181
G1 X67.576 Y47.134
G1 X67.803 Y47.081
G1 X68.029 Y47.021
G1 X68.253 Y46.955
G1 X68.475 Y46.882
G1 X68.695 Y46.803
G1 X68.912 Y46.717
G1 X69.127 Y46.625
G1 X69.339 Y46.527
G1 X69.893 Y46.202
G1 X70.06 Y46.09
G1 X70.222 Y45.971
G1 X70.379 Y45.847
G1 X70.532 Y45.716
G1 X70.68 Y45.581
G1 X70.823 Y45.439
G1 X70.96 Y45.293
G1 X71.092 Y45.142
G1 X71.218 Y44.986
G1 X71.339 Y44.825
G1 X71.453 Y44.66
G1 X71.561 Y44.491
G1 X71.663 Y44.318
G1 X71.759 Y44.141
G1 X71.848 Y43.961
G1 X71.93 Y43.778
G1 X72.025 Y43.539
G1 X72.113 Y43.298
G1 X72.194 Y43.054
G1 X72.268 Y42.808
G1 X72.335 Y42.56
G1 X72.394 Y42.31
G1 X72.447 Y42.058
G1 X72.492 Y41.806
G1 X72.529 Y41.551
G1 X72.559 Y41.296
G1 X72.609 Y40.799
G1 X72.651 Y40.302
G1 X72.688 Y39.804
G1 X72.717 Y39.305
G1 X72.741 Y38.806
G1 X72.757 Y38.307
G1 X72.767 Y37.808
G1 X72.771 Y37.308
G1 X72.768 Y36.809
G1 X72.782 Y35.524
G1 X72.79 Y34.24
G1 X72.793 Y32.956
G1 X72.79 Y31.671
G1 X72.791 Y-13.282
G1 X72.79 Y-37.685
G1 X72.797 Y-38.166
G1 X72.796 Y-38.648
G1 X72.789 Y-39.13
G1 X72.774 Y-39.611
G1 X72.753 Y-40.092
G1 X72.725 Y-40.573
G1 X72.689 Y-41.053
G1 X72.647 Y-41.533
G1 X72.531 Y-42.165
G1 X72.487 Y-42.375
G1 X72.437 Y-42.583
G1 X72.38 Y-42.789
G1 X72.316 Y-42.994
G1 X72.246 Y-43.196
G1 X72.169 Y-43.396
G1 X72.086 Y-43.593
G1 X71.996 Y-43.788
G1 X71.9 Y-43.979
G1 X71.799 Y-44.168
G1 X71.691 Y-44.353
G1 X71.577 Y-44.534
G1 X71.463 Y-44.699
G1 X71.342 Y-44.86
G1 X71.216 Y-45.016
G1 X71.084 Y-45.167
G1 X70.947 Y-45.314
G1 X70.804 Y-45.455
G1 X70.657 Y-45.591
G1 X70.504 Y-45.722
G1 X70.347 Y-45.847
G1 X70.185 Y-45.966
G1 X70.019 Y-46.079
G1 X69.849 Y-46.186
G1 X69.676 Y-46.287
G1 X69.498 Y-46.381
G1 X69.318 Y-46.469
G1 X69.134 Y-46.55
G1 X68.894 Y-46.642
G1 X68.652 Y-46.729
G1 X68.408 Y-46.808
G1 X68.161 Y-46.88
G1 X67.913 Y-46.945
G1 X67.663 Y-47.003
G1 X67.411 Y-47.054
G1 X67.158 Y-47.098
G1 X66.904 Y-47.135
G1 X66.648 Y-47.164
G1 X66.151 Y-47.213
G1 X65.654 Y-47.255
G1 X65.155 Y-47.29
G1 X64.657 Y-47.319
G1 X64.158 Y-47.342
G1 X63.659 Y-47.358
G1 X63.159 Y-47.368
G1 X62.66 Y-47.372
G1 X62.16 Y-47.369
G1 X60.073 Y-47.384
G1 X57.986 Y-47.393
G1 X55.899 Y-47.395
G1 X53.812 Y-47.391
G1 X3.722
G1 X-46.369
G1 X-63.066
G1 X-63.547 Y-47.397
G1 X-64.029 Y-47.396
G1 X-64.511 Y-47.389
G1 X-64.992 Y-47.375
G1 X-65.473 Y-47.354
G1 X-65.954 Y-47.326
G1 X-66.434 Y-47.292
G1 X-66.914 Y-47.251
G1 X-67.145 Y-47.217
G1 X-67.375 Y-47.176
G1 X-67.604 Y-47.129
G1 X-67.831 Y-47.075
G1 X-68.057 Y-47.014
G1 X-68.281 Y-46.947
G1 X-68.502 Y-46.873
G1 X-68.722 Y-46.793
G1 X-68.939 Y-46.706
G1 X-69.153 Y-46.613
G1 X-69.365 Y-46.514
G1 X-69.539 Y-46.421
G1 X-69.71 Y-46.321
G1 X-69.877 Y-46.216
G1 X-70.041 Y-46.105
G1 X-70.2 Y-45.988
G1 X-70.355 Y-45.865
G1 X-70.506 Y-45.737
G1 X-70.652 Y-45.605
G1 X-70.794 Y-45.466
G1 X-70.931 Y-45.324
G1 X-71.062 Y-45.176
G1 X-71.188 Y-45.024
G1 X-71.309 Y-44.867
G1 X-71.657 Y-44.327
G1 X-71.765 Y-44.12
G1 X-71.866 Y-43.91
G1 X-71.961 Y-43.696
G1 X-72.048 Y-43.48
G1 X-72.129 Y-43.261
G1 X-72.203 Y-43.039
G1 X-72.27 Y-42.815
G1 X-72.33 Y-42.59
G1 X-72.383 Y-42.362
G1 X-72.429 Y-42.133
G1 X-72.467 Y-41.903
G1 X-72.528 Y-41.479
G1 X-72.581 Y-41.054
G1 X-72.627 Y-40.628
G1 X-72.666 Y-40.202
G1 X-72.698 Y-39.775
G1 X-72.722 Y-39.348
G1 X-72.739 Y-38.92
G1 X-72.748 Y-38.492
G1 X-72.75 Y-38.064
G1 X-72.771 Y-36.78
G1 X-72.785 Y-35.495
G1 X-72.793 Y-34.211
G1 X-72.795 Y-32.927
G1 X-72.79 Y-31.642
G1 X-72.791 Y-20.725
G1 Y29.365
G1 X-72.79 Y37.714
G1 X-72.791 Y38.276
G1 X-72.787 Y38.838
G1 X-72.778 Y39.399
G1 X-72.764 Y39.961
G1 X-72.677 Y40.27
G1 X-72.507 Y40.543
G1 X-72.068 Y41.011
G1 X-71.518 Y41.343
G1 X-70.928 Y41.597
G1 X-70.757 Y41.661
G1 X-70.688 Y41.693
G1 X-70.622 Y41.731
G1 X-70.56 Y41.774
G1 X-70.503 Y41.824
G1 X-70.45 Y41.878
G1 X-70.403 Y41.937
G1 X-70.362 Y42.001
G1 X-70.326 Y42.068
G1 X-70.298 Y42.138
G1 X-70.196 Y42.283
G1 X-70.009 Y42.534
G1 X-69.276 Y43.449
G1 X-69.134 Y43.599
G1 X-68.988 Y43.742
G1 X-68.857 Y43.867
; MOVEMENT_LEAD_OUT
G1 X-68.825 Y43.903 F180
G1 X-68.798 Y43.945
G1 X-68.778 Y43.989
G1 X-68.765 Y44.037
G1 X-68.76 Y44.085
G1 X-68.762 Y44.134
G1 X-68.771 Y44.182
G1 X-68.788 Y44.229
G1 X-68.812 Y44.271
G1 X-68.842 Y44.31
G1 X-68.878 Y44.344
G1 X-68.918 Y44.371
G1 X-68.963 Y44.392
G1 X-69.01 Y44.407
G1 X-69.058 Y44.413
G1 X-69.107 Y44.412
; MOVEMENT_LINK_DIRECT
G1 X-69.118 Y44.411 F480
G1 X-69.464 Y44.366
G1 X-69.513 Y44.356
G1 X-69.559 Y44.338
G1 X-69.603 Y44.313
G1 X-69.642 Y44.282
G1 X-69.675 Y44.245
G1 X-69.702 Y44.203
G1 X-69.723 Y44.157
G1 X-69.735 Y44.109
G1 X-69.741 Y44.06
G1 X-69.738 Y44.01
G1 X-69.728 Y43.961
G1 X-69.71 Y43.914
G1 X-69.685 Y43.871
G1 X-69.653 Y43.832
G1 X-69.616 Y43.799
G1 X-69.574 Y43.772
G1 X-69.528 Y43.752
G1 X-69.48 Y43.739
G1 X-69.43 Y43.734
G1 X-69.381 Y43.737
G1 X-69.372 Y43.738
; MOVEMENT_LEAD_IN
G1 X-69.262 Y43.758 F180
G1 X-69.153 Y43.785
G1 X-69.047 Y43.82
G1 X-68.943 Y43.862
G1 X-68.842 Y43.912
G1 X-68.745 Y43.969
G1 X-68.653 Y44.032
; MOVEMENT_CUTTING
G1 X-67.919 Y44.616 F360
G1 X-67.529 Y44.894
G1 X-66.78 Y45.268
G1 X-66.028 Y45.637
G1 X-65.699 Y45.741
G1 X-65.369 Y45.84
G1 X-65.036 Y45.934
G1 X-64.702 Y46.022
G1 X-64.367 Y46.103
G1 X-64.03 Y46.18
G1 X-63.739 Y46.211
G1 X-63.448 Y46.236
G1 X-63.156 Y46.255
G1 X-62.864 Y46.269
G1 X-62.571 Y46.276
G1 X-62.279 Y46.278
G1 X-0.583 Y46.3
G1 X62.133
G1 X62.425 Y46.292
G1 X62.717 Y46.278
G1 X63.008 Y46.256
G1 X63.299 Y46.228
G1 X64.135 Y46.176
G1 X64.97 Y46.121
G1 X65.805 Y46.061
G1 X66.038 Y46.041
G1 X66.27 Y46.014
G1 X66.501 Y45.98
G1 X66.731 Y45.94
G1 X66.96 Y45.894
G1 X67.187 Y45.841
G1 X67.413 Y45.781
G1 X67.637 Y45.715
G1 X67.86 Y45.643
G1 X68.08 Y45.565
G1 X68.297 Y45.48
G1 X68.865 Y45.179
G1 X69.388 Y44.808
G1 X69.852 Y44.363
G1 X70.245 Y43.855
G1 X70.565 Y43.298
G1 X70.66 Y43.085
G1 X70.749 Y42.869
G1 X70.832 Y42.651
G1 X70.908 Y42.43
G1 X70.978 Y42.207
G1 X71.041 Y41.982
G1 X71.098 Y41.756
G1 X71.148 Y41.527
G1 X71.191 Y41.298
G1 X71.228 Y41.067
G1 X71.258 Y40.836
G1 X71.306 Y40.471
G1 X71.346 Y40.105
G1 X71.379 Y39.739
G1 X71.404 Y39.372
G1 X71.453 Y39.204
G1 X71.495 Y39.035
G1 X71.532 Y38.864
G1 X71.563 Y38.693
G1 X71.588 Y38.52
G1 X71.607 Y38.346
G1 X71.673 Y37.471
G1 X71.679 Y37.325
G1 X71.678 Y36.305
G1 X71.7 Y0.437
G1 Y-36.888
G1 X71.626 Y-38.064
G1 X71.545 Y-39.239
G1 X71.457 Y-40.414
G1 X71.437 Y-40.646
G1 X71.41 Y-40.878
G1 X71.377 Y-41.11
G1 X71.337 Y-41.34
G1 X71.291 Y-41.569
G1 X71.238 Y-41.796
G1 X71.178 Y-42.022
G1 X71.112 Y-42.246
G1 X71.04 Y-42.468
G1 X70.961 Y-42.688
G1 X70.876 Y-42.906
G1 X70.574 Y-43.473
G1 X70.201 Y-43.995
G1 X69.756 Y-44.459
G1 X69.247 Y-44.85
G1 X68.69 Y-45.169
G1 X68.476 Y-45.263
G1 X68.26 Y-45.352
G1 X68.041 Y-45.434
G1 X67.821 Y-45.51
G1 X67.598 Y-45.579
G1 X67.373 Y-45.642
G1 X67.146 Y-45.699
G1 X66.918 Y-45.749
G1 X66.688 Y-45.792
G1 X66.458 Y-45.828
G1 X66.226 Y-45.858
G1 X65.864 Y-45.906
G1 X65.501 Y-45.946
G1 X65.137 Y-45.979
G1 X64.773 Y-46.004
G1 X64.578 Y-46.059
G1 X64.381 Y-46.107
G1 X64.182 Y-46.147
G1 X63.981 Y-46.179
G1 X63.78 Y-46.204
G1 X63.578 Y-46.22
G1 X63.319 Y-46.245
G1 X63.059 Y-46.262
G1 X62.799 Y-46.274
G1 X62.539 Y-46.279
G1 X62.279 Y-46.278
G1 X0.583 Y-46.3
G1 X-62.133
G1 X-62.425 Y-46.292
G1 X-62.717 Y-46.278
G1 X-63.008 Y-46.256
G1 X-63.299 Y-46.228
G1 X-64.135 Y-46.176
G1 X-64.97 Y-46.121
G1 X-65.805 Y-46.061
G1 X-66.038 Y-46.041
G1 X-66.27 Y-46.014
G1 X-66.501 Y-45.98
G1 X-66.731 Y-45.94
G1 X-66.96 Y-45.894
G1 X-67.187 Y-45.841
G1 X-67.413 Y-45.782
G1 X-67.637 Y-45.716
G1 X-67.86 Y-45.644
G1 X-68.08 Y-45.565
G1 X-68.297 Y-45.481
G1 X-68.865 Y-45.18
G1 X-69.388 Y-44.807
G1 X-69.853 Y-44.364
G1 X-70.245 Y-43.855
G1 X-70.564 Y-43.298
G1 X-70.659 Y-43.085
G1 X-70.748 Y-42.869
G1 X-70.831 Y-42.65
G1 X-70.907 Y-42.43
G1 X-70.977 Y-42.207
G1 X-71.04 Y-41.982
G1 X-71.096 Y-41.755
G1 X-71.147 Y-41.527
G1 X-71.19 Y-41.298
G1 X-71.227 Y-41.067
G1 X-71.257 Y-40.836
G1 X-71.305 Y-40.471
G1 X-71.346 Y-40.106
G1 X-71.378 Y-39.74
G1 X-71.404 Y-39.373
G1 X-71.452 Y-39.205
G1 X-71.495 Y-39.036
G1 X-71.532 Y-38.865
G1 X-71.563 Y-38.693
G1 X-71.588 Y-38.52
G1 X-71.607 Y-38.346
G1 X-71.673 Y-37.471
G1 X-71.682 Y-37.325
G1 X-71.7 Y-36.888
G1 Y36.888
G1 X-71.651 Y37.617
G1 X-71.607 Y38.346
G1 X-71.556 Y38.783
G1 X-71.462 Y39.166
G1 X-71.361 Y39.547
G1 X-71.254 Y39.926
G1 X-71.141 Y40.304
G1 X-71.022 Y40.679
G1 X-70.515 Y41.7
G1 X-70.356 Y42.019
; MOVEMENT_LEAD_OUT
G1 X-70.339 Y42.065 F180
G1 X-70.329 Y42.113
G1 X-70.326 Y42.162
G1 X-70.332 Y42.21
G1 X-70.344 Y42.258
G1 X-70.364 Y42.303
G1 X-70.39 Y42.344
G1 X-70.423 Y42.381
G1 X-70.46 Y42.412
G1 X-70.503 Y42.437
G1 X-70.548 Y42.456
G1 X-70.596 Y42.467
G1 X-70.645 Y42.471
G1 X-70.694 Y42.467
G1 X-70.741 Y42.455
G1 X-70.787 Y42.437
G1 X-70.831 Y42.414 Z-2.996
G1 X-70.874 Y42.393 Z-2.984
G1 X-70.915 Y42.372 Z-2.965
G1 X-70.953 Y42.353 Z-2.939
G1 X-70.987 Y42.336 Z-2.907
G1 X-71.016 Y42.321 Z-2.869
G1 X-71.039 Y42.309 Z-2.827
G1 X-71.056 Y42.301 Z-2.781
G1 X-71.067 Y42.296 Z-2.732
G1 X-71.07 Y42.294 Z-2.682
; MOVEMENT_RAPID
G0 Z5 F300
G0 X-62.903 Y-46.683 F2500
G0 Z-2.365 F300
; MOVEMENT_LEAD_IN
G1 Z-2.682 F180
G1 X-62.906 Y-46.68 Z-2.732
G1 X-62.916 Y-46.673 Z-2.781
G1 X-62.931 Y-46.662 Z-2.827
G1 X-62.952 Y-46.646 Z-2.869
G1 X-62.978 Y-46.627 Z-2.907
G1 X-63.008 Y-46.604 Z-2.939
G1 X-63.042 Y-46.579 Z-2.965
G1 X-63.079 Y-46.551 Z-2.984
G1 X-63.118 Y-46.522 Z-2.996
G1 X-63.157 Y-46.492 Z-3
G1 X-63.238 Y-46.435
G1 X-63.323 Y-46.384
G1 X-63.411 Y-46.337
G1 X-63.501 Y-46.297
G1 X-63.594 Y-46.262
G1 X-63.689 Y-46.232
G1 X-63.785 Y-46.209
G1 X-63.883 Y-46.192
; MOVEMENT_CUTTING
G1 X-64.029 Y-46.177 F360
G1 X-64.175 Y-46.158
G1 X-64.551 Y-46.064
G1 X-64.927 Y-45.965
G1 X-65.3 Y-45.861
G1 X-65.673 Y-45.752
G1 X-66.044 Y-45.638
G1 X-66.654 Y-45.336
G1 X-67.383 Y-44.974
G1 X-67.497 Y-44.911
G1 X-67.609 Y-44.844
G1 X-67.717 Y-44.771
G1 X-67.822 Y-44.695
G1 X-67.924 Y-44.614
G1 X-68.842 Y-43.882
G1 X-68.989 Y-43.741
G1 X-69.137 Y-43.595
G1 X-69.345 Y-43.36
G1 X-69.547 Y-43.12
G1 X-69.744 Y-42.876
G1 X-69.935 Y-42.627
G1 X-70.121 Y-42.375
G1 X-70.301 Y-42.118
G1 X-70.55 Y-41.626
G1 X-70.793 Y-41.132
G1 X-71.032 Y-40.635
G1 X-71.16 Y-40.241
G1 X-71.176 Y-40.191
G1 X-71.424 Y-39.275
; MOVEMENT_LEAD_OUT
G1 X-71.442 Y-39.23 F180
G1 X-71.467 Y-39.187
G1 X-71.498 Y-39.149
G1 X-71.535 Y-39.117
G1 X-71.576 Y-39.09
G1 X-71.62 Y-39.07
G1 X-71.668 Y-39.057
G1 X-71.716 Y-39.051
G1 X-71.765 Y-39.053
G1 X-71.814 Y-39.063
G1 X-71.86 Y-39.08
G1 X-71.902 Y-39.104
G1 X-71.941 Y-39.134
G1 X-71.975 Y-39.17
G1 X-72.003 Y-39.21
G1 X-72.024 Y-39.254
G1 X-72.042 Y-39.301 Z-2.996
G1 X-72.059 Y-39.346 Z-2.984
G1 X-72.076 Y-39.389 Z-2.965
G1 X-72.091 Y-39.428 Z-2.939
G1 X-72.105 Y-39.464 Z-2.907
G1 X-72.116 Y-39.494 Z-2.869
G1 X-72.126 Y-39.518 Z-2.827
G1 X-72.133 Y-39.536 Z-2.781
G1 X-72.137 Y-39.547 Z-2.732
G1 X-72.138 Y-39.55 Z-2.682
; MOVEMENT_RAPID
G0 Z5 F300
G0 X72.091 Y-37.517 F2500
G0 Z-2.365 F300
; MOVEMENT_LEAD_IN
G1 Z-2.682 F180
G1 X72.089 Y-37.52 Z-2.732
G1 X72.082 Y-37.529 Z-2.781
G1 X72.07 Y-37.545 Z-2.827
G1 X72.054 Y-37.565 Z-2.869
G1 X72.035 Y-37.591 Z-2.907
G1 X72.012 Y-37.621 Z-2.939
G1 X71.986 Y-37.655 Z-2.965
G1 X71.958 Y-37.691 Z-2.984
G1 X71.928 Y-37.73 Z-2.996
G1 X71.898 Y-37.769 Z-3
G1 X71.84 Y-37.85
G1 X71.788 Y-37.934
G1 X71.741 Y-38.021
G1 X71.699 Y-38.111
G1 X71.663 Y-38.204
G1 X71.633 Y-38.298
G1 X71.609 Y-38.394
G1 X71.591 Y-38.492
; MOVEMENT_CUTTING
G1 X71.556 Y-38.783 F360
G1 X71.462 Y-39.166
G1 X71.361 Y-39.547
G1 X71.254 Y-39.926
G1 X71.141 Y-40.304
G1 X71.022 Y-40.679
G1 X70.515 Y-41.7
G1 X70.448 Y-41.848
G1 X70.373 Y-41.993
G1 X70.292 Y-42.135
G1 X70.204 Y-42.272
G1 X70.11 Y-42.405
G1 X70.009 Y-42.534
G1 X69.276 Y-43.449
G1 X69.134 Y-43.599
G1 X68.988 Y-43.742
G1 X68.842 Y-43.882
G1 X67.919 Y-44.616
G1 X67.529 Y-44.894
G1 X66.78 Y-45.268
G1 X66.028 Y-45.637
G1 X65.567 Y-45.782
G1 X64.674 Y-46.024
; MOVEMENT_LEAD_OUT
G1 X64.629 Y-46.043 F180
G1 X64.586 Y-46.067
G1 X64.548 Y-46.099
G1 X64.516 Y-46.135
G1 X64.489 Y-46.176
G1 X64.469 Y-46.221
G1 X64.456 Y-46.268
G1 X64.451 Y-46.317
G1 X64.453 Y-46.366
G1 X64.462 Y-46.414
G1 X64.479 Y-46.46
G1 X64.503 Y-46.503
G1 X64.533 Y-46.542
G1 X64.569 Y-46.575
G1 X64.61 Y-46.603
G1 X64.654 Y-46.624
G1 X64.7 Y-46.642 Z-2.996
G1 X64.745 Y-46.659 Z-2.984
G1 X64.788 Y-46.676 Z-2.965
G1 X64.828 Y-46.691 Z-2.939
G1 X64.863 Y-46.705 Z-2.907
G1 X64.894 Y-46.716 Z-2.869
G1 X64.918 Y-46.726 Z-2.827
G1 X64.936 Y-46.733 Z-2.781
G1 X64.946 Y-46.737 Z-2.732
G1 X64.95 Y-46.738 Z-2.682
; MOVEMENT_RAPID
G0 Z5 F300
G0 X62.903 Y46.683 F2500
G0 Z-2.365 F300
; MOVEMENT_LEAD_IN
G1 Z-2.682 F180
G1 X62.906 Y46.68 Z-2.732
G1 X62.916 Y46.673 Z-2.781
G1 X62.931 Y46.662 Z-2.827
G1 X62.952 Y46.646 Z-2.869
G1 X62.978 Y46.627 Z-2.907
G1 X63.008 Y46.604 Z-2.939
G1 X63.042 Y46.579 Z-2.965
G1 X63.079 Y46.551 Z-2.984
G1 X63.118 Y46.522 Z-2.996
G1 X63.157 Y46.492 Z-3
G1 X63.238 Y46.435
G1 X63.323 Y46.384
G1 X63.411 Y46.337
G1 X63.501 Y46.297
G1 X63.594 Y46.262
G1 X63.689 Y46.232
G1 X63.785 Y46.209
G1 X63.883 Y46.192
; MOVEMENT_CUTTING
G1 X64.029 Y46.177 F360
G1 X64.175 Y46.158
G1 X64.551 Y46.064
G1 X64.927 Y45.965
G1 X65.3 Y45.861
G1 X65.673 Y45.752
G1 X66.044 Y45.638
G1 X66.654 Y45.336
G1 X67.383 Y44.974
G1 X67.497 Y44.911
G1 X67.609 Y44.844
G1 X67.717 Y44.771
G1 X67.822 Y44.695
G1 X67.924 Y44.614
G1 X68.842 Y43.882
G1 X68.989 Y43.741
G1 X69.137 Y43.595
G1 X69.345 Y43.36
G1 X69.547 Y43.12
G1 X69.744 Y42.876
G1 X69.935 Y42.627
G1 X70.121 Y42.375
G1 X70.301 Y42.118
G1 X70.55 Y41.626
G1 X70.793 Y41.132
G1 X71.032 Y40.635
G1 X71.16 Y40.241
G1 X71.176 Y40.191
G1 X71.425 Y39.274
; MOVEMENT_LEAD_OUT
G1 X71.442 Y39.23 F180
G1 X71.465 Y39.19
G1 X71.494 Y39.153
G1 X71.528 Y39.121
G1 X71.566 Y39.094
G1 X71.608 Y39.073
G1 X71.652 Y39.059
G1 X71.699 Y39.051
G1 X71.745 Y39.05
G1 X71.792 Y39.056
G1 X71.828 Y39.074 Z-2.997
G1 X71.864 Y39.091 Z-2.989
G1 X71.899 Y39.108 Z-2.976
G1 X71.932 Y39.124 Z-2.958
G1 X71.953 Y39.154 Z-2.933
G1 X71.972 Y39.18 Z-2.904
G1 X71.988 Y39.202 Z-2.871
G1 X72.002 Y39.221 Z-2.835
G1 X72.012 Y39.236 Z-2.795
G1 X72.02 Y39.246 Z-2.754
G1 X72.024 Y39.252 Z-2.711
G1 Y39.253 Z-2.683
; MOVEMENT_RAPID
G0 Z5 F300
G0 X-70.581 Y-45.088 F2500
G0 Z-2.065 F300
; MOVEMENT_LEAD_IN
G1 Z-2.382 F180
G1 X-70.578 Y-45.086 Z-2.432
G1 X-70.568 Y-45.079 Z-2.481
G1 X-70.553 Y-45.068 Z-2.527
G1 X-70.532 Y-45.052 Z-2.569
G1 X-70.506 Y-45.033 Z-2.607
G1 X-70.475 Y-45.011 Z-2.639
G1 X-70.441 Y-44.986 Z-2.665
G1 X-70.404 Y-44.959 Z-2.684
G1 X-70.364 Y-44.93 Z-2.696
G1 X-70.324 Y-44.901 Z-2.7
G1 X-70.125 Y-44.75
G1 X-69.93 Y-44.594
G1 X-69.74 Y-44.431
G1 X-69.555 Y-44.263
G1 X-69.376 Y-44.089
G1 X-69.202 Y-43.91
G1 X-69.033 Y-43.725
; MOVEMENT_CUTTING
G1 X-68.938 Y-43.609 F360
G1 X-68.937 Y-43.606
G1 X-68.929 Y-43.499
G1 X-68.954 Y-43.394
G1 X-69.193 Y-43.074
G1 X-69.437 Y-42.758
G1 X-69.686 Y-42.446
G1 X-69.94 Y-42.139
G1 X-70.092 Y-41.876
G1 X-70.239 Y-41.611
G1 X-70.38 Y-41.343
G1 X-70.516 Y-41.071
G1 X-70.646 Y-40.797
G1 X-70.77 Y-40.521
G1 X-70.889 Y-40.242
G1 X-70.983 Y-39.93
G1 X-71.071 Y-39.616
G1 X-71.153 Y-39.301
G1 X-71.23 Y-38.984
G1 X-71.3 Y-38.666
G1 X-71.364 Y-38.347
G1 X-71.397 Y-37.983
G1 X-71.424 Y-37.618
G1 X-71.446 Y-37.253
G1 X-71.461 Y-36.888
G1 Y36.888
G1 X-71.448 Y37.144
G1 X-71.428 Y37.399
G1 X-71.402 Y37.654
G1 X-71.368 Y37.908
G1 X-71.365 Y38.077
G1 X-71.355 Y38.246
G1 X-71.338 Y38.414
G1 X-71.314 Y38.582
G1 X-71.283 Y38.748
G1 X-71.246 Y38.913
G1 X-71.201 Y39.076
G1 X-71.104 Y39.466
G1 X-71.003 Y39.855
G1 X-70.896 Y40.242
G1 X-70.777 Y40.521
G1 X-70.652 Y40.797
G1 X-70.522 Y41.071
G1 X-70.386 Y41.342
G1 X-70.245 Y41.61
G1 X-70.099 Y41.876
G1 X-69.948 Y42.139
G1 X-69.586 Y42.596
G1 X-69.219 Y43.048
G1 X-68.845 Y43.495
G1 X-68.378 Y43.875
G1 X-67.906 Y44.249
G1 X-67.43 Y44.617
G1 X-67.137 Y44.777
G1 X-66.841 Y44.931
G1 X-66.542 Y45.08
G1 X-66.24 Y45.224
G1 X-65.937 Y45.362
G1 X-65.63 Y45.496
G1 X-65.319 Y45.588
G1 X-65.005 Y45.675
G1 X-64.691 Y45.756
G1 X-64.375 Y45.832
G1 X-64.057 Y45.903
G1 X-63.738 Y45.967
G1 X-63.447 Y45.992
G1 X-63.155 Y46.01
G1 X-62.863 Y46.021
G1 X-62.571 Y46.025
G1 X-62.279 Y46.022
G1 X50.027 Y46.061
G1 X62.133
G1 X62.367 Y46.057
G1 X62.601 Y46.046
G1 X62.834 Y46.028
G1 X63.067 Y46.002
G1 X63.299 Y45.97
G1 X63.466 Y45.966
G1 X63.632 Y45.956
G1 X63.798 Y45.939
G1 X63.964 Y45.916
G1 X64.128 Y45.888
G1 X64.291 Y45.853
G1 X64.453 Y45.812
G1 X64.613 Y45.765
G1 X64.85 Y45.714
G1 X65.085 Y45.655
G1 X65.318 Y45.589
G1 X65.548 Y45.516
G1 X65.777 Y45.436
G1 X66.003 Y45.348
G1 X66.946 Y44.877
G1 X67.167 Y44.761
G1 X67.442 Y44.616
G1 X67.809 Y44.332
G1 X68.172 Y44.044
G1 X68.531 Y43.75
G1 X68.886 Y43.451
G1 X69.176 Y43.104
G1 X69.46 Y42.753
G1 X69.739 Y42.396
G1 X70.011 Y42.035
G1 X70.17 Y41.742
G1 X70.325 Y41.448
G1 X70.474 Y41.15
G1 X70.618 Y40.85
G1 X70.757 Y40.548
G1 X70.891 Y40.243
G1 X70.984 Y39.93
G1 X71.071 Y39.617
G1 X71.153 Y39.301
G1 X71.229 Y38.984
G1 X71.3 Y38.666
G1 X71.364 Y38.347
G1 X71.391 Y38.056
G1 X71.41 Y37.764
G1 X71.421 Y37.472
G1 X71.425 Y37.18
G1 X71.422 Y36.888
G1 X71.461 Y-29.598
G1 Y-36.888
G1 X71.448 Y-37.144
G1 X71.428 Y-37.399
G1 X71.402 Y-37.654
G1 X71.368 Y-37.908
G1 X71.365 Y-38.077
G1 X71.355 Y-38.246
G1 X71.338 Y-38.414
G1 X71.314 Y-38.582
G1 X71.283 Y-38.748
G1 X71.246 Y-38.913
G1 X71.201 Y-39.076
G1 X71.104 Y-39.466
G1 X71.003 Y-39.855
G1 X70.896 Y-40.242
G1 X70.777 Y-40.521
G1 X70.652 Y-40.797
G1 X70.522 Y-41.071
G1 X70.386 Y-41.342
G1 X70.245 Y-41.61
G1 X70.099 Y-41.876
G1 X69.948 Y-42.139
G1 X69.586 Y-42.596
G1 X69.219 Y-43.048
G1 X68.845 Y-43.495
G1 X68.378 Y-43.875
G1 X67.906 Y-44.249
G1 X67.43 Y-44.617
G1 X67.137 Y-44.777
G1 X66.841 Y-44.931
G1 X66.542 Y-45.08
G1 X66.24 Y-45.224
G1 X65.937 Y-45.362
G1 X65.63 Y-45.496
G1 X65.319 Y-45.588
G1 X65.005 Y-45.675
G1 X64.691 Y-45.756
G1 X64.375 Y-45.832
G1 X64.057 Y-45.903
G1 X63.738 Y-45.967
G1 X63.447 Y-45.992
G1 X63.155 Y-46.01
G1 X62.863 Y-46.021
G1 X62.571 Y-46.025
G1 X62.279 Y-46.022
G1 X-50.027 Y-46.061
G1 X-62.133
G1 X-62.367 Y-46.057
G1 X-62.601 Y-46.046
G1 X-62.834 Y-46.028
G1 X-63.067 Y-46.002
G1 X-63.299 Y-45.97
G1 X-63.466 Y-45.966
G1 X-63.632 Y-45.956
G1 X-63.798 Y-45.939
G1 X-63.964 Y-45.916
G1 X-64.128 Y-45.888
G1 X-64.291 Y-45.853
G1 X-64.453 Y-45.812
G1 X-64.613 Y-45.765
G1 X-64.85 Y-45.714
G1 X-65.085 Y-45.655
G1 X-65.318 Y-45.589
G1 X-65.548 Y-45.516
G1 X-65.777 Y-45.436
G1 X-66.003 Y-45.348
G1 X-66.946 Y-44.877
G1 X-67.167 Y-44.761
G1 X-67.442 Y-44.616
G1 X-67.809 Y-44.332
G1 X-68.172 Y-44.044
G1 X-68.531 Y-43.75
G1 X-68.886 Y-43.451
G1 X-69.011 Y-43.303
; MOVEMENT_LEAD_OUT
G1 X-69.046 Y-43.272 F180
G1 X-69.084 Y-43.245
G1 X-69.127 Y-43.225
G1 X-69.171 Y-43.211
G1 X-69.217 Y-43.204
G1 X-69.264
G1 X-69.31 Y-43.21
G1 X-69.355 Y-43.224
G1 X-69.398 Y-43.243
G1 X-69.437 Y-43.269
G1 X-69.462 Y-43.301 Z-2.697
G1 X-69.487 Y-43.333 Z-2.689
G1 X-69.511 Y-43.363 Z-2.676
G1 X-69.533 Y-43.392 Z-2.658
G1 X-69.542 Y-43.432 Z-2.629
G1 X-69.549 Y-43.468 Z-2.595
G1 X-69.555 Y-43.497 Z-2.555
G1 X-69.56 Y-43.521 Z-2.511
G1 Y-43.536 Z-2.47
G1 X-69.559 Y-43.545 Z-2.427
G1 Y-43.548 Z-2.383
; MOVEMENT_RAPID
G0 Z5 F300
G0 X70.367 Y44.892 F2500
G0 Z-1.763 F300
; MOVEMENT_LEAD_IN
G1 Z-2.08 F180
G1 X70.364 Y44.89 Z-2.13
G1 X70.354 Y44.883 Z-2.179
G1 X70.339 Y44.872 Z-2.225
G1 X70.317 Y44.857 Z-2.267
G1 X70.291 Y44.838 Z-2.305
G1 X70.26 Y44.816 Z-2.337
G1 X70.226 Y44.791 Z-2.363
G1 X70.188 Y44.764 Z-2.382
G1 X70.149 Y44.736 Z-2.394
G1 X70.109 Y44.707 Z-2.398
G1 X69.908 Y44.558
G1 X69.712 Y44.403
G1 X69.52 Y44.243
G1 X69.334 Y44.076
G1 X69.153 Y43.904
G1 X68.978 Y43.726
G1 X68.808 Y43.543
; MOVEMENT_CUTTING
G1 X68.711 Y43.428 F360
G1 X68.701 Y43.312
G1 X68.729 Y43.2
G1 X68.79 Y43.101
G1 X69.128 Y42.688
G1 X69.46 Y42.269
G1 X69.786 Y41.845
G1 X69.942 Y41.56
G1 X70.092 Y41.273
G1 X70.237 Y40.982
G1 X70.377 Y40.69
G1 X70.512 Y40.394
G1 X70.641 Y40.096
G1 X70.725 Y39.844
G1 X70.803 Y39.589
G1 X70.873 Y39.333
G1 X70.938 Y39.075
G1 X70.995 Y38.815
G1 X71.046 Y38.554
G1 X71.09 Y38.291
G1 X71.128 Y38.028
G1 X71.158 Y37.763
G1 X71.165 Y37.471
G1 X71.168 Y37.325
G1 X71.164 Y36.888
G1 X71.184 Y2.479
G1 X71.174 Y-36.888
G1 X71.162 Y-37.205
G1 X71.144 Y-37.522
G1 X71.12 Y-37.839
G1 X71.091 Y-38.155
G1 X71.055 Y-38.47
G1 X71.014 Y-38.785
G1 X70.904 Y-39.135
G1 X70.8 Y-39.486
G1 X70.702 Y-39.84
G1 X70.611 Y-40.195
G1 X69.879 Y-41.7
G1 X69.792 Y-41.845
G1 X69.566 Y-42.145
G1 X69.334 Y-42.442
G1 X69.097 Y-42.734
G1 X68.856 Y-43.022
G1 X68.609 Y-43.305
G1 X68.271 Y-43.582
G1 X67.93 Y-43.856
G1 X67.586 Y-44.125
G1 X67.238 Y-44.39
G1 X66.953 Y-44.545
G1 X66.665 Y-44.695
G1 X66.374 Y-44.84
G1 X66.081 Y-44.98
G1 X65.786 Y-45.114
G1 X65.488 Y-45.243
G1 X65.235 Y-45.328
G1 X64.981 Y-45.406
G1 X64.724 Y-45.477
G1 X64.466 Y-45.542
G1 X64.206 Y-45.599
G1 X63.945 Y-45.649
G1 X63.682 Y-45.693
G1 X63.419 Y-45.729
G1 X63.154 Y-45.758
G1 X62.862 Y-45.764
G1 X62.716 Y-45.767
G1 X62.279 Y-45.764
G1 X4.084 Y-45.784
G1 X-62.133 Y-45.774
G1 X-62.426 Y-45.769
G1 X-62.719 Y-45.758
G1 X-63.011 Y-45.741
G1 X-63.303 Y-45.717
G1 X-63.595 Y-45.687
G1 X-63.885 Y-45.652
G1 X-64.175 Y-45.61
G1 X-64.612 Y-45.474
G1 X-65.085 Y-45.345
G1 X-65.562 Y-45.22
G1 X-65.985 Y-45.024
G1 X-66.406 Y-44.822
G1 X-66.824 Y-44.614
G1 X-67.239 Y-44.4
G1 X-67.539 Y-44.173
G1 X-67.836 Y-43.94
G1 X-68.128 Y-43.703
G1 X-68.416 Y-43.46
G1 X-68.7 Y-43.213
G1 X-68.977 Y-42.875
G1 X-69.25 Y-42.535
G1 X-69.52 Y-42.192
G1 X-69.786 Y-41.845
G1 X-69.942 Y-41.56
G1 X-70.092 Y-41.273
G1 X-70.237 Y-40.982
G1 X-70.377 Y-40.69
G1 X-70.512 Y-40.394
G1 X-70.641 Y-40.096
G1 X-70.725 Y-39.844
G1 X-70.803 Y-39.589
G1 X-70.874 Y-39.333
G1 X-70.938 Y-39.075
G1 X-70.995 Y-38.815
G1 X-71.046 Y-38.554
G1 X-71.09 Y-38.291
G1 X-71.127 Y-38.028
G1 X-71.157 Y-37.763
G1 X-71.174 Y-36.888
G1 Y36.888
G1 X-71.162 Y37.205
G1 X-71.144 Y37.522
G1 X-71.12 Y37.839
G1 X-71.091 Y38.155
G1 X-71.055 Y38.47
G1 X-71.014 Y38.785
G1 X-70.904 Y39.135
G1 X-70.8 Y39.486
G1 X-70.702 Y39.84
G1 X-70.611 Y40.195
G1 X-69.879 Y41.7
G1 X-69.792 Y41.845
G1 X-69.566 Y42.145
G1 X-69.334 Y42.442
G1 X-69.097 Y42.734
G1 X-68.856 Y43.022
G1 X-68.609 Y43.305
G1 X-68.271 Y43.582
G1 X-67.93 Y43.856
G1 X-67.586 Y44.125
G1 X-67.238 Y44.39
G1 X-66.953 Y44.545
G1 X-66.665 Y44.695
G1 X-66.374 Y44.84
G1 X-66.081 Y44.98
G1 X-65.786 Y45.114
G1 X-65.488 Y45.243
G1 X-65.235 Y45.328
G1 X-64.981 Y45.406
G1 X-64.724 Y45.477
G1 X-64.466 Y45.542
G1 X-64.206 Y45.599
G1 X-63.945 Y45.649
G1 X-63.682 Y45.693
G1 X-63.419 Y45.729
G1 X-63.154 Y45.758
G1 X-62.862 Y45.764
G1 X-62.716 Y45.767
G1 X-62.279 Y45.764
G1 X-4.084 Y45.784
G1 X62.133 Y45.774
G1 X62.426 Y45.769
G1 X62.719 Y45.758
G1 X63.011 Y45.741
G1 X63.303 Y45.717
G1 X63.595 Y45.687
G1 X63.885 Y45.652
G1 X64.175 Y45.61
G1 X64.612 Y45.474
G1 X65.085 Y45.345
G1 X65.562 Y45.22
G1 X65.985 Y45.024
G1 X66.406 Y44.822
G1 X66.824 Y44.614
G1 X67.239 Y44.4
G1 X67.539 Y44.173
G1 X67.836 Y43.94
G1 X68.128 Y43.703
G1 X68.416 Y43.46
G1 X68.7 Y43.213
G1 X68.79 Y43.101
; MOVEMENT_LEAD_OUT
G1 X68.825 Y43.07 F180
G1 X68.863 Y43.044
G1 X68.905 Y43.023
G1 X68.95 Y43.01
G1 X68.996 Y43.002
G1 X69.043
G1 X69.089 Y43.009
G1 X69.134 Y43.022
G1 X69.176 Y43.042
G1 X69.215 Y43.068
G1 X69.241 Y43.1 Z-2.395
G1 X69.265 Y43.131 Z-2.387
G1 X69.289 Y43.162 Z-2.374
G1 X69.312 Y43.191 Z-2.356
G1 X69.32 Y43.231 Z-2.327
G1 X69.328 Y43.266 Z-2.293
G1 X69.334 Y43.296 Z-2.254
G1 X69.339 Y43.319 Z-2.21
G1 X69.338 Y43.334 Z-2.168
G1 Y43.343 Z-2.125
G1 Y43.346 Z-2.08
; MOVEMENT_RAPID
G0 Z5 F300
G0 X70.377 Y44.516 F2500
G0 Z-1.465 F300
; MOVEMENT_LEAD_IN
G1 Z-1.783 F180
G1 X70.373 Y44.514 Z-1.832
G1 X70.364 Y44.508 Z-1.881
G1 X70.347 Y44.498 Z-1.927
G1 X70.325 Y44.485 Z-1.969
G1 X70.297 Y44.468 Z-2.007
G1 X70.265 Y44.448 Z-2.039
G1 X70.229 Y44.426 Z-2.065
G1 X70.189 Y44.402 Z-2.084
G1 X70.148 Y44.377 Z-2.096
G1 X70.106 Y44.351 Z-2.1
G1 X69.894 Y44.218
G1 X69.687 Y44.078
G1 X69.484 Y43.932
G1 X69.286 Y43.78
G1 X69.093 Y43.621
G1 X68.904 Y43.457
G1 X68.721 Y43.287
; MOVEMENT_CUTTING
G1 X68.616 Y43.18 F360
G1 X68.587 Y43.021
G1 X68.614 Y42.862
G1 X68.693 Y42.721
G1 X68.929 Y42.437
G1 X69.159 Y42.148
G1 X69.382 Y41.854
G1 X69.599 Y41.556
G1 X69.838 Y41.095
G1 X70.072 Y40.631
G1 X70.302 Y40.165
G1 X70.387 Y39.931
G1 X70.465 Y39.694
G1 X70.536 Y39.455
G1 X70.601 Y39.214
G1 X70.659 Y38.971
G1 X70.709 Y38.727
G1 X70.753 Y38.482
G1 X70.79 Y38.235
G1 X70.82 Y37.987
G1 X70.843 Y37.739
G1 X70.859 Y37.49
G1 X70.868 Y37.241
G1 X70.87 Y36.992
G1 X70.865 Y36.742
G1 X70.884 Y4.666
G1 X70.873 Y-36.888
G1 X70.859 Y-37.144
G1 X70.84 Y-37.399
G1 X70.815 Y-37.654
G1 X70.784 Y-37.908
G1 X70.78 Y-38.075
G1 X70.77 Y-38.242
G1 X70.753 Y-38.408
G1 X70.729 Y-38.573
G1 X70.699 Y-38.737
G1 X70.662 Y-38.9
G1 X70.618 Y-39.061
G1 X70.567 Y-39.22
G1 X70.528 Y-39.408
G1 X70.483 Y-39.594
G1 X70.43 Y-39.777
G1 X70.369 Y-39.959
G1 X70.302 Y-40.138
G1 X70.228 Y-40.315
G1 X70.147 Y-40.488
G1 X70.06 Y-40.658
G1 X69.965 Y-40.825
G1 X69.815 Y-41.116
G1 X69.744 Y-41.262
G1 X69.579 Y-41.591
G1 X69.353 Y-41.891
G1 X69.122 Y-42.188
G1 X68.888 Y-42.482
G1 X68.649 Y-42.773
G1 X68.406 Y-43.06
G1 X68.122 Y-43.298
G1 X67.834 Y-43.532
G1 X67.542 Y-43.761
G1 X67.247 Y-43.985
G1 X66.947 Y-44.205
G1 X66.485 Y-44.442
G1 X66.02 Y-44.677
G1 X65.554 Y-44.909
G1 X65.312 Y-44.996
G1 X65.068 Y-45.076
G1 X64.821 Y-45.148
G1 X64.572 Y-45.213
G1 X64.322 Y-45.271
G1 X64.07 Y-45.322
G1 X63.816 Y-45.365
G1 X63.562 Y-45.401
G1 X63.306 Y-45.429
G1 X63.05 Y-45.449
G1 X62.793 Y-45.462
G1 X62.536 Y-45.467
G1 X62.279 Y-45.465
G1 X7.73 Y-45.484
G1 X-62.133 Y-45.473
G1 X-62.367 Y-45.468
G1 X-62.601 Y-45.457
G1 X-62.834 Y-45.44
G1 X-63.067 Y-45.415
G1 X-63.299 Y-45.385
G1 X-63.466 Y-45.383
G1 X-63.633 Y-45.373
G1 X-63.799 Y-45.357
G1 X-63.965 Y-45.333
G1 X-64.129 Y-45.303
G1 X-64.292 Y-45.265
G1 X-64.453 Y-45.22
G1 X-64.612 Y-45.169
G1 X-64.82 Y-45.124
G1 X-65.027 Y-45.071
G1 X-65.231 Y-45.012
G1 X-65.434 Y-44.946
G1 X-65.634 Y-44.873
G1 X-66.508 Y-44.418
G1 X-66.644 Y-44.361
G1 X-66.776 Y-44.297
G1 X-66.905 Y-44.226
G1 X-67.031 Y-44.149
G1 X-67.152 Y-44.066
G1 X-67.269 Y-43.977
G1 X-67.382 Y-43.882
G1 X-68.287 Y-43.158
G1 X-68.404 Y-43.058
G1 X-68.655 Y-42.767
G1 X-68.9 Y-42.472
G1 X-69.139 Y-42.171
G1 X-69.372 Y-41.866
G1 X-69.599 Y-41.556
G1 X-69.838 Y-41.095
G1 X-70.072 Y-40.631
G1 X-70.302 Y-40.165
G1 X-70.386 Y-39.938
G1 X-70.463 Y-39.708
G1 X-70.533 Y-39.476
G1 X-70.596 Y-39.242
G1 X-70.653 Y-39.007
G1 X-70.703 Y-38.77
G1 X-70.746 Y-38.531
G1 X-70.781 Y-38.291
G1 X-70.81 Y-38.051
G1 X-70.832 Y-37.809
G1 X-70.847 Y-37.568
G1 X-70.855 Y-37.325
G1 X-70.873 Y-36.888
G1 Y36.888
G1 X-70.859 Y37.144
G1 X-70.84 Y37.399
G1 X-70.815 Y37.654
G1 X-70.784 Y37.908
G1 X-70.78 Y38.075
G1 X-70.77 Y38.242
G1 X-70.753 Y38.408
G1 X-70.729 Y38.573
G1 X-70.699 Y38.737
G1 X-70.662 Y38.9
G1 X-70.618 Y39.061
G1 X-70.567 Y39.22
G1 X-70.528 Y39.408
G1 X-70.483 Y39.594
G1 X-70.43 Y39.777
G1 X-70.369 Y39.959
G1 X-70.302 Y40.138
G1 X-70.228 Y40.315
G1 X-70.147 Y40.488
G1 X-70.06 Y40.658
G1 X-69.965 Y40.825
G1 X-69.815 Y41.116
G1 X-69.744 Y41.262
G1 X-69.579 Y41.591
G1 X-69.353 Y41.891
G1 X-69.122 Y42.188
G1 X-68.888 Y42.482
G1 X-68.649 Y42.773
G1 X-68.406 Y43.06
G1 X-68.122 Y43.298
G1 X-67.834 Y43.532
G1 X-67.542 Y43.761
G1 X-67.247 Y43.985
G1 X-66.947 Y44.205
G1 X-66.485 Y44.442
G1 X-66.02 Y44.677
G1 X-65.554 Y44.909
G1 X-65.312 Y44.996
G1 X-65.068 Y45.076
G1 X-64.821 Y45.148
G1 X-64.572 Y45.213
G1 X-64.322 Y45.271
G1 X-64.07 Y45.322
G1 X-63.816 Y45.365
G1 X-63.562 Y45.401
G1 X-63.306 Y45.429
G1 X-63.05 Y45.449
G1 X-62.793 Y45.462
G1 X-62.536 Y45.467
G1 X-62.279 Y45.465
G1 X-7.73 Y45.484
G1 X62.133 Y45.473
G1 X62.367 Y45.468
G1 X62.601 Y45.457
G1 X62.834 Y45.44
G1 X63.067 Y45.415
G1 X63.299 Y45.385
G1 X63.466 Y45.383
G1 X63.633 Y45.373
G1 X63.799 Y45.357
G1 X63.965 Y45.333
G1 X64.129 Y45.303
G1 X64.292 Y45.265
G1 X64.453 Y45.22
G1 X64.612 Y45.169
G1 X64.82 Y45.124
G1 X65.027 Y45.071
G1 X65.231 Y45.012
G1 X65.434 Y44.946
G1 X65.634 Y44.873
G1 X66.508 Y44.418
G1 X66.644 Y44.361
G1 X66.776 Y44.297
G1 X66.905 Y44.226
G1 X67.031 Y44.149
G1 X67.152 Y44.066
G1 X67.269 Y43.977
G1 X67.382 Y43.882
G1 X68.287 Y43.158
G1 X68.404 Y43.058
G1 X68.452 Y43.012
G1 X68.693 Y42.721
; MOVEMENT_LEAD_OUT
G1 X68.727 Y42.688 F180
G1 X68.765 Y42.661
G1 X68.806 Y42.64
G1 X68.85 Y42.624
G1 X68.896 Y42.616
G1 X68.943 Y42.614
G1 X68.989 Y42.619
G1 X69.035 Y42.631
G1 X69.078 Y42.65
G1 X69.117 Y42.675
G1 X69.143 Y42.706 Z-2.097
G1 X69.169 Y42.737 Z-2.089
G1 X69.194 Y42.767 Z-2.076
G1 X69.217 Y42.795 Z-2.058
G1 X69.226 Y42.831 Z-2.033
G1 X69.233 Y42.863 Z-2.002
G1 X69.239 Y42.891 Z-1.968
G1 X69.244 Y42.914 Z-1.929
G1 X69.248 Y42.931 Z-1.888
G1 Y42.941 Z-1.854
G1 Y42.948 Z-1.818
G1 Y42.95 Z-1.783
; MOVEMENT_RAPID
G0 Z5 F300
G0 X-70.191 Y-44.224 F2500
G0 Z-1.165 F300
; MOVEMENT_LEAD_IN
G1 Z-1.482 F180
G1 X-70.187 Y-44.221 Z-1.532
G1 X-70.178 Y-44.215 Z-1.581
G1 X-70.161 Y-44.206 Z-1.627
G1 X-70.139 Y-44.192 Z-1.669
G1 X-70.111 Y-44.175 Z-1.707
G1 X-70.079 Y-44.155 Z-1.739
G1 X-70.043 Y-44.133 Z-1.765
G1 X-70.003 Y-44.109 Z-1.784
G1 X-69.962 Y-44.084 Z-1.796
G1 X-69.92 Y-44.058 Z-1.8
G1 X-69.708 Y-43.925
G1 X-69.501 Y-43.785
G1 X-69.298 Y-43.639
G1 X-69.1 Y-43.487
G1 X-68.906 Y-43.329
G1 X-68.718 Y-43.165
G1 X-68.535 Y-42.995
; MOVEMENT_CUTTING
G1 X-68.43 Y-42.887 F360
G1 X-68.404 Y-42.726
G1 X-68.431 Y-42.565
G1 X-68.511 Y-42.421
G1 X-69.134 Y-41.638
G1 X-69.208 Y-41.54
G1 X-69.276 Y-41.439
G1 X-69.34 Y-41.334
G1 X-69.397 Y-41.227
G1 X-69.449 Y-41.116
G1 X-69.573 Y-40.88
G1 X-69.691 Y-40.641
G1 X-69.804 Y-40.399
G1 X-69.912 Y-40.155
G1 X-70.013 Y-39.908
G1 X-70.109 Y-39.659
G1 X-70.181 Y-39.435
G1 X-70.246 Y-39.21
G1 X-70.304 Y-38.983
G1 X-70.356 Y-38.754
G1 X-70.401 Y-38.523
G1 X-70.439 Y-38.292
G1 X-70.471 Y-38.059
G1 X-70.495 Y-37.826
G1 X-70.513 Y-37.592
G1 X-70.525 Y-37.357
G1 X-70.529 Y-37.123
G1 X-70.526 Y-36.888
G1 Y36.888
G1 X-70.511 Y37.253
G1 X-70.49 Y37.618
G1 X-70.463 Y37.982
G1 X-70.431 Y38.346
G1 X-70.367 Y38.638
G1 X-70.205 Y39.221
G1 X-70.045 Y39.804
G1 X-69.979 Y39.984
G1 X-69.906 Y40.162
G1 X-69.826 Y40.337
G1 X-69.741 Y40.508
G1 X-69.65 Y40.677
G1 X-69.572 Y40.859
G1 X-69.489 Y41.038
G1 X-69.399 Y41.214
G1 X-69.303 Y41.387
G1 X-69.202 Y41.556
G1 X-69.134 Y41.637
G1 X-68.94 Y41.894
G1 X-68.741 Y42.145
G1 X-68.535 Y42.392
G1 X-68.323 Y42.634
G1 X-68.106 Y42.87
G1 X-67.852 Y43.086
G1 X-67.595 Y43.297
G1 X-67.334 Y43.503
G1 X-67.07 Y43.706
G1 X-66.802 Y43.903
G1 X-66.477 Y44.07
G1 X-66.149 Y44.234
G1 X-65.82 Y44.393
G1 X-65.488 Y44.547
G1 X-65.267 Y44.635
G1 X-65.044 Y44.715
G1 X-64.819 Y44.788
G1 X-64.591 Y44.854
G1 X-64.361 Y44.912
G1 X-64.129 Y44.963
G1 X-63.896 Y45.007
G1 X-63.662 Y45.043
G1 X-63.426 Y45.071
G1 X-63.19 Y45.092
G1 X-62.953 Y45.106
G1 X-62.716 Y45.111
G1 X-62.279 Y45.088
G1 X37.338 Y45.122
G1 X62.133 Y45.126
G1 X62.39 Y45.125
G1 X62.646 Y45.118
G1 X62.903 Y45.105
G1 X63.159 Y45.085
G1 X63.414 Y45.059
G1 X63.669 Y45.027
G1 X63.923 Y44.988
G1 X64.176 Y44.944
G1 X64.612 Y44.805
G1 X64.803 Y44.762
G1 X64.992 Y44.711
G1 X65.179 Y44.653
G1 X65.363 Y44.588
G1 X65.544 Y44.515
G1 X65.723 Y44.434
G1 X65.898 Y44.347
G1 X66.069 Y44.253
G1 X66.25 Y44.175
G1 X66.429 Y44.091
G1 X66.604 Y44.002
G1 X66.777 Y43.907
G1 X66.947 Y43.807
G1 X67.967 Y42.994
G1 X68.113 Y42.854
G1 X68.259 Y42.712
G1 X68.389 Y42.574
G1 X69.134 Y41.638
G1 X69.208 Y41.54
G1 X69.276 Y41.439
G1 X69.34 Y41.335
G1 X69.397 Y41.227
G1 X69.449 Y41.116
G1 X69.573 Y40.88
G1 X69.691 Y40.641
G1 X69.804 Y40.399
G1 X69.912 Y40.155
G1 X70.013 Y39.908
G1 X70.109 Y39.659
G1 X70.18 Y39.448
G1 X70.244 Y39.235
G1 X70.302 Y39.02
G1 X70.352 Y38.803
G1 X70.395 Y38.585
G1 X70.431 Y38.365
G1 X70.46 Y38.145
G1 X70.482 Y37.923
G1 X70.497 Y37.701
G1 X70.505 Y37.479
G1 Y37.256
G1 X70.499 Y37.034
G1 X70.488 Y36.888
G1 X70.522 Y-22.016
G1 X70.526 Y-36.888
G1 X70.511 Y-37.253
G1 X70.49 Y-37.618
G1 X70.463 Y-37.982
G1 X70.431 Y-38.346
G1 X70.367 Y-38.638
G1 X70.205 Y-39.221
G1 X70.045 Y-39.804
G1 X69.979 Y-39.984
G1 X69.906 Y-40.162
G1 X69.826 Y-40.337
G1 X69.741 Y-40.508
G1 X69.65 Y-40.677
G1 X69.572 Y-40.859
G1 X69.489 Y-41.038
G1 X69.399 Y-41.214
G1 X69.303 Y-41.387
G1 X69.202 Y-41.556
G1 X69.134 Y-41.637
G1 X68.94 Y-41.894
G1 X68.741 Y-42.145
G1 X68.535 Y-42.392
G1 X68.323 Y-42.634
G1 X68.106 Y-42.87
G1 X67.852 Y-43.086
G1 X67.595 Y-43.297
G1 X67.334 Y-43.503
G1 X67.07 Y-43.706
G1 X66.802 Y-43.903
G1 X66.477 Y-44.07
G1 X66.149 Y-44.234
G1 X65.82 Y-44.393
G1 X65.488 Y-44.547
G1 X65.267 Y-44.635
G1 X65.044 Y-44.715
G1 X64.819 Y-44.788
G1 X64.591 Y-44.854
G1 X64.361 Y-44.912
G1 X64.129 Y-44.963
G1 X63.896 Y-45.007
G1 X63.662 Y-45.043
G1 X63.426 Y-45.071
G1 X63.19 Y-45.092
G1 X62.953 Y-45.106
G1 X62.716 Y-45.111
G1 X62.279 Y-45.088
G1 X-37.338 Y-45.122
G1 X-62.133 Y-45.126
G1 X-62.39 Y-45.125
G1 X-62.646 Y-45.118
G1 X-62.903 Y-45.105
G1 X-63.159 Y-45.085
G1 X-63.414 Y-45.059
G1 X-63.669 Y-45.027
G1 X-63.923 Y-44.988
G1 X-64.176 Y-44.944
G1 X-64.612 Y-44.805
G1 X-64.803 Y-44.762
G1 X-64.992 Y-44.711
G1 X-65.179 Y-44.653
G1 X-65.363 Y-44.588
G1 X-65.544 Y-44.515
G1 X-65.723 Y-44.434
G1 X-65.898 Y-44.347
G1 X-66.069 Y-44.253
G1 X-66.25 Y-44.175
G1 X-66.429 Y-44.091
G1 X-66.604 Y-44.002
G1 X-66.777 Y-43.907
G1 X-66.947 Y-43.807
G1 X-67.967 Y-42.994
G1 X-68.083 Y-42.887
G1 X-68.196 Y-42.776
G1 X-68.305 Y-42.662
G1 X-68.411 Y-42.544
G1 X-68.512 Y-42.423
; MOVEMENT_LEAD_OUT
G1 X-68.545 Y-42.389 F180
G1 X-68.582 Y-42.361
G1 X-68.623 Y-42.339
G1 X-68.666 Y-42.323
G1 X-68.712 Y-42.314
G1 X-68.758 Y-42.311
G1 X-68.805 Y-42.315
G1 X-68.85 Y-42.326
G1 X-68.894 Y-42.344
G1 X-68.934 Y-42.367
G1 X-68.96 Y-42.398 Z-1.797
G1 X-68.987 Y-42.429 Z-1.789
G1 X-69.012 Y-42.458 Z-1.776
G1 X-69.036 Y-42.486 Z-1.758
G1 X-69.045 Y-42.525 Z-1.73
G1 X-69.053 Y-42.559 Z-1.697
G1 X-69.06 Y-42.588 Z-1.658
G1 X-69.066 Y-42.611 Z-1.616
G1 X-69.07 Y-42.628 Z-1.57
G1 X-69.069 Y-42.637 Z-1.527
G1 Y-42.64 Z-1.483
; MOVEMENT_RAPID
G0 Z5 F300
G0 X-69.781 Y-44.098 F2500
G0 Z-0.865 F300
; MOVEMENT_LEAD_IN
G1 Z-1.183 F180
G1 X-69.778 Y-44.096 Z-1.232
G1 X-69.768 Y-44.089 Z-1.281
G1 X-69.752 Y-44.079 Z-1.327
G1 X-69.73 Y-44.065 Z-1.369
G1 X-69.703 Y-44.047 Z-1.407
G1 X-69.671 Y-44.026 Z-1.439
G1 X-69.636 Y-44.003 Z-1.465
G1 X-69.597 Y-43.978 Z-1.484
G1 X-69.556 Y-43.951 Z-1.496
G1 X-69.515 Y-43.924 Z-1.5
G1 X-69.308 Y-43.785
G1 X-69.105 Y-43.639
G1 X-68.906 Y-43.487
G1 X-68.713 Y-43.328
G1 X-68.524 Y-43.164
G1 X-68.341 Y-42.994
G1 X-68.163 Y-42.819
; MOVEMENT_CUTTING
G1 X-68.062 Y-42.708 F360
G1 X-68.048 Y-42.533
G1 X-68.088 Y-42.361
G1 X-68.177 Y-42.209
G1 X-68.706 Y-41.554
G1 X-68.821 Y-41.408
G1 X-69.015 Y-41.116
G1 X-69.167 Y-40.831
G1 X-69.313 Y-40.543
G1 X-69.453 Y-40.252
G1 X-69.586 Y-39.957
G1 X-69.712 Y-39.659
G1 X-69.787 Y-39.415
G1 X-69.855 Y-39.168
G1 X-69.916 Y-38.919
G1 X-69.969 Y-38.669
G1 X-70.016 Y-38.417
G1 X-70.055 Y-38.164
G1 X-70.086 Y-37.91
G1 X-70.111 Y-37.655
G1 X-70.128 Y-37.4
G1 X-70.138 Y-37.144
G1 X-70.14 Y-36.888
G1 Y36.888
G1 X-70.127 Y37.144
G1 X-70.109 Y37.399
G1 X-70.085 Y37.654
G1 X-70.055 Y37.908
G1 X-70.034 Y38.31
G1 X-69.868 Y38.984
G1 X-69.704 Y39.658
G1 X-69.614 Y39.886
G1 X-69.517 Y40.112
G1 X-69.415 Y40.335
G1 X-69.308 Y40.556
G1 X-69.195 Y40.774
G1 X-69.077 Y40.989
G1 X-68.953 Y41.201
G1 X-68.824 Y41.41
G1 X-68.364 Y41.972
G1 X-67.901 Y42.532
G1 X-67.528 Y42.841
G1 X-67.152 Y43.147
G1 X-66.773 Y43.449
G1 X-66.537 Y43.592
G1 X-66.297 Y43.728
G1 X-66.054 Y43.858
G1 X-65.808 Y43.981
G1 X-65.558 Y44.098
G1 X-65.305 Y44.209
G1 X-65.05 Y44.312
G1 X-64.827 Y44.385
G1 X-64.601 Y44.45
G1 X-64.374 Y44.508
G1 X-64.145 Y44.559
G1 X-63.915 Y44.603
G1 X-63.683 Y44.64
G1 X-63.45 Y44.67
G1 X-63.217 Y44.693
G1 X-62.982 Y44.708
G1 X-62.748 Y44.716
G1 X-62.513 Y44.717
G1 X-62.279 Y44.711
G1 X-17.211 Y44.726
G1 X62.133 Y44.74
G1 X62.367 Y44.736
G1 X62.601 Y44.725
G1 X62.834 Y44.708
G1 X63.067 Y44.684
G1 X63.299 Y44.654
G1 X63.466 Y44.645
G1 X63.633 Y44.629
G1 X63.799 Y44.607
G1 X63.964 Y44.579
G1 X64.128 Y44.545
G1 X64.291 Y44.505
G1 X64.452 Y44.459
G1 X64.611 Y44.407
G1 X64.783 Y44.371
G1 X64.954 Y44.327
G1 X65.123 Y44.276
G1 X65.289 Y44.217
G1 X65.452 Y44.151
G1 X65.613 Y44.078
G1 X65.77 Y43.998
G1 X65.923 Y43.911
G1 X66.099 Y43.83
G1 X66.272 Y43.742
G1 X66.442 Y43.65
G1 X66.609 Y43.553
G1 X66.774 Y43.45
G1 X67.529 Y42.836
G1 X67.884 Y42.547
G1 X68.079 Y42.326
G1 X68.27 Y42.101
G1 X68.457 Y41.873
G1 X68.641 Y41.642
G1 X68.82 Y41.407
G1 X69.015 Y41.116
G1 X69.167 Y40.831
G1 X69.313 Y40.543
G1 X69.453 Y40.252
G1 X69.586 Y39.957
G1 X69.712 Y39.659
G1 X69.784 Y39.436
G1 X69.849 Y39.211
G1 X69.907 Y38.983
G1 X69.958 Y38.754
G1 X70.002 Y38.524
G1 X70.039 Y38.292
G1 X70.069 Y38.059
G1 X70.092 Y37.826
G1 X70.107 Y37.592
G1 X70.116 Y37.357
G1 X70.117 Y37.123
G1 X70.111 Y36.888
G1 X70.126 Y10.352
G1 X70.14 Y-36.888
G1 X70.127 Y-37.144
G1 X70.109 Y-37.399
G1 X70.085 Y-37.654
G1 X70.055 Y-37.908
G1 X70.034 Y-38.31
G1 X69.868 Y-38.984
G1 X69.704 Y-39.658
G1 X69.614 Y-39.886
G1 X69.517 Y-40.112
G1 X69.415 Y-40.335
G1 X69.308 Y-40.556
G1 X69.195 Y-40.774
G1 X69.077 Y-40.989
G1 X68.953 Y-41.201
G1 X68.824 Y-41.41
G1 X68.364 Y-41.972
G1 X67.901 Y-42.532
G1 X67.528 Y-42.841
G1 X67.152 Y-43.147
G1 X66.773 Y-43.449
G1 X66.537 Y-43.592
G1 X66.297 Y-43.728
G1 X66.054 Y-43.858
G1 X65.808 Y-43.981
G1 X65.558 Y-44.098
G1 X65.305 Y-44.209
G1 X65.05 Y-44.312
G1 X64.827 Y-44.385
G1 X64.601 Y-44.45
G1 X64.374 Y-44.508
G1 X64.145 Y-44.559
G1 X63.915 Y-44.603
G1 X63.683 Y-44.64
G1 X63.45 Y-44.67
G1 X63.217 Y-44.693
G1 X62.982 Y-44.708
G1 X62.748 Y-44.716
G1 X62.513 Y-44.717
G1 X62.279 Y-44.711
G1 X17.21 Y-44.726
G1 X-62.133 Y-44.74
G1 X-62.367 Y-44.736
G1 X-62.601 Y-44.725
G1 X-62.834 Y-44.708
G1 X-63.067 Y-44.684
G1 X-63.299 Y-44.654
G1 X-63.466 Y-44.645
G1 X-63.633 Y-44.629
G1 X-63.799 Y-44.607
G1 X-63.964 Y-44.579
G1 X-64.128 Y-44.545
G1 X-64.291 Y-44.505
G1 X-64.452 Y-44.459
G1 X-64.611 Y-44.407
G1 X-64.783 Y-44.371
G1 X-64.954 Y-44.327
G1 X-65.123 Y-44.276
G1 X-65.289 Y-44.217
G1 X-65.452 Y-44.151
G1 X-65.613 Y-44.078
G1 X-65.77 Y-43.998
G1 X-65.923 Y-43.911
G1 X-66.099 Y-43.829
G1 X-66.272 Y-43.742
G1 X-66.442 Y-43.65
G1 X-66.609 Y-43.553
G1 X-66.774 Y-43.45
G1 X-67.529 Y-42.836
G1 X-67.884 Y-42.547
G1 X-67.963 Y-42.469
G1 X-68.039 Y-42.386
G1 X-68.11 Y-42.299
G1 X-68.177 Y-42.209
; MOVEMENT_LEAD_OUT
G1 X-68.21 Y-42.176 F180
G1 X-68.248 Y-42.148
G1 X-68.289 Y-42.126
G1 X-68.333 Y-42.11
G1 X-68.379 Y-42.102
G1 X-68.426 Y-42.099
G1 X-68.472 Y-42.104
G1 X-68.517 Y-42.116
G1 X-68.561 Y-42.134
G1 X-68.601 Y-42.158
G1 X-68.627 Y-42.189 Z-1.497
G1 X-68.653 Y-42.22 Z-1.489
G1 X-68.678 Y-42.249 Z-1.476
G1 X-68.702 Y-42.277 Z-1.458
G1 X-68.711 Y-42.315 Z-1.431
G1 X-68.718 Y-42.348 Z-1.4
G1 X-68.725 Y-42.376 Z-1.363
G1 X-68.73 Y-42.399 Z-1.323
G1 X-68.734 Y-42.416 Z-1.28
G1 Y-42.417 Z-1.279
G1 Y-42.428 Z-1.231
G1 Y-42.432 Z-1.183
; MOVEMENT_RAPID
G0 Z5 F300
G0 X69.656 Y43.658 F2500
G0 Z-0.565 F300
; MOVEMENT_LEAD_IN
G1 Z-0.882 F180
G1 X69.652 Y43.656 Z-0.932
G1 X69.642 Y43.65 Z-0.981
G1 X69.626 Y43.64 Z-1.027
G1 X69.604 Y43.627 Z-1.069
G1 X69.576 Y43.61 Z-1.107
G1 X69.544 Y43.59 Z-1.139
G1 X69.507 Y43.568 Z-1.165
G1 X69.468 Y43.544 Z-1.184
G1 X69.427 Y43.519 Z-1.196
G1 X69.384 Y43.493 Z-1.2
G1 X69.173 Y43.36
G1 X68.965 Y43.221
G1 X68.762 Y43.075
G1 X68.564 Y42.923
G1 X68.37 Y42.765
G1 X68.181 Y42.601
G1 X67.998 Y42.432
; MOVEMENT_CUTTING
G1 X67.893 Y42.324 F360
G1 X67.87 Y42.097
G1 X67.918 Y41.874
G1 X68.032 Y41.677
G1 X68.16 Y41.526
G1 X68.283 Y41.37
G1 X68.4 Y41.211
G1 X68.512 Y41.047
G1 X68.618 Y40.88
G1 X68.719 Y40.709
G1 X68.813 Y40.535
G1 X68.902 Y40.358
G1 X68.984 Y40.178
G1 X69.078 Y39.988
G1 X69.165 Y39.795
G1 X69.246 Y39.6
G1 X69.319 Y39.401
G1 X69.387 Y39.201
G1 X69.447 Y38.998
G1 X69.501 Y38.793
G1 X69.547 Y38.586
G1 X69.587 Y38.379
G1 X69.619 Y38.169
G1 X69.645 Y37.959
G1 X69.663 Y37.748
G1 X69.675 Y37.537
G1 X69.679 Y37.325
G1 X69.687 Y36.596
G1 X69.701 Y23.037
G1 X69.687 Y-36.888
G1 X69.662 Y-37.374
G1 X69.631 Y-37.861
G1 X69.593 Y-38.346
G1 X69.521 Y-38.642
G1 X69.443 Y-38.936
G1 X69.358 Y-39.228
G1 X69.267 Y-39.518
G1 X69.17 Y-39.807
G1 X68.947 Y-40.247
G1 X68.716 Y-40.684
G1 X68.479 Y-41.117
G1 X68.292 Y-41.359
G1 X68.1 Y-41.597
G1 X67.903 Y-41.831
G1 X67.702 Y-42.062
G1 X67.496 Y-42.288
G1 X67.227 Y-42.515
G1 X66.953 Y-42.736
