%
O01004
(Using high feed G1 F650. instead of G0.)
(Machine)
(  vendor: Haas Automation)
(  model: HAAS UMC-750)
(T2 D=9.093 CR=0. TAPER=118deg - ZMIN=-16. - drill)
(T3 D=10. CR=0. - ZMIN=-16. - right hand tap)
(T6 D=9.525 CR=0. TAPER=90deg - ZMIN=-2. - spot drill)
N10 G90 G94 G17
N15 G21
N20 G53 G0 Z0.

(Drill3)
N25 T6 M6
N30 S1830 M3
N35 G54
N40 G53 G0 X-736.6 Y-203.2
N45 G0 B0. C0.
N50 M8
N55 G0 X9.5 Y35.998
N60 G43 Z15. H6
N65 T2
N70 G0 Z5.
N75 G98 G81 X9.5 Y35.998 Z-2. R4.992 F762.
N80 G80
N85 G0 Z15.
N90 M5
N95 G53 G0 Z0.

(Drill4)
N100 M9
N105 M1
N110 T2 M6
N115 S3200 M3
N120 G54
N125 G0 B0. C0.
N130 M8
N135 G0 X9.5 Y35.998
N140 G43 Z15. H2
N145 T3
N150 G0 Z5.
N155 G98 G83 X9.5 Y35.998 Z-16. R4.992 Q2.273 P0 F736.6
N160 G80
N165 G0 Z15.
N170 M5
N175 G53 G0 Z0.

(Drill4)
N180 M9
N185 M1
N190 T3 M6
N195 S500 M3
N200 G54
N205 G0 B0. C0.
N210 M8
N215 G0 X9.5 Y35.998
N220 G43 Z15. H3
N225 T6
N230 G0 Z5.
N235 G98 G84 X9.5 Y35.998 Z-16. R4.992 F750.
N240 G80
N245 G0 Z15.

N250 M5
N255 M9
N260 G53 G0 Z0.
N265 G53 G0 X-736.6 Y-203.2
N270 G28 G91 C0.
N275 G90
N280 G0 B0. C0.
N285 M30

%
