;Fusion 360 CAM 2.0.7421
; Posts processor: DIYCNC_Marlin20.cps
; Gcode generated: Sun Feb  9 02:42:34 2020 GMT
; Document: Untitled
; Setup: Setup2
; 
; Ranges table:
; X: Min=-8.677 Max=6.852 Size=15.529
; Y: Min=-26.022 Max=25.928 Size=51.95
; Z: Min=-1.2 Max=5 Size=6.2
; 
; Tools table:
; T1 D=3.175 CR=0 TAPER=22.5deg - ZMIN=-1.2 - chamfer mill 

; *** START begin ***
G90
G21
M84 S0
G92 X0 Y0 Z5
; *** START end ***

; *** SECTION begin ***
;Engrave1 - Milling - Tool: 1 -  chamfer mill
; X Min: -8.677 - X Max: 6.852
; Y Min: -26.022 - Y Max: 25.928
; Z Min: -1.2 - Z Max: 5
; COMMAND_START_SPINDLE
; COMMAND_SPINDLE_CLOCKWISE
;M0 Turn ON 24000RPM
; COMMAND_COOLANT_ON
;M117  Engrave1
; MOVEMENT_LEAD_IN
G1 X-8.677 Y24.907 Z5 F180
G1 Z0
; MOVEMENT_CUTTING
G1 X-8.032 Y25.181 Z-1.2 F480
G1 X-7.993 Y25.279
G1 X-8.269 Y25.928 Z0
G1 X-7.993 Y25.279 Z-1.2
G1 X-7.433 Y25.051
G1 X-6.404 Y24.619
G1 X-5.414 Y24.187
G1 X-4.462 Y23.757
G1 X-3.548 Y23.328
G1 X-2.672 Y22.901
G1 X-1.835 Y22.474
G1 X-1.037 Y22.05
G1 X-0.278 Y21.626
G1 X0.443 Y21.205
G1 X1.124 Y20.784
G1 X1.767 Y20.366
G1 X2.37 Y19.95
G1 X2.935 Y19.536
G1 X3.46 Y19.124
G1 X3.945 Y18.714
G1 X4.392 Y18.307
G1 X4.8 Y17.904
G1 X5.169 Y17.503
G1 X5.499 Y17.106
G1 X5.791 Y16.713
G1 X6.046 Y16.324
G1 X6.263 Y15.939
G1 X6.445 Y15.557
G1 X6.592 Y15.18
G1 X6.705 Y14.807
G1 X6.786 Y14.436
G1 X6.834 Y14.066
G1 X6.852 Y13.698
G1 X6.839 Y13.329
G1 X6.796 Y12.958
G1 X6.723 Y12.585
G1 X6.62 Y12.209
G1 X6.488 Y11.829
G1 X6.328 Y11.446
G1 X6.138 Y11.059
G1 X5.922 Y10.668
G1 X5.678 Y10.274
G1 X5.409 Y9.876
G1 X5.115 Y9.475
G1 X4.799 Y9.071
G1 X4.461 Y8.664
G1 X4.103 Y8.254
G1 X3.728 Y7.843
G1 X2.926 Y7.006
G1 X2.073 Y6.159
G1 X1.183 Y5.299
G1 X0.272 Y4.427
G1 X0.27 Y4.426
G1 X-0.647 Y3.541
G1 X-0.652 Y3.536
G1 X-1.559 Y2.639
G1 X-1.567 Y2.63
G1 X-2.449 Y1.719
G1 X-2.458 Y1.71
G1 X-2.885 Y1.248
G1 X-2.892 Y1.241
G1 X-3.308 Y0.776
G1 X-3.315 Y0.768
G1 X-3.718 Y0.298
G1 X-3.726 Y0.289
G1 X-4.114 Y-0.185
G1 X-4.123 Y-0.196
G1 X-4.495 Y-0.674
G1 X-4.504 Y-0.686
G1 X-4.859 Y-1.169
G1 X-4.869 Y-1.183
G1 X-5.204 Y-1.67
G1 X-5.214 Y-1.685
G1 X-5.529 Y-2.178
G1 X-5.539 Y-2.194
G1 X-5.833 Y-2.691
G1 X-5.843 Y-2.71
G1 X-6.114 Y-3.212
G1 X-6.124 Y-3.232
G1 X-6.37 Y-3.739
G1 X-6.38 Y-3.762
G1 X-6.602 Y-4.274
G1 X-6.611 Y-4.297
G1 X-6.806 Y-4.815
G1 X-6.815 Y-4.84
G1 X-6.984 Y-5.363
G1 X-6.992 Y-5.39
G1 X-7.132 Y-5.918
G1 X-7.139 Y-5.946
G1 X-7.251 Y-6.479
G1 X-7.256 Y-6.508
G1 X-7.339 Y-7.047
G1 X-7.343 Y-7.077
G1 X-7.396 Y-7.621
G1 X-7.398 Y-7.652
G1 X-7.422 Y-8.201
G1 Y-8.232
G1 X-7.414 Y-8.787
G1 X-7.413 Y-8.817
G1 X-7.374 Y-9.378
G1 X-7.372 Y-9.408
G1 X-7.301 Y-9.974
G1 X-7.297 Y-10.003
G1 X-7.195 Y-10.574
G1 X-7.189 Y-10.602
G1 X-7.055 Y-11.179
G1 X-7.048 Y-11.206
G1 X-6.882 Y-11.789
G1 X-6.874 Y-11.814
G1 X-6.674 Y-12.402
G1 X-6.666 Y-12.426
G1 X-6.434 Y-13.02
G1 X-6.425 Y-13.042
G1 X-6.16 Y-13.642
G1 X-6.15 Y-13.662
G1 X-5.853 Y-14.268
G1 X-5.843 Y-14.287
G1 X-5.512 Y-14.898
G1 X-5.502 Y-14.915
G1 X-5.138 Y-15.532
G1 X-5.128 Y-15.548
G1 X-4.731 Y-16.17
G1 X-4.721 Y-16.185
G1 X-4.29 Y-16.812
G1 X-4.28 Y-16.826
G1 X-3.817 Y-17.459
G1 X-3.807 Y-17.472
G1 X-3.311 Y-18.11
G1 X-3.301 Y-18.122
G1 X-2.771 Y-18.766
G1 X-2.762 Y-18.776
G1 X-2.199 Y-19.426
G1 X-2.19 Y-19.436
G1 X-1.594 Y-20.091
G1 X-1.586 Y-20.1
G1 X-0.957 Y-20.76
G1 X-0.949 Y-20.768
G1 X-0.287 Y-21.434
G1 X-0.279 Y-21.442
G1 X0.416 Y-22.113
G1 X0.424 Y-22.12
G1 X1.152 Y-22.797
G1 X1.159 Y-22.803
G1 X1.919 Y-23.485
G1 X1.926 Y-23.492
G1 X2.72 Y-24.179
G1 X2.727 Y-24.185
G1 X3.553 Y-24.877
G1 X3.559 Y-24.883
G1 X3.997 Y-25.238
G1 X4.693 Y-25.164 Z0
G1 X3.997 Y-25.238 Z-1.2
G1 X3.93 Y-25.321
G1 X4.005 Y-26.022 Z-0.001
G1 X3.93 Y-25.321 Z-1.2
G1 X3.577 Y-25.034
G1 X2.824 Y-24.407
G1 X2.098 Y-23.783
G1 X1.398 Y-23.164
G1 X0.723 Y-22.548
G1 X0.075 Y-21.936
G1 X-0.546 Y-21.328
G1 X-1.142 Y-20.723
G1 X-1.711 Y-20.122
G1 X-2.254 Y-19.525
G1 X-2.771 Y-18.931
G1 X-3.261 Y-18.341
G1 X-3.725 Y-17.754
G1 X-4.163 Y-17.171
G1 X-4.574 Y-16.591
G1 X-4.958 Y-16.015
G1 X-5.316 Y-15.441
G1 X-5.647 Y-14.87
G1 X-5.951 Y-14.302
G1 X-6.228 Y-13.736
G1 X-6.479 Y-13.174
G1 X-6.703 Y-12.615
G1 X-6.9 Y-12.059
G1 X-7.07 Y-11.507
G1 X-7.213 Y-10.959
G1 X-7.329 Y-10.414
G1 X-7.419 Y-9.873
G1 X-7.482 Y-9.337
G1 X-7.518 Y-8.804
G1 X-7.528 Y-8.275
G1 X-7.511 Y-7.75
G1 X-7.467 Y-7.229
G1 X-7.397 Y-6.714
G1 X-7.302 Y-6.204
G1 X-7.182 Y-5.699
G1 X-7.039 Y-5.199
G1 X-6.872 Y-4.705
G1 X-6.684 Y-4.215
G1 X-6.475 Y-3.73
G1 X-6.246 Y-3.251
G1 X-5.997 Y-2.778
G1 X-5.729 Y-2.31
G1 X-5.444 Y-1.848
G1 X-5.143 Y-1.392
G1 X-4.825 Y-0.942
G1 X-4.493 Y-0.497
G1 X-4.146 Y-0.056
G1 X-3.788 Y0.38
G1 X-3.418 Y0.811
G1 X-3.039 Y1.237
G1 X-2.253 Y2.08
G1 X-1.445 Y2.905
G1 X-0.623 Y3.714
G1 X0.202 Y4.509
G1 X1.019 Y5.291
G1 X1.02 Y5.292
G1 X1.818 Y6.059
G1 X1.822 Y6.063
G1 X2.589 Y6.817
G1 X2.596 Y6.824
G1 X3.321 Y7.566
G1 X3.333 Y7.578
G1 X4.003 Y8.306
G1 X4.017 Y8.321
G1 X4.624 Y9.034
G1 X4.635 Y9.048
G1 X4.913 Y9.398
G1 X4.922 Y9.409
G1 X5.181 Y9.754
G1 X5.191 Y9.767
G1 X5.431 Y10.108
G1 X5.442 Y10.122
G1 X5.662 Y10.457
G1 X5.673 Y10.475
G1 X5.872 Y10.804
G1 X5.884 Y10.824
G1 X6.062 Y11.148
G1 X6.074 Y11.171
G1 X6.229 Y11.488
G1 X6.241 Y11.515
G1 X6.374 Y11.826
G1 X6.385 Y11.855
G1 X6.494 Y12.16
G1 X6.504 Y12.189
G1 X6.592 Y12.487
G1 X6.6 Y12.52
G1 X6.667 Y12.811
G1 X6.675 Y12.848
G1 X6.72 Y13.136
G1 X6.725 Y13.176
G1 X6.749 Y13.46
G1 X6.751 Y13.502
G1 X6.752 Y13.785
G1 X6.751 Y13.828
G1 X6.731 Y14.111
G1 X6.726 Y14.154
G1 X6.683 Y14.438
G1 X6.675 Y14.478
G1 X6.61 Y14.765
G1 X6.6 Y14.802
G1 X6.511 Y15.093
G1 X6.5 Y15.127
G1 X6.388 Y15.422
G1 X6.374 Y15.456
G1 X6.235 Y15.759
G1 X6.219 Y15.79
G1 X6.053 Y16.1
G1 X6.037 Y16.128
G1 X5.842 Y16.444
G1 X5.825 Y16.469
G1 X5.601 Y16.791
G1 X5.585 Y16.813
G1 X5.331 Y17.141
G1 X5.314 Y17.161
G1 X5.03 Y17.494
G1 X5.014 Y17.512
G1 X4.699 Y17.851
G1 X4.684 Y17.867
G1 X4.338 Y18.21
G1 X4.323 Y18.224
G1 X3.945 Y18.572
G1 X3.93 Y18.585
G1 X3.52 Y18.937
G1 X3.506 Y18.948
G1 X3.062 Y19.304
G1 X3.049 Y19.314
G1 X2.572 Y19.674
G1 X2.56 Y19.683
G1 X2.05 Y20.045
G1 X2.039 Y20.053
G1 X1.497 Y20.417
G1 X1.486 Y20.424
G1 X0.912 Y20.791
G1 X0.902 Y20.798
G1 X0.296 Y21.167
G1 X0.287 Y21.173
G1 X-0.351 Y21.544
G1 X-0.36 Y21.549
G1 X-1.03 Y21.923
G1 X-1.038 Y21.927
G1 X-1.74 Y22.303
G1 X-1.748 Y22.307
G1 X-2.481 Y22.684
G1 X-2.488 Y22.688
G1 X-3.253 Y23.067
G1 X-3.26 Y23.07
G1 X-4.057 Y23.451
G1 X-4.063 Y23.454
G1 X-4.891 Y23.836
G1 X-4.897 Y23.839
G1 X-5.756 Y24.222
G1 X-5.762 Y24.225
G1 X-6.652 Y24.609
G1 X-6.658 Y24.612
G1 X-7.579 Y24.997
G1 X-7.584 Y24.999
G1 X-8.032 Y25.181
; MOVEMENT_RAPID
G0 Z5 F300
; *** SECTION end ***

; *** STOP begin ***
M400
; COMMAND_COOLANT_OFF
G0 X0 Y0 F2500
; COMMAND_STOP_SPINDLE
;M300 S300 P3000
;M0 Turn OFF spindle
;M117 Job end
; *** STOP end ***
