;Fusion 360 CAM 2.0.7421
; Posts processor: DIYCNC_Marlin20.cps
; Gcode generated: Sun Feb  2 03:17:55 2020 GMT
; Document: indianaBox v4
; Setup: Setup1
; 
; Ranges table:
; X: Min=21.366 Max=109.208 Size=87.842
; Y: Min=19.968 Max=152.63 Size=132.662
; Z: Min=-15 Max=5 Size=20
; 
; Tools table:
; T1 D=3.175 CR=0 - ZMIN=-15 - flat end mill 

; *** START begin ***
G90
G21
M84 S0
G92 X0 Y0 Z5
; *** START end ***

; *** SECTION begin ***
;2D Pocket1 - Milling - Tool: 1 -  flat end mill
; X Min: 30.578 - X Max: 109.208
; Y Min: 29.366 - Y Max: 152.63
; Z Min: -12 - Z Max: 5
; COMMAND_START_SPINDLE
; COMMAND_SPINDLE_CLOCKWISE
;M0 Turn ON 24000RPM
; COMMAND_COOLANT_ON
;M117  2D Pocket1
; MOVEMENT_LEAD_IN
G1 X77.974 Y83.573 Z5 F180
G1 Z1.817
; MOVEMENT_RAMP_HELIX
G1 X77.991 Y83.589 Z1.698
G1 X78.039 Y83.634 Z1.597
G1 X78.107 Y83.707 Z1.527
G1 X78.181 Y83.798 Z1.5
G1 X78.244 Y83.889 Z1.496
G1 X78.299 Y83.983 Z1.492
G1 X78.348 Y84.081 Z1.489
G1 X78.39 Y84.183 Z1.485
G1 X78.424 Y84.287 Z1.481
G1 X78.45 Y84.394 Z1.477
G1 X78.468 Y84.502 Z1.473
G1 X78.479 Y84.611 Z1.469
G1 X78.482 Y84.721 Z1.466
G1 X78.476 Y84.831 Z1.462
G1 X78.463 Y84.94 Z1.458
G1 X78.442 Y85.047 Z1.454
G1 X78.413 Y85.153 Z1.45
G1 X78.376 Y85.257 Z1.446
G1 X78.332 Y85.357 Z1.443
G1 X78.281 Y85.454 Z1.439
G1 X78.222 Y85.547 Z1.435
G1 X78.158 Y85.636 Z1.431
G1 X78.087 Y85.719 Z1.427
G1 X78.01 Y85.798 Z1.423
G1 X77.927 Y85.87 Z1.42
G1 X77.84 Y85.936 Z1.416
G1 X77.748 Y85.996 Z1.412
G1 X77.652 Y86.049 Z1.408
G1 X77.552 Y86.095 Z1.404
G1 X77.449 Y86.133 Z1.4
G1 X77.344 Y86.164 Z1.397
G1 X77.236 Y86.187 Z1.393
G1 X77.128 Y86.202 Z1.389
G1 X77.018 Y86.209 Z1.385
G1 X76.908 Y86.208 Z1.381
G1 X76.799 Y86.2 Z1.377
G1 X76.691 Y86.183 Z1.374
G1 X76.584 Y86.159 Z1.37
G1 X76.479 Y86.126 Z1.366
G1 X76.376 Y86.087 Z1.362
G1 X76.277 Y86.04 Z1.358
G1 X76.182 Y85.985 Z1.354
G1 X76.091 Y85.924 Z1.351
G1 X76.004 Y85.857 Z1.347
G1 X75.923 Y85.783 Z1.343
G1 X75.847 Y85.704 Z1.339
G1 X75.777 Y85.619 Z1.335
G1 X75.713 Y85.53 Z1.331
G1 X75.656 Y85.436 Z1.328
G1 X75.606 Y85.338 Z1.324
G1 X75.564 Y85.237 Z1.32
G1 X75.529 Y85.133 Z1.316
G1 X75.501 Y85.027 Z1.312
G1 X75.481 Y84.919 Z1.308
G1 X75.469 Y84.81 Z1.305
G1 X75.465 Y84.7 Z1.301
G1 X75.47 Y84.591 Z1.297
G1 X75.482 Y84.482 Z1.293
G1 X75.502 Y84.374 Z1.289
G1 X75.529 Y84.268 Z1.285
G1 X75.565 Y84.164 Z1.282
G1 X75.608 Y84.063 Z1.278
G1 X75.658 Y83.965 Z1.274
G1 X75.715 Y83.871 Z1.27
G1 X75.778 Y83.782 Z1.266
G1 X75.848 Y83.698 Z1.262
G1 X75.924 Y83.618 Z1.259
G1 X76.006 Y83.545 Z1.255
G1 X76.093 Y83.478 Z1.251
G1 X76.184 Y83.417 Z1.247
G1 X76.28 Y83.363 Z1.243
G1 X76.379 Y83.316 Z1.239
G1 X76.481 Y83.276 Z1.236
G1 X76.586 Y83.244 Z1.232
G1 X76.693 Y83.22 Z1.228
G1 X76.802 Y83.203 Z1.224
G1 X76.911 Y83.195 Z1.22
G1 X77.021 Y83.194 Z1.216
G1 X77.13 Y83.202 Z1.213
G1 X77.239 Y83.217 Z1.209
G1 X77.346 Y83.24 Z1.205
G1 X77.451 Y83.271 Z1.201
G1 X77.554 Y83.31 Z1.197
G1 X77.654 Y83.356 Z1.193
G1 X77.75 Y83.409 Z1.19
G1 X77.842 Y83.469 Z1.186
G1 X77.929 Y83.535 Z1.182
G1 X78.012 Y83.608 Z1.178
G1 X78.088 Y83.686 Z1.174
G1 X78.159 Y83.77 Z1.17
G1 X78.224 Y83.858 Z1.167
G1 X78.282 Y83.952 Z1.163
G1 X78.333 Y84.049 Z1.159
G1 X78.377 Y84.149 Z1.155
G1 X78.413 Y84.253 Z1.151
G1 X78.442 Y84.359 Z1.147
G1 X78.463 Y84.466 Z1.144
G1 X78.476 Y84.575 Z1.14
G1 X78.482 Y84.685 Z1.136
G1 X78.479 Y84.795 Z1.132
G1 X78.468 Y84.904 Z1.128
G1 X78.449 Y85.012 Z1.124
G1 X78.423 Y85.119 Z1.121
G1 X78.389 Y85.223 Z1.117
G1 X78.347 Y85.324 Z1.113
G1 X78.298 Y85.423 Z1.109
G1 X78.242 Y85.517 Z1.105
G1 X78.18 Y85.607 Z1.101
G1 X78.111 Y85.692 Z1.098
G1 X78.036 Y85.773 Z1.094
G1 X77.955 Y85.847 Z1.09
G1 X77.869 Y85.915 Z1.086
G1 X77.778 Y85.977 Z1.082
G1 X77.684 Y86.032 Z1.078
G1 X77.585 Y86.08 Z1.075
G1 X77.483 Y86.121 Z1.071
G1 X77.378 Y86.155 Z1.067
G1 X77.272 Y86.18 Z1.063
G1 X77.163 Y86.198 Z1.059
G1 X77.054 Y86.208 Z1.055
G1 X76.944 Y86.21 Z1.052
G1 X76.835 Y86.203 Z1.048
G1 X76.726 Y86.189 Z1.044
G1 X76.619 Y86.168 Z1.04
G1 X76.513 Y86.138 Z1.036
G1 X76.41 Y86.101 Z1.032
G1 X76.309 Y86.056 Z1.029
G1 X76.213 Y86.004 Z1.025
G1 X76.12 Y85.945 Z1.021
G1 X76.032 Y85.88 Z1.017
G1 X75.949 Y85.808 Z1.013
G1 X75.871 Y85.731 Z1.009
G1 X75.799 Y85.648 Z1.006
G1 X75.733 Y85.56 Z1.002
G1 X75.674 Y85.468 Z0.998
G1 X75.622 Y85.371 Z0.994
G1 X75.577 Y85.271 Z0.99
G1 X75.539 Y85.168 Z0.986
G1 X75.509 Y85.062 Z0.983
G1 X75.487 Y84.955 Z0.979
G1 X75.472 Y84.846 Z0.975
G1 X75.466 Y84.737 Z0.971
G1 X75.467 Y84.627 Z0.967
G1 X75.477 Y84.518 Z0.963
G1 X75.494 Y84.409 Z0.96
G1 X75.519 Y84.302 Z0.956
G1 X75.552 Y84.198 Z0.952
G1 X75.593 Y84.096 Z0.948
G1 X75.64 Y83.997 Z0.944
G1 X75.695 Y83.902 Z0.94
G1 X75.757 Y83.811 Z0.937
G1 X75.825 Y83.725 Z0.933
G1 X75.899 Y83.644 Z0.929
G1 X75.979 Y83.568 Z0.925
G1 X76.064 Y83.499 Z0.921
G1 X76.153 Y83.436 Z0.917
G1 X76.248 Y83.38 Z0.914
G1 X76.346 Y83.331 Z0.91
G1 X76.447 Y83.289 Z0.906
G1 X76.551 Y83.254 Z0.902
G1 X76.658 Y83.227 Z0.898
G1 X76.766 Y83.208 Z0.894
G1 X76.875 Y83.197 Z0.891
G1 X76.985 Y83.194 Z0.887
G1 X77.094 Y83.198 Z0.883
G1 X77.203 Y83.211 Z0.879
G1 X77.311 Y83.232 Z0.875
G1 X77.417 Y83.26 Z0.871
G1 X77.521 Y83.296 Z0.868
G1 X77.621 Y83.34 Z0.864
G1 X77.719 Y83.391 Z0.86
G1 X77.812 Y83.448 Z0.856
G1 X77.901 Y83.513 Z0.852
G1 X77.985 Y83.583 Z0.848
G1 X78.064 Y83.66 Z0.845
G1 X78.137 Y83.742 Z0.841
G1 X78.203 Y83.829 Z0.837
G1 X78.264 Y83.921 Z0.833
G1 X78.317 Y84.016 Z0.829
G1 X78.363 Y84.116 Z0.825
G1 X78.402 Y84.219 Z0.822
G1 X78.434 Y84.324 Z0.818
G1 X78.457 Y84.431 Z0.814
G1 X78.473 Y84.539 Z0.81
G1 X78.481 Y84.649 Z0.806
G1 Y84.759 Z0.802
G1 X78.472 Y84.868 Z0.799
G1 X78.456 Y84.977 Z0.795
G1 X78.433 Y85.084 Z0.791
G1 X78.401 Y85.189 Z0.787
G1 X78.362 Y85.291 Z0.783
G1 X78.315 Y85.391 Z0.779
G1 X78.261 Y85.486 Z0.776
G1 X78.201 Y85.578 Z0.772
G1 X78.134 Y85.665 Z0.768
G1 X78.061 Y85.747 Z0.764
G1 X77.982 Y85.823 Z0.76
G1 X77.898 Y85.893 Z0.756
G1 X77.809 Y85.958 Z0.753
G1 X77.715 Y86.015 Z0.749
G1 X77.618 Y86.065 Z0.745
G1 X77.517 Y86.109 Z0.741
G1 X77.413 Y86.144 Z0.737
G1 X77.307 Y86.173 Z0.733
G1 X77.199 Y86.193 Z0.73
G1 X77.09 Y86.205 Z0.726
G1 X76.981 Y86.21 Z0.722
G1 X76.871 Y86.206 Z0.718
G1 X76.762 Y86.195 Z0.714
G1 X76.654 Y86.176 Z0.71
G1 X76.547 Y86.148 Z0.707
G1 X76.443 Y86.114 Z0.703
G1 X76.342 Y86.071 Z0.699
G1 X76.244 Y86.022 Z0.695
G1 X76.15 Y85.965 Z0.691
G1 X76.06 Y85.902 Z0.687
G1 X75.976 Y85.832 Z0.684
G1 X75.896 Y85.757 Z0.68
G1 X75.822 Y85.676 Z0.676
G1 X75.754 Y85.589 Z0.672
G1 X75.693 Y85.498 Z0.668
G1 X75.638 Y85.403 Z0.664
G1 X75.591 Y85.304 Z0.661
G1 X75.551 Y85.202 Z0.657
G1 X75.518 Y85.097 Z0.653
G1 X75.493 Y84.99 Z0.649
G1 X75.476 Y84.882 Z0.645
G1 X75.467 Y84.773 Z0.641
G1 X75.466 Y84.663 Z0.638
G1 X75.473 Y84.553 Z0.634
G1 X75.488 Y84.445 Z0.63
G1 X75.51 Y84.337 Z0.626
G1 X75.541 Y84.232 Z0.622
G1 X75.578 Y84.129 Z0.618
G1 X75.624 Y84.029 Z0.615
G1 X75.676 Y83.933 Z0.611
G1 X75.736 Y83.84 Z0.607
G1 X75.802 Y83.753 Z0.603
G1 X75.874 Y83.67 Z0.599
G1 X75.952 Y83.593 Z0.595
G1 X76.035 Y83.521 Z0.592
G1 X76.123 Y83.456 Z0.588
G1 X76.216 Y83.398 Z0.584
G1 X76.313 Y83.346 Z0.58
G1 X76.413 Y83.302 Z0.576
G1 X76.517 Y83.264 Z0.572
G1 X76.622 Y83.235 Z0.569
G1 X76.73 Y83.213 Z0.565
G1 X76.839 Y83.2 Z0.561
G1 X76.948 Y83.194 Z0.557
G1 X77.058 Y83.196 Z0.553
G1 X77.167 Y83.206 Z0.549
G1 X77.276 Y83.224 Z0.546
G1 X77.382 Y83.25 Z0.542
G1 X77.487 Y83.284 Z0.538
G1 X77.589 Y83.325 Z0.534
G1 X77.687 Y83.373 Z0.53
G1 X77.782 Y83.429 Z0.526
G1 X77.872 Y83.491 Z0.523
G1 X77.958 Y83.559 Z0.519
G1 X78.038 Y83.634 Z0.515
G1 X78.113 Y83.714 Z0.511
G1 X78.182 Y83.8 Z0.507
G1 X78.244 Y83.89 Z0.503
G1 X78.3 Y83.984 Z0.5
G1 X78.349 Y84.083 Z0.496
G1 X78.39 Y84.184 Z0.492
G1 X78.424 Y84.289 Z0.488
G1 X78.45 Y84.395 Z0.484
G1 X78.469 Y84.504 Z0.48
G1 X78.479 Y84.613 Z0.477
G1 X78.482 Y84.723 Z0.473
G1 X78.476 Y84.832 Z0.469
G1 X78.463 Y84.941 Z0.465
G1 X78.441 Y85.049 Z0.461
G1 X78.412 Y85.154 Z0.457
G1 X78.375 Y85.258 Z0.454
G1 X78.331 Y85.358 Z0.45
G1 X78.28 Y85.455 Z0.446
G1 X78.222 Y85.548 Z0.442
G1 X78.157 Y85.637 Z0.438
G1 X78.086 Y85.72 Z0.434
G1 X78.009 Y85.799 Z0.431
G1 X77.926 Y85.871 Z0.427
G1 X77.839 Y85.937 Z0.423
G1 X77.746 Y85.997 Z0.419
G1 X77.65 Y86.05 Z0.415
G1 X77.55 Y86.095 Z0.411
G1 X77.448 Y86.133 Z0.408
G1 X77.342 Y86.164 Z0.404
G1 X77.235 Y86.187 Z0.4
G1 X77.126 Y86.202 Z0.396
G1 X77.017 Y86.209 Z0.392
G1 X76.907 Y86.208 Z0.388
G1 X76.798 Y86.2 Z0.385
G1 X76.689 Y86.183 Z0.381
G1 X76.582 Y86.158 Z0.377
G1 X76.477 Y86.126 Z0.373
G1 X76.375 Y86.086 Z0.369
G1 X76.276 Y86.039 Z0.365
G1 X76.181 Y85.985 Z0.362
G1 X76.089 Y85.924 Z0.358
G1 X76.003 Y85.856 Z0.354
G1 X75.922 Y85.782 Z0.35
G1 X75.846 Y85.703 Z0.346
G1 X75.776 Y85.618 Z0.342
G1 X75.712 Y85.529 Z0.339
G1 X75.656 Y85.435 Z0.335
G1 X75.606 Y85.337 Z0.331
G1 X75.563 Y85.236 Z0.327
G1 X75.528 Y85.132 Z0.323
G1 X75.501 Y85.026 Z0.319
G1 X75.481 Y84.918 Z0.316
G1 X75.469 Y84.809 Z0.312
G1 X75.465 Y84.699 Z0.308
G1 X75.47 Y84.589 Z0.304
G1 X75.482 Y84.48 Z0.3
G1 X75.502 Y84.372 Z0.296
G1 X75.53 Y84.266 Z0.293
G1 X75.565 Y84.162 Z0.289
G1 X75.608 Y84.061 Z0.285
G1 X75.658 Y83.964 Z0.281
G1 X75.715 Y83.87 Z0.277
G1 X75.779 Y83.781 Z0.273
G1 X75.849 Y83.696 Z0.27
G1 X75.925 Y83.617 Z0.266
G1 X76.007 Y83.544 Z0.262
G1 X76.094 Y83.477 Z0.258
G1 X76.185 Y83.416 Z0.254
G1 X76.281 Y83.362 Z0.25
G1 X76.38 Y83.315 Z0.247
G1 X76.482 Y83.276 Z0.243
G1 X76.587 Y83.244 Z0.239
G1 X76.694 Y83.22 Z0.235
G1 X76.803 Y83.203 Z0.231
G1 X76.912 Y83.195 Z0.227
G1 X77.022 Y83.194 Z0.224
G1 X77.132 Y83.202 Z0.22
G1 X77.24 Y83.217 Z0.216
G1 X77.347 Y83.241 Z0.212
G1 X77.453 Y83.272 Z0.208
G1 X77.555 Y83.31 Z0.204
G1 X77.655 Y83.356 Z0.201
G1 X77.751 Y83.41 Z0.197
G1 X77.843 Y83.469 Z0.193
G1 X77.93 Y83.536 Z0.189
G1 X78.013 Y83.609 Z0.185
G1 X78.089 Y83.687 Z0.181
G1 X78.16 Y83.771 Z0.178
G1 X78.225 Y83.86 Z0.174
G1 X78.283 Y83.953 Z0.17
G1 X78.334 Y84.05 Z0.166
G1 X78.377 Y84.151 Z0.162
G1 X78.414 Y84.254 Z0.158
G1 X78.442 Y84.36 Z0.155
G1 X78.463 Y84.468 Z0.151
G1 X78.476 Y84.577 Z0.147
G1 X78.482 Y84.686 Z0.143
G1 X78.479 Y84.796 Z0.139
G1 X78.468 Y84.905 Z0.135
G1 X78.449 Y85.013 Z0.132
G1 X78.423 Y85.12 Z0.128
G1 X78.388 Y85.224 Z0.124
G1 X78.347 Y85.326 Z0.12
G1 X78.298 Y85.424 Z0.116
G1 X78.242 Y85.518 Z0.112
G1 X78.179 Y85.608 Z0.109
G1 X78.11 Y85.694 Z0.105
G1 X78.035 Y85.774 Z0.101
G1 X77.954 Y85.848 Z0.097
G1 X77.868 Y85.916 Z0.093
G1 X77.777 Y85.978 Z0.089
G1 X77.682 Y86.033 Z0.086
G1 X77.584 Y86.081 Z0.082
G1 X77.482 Y86.122 Z0.078
G1 X77.377 Y86.155 Z0.074
G1 X77.27 Y86.18 Z0.07
G1 X77.162 Y86.198 Z0.066
G1 X77.053 Y86.208 Z0.063
G1 X76.943 Y86.21 Z0.059
G1 X76.833 Y86.203 Z0.055
G1 X76.725 Y86.189 Z0.051
G1 X76.617 Y86.167 Z0.047
G1 X76.512 Y86.137 Z0.043
G1 X76.408 Y86.1 Z0.04
G1 X76.308 Y86.055 Z0.036
G1 X76.212 Y86.003 Z0.032
G1 X76.119 Y85.944 Z0.028
G1 X76.031 Y85.879 Z0.024
G1 X75.948 Y85.807 Z0.02
G1 X75.87 Y85.73 Z0.017
G1 X75.798 Y85.647 Z0.013
G1 X75.733 Y85.559 Z0.009
G1 X75.674 Y85.466 Z0.005
G1 X75.621 Y85.37 Z0.001
G1 X75.576 Y85.27 Z-0.003
G1 X75.539 Y85.167 Z-0.006
G1 X75.509 Y85.061 Z-0.01
G1 X75.487 Y84.953 Z-0.014
G1 X75.472 Y84.845 Z-0.018
G1 X75.466 Y84.735 Z-0.022
G1 X75.467 Y84.625 Z-0.026
G1 X75.477 Y84.516 Z-0.029
G1 X75.494 Y84.408 Z-0.033
G1 X75.52 Y84.301 Z-0.037
G1 X75.553 Y84.196 Z-0.041
G1 X75.593 Y84.094 Z-0.045
G1 X75.641 Y83.996 Z-0.049
G1 X75.696 Y83.901 Z-0.052
G1 X75.758 Y83.81 Z-0.056
G1 X75.826 Y83.724 Z-0.06
G1 X75.9 Y83.643 Z-0.064
G1 X75.98 Y83.567 Z-0.068
G1 X76.065 Y83.498 Z-0.072
G1 X76.155 Y83.435 Z-0.075
G1 X76.249 Y83.379 Z-0.079
G1 X76.347 Y83.33 Z-0.083
G1 X76.448 Y83.288 Z-0.087
G1 X76.553 Y83.254 Z-0.091
G1 X76.659 Y83.227 Z-0.095
G1 X76.767 Y83.208 Z-0.098
G1 X76.876 Y83.197 Z-0.102
G1 X76.986 Y83.194 Z-0.106
G1 X77.096 Y83.199 Z-0.11
G1 X77.205 Y83.211 Z-0.114
G1 X77.312 Y83.232 Z-0.118
G1 X77.418 Y83.261 Z-0.121
G1 X77.522 Y83.297 Z-0.125
G1 X77.623 Y83.34 Z-0.129
G1 X77.72 Y83.391 Z-0.133
G1 X77.813 Y83.449 Z-0.137
G1 X77.902 Y83.513 Z-0.141
G1 X77.986 Y83.584 Z-0.144
G1 X78.065 Y83.661 Z-0.148
G1 X78.138 Y83.743 Z-0.152
G1 X78.204 Y83.83 Z-0.156
G1 X78.264 Y83.922 Z-0.16
G1 X78.318 Y84.018 Z-0.164
G1 X78.364 Y84.117 Z-0.167
G1 X78.403 Y84.22 Z-0.171
G1 X78.434 Y84.325 Z-0.175
G1 X78.457 Y84.432 Z-0.179
G1 X78.473 Y84.541 Z-0.183
G1 X78.481 Y84.65 Z-0.187
G1 Y84.76 Z-0.19
G1 X78.472 Y84.869 Z-0.194
G1 X78.456 Y84.978 Z-0.198
G1 X78.432 Y85.085 Z-0.202
G1 X78.4 Y85.19 Z-0.206
G1 X78.361 Y85.293 Z-0.21
G1 X78.314 Y85.392 Z-0.213
G1 X78.261 Y85.488 Z-0.217
G1 X78.2 Y85.579 Z-0.221
G1 X78.133 Y85.666 Z-0.225
G1 X78.06 Y85.748 Z-0.229
G1 X77.981 Y85.824 Z-0.233
G1 X77.897 Y85.894 Z-0.236
G1 X77.808 Y85.958 Z-0.24
G1 X77.714 Y86.016 Z-0.244
G1 X77.616 Y86.066 Z-0.248
G1 X77.516 Y86.109 Z-0.252
G1 X77.412 Y86.145 Z-0.256
G1 X77.306 Y86.173 Z-0.259
G1 X77.198 Y86.193 Z-0.263
G1 X77.089 Y86.205 Z-0.267
G1 X76.979 Y86.21 Z-0.271
G1 X76.869 Y86.206 Z-0.275
G1 X76.76 Y86.195 Z-0.279
G1 X76.652 Y86.175 Z-0.282
G1 X76.546 Y86.148 Z-0.286
G1 X76.442 Y86.113 Z-0.29
G1 X76.341 Y86.071 Z-0.294
G1 X76.243 Y86.021 Z-0.298
G1 X76.149 Y85.964 Z-0.302
G1 X76.059 Y85.901 Z-0.305
G1 X75.974 Y85.831 Z-0.309
G1 X75.895 Y85.756 Z-0.313
G1 X75.821 Y85.675 Z-0.317
G1 X75.753 Y85.588 Z-0.321
G1 X75.692 Y85.497 Z-0.325
G1 X75.638 Y85.402 Z-0.328
G1 X75.59 Y85.303 Z-0.332
G1 X75.55 Y85.201 Z-0.336
G1 X75.518 Y85.096 Z-0.34
G1 X75.493 Y84.989 Z-0.344
G1 X75.476 Y84.881 Z-0.348
G1 X75.467 Y84.771 Z-0.351
G1 X75.466 Y84.661 Z-0.355
G1 X75.473 Y84.552 Z-0.359
G1 X75.488 Y84.443 Z-0.363
G1 X75.51 Y84.336 Z-0.367
G1 X75.541 Y84.23 Z-0.371
G1 X75.579 Y84.128 Z-0.374
G1 X75.624 Y84.028 Z-0.378
G1 X75.677 Y83.931 Z-0.382
G1 X75.737 Y83.839 Z-0.386
G1 X75.803 Y83.751 Z-0.39
G1 X75.875 Y83.669 Z-0.394
G1 X75.953 Y83.592 Z-0.397
G1 X76.036 Y83.52 Z-0.401
G1 X76.125 Y83.455 Z-0.405
G1 X76.217 Y83.397 Z-0.409
G1 X76.314 Y83.345 Z-0.413
G1 X76.415 Y83.301 Z-0.417
G1 X76.518 Y83.264 Z-0.42
G1 X76.624 Y83.235 Z-0.424
G1 X76.731 Y83.213 Z-0.428
G1 X76.84 Y83.2 Z-0.432
G1 X76.95 Y83.194 Z-0.436
G1 X77.06 Y83.196 Z-0.44
G1 X77.169 Y83.206 Z-0.443
G1 X77.277 Y83.225 Z-0.447
G1 X77.384 Y83.25 Z-0.451
G1 X77.488 Y83.284 Z-0.455
G1 X77.59 Y83.325 Z-0.459
G1 X77.688 Y83.374 Z-0.463
G1 X77.783 Y83.429 Z-0.466
G1 X77.873 Y83.492 Z-0.47
G1 X77.959 Y83.56 Z-0.474
G1 X78.039 Y83.635 Z-0.478
G1 X78.114 Y83.715 Z-0.482
G1 X78.183 Y83.801 Z-0.486
G1 X78.245 Y83.891 Z-0.489
G1 X78.301 Y83.986 Z-0.493
G1 X78.349 Y84.084 Z-0.497
G1 X78.391 Y84.186 Z-0.501
G1 X78.424 Y84.29 Z-0.505
G1 X78.451 Y84.397 Z-0.509
G1 X78.469 Y84.505 Z-0.512
G1 X78.479 Y84.614 Z-0.516
G1 X78.482 Y84.724 Z-0.52
G1 X78.476 Y84.834 Z-0.524
G1 X78.462 Y84.942 Z-0.528
G1 X78.441 Y85.05 Z-0.532
G1 X78.412 Y85.156 Z-0.535
G1 X78.375 Y85.259 Z-0.539
G1 X78.331 Y85.36 Z-0.543
G1 X78.279 Y85.457 Z-0.547
G1 X78.221 Y85.55 Z-0.551
G1 X78.156 Y85.638 Z-0.555
G1 X78.085 Y85.722 Z-0.558
G1 X78.008 Y85.8 Z-0.562
G1 X77.925 Y85.872 Z-0.566
G1 X77.837 Y85.938 Z-0.57
G1 X77.745 Y85.998 Z-0.574
G1 X77.649 Y86.05 Z-0.578
G1 X77.549 Y86.096 Z-0.581
G1 X77.446 Y86.134 Z-0.585
G1 X77.341 Y86.164 Z-0.589
G1 X77.233 Y86.187 Z-0.593
G1 X77.125 Y86.202 Z-0.597
G1 X77.015 Y86.209 Z-0.601
G1 X76.906 Y86.208 Z-0.604
G1 X76.796 Y86.199 Z-0.608
G1 X76.688 Y86.183 Z-0.612
G1 X76.581 Y86.158 Z-0.616
G1 X76.476 Y86.125 Z-0.62
G1 X76.374 Y86.085 Z-0.624
G1 X76.275 Y86.038 Z-0.627
G1 X76.179 Y85.984 Z-0.631
G1 X76.088 Y85.923 Z-0.635
G1 X76.002 Y85.855 Z-0.639
G1 X75.921 Y85.781 Z-0.643
G1 X75.845 Y85.702 Z-0.647
G1 X75.775 Y85.617 Z-0.65
G1 X75.712 Y85.528 Z-0.654
G1 X75.655 Y85.434 Z-0.658
G1 X75.605 Y85.336 Z-0.662
G1 X75.563 Y85.235 Z-0.666
G1 X75.528 Y85.131 Z-0.67
G1 X75.5 Y85.024 Z-0.673
G1 X75.481 Y84.916 Z-0.677
G1 X75.469 Y84.807 Z-0.681
G1 X75.465 Y84.698 Z-0.685
G1 X75.47 Y84.588 Z-0.689
G1 X75.482 Y84.479 Z-0.693
G1 X75.502 Y84.371 Z-0.696
G1 X75.53 Y84.265 Z-0.7
G1 X75.566 Y84.161 Z-0.704
G1 X75.609 Y84.06 Z-0.708
G1 X75.659 Y83.963 Z-0.712
G1 X75.716 Y83.869 Z-0.716
G1 X75.78 Y83.78 Z-0.719
G1 X75.85 Y83.695 Z-0.723
G1 X75.926 Y83.616 Z-0.727
G1 X76.008 Y83.543 Z-0.731
G1 X76.095 Y83.476 Z-0.735
G1 X76.186 Y83.415 Z-0.739
G1 X76.282 Y83.362 Z-0.742
G1 X76.381 Y83.315 Z-0.746
G1 X76.484 Y83.275 Z-0.75
G1 X76.589 Y83.244 Z-0.754
G1 X76.696 Y83.219 Z-0.758
G1 X76.804 Y83.203 Z-0.761
G1 X76.914 Y83.195 Z-0.765
G1 X77.024 Y83.194 Z-0.769
G1 X77.133 Y83.202 Z-0.773
G1 X77.242 Y83.218 Z-0.777
G1 X77.349 Y83.241 Z-0.781
G1 X77.454 Y83.272 Z-0.784
G1 X77.557 Y83.311 Z-0.788
G1 X77.656 Y83.357 Z-0.792
G1 X77.752 Y83.41 Z-0.796
G1 X77.844 Y83.47 Z-0.8
G1 X77.931 Y83.537 Z-0.804
G1 X78.014 Y83.61 Z-0.807
G1 X78.09 Y83.688 Z-0.811
G1 X78.161 Y83.772 Z-0.815
G1 X78.225 Y83.861 Z-0.819
G1 X78.283 Y83.954 Z-0.823
G1 X78.334 Y84.051 Z-0.827
G1 X78.378 Y84.152 Z-0.83
G1 X78.414 Y84.256 Z-0.834
G1 X78.443 Y84.362 Z-0.838
G1 X78.464 Y84.469 Z-0.842
G1 X78.477 Y84.578 Z-0.846
G1 X78.482 Y84.688 Z-0.85
G1 X78.479 Y84.798 Z-0.853
G1 X78.468 Y84.907 Z-0.857
G1 X78.449 Y85.015 Z-0.861
G1 X78.422 Y85.121 Z-0.865
G1 X78.388 Y85.226 Z-0.869
G1 X78.346 Y85.327 Z-0.873
G1 X78.297 Y85.425 Z-0.876
G1 X78.241 Y85.519 Z-0.88
G1 X78.178 Y85.609 Z-0.884
G1 X78.109 Y85.695 Z-0.888
G1 X78.034 Y85.775 Z-0.892
G1 X77.953 Y85.849 Z-0.896
G1 X77.867 Y85.917 Z-0.899
G1 X77.776 Y85.979 Z-0.903
G1 X77.681 Y86.034 Z-0.907
G1 X77.582 Y86.082 Z-0.911
G1 X77.48 Y86.122 Z-0.915
G1 X77.376 Y86.155 Z-0.919
G1 X77.269 Y86.181 Z-0.922
G1 X77.161 Y86.198 Z-0.926
G1 X77.051 Y86.208 Z-0.93
G1 X76.942 Y86.21 Z-0.934
G1 X76.832 Y86.203 Z-0.938
G1 X76.723 Y86.189 Z-0.942
G1 X76.616 Y86.167 Z-0.945
G1 X76.51 Y86.137 Z-0.949
G1 X76.407 Y86.099 Z-0.953
G1 X76.307 Y86.055 Z-0.957
G1 X76.21 Y86.002 Z-0.961
G1 X76.118 Y85.944 Z-0.965
G1 X76.03 Y85.878 Z-0.968
G1 X75.947 Y85.806 Z-0.972
G1 X75.869 Y85.729 Z-0.976
G1 X75.797 Y85.646 Z-0.98
G1 X75.732 Y85.558 Z-0.984
G1 X75.673 Y85.465 Z-0.988
G1 X75.621 Y85.368 Z-0.991
G1 X75.576 Y85.268 Z-0.995
G1 X75.538 Y85.165 Z-0.999
G1 X75.508 Y85.06 Z-1.003
G1 X75.486 Y84.952 Z-1.007
G1 X75.472 Y84.843 Z-1.011
G1 X75.466 Y84.734 Z-1.014
G1 X75.467 Y84.624 Z-1.018
G1 X75.477 Y84.515 Z-1.022
G1 X75.495 Y84.406 Z-1.026
G1 X75.52 Y84.3 Z-1.03
G1 X75.553 Y84.195 Z-1.034
G1 X75.594 Y84.093 Z-1.037
G1 X75.642 Y83.994 Z-1.041
G1 X75.697 Y83.899 Z-1.045
G1 X75.758 Y83.809 Z-1.049
G1 X75.827 Y83.723 Z-1.053
G1 X75.901 Y83.642 Z-1.057
G1 X75.981 Y83.567 Z-1.06
G1 X76.066 Y83.497 Z-1.064
G1 X76.156 Y83.435 Z-1.068
G1 X76.25 Y83.378 Z-1.072
G1 X76.348 Y83.329 Z-1.076
G1 X76.45 Y83.288 Z-1.08
G1 X76.554 Y83.253 Z-1.083
G1 X76.66 Y83.226 Z-1.087
G1 X76.769 Y83.208 Z-1.091
G1 X76.878 Y83.197 Z-1.095
G1 X76.987 Y83.194 Z-1.099
G1 X77.097 Y83.199 Z-1.103
G1 X77.206 Y83.212 Z-1.106
G1 X77.314 Y83.233 Z-1.11
G1 X77.42 Y83.261 Z-1.114
G1 X77.523 Y83.297 Z-1.118
G1 X77.624 Y83.341 Z-1.122
G1 X77.721 Y83.392 Z-1.126
G1 X77.814 Y83.45 Z-1.129
G1 X77.903 Y83.514 Z-1.133
G1 X77.987 Y83.585 Z-1.137
G1 X78.066 Y83.662 Z-1.141
G1 X78.138 Y83.744 Z-1.145
G1 X78.205 Y83.831 Z-1.149
G1 X78.265 Y83.923 Z-1.152
G1 X78.318 Y84.019 Z-1.156
G1 X78.364 Y84.119 Z-1.16
G1 X78.403 Y84.221 Z-1.164
G1 X78.434 Y84.326 Z-1.168
G1 X78.458 Y84.434 Z-1.172
G1 X78.473 Y84.542 Z-1.175
G1 X78.481 Y84.652 Z-1.179
G1 X78.48 Y84.761 Z-1.183
G1 X78.472 Y84.871 Z-1.187
G1 X78.456 Y84.979 Z-1.191
G1 X78.432 Y85.087 Z-1.195
G1 X78.4 Y85.192 Z-1.198
G1 X78.361 Y85.294 Z-1.202
G1 X78.314 Y85.393 Z-1.206
G1 X78.26 Y85.489 Z-1.21
G1 X78.199 Y85.58 Z-1.214
G1 X78.132 Y85.667 Z-1.218
G1 X78.059 Y85.749 Z-1.221
G1 X77.98 Y85.825 Z-1.225
G1 X77.896 Y85.895 Z-1.229
G1 X77.806 Y85.959 Z-1.233
G1 X77.713 Y86.016 Z-1.237
G1 X77.615 Y86.067 Z-1.241
G1 X77.514 Y86.11 Z-1.244
G1 X77.41 Y86.145 Z-1.248
G1 X77.304 Y86.173 Z-1.252
G1 X77.196 Y86.193 Z-1.256
G1 X77.087 Y86.206 Z-1.26
G1 X76.978 Y86.21 Z-1.264
G1 X76.868 Y86.206 Z-1.267
G1 X76.759 Y86.195 Z-1.271
G1 X76.651 Y86.175 Z-1.275
G1 X76.545 Y86.148 Z-1.279
G1 X76.441 Y86.113 Z-1.283
G1 X76.339 Y86.07 Z-1.287
G1 X76.242 Y86.02 Z-1.29
G1 X76.148 Y85.964 Z-1.294
G1 X76.058 Y85.9 Z-1.298
G1 X75.973 Y85.831 Z-1.302
G1 X75.894 Y85.755 Z-1.306
G1 X75.82 Y85.674 Z-1.31
G1 X75.753 Y85.587 Z-1.313
G1 X75.691 Y85.496 Z-1.317
G1 X75.637 Y85.401 Z-1.321
G1 X75.59 Y85.302 Z-1.325
G1 X75.55 Y85.199 Z-1.329
G1 X75.517 Y85.095 Z-1.333
G1 X75.493 Y84.988 Z-1.336
G1 X75.476 Y84.879 Z-1.34
G1 X75.467 Y84.77 Z-1.344
G1 X75.466 Y84.66 Z-1.348
G1 X75.473 Y84.551 Z-1.352
G1 X75.488 Y84.442 Z-1.356
G1 X75.511 Y84.334 Z-1.359
G1 X75.541 Y84.229 Z-1.363
G1 X75.58 Y84.126 Z-1.367
G1 X75.625 Y84.026 Z-1.371
G1 X75.678 Y83.93 Z-1.375
G1 X75.737 Y83.838 Z-1.379
G1 X75.803 Y83.75 Z-1.382
G1 X75.876 Y83.668 Z-1.386
G1 X75.954 Y83.591 Z-1.39
G1 X76.037 Y83.519 Z-1.394
G1 X76.126 Y83.454 Z-1.398
G1 X76.219 Y83.396 Z-1.402
G1 X76.316 Y83.345 Z-1.405
G1 X76.416 Y83.3 Z-1.409
G1 X76.519 Y83.264 Z-1.413
G1 X76.625 Y83.234 Z-1.417
G1 X76.733 Y83.213 Z-1.421
G1 X76.842 Y83.199 Z-1.425
G1 X76.951 Y83.194 Z-1.428
G1 X77.061 Y83.196 Z-1.432
G1 X77.17 Y83.207 Z-1.436
G1 X77.279 Y83.225 Z-1.44
G1 X77.385 Y83.251 Z-1.444
G1 X77.49 Y83.285 Z-1.448
G1 X77.591 Y83.326 Z-1.451
G1 X77.69 Y83.374 Z-1.455
G1 X77.784 Y83.43 Z-1.459
G1 X77.875 Y83.492 Z-1.463
G1 X77.96 Y83.561 Z-1.467
G1 X78.04 Y83.636 Z-1.471
G1 X78.115 Y83.716 Z-1.474
G1 X78.184 Y83.802 Z-1.478
G1 X78.246 Y83.892 Z-1.482
G1 X78.302 Y83.987 Z-1.486
G1 X78.35 Y84.085 Z-1.49
G1 X78.391 Y84.187 Z-1.494
G1 X78.425 Y84.292 Z-1.497
G1 X78.451 Y84.398 Z-1.501
G1 X78.469 Y84.506 Z-1.505
G1 X78.479 Y84.616 Z-1.509
G1 X78.481 Y84.725 Z-1.513
G1 X78.476 Y84.835 Z-1.517
G1 X78.462 Y84.944 Z-1.52
G1 X78.441 Y85.051 Z-1.524
G1 X78.411 Y85.157 Z-1.528
G1 X78.374 Y85.261 Z-1.532
G1 X78.33 Y85.361 Z-1.536
G1 X78.278 Y85.458 Z-1.54
G1 X78.22 Y85.551 Z-1.543
G1 X78.155 Y85.639 Z-1.547
G1 X78.084 Y85.723 Z-1.551
G1 X78.007 Y85.801 Z-1.555
G1 X77.924 Y85.873 Z-1.559
G1 X77.836 Y85.939 Z-1.563
G1 X77.744 Y85.998 Z-1.566
G1 X77.648 Y86.051 Z-1.57
G1 X77.548 Y86.096 Z-1.574
G1 X77.445 Y86.134 Z-1.578
G1 X77.339 Y86.165 Z-1.582
G1 X77.232 Y86.188 Z-1.586
G1 X77.123 Y86.202 Z-1.589
G1 X77.014 Y86.209 Z-1.593
G1 X76.904 Y86.208 Z-1.597
G1 X76.795 Y86.199 Z-1.601
G1 X76.686 Y86.182 Z-1.605
G1 X76.579 Y86.157 Z-1.609
G1 X76.475 Y86.125 Z-1.612
G1 X76.372 Y86.085 Z-1.616
G1 X76.273 Y86.038 Z-1.62
G1 X76.178 Y85.983 Z-1.624
G1 X76.087 Y85.922 Z-1.628
G1 X76.001 Y85.854 Z-1.632
G1 X75.919 Y85.78 Z-1.635
G1 X75.844 Y85.701 Z-1.639
G1 X75.774 Y85.616 Z-1.643
G1 X75.711 Y85.526 Z-1.647
G1 X75.654 Y85.432 Z-1.651
G1 X75.605 Y85.335 Z-1.655
G1 X75.562 Y85.233 Z-1.658
G1 X75.527 Y85.129 Z-1.662
G1 X75.5 Y85.023 Z-1.666
G1 X75.481 Y84.915 Z-1.67
G1 X75.469 Y84.806 Z-1.674
G1 X75.465 Y84.696 Z-1.678
G1 X75.47 Y84.587 Z-1.681
G1 X75.482 Y84.477 Z-1.685
G1 X75.502 Y84.37 Z-1.689
G1 X75.531 Y84.264 Z-1.693
G1 X75.566 Y84.16 Z-1.697
G1 X75.609 Y84.059 Z-1.701
G1 X75.66 Y83.961 Z-1.704
G1 X75.717 Y83.868 Z-1.708
G1 X75.781 Y83.779 Z-1.712
G1 X75.851 Y83.694 Z-1.716
G1 X75.928 Y83.615 Z-1.72
G1 X76.009 Y83.542 Z-1.724
G1 X76.096 Y83.475 Z-1.727
G1 X76.188 Y83.415 Z-1.731
G1 X76.283 Y83.361 Z-1.735
G1 X76.383 Y83.314 Z-1.739
G1 X76.485 Y83.275 Z-1.743
G1 X76.59 Y83.243 Z-1.747
G1 X76.697 Y83.219 Z-1.75
G1 X76.806 Y83.203 Z-1.754
G1 X76.915 Y83.195 Z-1.758
G1 X77.025 Z-1.762
G1 X77.134 Y83.202 Z-1.766
G1 X77.243 Y83.218 Z-1.77
G1 X77.35 Y83.241 Z-1.773
G1 X77.455 Y83.273 Z-1.777
G1 X77.558 Y83.312 Z-1.781
G1 X77.658 Y83.358 Z-1.785
G1 X77.754 Y83.411 Z-1.789
G1 X77.845 Y83.471 Z-1.793
G1 X77.933 Y83.538 Z-1.796
G1 X78.015 Y83.611 Z-1.8
G1 X78.091 Y83.689 Z-1.804
G1 X78.162 Y83.773 Z-1.808
G1 X78.226 Y83.862 Z-1.812
G1 X78.284 Y83.955 Z-1.816
G1 X78.335 Y84.053 Z-1.819
G1 X78.378 Y84.153 Z-1.823
G1 X78.415 Y84.257 Z-1.827
G1 X78.443 Y84.363 Z-1.831
G1 X78.464 Y84.471 Z-1.835
G1 X78.477 Y84.58 Z-1.839
G1 X78.482 Y84.689 Z-1.842
G1 X78.479 Y84.799 Z-1.846
G1 X78.467 Y84.908 Z-1.85
G1 X78.449 Y85.016 Z-1.854
G1 X78.422 Y85.123 Z-1.858
G1 X78.387 Y85.227 Z-1.862
G1 X78.345 Y85.328 Z-1.865
G1 X78.296 Y85.426 Z-1.869
G1 X78.24 Y85.521 Z-1.873
G1 X78.177 Y85.611 Z-1.877
G1 X78.108 Y85.696 Z-1.881
G1 X78.033 Y85.776 Z-1.885
G1 X77.952 Y85.85 Z-1.888
G1 X77.866 Y85.918 Z-1.892
G1 X77.775 Y85.979 Z-1.896
G1 X77.68 Y86.034 Z-1.9
G1 X77.581 Y86.082 Z-1.904
G1 X77.479 Y86.123 Z-1.908
G1 X77.374 Y86.156 Z-1.911
G1 X77.268 Y86.181 Z-1.915
G1 X77.159 Y86.198 Z-1.919
G1 X77.05 Y86.208 Z-1.923
G1 X76.94 Y86.21 Z-1.927
G1 X76.831 Y86.203 Z-1.931
G1 X76.722 Y86.189 Z-1.934
G1 X76.614 Y86.166 Z-1.938
G1 X76.509 Y86.136 Z-1.942
G1 X76.406 Y86.099 Z-1.946
G1 X76.306 Y86.054 Z-1.95
G1 X76.209 Y86.002 Z-1.954
G1 X76.117 Y85.943 Z-1.957
G1 X76.029 Y85.877 Z-1.961
G1 X75.946 Y85.805 Z-1.965
G1 X75.868 Y85.728 Z-1.969
G1 X75.796 Y85.645 Z-1.973
G1 X75.731 Y85.556 Z-1.977
G1 X75.672 Y85.464 Z-1.98
G1 X75.62 Y85.367 Z-1.984
G1 X75.575 Y85.267 Z-1.988
G1 X75.538 Y85.164 Z-1.992
G1 X75.508 Y85.058 Z-1.996
G1 X75.486 Y84.951 Z-2
G1 X75.472 Y84.842 Z-2.003
G1 X75.466 Y84.732 Z-2.007
G1 X75.468 Y84.623 Z-2.011
G1 X75.477 Y84.513 Z-2.015
G1 X75.495 Y84.405 Z-2.019
G1 X75.52 Y84.298 Z-2.023
G1 X75.554 Y84.194 Z-2.026
G1 X75.594 Y84.092 Z-2.03
G1 X75.642 Y83.993 Z-2.034
G1 X75.697 Y83.898 Z-2.038
G1 X75.759 Y83.807 Z-2.042
G1 X75.827 Y83.721 Z-2.046
G1 X75.902 Y83.641 Z-2.049
G1 X75.982 Y83.566 Z-2.053
G1 X76.067 Y83.496 Z-2.057
G1 X76.157 Y83.434 Z-2.061
G1 X76.251 Y83.378 Z-2.065
G1 X76.35 Y83.329 Z-2.069
G1 X76.451 Y83.287 Z-2.072
G1 X76.555 Y83.253 Z-2.076
G1 X76.662 Y83.226 Z-2.08
G1 X76.77 Y83.207 Z-2.084
G1 X76.879 Y83.197 Z-2.088
G1 X76.989 Y83.194 Z-2.092
G1 X77.099 Y83.199 Z-2.095
G1 X77.207 Y83.212 Z-2.099
G1 X77.315 Y83.233 Z-2.103
G1 X77.421 Y83.262 Z-2.107
G1 X77.525 Y83.298 Z-2.111
G1 X77.625 Y83.342 Z-2.115
G1 X77.722 Y83.393 Z-2.118
G1 X77.816 Y83.451 Z-2.122
G1 X77.904 Y83.515 Z-2.126
G1 X77.988 Y83.586 Z-2.13
G1 X78.067 Y83.663 Z-2.134
G1 X78.139 Y83.745 Z-2.138
G1 X78.206 Y83.832 Z-2.141
G1 X78.266 Y83.924 Z-2.145
G1 X78.319 Y84.02 Z-2.149
G1 X78.365 Y84.12 Z-2.153
G1 X78.404 Y84.223 Z-2.157
G1 X78.435 Y84.328 Z-2.161
G1 X78.458 Y84.435 Z-2.164
G1 X78.473 Y84.544 Z-2.168
G1 X78.481 Y84.653 Z-2.172
G1 X78.48 Y84.763 Z-2.176
G1 X78.472 Y84.872 Z-2.18
G1 X78.456 Y84.981 Z-2.184
G1 X78.431 Y85.088 Z-2.187
G1 X78.399 Y85.193 Z-2.191
G1 X78.36 Y85.295 Z-2.195
G1 X78.313 Y85.395 Z-2.199
G1 X78.259 Y85.49 Z-2.203
G1 X78.199 Y85.582 Z-2.207
G1 X78.131 Y85.668 Z-2.21
G1 X78.058 Y85.75 Z-2.214
G1 X77.979 Y85.826 Z-2.218
G1 X77.894 Y85.896 Z-2.222
G1 X77.805 Y85.96 Z-2.226
G1 X77.711 Y86.017 Z-2.23
G1 X77.614 Y86.067 Z-2.233
G1 X77.513 Y86.11 Z-2.237
G1 X77.409 Y86.146 Z-2.241
G1 X77.303 Y86.173 Z-2.245
G1 X77.195 Y86.194 Z-2.249
G1 X77.086 Y86.206 Z-2.253
G1 X76.976 Y86.21 Z-2.256
G1 X76.867 Y86.206 Z-2.26
G1 X76.757 Y86.194 Z-2.264
G1 X76.65 Y86.175 Z-2.268
G1 X76.543 Y86.147 Z-2.272
G1 X76.439 Y86.112 Z-2.276
G1 X76.338 Y86.07 Z-2.279
G1 X76.24 Y86.02 Z-2.283
G1 X76.146 Y85.963 Z-2.287
G1 X76.057 Y85.899 Z-2.291
G1 X75.972 Y85.83 Z-2.295
G1 X75.893 Y85.754 Z-2.299
G1 X75.819 Y85.672 Z-2.302
G1 X75.752 Y85.586 Z-2.306
G1 X75.691 Y85.495 Z-2.31
G1 X75.636 Y85.399 Z-2.314
G1 X75.589 Y85.3 Z-2.318
G1 X75.549 Y85.198 Z-2.322
G1 X75.517 Y85.093 Z-2.325
G1 X75.492 Y84.986 Z-2.329
G1 X75.476 Y84.878 Z-2.333
G1 X75.467 Y84.768 Z-2.337
G1 X75.466 Y84.659 Z-2.341
G1 X75.473 Y84.549 Z-2.345
G1 X75.488 Y84.44 Z-2.348
G1 X75.511 Y84.333 Z-2.352
G1 X75.542 Y84.228 Z-2.356
G1 X75.58 Y84.125 Z-2.36
G1 X75.626 Y84.025 Z-2.364
G1 X75.679 Y83.929 Z-2.368
G1 X75.738 Y83.837 Z-2.371
G1 X75.804 Y83.749 Z-2.375
G1 X75.877 Y83.667 Z-2.379
G1 X75.955 Y83.59 Z-2.383
G1 X76.038 Y83.519 Z-2.387
G1 X76.127 Y83.454 Z-2.391
G1 X76.22 Y83.395 Z-2.394
G1 X76.317 Y83.344 Z-2.398
G1 X76.417 Y83.3 Z-2.402
G1 X76.521 Y83.263 Z-2.406
G1 X76.627 Y83.234 Z-2.41
G1 X76.734 Y83.213 Z-2.414
G1 X76.843 Y83.199 Z-2.417
G1 X76.953 Y83.194 Z-2.421
G1 X77.062 Y83.196 Z-2.425
G1 X77.172 Y83.207 Z-2.429
G1 X77.28 Y83.225 Z-2.433
G1 X77.386 Y83.251 Z-2.437
G1 X77.491 Y83.285 Z-2.44
G1 X77.593 Y83.327 Z-2.444
G1 X77.691 Y83.375 Z-2.448
G1 X77.785 Y83.431 Z-2.452
G1 X77.876 Y83.493 Z-2.456
G1 X77.961 Y83.562 Z-2.46
G1 X78.041 Y83.637 Z-2.463
G1 X78.116 Y83.717 Z-2.467
G1 X78.185 Y83.803 Z-2.471
G1 X78.247 Y83.893 Z-2.475
G1 X78.302 Y83.988 Z-2.479
G1 X78.351 Y84.087 Z-2.483
G1 X78.392 Y84.188 Z-2.486
G1 X78.425 Y84.293 Z-2.49
G1 X78.451 Y84.4 Z-2.494
G1 X78.469 Y84.508 Z-2.498
G1 X78.479 Y84.617 Z-2.502
G1 X78.481 Y84.727 Z-2.506
G1 X78.476 Y84.836 Z-2.509
G1 X78.462 Y84.945 Z-2.513
G1 X78.44 Y85.053 Z-2.517
G1 X78.411 Y85.159 Z-2.521
G1 X78.374 Y85.262 Z-2.525
G1 X78.329 Y85.362 Z-2.529
G1 X78.278 Y85.459 Z-2.532
G1 X78.219 Y85.552 Z-2.536
G1 X78.154 Y85.64 Z-2.54
G1 X78.083 Y85.724 Z-2.544
G1 X78.005 Y85.802 Z-2.548
G1 X77.923 Y85.874 Z-2.552
G1 X77.835 Y85.94 Z-2.555
G1 X77.743 Y85.999 Z-2.559
G1 X77.646 Y86.051 Z-2.563
G1 X77.546 Y86.097 Z-2.567
G1 X77.443 Y86.135 Z-2.571
G1 X77.338 Y86.165 Z-2.575
G1 X77.231 Y86.188 Z-2.578
G1 X77.122 Y86.203 Z-2.582
G1 X77.012 Y86.209 Z-2.586
G1 X76.903 Y86.208 Z-2.59
G1 X76.793 Y86.199 Z-2.594
G1 X76.685 Y86.182 Z-2.598
G1 X76.578 Y86.157 Z-2.601
G1 X76.473 Y86.124 Z-2.605
G1 X76.371 Y86.084 Z-2.609
G1 X76.272 Y86.037 Z-2.613
G1 X76.177 Y85.982 Z-2.617
G1 X76.086 Y85.921 Z-2.621
G1 X76 Y85.853 Z-2.624
G1 X75.918 Y85.779 Z-2.628
G1 X75.843 Y85.7 Z-2.632
G1 X75.773 Y85.615 Z-2.636
G1 X75.71 Y85.525 Z-2.64
G1 X75.654 Y85.431 Z-2.644
G1 X75.604 Y85.333 Z-2.647
G1 X75.562 Y85.232 Z-2.651
G1 X75.527 Y85.128 Z-2.655
G1 X75.5 Y85.022 Z-2.659
G1 X75.48 Y84.914 Z-2.663
G1 X75.469 Y84.804 Z-2.667
G1 X75.465 Y84.695 Z-2.67
G1 X75.47 Y84.585 Z-2.674
G1 X75.482 Y84.476 Z-2.678
G1 X75.503 Y84.368 Z-2.682
G1 X75.531 Y84.262 Z-2.686
G1 X75.567 Y84.158 Z-2.69
G1 X75.61 Y84.058 Z-2.693
G1 X75.66 Y83.96 Z-2.697
G1 X75.718 Y83.867 Z-2.701
G1 X75.782 Y83.777 Z-2.705
G1 X75.852 Y83.693 Z-2.709
G1 X75.929 Y83.614 Z-2.713
G1 X76.01 Y83.541 Z-2.716
G1 X76.097 Y83.474 Z-2.72
G1 X76.189 Y83.414 Z-2.724
G1 X76.285 Y83.36 Z-2.728
G1 X76.384 Y83.314 Z-2.732
G1 X76.487 Y83.274 Z-2.736
G1 X76.592 Y83.243 Z-2.739
G1 X76.699 Y83.219 Z-2.743
G1 X76.807 Y83.203 Z-2.747
G1 X76.917 Y83.195 Z-2.751
G1 X77.026 Z-2.755
G1 X77.136 Y83.202 Z-2.759
G1 X77.244 Y83.218 Z-2.762
G1 X77.352 Y83.242 Z-2.766
G1 X77.457 Y83.273 Z-2.77
G1 X77.559 Y83.312 Z-2.774
G1 X77.659 Y83.358 Z-2.778
G1 X77.755 Y83.412 Z-2.782
G1 X77.847 Y83.472 Z-2.785
G1 X77.934 Y83.539 Z-2.789
G1 X78.016 Y83.612 Z-2.793
G1 X78.092 Y83.69 Z-2.797
G1 X78.163 Y83.774 Z-2.801
G1 X78.227 Y83.863 Z-2.805
G1 X78.285 Y83.957 Z-2.808
G1 X78.335 Y84.054 Z-2.812
G1 X78.379 Y84.155 Z-2.816
G1 X78.415 Y84.258 Z-2.82
G1 X78.443 Y84.364 Z-2.824
G1 X78.464 Y84.472 Z-2.828
G1 X78.477 Y84.581 Z-2.831
G1 X78.482 Y84.691 Z-2.835
G1 X78.478 Y84.8 Z-2.839
G1 X78.467 Y84.91 Z-2.843
G1 X78.448 Y85.018 Z-2.847
G1 X78.421 Y85.124 Z-2.851
G1 X78.387 Y85.228 Z-2.854
G1 X78.345 Y85.33 Z-2.858
G1 X78.295 Y85.428 Z-2.862
G1 X78.239 Y85.522 Z-2.866
G1 X78.176 Y85.612 Z-2.87
G1 X78.107 Y85.697 Z-2.874
G1 X78.032 Y85.777 Z-2.877
G1 X77.951 Y85.851 Z-2.881
G1 X77.864 Y85.919 Z-2.885
G1 X77.774 Y85.98 Z-2.889
G1 X77.678 Y86.035 Z-2.893
G1 X77.58 Y86.083 Z-2.897
G1 X77.478 Y86.123 Z-2.9
G1 X77.373 Y86.156 Z-2.904
G1 X77.266 Y86.181 Z-2.908
G1 X77.158 Y86.199 Z-2.912
G1 X77.048 Y86.208 Z-2.916
G1 X76.939 Y86.209 Z-2.92
G1 X76.829 Y86.203 Z-2.923
G1 X76.72 Y86.188 Z-2.927
G1 X76.613 Y86.166 Z-2.931
G1 X76.507 Y86.136 Z-2.935
G1 X76.404 Y86.098 Z-2.939
G1 X76.304 Y86.053 Z-2.943
G1 X76.208 Y86.001 Z-2.946
G1 X76.115 Y85.942 Z-2.95
G1 X76.027 Y85.876 Z-2.954
G1 X75.945 Y85.804 Z-2.958
G1 X75.867 Y85.727 Z-2.962
G1 X75.796 Y85.643 Z-2.966
G1 X75.73 Y85.555 Z-2.969
G1 X75.671 Y85.463 Z-2.973
G1 X75.62 Y85.366 Z-2.977
G1 X75.575 Y85.266 Z-2.981
G1 X75.538 Y85.162 Z-2.985
G1 X75.508 Y85.057 Z-2.989
G1 X75.486 Y84.949 Z-2.992
G1 X75.472 Y84.84 Z-2.996
G1 X75.466 Y84.731 Z-3
; MOVEMENT_CUTTING
G1 X75.419 Y82.314 F360
G1 X75.422 Y82.282
G1 X75.431 Y82.25
G1 X75.447 Y82.221
G1 X75.468 Y82.196
G1 X75.494 Y82.175
G1 X75.524 Y82.161
G1 X75.555 Y82.152
G1 X75.588 Y82.151
G1 X75.621 Y82.156
G1 X75.652 Y82.167
G1 X75.68 Y82.185
G1 X76.033 Y82.458
G1 X76.39 Y82.727
G1 X76.751 Y82.99
G1 X77.116 Y83.249
G1 X77.483 Y83.503
G1 X77.854 Y83.752
G1 X77.916 Y83.797
G1 X77.972 Y83.848
G1 X78.023 Y83.904
G1 X78.068 Y83.965
G1 X78.107 Y84.031
G1 X78.139 Y84.1
G1 X78.164 Y84.172
G1 X78.182 Y84.246
G1 X78.192 Y84.321
G1 X78.195 Y84.397
G1 X77.522 Y121.62
G1 X77.517 Y121.67
G1 X77.505 Y121.72
G1 X77.485 Y121.766
G1 X77.458 Y121.809
G1 X77.424 Y121.847
G1 X77.386 Y121.88
G1 X77.342 Y121.906
G1 X77.295 Y121.925
G1 X77.246 Y121.937
G1 X77.195 Y121.941
G1 X76.451 Y121.94
G1 X76.401 Y121.936
G1 X76.351 Y121.925
G1 X76.304 Y121.905
G1 X76.261 Y121.879
G1 X76.222 Y121.847
G1 X76.189 Y121.808
G1 X76.162 Y121.765
G1 X76.142 Y121.719
G1 X76.129 Y121.67
G1 X76.124 Y121.619
G1 X76.04 Y114.486
G1 X75.466 Y84.731
; MOVEMENT_LINK_TRANSITION
G1 X75.46 Y84.641
G1 X75.447 Y84.552
G1 X75.427 Y84.464
G1 X75.399 Y84.378
G1 X75.364 Y84.295
G1 X75.322 Y84.215
G1 X75.274 Y84.139
G1 X75.22 Y84.067
G1 X75.159 Y84
G1 X75.094 Y83.938
G1 X75.023 Y83.882
G1 X74.948 Y83.832
G1 X74.869 Y83.788
G1 X74.787 Y83.751
G1 X74.704 Y83.715
G1 X74.625 Y83.671
G1 X74.55 Y83.622
G1 X74.479 Y83.565
G1 X74.413 Y83.504
G1 X74.353 Y83.437
G1 X74.299 Y83.365
G1 X74.25 Y83.288
G1 X74.209 Y83.208
G1 X74.174 Y83.125
G1 X74.146 Y83.039
G1 X74.126 Y82.951
G1 X74.113 Y82.862
G1 X74.107 Y82.772
; MOVEMENT_CUTTING
G1 X74.046 Y79.371
G1 X74.049 Y79.339
G1 X74.059 Y79.309
G1 X74.074 Y79.281
G1 X74.095 Y79.257
G1 X74.121 Y79.238
G1 X74.15 Y79.225
G1 X74.182 Y79.219
G1 X74.214
G1 X74.245 Y79.226
G1 X74.274 Y79.24
G1 X74.299 Y79.259
G1 X74.648 Y79.583
G1 X75.002 Y79.902
G1 X75.36 Y80.215
G1 X75.723 Y80.523
G1 X76.091 Y80.826
G1 X76.463 Y81.123
G1 X76.84 Y81.414
G1 X77.221 Y81.7
G1 X77.606 Y81.98
G1 X77.995 Y82.254
G1 X78.388 Y82.522
G1 X78.786 Y82.784
G1 X79.187 Y83.041
G1 X79.248 Y83.083
G1 X79.304 Y83.132
G1 X79.355 Y83.186
G1 X79.4 Y83.246
G1 X79.439 Y83.309
G1 X79.471 Y83.376
G1 X79.496 Y83.446
G1 X79.514 Y83.519
G1 X79.524 Y83.592
G1 X79.527 Y83.667
G1 X78.809 Y122.294
G1 Y122.456
G1 X78.813 Y122.617
G1 X78.818 Y122.779
G1 X78.817 Y122.941
G1 X78.812 Y122.991
G1 X78.8 Y123.04
G1 X78.78 Y123.087
G1 X78.753 Y123.129
G1 X78.719 Y123.168
G1 X78.681 Y123.2
G1 X78.637 Y123.226
G1 X78.59 Y123.246
G1 X78.541 Y123.257
G1 X78.49 Y123.261
G1 X75.155 Y123.259
G1 X75.105 Y123.255
G1 X75.055 Y123.243
G1 X75.008 Y123.224
G1 X74.965 Y123.198
G1 X74.926 Y123.165
G1 X74.893 Y123.127
G1 X74.866 Y123.084
G1 X74.846 Y123.038
G1 X74.833 Y122.988
G1 X74.828 Y122.938
G1 X74.107 Y82.772
; MOVEMENT_LINK_TRANSITION
G1 X74.102 Y82.684
G1 X74.089 Y82.597
G1 X74.07 Y82.512
G1 X74.043 Y82.428
G1 X74.009 Y82.347
G1 X73.968 Y82.269
G1 X73.921 Y82.195
G1 X73.868 Y82.125
G1 X73.809 Y82.059
G1 X73.745 Y81.999
G1 X73.676 Y81.944
G1 X73.603 Y81.896
G1 X73.526 Y81.853
G1 X73.446 Y81.818
G1 X73.365 Y81.782
G1 X73.288 Y81.74
G1 X73.215 Y81.691
G1 X73.146 Y81.636
G1 X73.082 Y81.576
G1 X73.023 Y81.511
G1 X72.97 Y81.441
G1 X72.923 Y81.366
G1 X72.883 Y81.288
G1 X72.849 Y81.207
G1 X72.822 Y81.124
G1 X72.802 Y81.038
G1 X72.789 Y80.951
G1 X72.784 Y80.863
; MOVEMENT_CUTTING
G1 X72.711 Y76.901
G1 X72.706 Y76.744
G1 X72.697 Y76.587
G1 X72.684 Y76.43
G1 X72.665 Y76.196
G1 X72.65 Y75.96
G1 X72.652 Y75.93
G1 X72.661 Y75.901
G1 X72.676 Y75.875
G1 X72.696 Y75.852
G1 X72.721 Y75.835
G1 X72.749 Y75.824
G1 X72.779 Y75.819
G1 X72.81 Y75.821
G1 X72.839 Y75.83
G1 X72.865 Y75.845
G1 X72.887 Y75.866
G1 X73.2 Y76.227
G1 X73.519 Y76.583
G1 X73.843 Y76.934
G1 X74.172 Y77.28
G1 X74.507 Y77.621
G1 X74.847 Y77.957
G1 X75.192 Y78.287
G1 X75.543 Y78.612
G1 X75.898 Y78.931
G1 X76.258 Y79.245
G1 X76.623 Y79.553
G1 X76.993 Y79.855
G1 X77.368 Y80.152
G1 X77.747 Y80.443
G1 X78.13 Y80.728
G1 X78.518 Y81.007
G1 X78.91 Y81.279
G1 X79.307 Y81.546
G1 X79.707 Y81.807
G1 X80.112 Y82.061
G1 X80.52 Y82.309
G1 X80.58 Y82.349
G1 X80.636 Y82.396
G1 X80.687 Y82.448
G1 X80.732 Y82.505
G1 X80.771 Y82.567
G1 X80.803 Y82.632
G1 X80.828 Y82.701
G1 X80.846 Y82.771
G1 X80.856 Y82.843
G1 X80.859 Y82.916
G1 X80.104 Y122.319
G1 X80.101 Y122.643
G1 X80.102 Y122.966
G1 X80.108 Y123.29
G1 X80.115 Y123.614
G1 X80.116 Y123.937
G1 X80.112 Y124.261
G1 X80.107 Y124.312
G1 X80.095 Y124.361
G1 X80.075 Y124.407
G1 X80.048 Y124.45
G1 X80.014 Y124.488
G1 X79.975 Y124.521
G1 X79.932 Y124.547
G1 X79.885 Y124.566
G1 X79.836 Y124.578
G1 X79.785 Y124.582
G1 X73.859 Y124.578
G1 X73.809 Y124.574
G1 X73.76 Y124.562
G1 X73.713 Y124.543
G1 X73.669 Y124.516
G1 X73.63 Y124.484
G1 X73.597 Y124.446
G1 X73.57 Y124.403
G1 X73.55 Y124.356
G1 X73.538 Y124.307
G1 X73.533 Y124.257
G1 X73.357 Y112.128
G1 X72.784 Y80.863
; MOVEMENT_LINK_TRANSITION
G1 X72.779 Y80.774
G1 X72.766 Y80.686
G1 X72.746 Y80.599
G1 X72.718 Y80.515
G1 X72.684 Y80.432
G1 X72.643 Y80.353
G1 X72.595 Y80.278
G1 X72.541 Y80.207
G1 X72.482 Y80.141
G1 X72.417 Y80.08
G1 X72.347 Y80.024
G1 X72.273 Y79.975
G1 X72.195 Y79.932
G1 X72.113 Y79.896
G1 X72.032 Y79.86
G1 X71.954 Y79.817
G1 X71.88 Y79.767
G1 X71.81 Y79.712
G1 X71.745 Y79.651
G1 X71.685 Y79.585
G1 X71.632 Y79.514
G1 X71.584 Y79.438
G1 X71.543 Y79.359
G1 X71.509 Y79.277
G1 X71.481 Y79.192
G1 X71.461 Y79.105
G1 X71.448 Y79.017
G1 X71.443 Y78.928
; MOVEMENT_CUTTING
G1 X71.407 Y76.924
G1 X71.397 Y76.529
G1 X71.38 Y76.134
G1 X71.357 Y75.739
G1 X71.327 Y75.345
G1 X71.291 Y74.951
G1 X71.249 Y74.558
G1 X71.2 Y74.165
G1 X71.137 Y73.709
G1 X71.067 Y73.253
G1 X70.991 Y72.798
G1 X70.908 Y72.344
G1 X70.82 Y71.891
G1 X70.725 Y71.44
G1 X70.72 Y71.403
G1 X70.721 Y71.365
G1 X70.728 Y71.329
G1 X70.786 Y71.112
G1 X70.798 Y71.082
G1 X70.815 Y71.056
G1 X70.838 Y71.033
G1 X70.864 Y71.016
G1 X70.894 Y71.005
G1 X70.926 Y71.001
G1 X70.958 Y71.003
G1 X70.988 Y71.012
G1 X71.016 Y71.027
G1 X71.04 Y71.048
G1 X71.06 Y71.073
G1 X71.308 Y71.479
G1 X71.562 Y71.881
G1 X71.823 Y72.278
G1 X72.09 Y72.671
G1 X72.364 Y73.06
G1 X72.644 Y73.444
G1 X72.93 Y73.824
G1 X73.223 Y74.199
G1 X73.521 Y74.569
G1 X73.825 Y74.934
G1 X74.136 Y75.295
G1 X74.452 Y75.65
G1 X74.773 Y76
G1 X75.101 Y76.345
G1 X75.434 Y76.684
G1 X75.772 Y77.018
G1 X76.116 Y77.347
G1 X76.465 Y77.67
G1 X76.819 Y77.987
G1 X77.179 Y78.298
G1 X77.543 Y78.604
G1 X77.912 Y78.903
G1 X78.286 Y79.197
G1 X78.665 Y79.484
G1 X79.049 Y79.765
G1 X79.436 Y80.04
G1 X79.829 Y80.309
G1 X80.225 Y80.571
G1 X80.626 Y80.827
G1 X81.031 Y81.076
G1 X81.44 Y81.318
G1 X81.853 Y81.554
G1 X81.913 Y81.592
G1 X81.969 Y81.637
G1 X82.019 Y81.687
G1 X82.064 Y81.742
G1 X82.103 Y81.801
G1 X82.135 Y81.865
G1 X82.16 Y81.931
G1 X82.178 Y82
G1 X82.188 Y82.07
G1 X82.191 Y82.141
G1 X81.475 Y119.676
G1 X81.459 Y120.66
G1 X81.448 Y121.644
G1 X81.441 Y122.628
G1 X81.435 Y123.613
G1 X81.424 Y124.597
G1 X81.407 Y125.581
G1 X81.402 Y125.632
G1 X81.389 Y125.681
G1 X81.369 Y125.727
G1 X81.342 Y125.77
G1 X81.309 Y125.808
G1 X81.27 Y125.841
G1 X81.227 Y125.867
G1 X81.18 Y125.886
G1 X81.131 Y125.898
G1 X81.08 Y125.902
G1 X72.564 Y125.896
G1 X72.513 Y125.892
G1 X72.464 Y125.88
G1 X72.417 Y125.861
G1 X72.374 Y125.835
G1 X72.335 Y125.802
G1 X72.302 Y125.764
G1 X72.274 Y125.721
G1 X72.254 Y125.674
G1 X72.242 Y125.625
G1 X72.237 Y125.575
G1 X72.037 Y112.152
G1 X71.443 Y78.928
; MOVEMENT_LINK_TRANSITION
G1 X71.438 Y78.838
G1 X71.425 Y78.749
G1 X71.404 Y78.661
G1 X71.377 Y78.576
G1 X71.342 Y78.492
G1 X71.3 Y78.412
G1 X71.252 Y78.336
G1 X71.198 Y78.264
G1 X71.138 Y78.197
G1 X71.072 Y78.135
G1 X71.002 Y78.079
G1 X70.927 Y78.029
G1 X70.848 Y77.986
G1 X70.765 Y77.949
G1 X70.683 Y77.912
G1 X70.604 Y77.869
G1 X70.529 Y77.819
G1 X70.458 Y77.763
G1 X70.393 Y77.701
G1 X70.333 Y77.634
G1 X70.278 Y77.562
G1 X70.23 Y77.486
G1 X70.188 Y77.406
G1 X70.154 Y77.323
G1 X70.126 Y77.237
G1 X70.106 Y77.149
G1 X70.093 Y77.06
G1 X70.088 Y76.97
; MOVEMENT_CUTTING
G1 X70.087 Y76.948
G1 X70.077 Y76.568
G1 X70.061 Y76.187
G1 X70.039 Y75.808
G1 X70.01 Y75.428
G1 X69.975 Y75.049
G1 X69.934 Y74.671
G1 X69.886 Y74.293
G1 X69.824 Y73.854
G1 X69.756 Y73.415
G1 X69.682 Y72.978
G1 X69.602 Y72.541
G1 X69.517 Y72.106
G1 X69.425 Y71.672
G1 X69.408 Y71.581
G1 X69.398 Y71.489
G1 X69.394 Y71.396
G1 X69.396 Y71.304
G1 X69.405 Y71.212
G1 X69.42 Y71.121
G1 X69.441 Y71.031
G1 X69.557 Y70.594
G1 X69.665 Y70.156
G1 X69.766 Y69.717
G1 X69.86 Y69.275
G1 X69.947 Y68.833
G1 X70.027 Y68.389
G1 X70.1 Y67.943
G1 X70.166 Y67.497
G1 X70.225 Y67.05
G1 X70.232 Y67.021
G1 X70.245 Y66.995
G1 X70.264 Y66.973
G1 X70.288 Y66.957
G1 X70.315 Y66.946
G1 X70.344 Y66.942
G1 X70.373 Y66.944
G1 X70.4 Y66.954
G1 X70.425 Y66.97
G1 X70.445 Y66.991
G1 X70.46 Y67.016
G1 X70.647 Y67.443
G1 X70.842 Y67.866
G1 X71.043 Y68.287
G1 X71.252 Y68.704
G1 X71.467 Y69.117
G1 X71.689 Y69.527
G1 X71.918 Y69.933
G1 X72.154 Y70.335
G1 X72.396 Y70.733
G1 X72.645 Y71.127
G1 X72.901 Y71.517
G1 X73.163 Y71.902
G1 X73.431 Y72.283
G1 X73.706 Y72.66
G1 X73.986 Y73.032
G1 X74.273 Y73.399
G1 X74.566 Y73.762
G1 X74.865 Y74.119
G1 X75.17 Y74.472
G1 X75.481 Y74.819
G1 X75.798 Y75.161
G1 X76.12 Y75.498
G1 X76.447 Y75.83
G1 X76.781 Y76.156
G1 X77.119 Y76.476
G1 X77.463 Y76.791
G1 X77.812 Y77.1
G1 X78.166 Y77.403
G1 X78.525 Y77.7
G1 X78.889 Y77.991
G1 X79.258 Y78.276
G1 X79.631 Y78.555
G1 X80.009 Y78.828
G1 X80.392 Y79.094
G1 X80.779 Y79.354
G1 X81.17 Y79.607
G1 X81.565 Y79.854
G1 X81.965 Y80.094
G1 X82.368 Y80.328
G1 X82.775 Y80.555
G1 X83.186 Y80.775
G1 X83.246 Y80.811
G1 X83.301 Y80.852
G1 X83.351 Y80.9
G1 X83.396 Y80.953
G1 X83.435 Y81.011
G1 X83.467 Y81.072
G1 X83.492 Y81.137
G1 X83.51 Y81.204
G1 X83.52 Y81.272
G1 X83.523 Y81.342
G1 X82.795 Y119.7
G1 X82.702 Y126.901
G1 X82.697 Y126.952
G1 X82.684 Y127.001
G1 X82.664 Y127.047
G1 X82.637 Y127.09
G1 X82.604 Y127.128
G1 X82.565 Y127.161
G1 X82.522 Y127.187
G1 X82.475 Y127.206
G1 X82.425 Y127.218
G1 X82.375 Y127.222
G1 X71.268 Y127.213
G1 X71.218 Y127.209
G1 X71.168 Y127.197
G1 X71.121 Y127.178
G1 X71.078 Y127.152
G1 X71.039 Y127.119
G1 X71.006 Y127.081
G1 X70.979 Y127.038
G1 X70.959 Y126.991
G1 X70.946 Y126.942
G1 X70.941 Y126.891
G1 X70.088 Y76.97
; MOVEMENT_LINK_TRANSITION
G1 X70.082 Y76.878
G1 X70.069 Y76.787
G1 X70.048 Y76.697
G1 X70.019 Y76.61
G1 X69.983 Y76.525
G1 X69.94 Y76.443
G1 X69.891 Y76.366
G1 X69.834 Y76.293
G1 X69.772 Y76.225
G1 X69.704 Y76.163
G1 X69.632 Y76.106
G1 X69.554 Y76.056
G1 X69.473 Y76.013
G1 X69.388 Y75.977
G1 X69.304 Y75.942
G1 X69.223 Y75.9
G1 X69.146 Y75.851
G1 X69.072 Y75.797
G1 X69.003 Y75.737
G1 X68.939 Y75.672
G1 X68.881 Y75.602
G1 X68.828 Y75.528
G1 X68.781 Y75.45
G1 X68.74 Y75.368
G1 X68.706 Y75.283
G1 X68.679 Y75.196
G1 X68.658 Y75.107
G1 X68.645 Y75.017
; MOVEMENT_CUTTING
G1 X68.61 Y74.717
G1 X68.572 Y74.417
G1 X68.511 Y73.994
G1 X68.445 Y73.572
G1 X68.373 Y73.151
G1 X68.295 Y72.731
G1 X68.212 Y72.312
G1 X68.122 Y71.894
G1 X68.098 Y71.767
G1 X68.08 Y71.639
G1 X68.07 Y71.51
G1 X68.066 Y71.381
G1 X68.069 Y71.252
G1 X68.079 Y71.123
G1 X68.097 Y70.994
G1 X68.121 Y70.867
G1 X68.152 Y70.742
G1 X68.263 Y70.324
G1 X68.368 Y69.904
G1 X68.466 Y69.483
G1 X68.557 Y69.06
G1 X68.641 Y68.635
G1 X68.718 Y68.21
G1 X68.789 Y67.783
G1 X68.852 Y67.355
G1 X68.909 Y66.926
G1 X68.959 Y66.496
G1 X69.001 Y66.066
G1 X69.037 Y65.635
G1 X69.044 Y65.587
G1 X69.06 Y65.54
G1 X69.082 Y65.497
G1 X69.111 Y65.458
G1 X69.145 Y65.424
G1 X69.185 Y65.396
G1 X69.229 Y65.375
G1 X69.275 Y65.361
G1 X69.323 Y65.355
G1 X69.372 Y65.357
G1 X69.751 Y65.396
G1 X70.13 Y65.43
G1 X70.51 Y65.458
G1 X70.891 Y65.481
G1 X70.957 Y65.488
G1 X71.022 Y65.503
G1 X71.085 Y65.525
G1 X71.145 Y65.554
G1 X71.201 Y65.59
G1 X71.253 Y65.632
G1 X71.3 Y65.679
G1 X71.341 Y65.732
G1 X71.376 Y65.789
G1 X71.405 Y65.849
G1 X71.575 Y66.264
G1 X71.752 Y66.677
G1 X71.936 Y67.086
G1 X72.126 Y67.493
G1 X72.323 Y67.896
G1 X72.527 Y68.296
G1 X72.737 Y68.693
G1 X72.953 Y69.086
G1 X73.176 Y69.475
G1 X73.405 Y69.861
G1 X73.64 Y70.244
G1 X73.881 Y70.622
G1 X74.129 Y70.996
G1 X74.382 Y71.367
G1 X74.642 Y71.733
G1 X74.908 Y72.095
G1 X75.18 Y72.452
G1 X75.457 Y72.804
G1 X75.741 Y73.152
G1 X76.031 Y73.495
G1 X76.327 Y73.833
G1 X76.628 Y74.166
G1 X76.935 Y74.493
G1 X77.248 Y74.815
G1 X77.566 Y75.132
G1 X77.889 Y75.444
G1 X78.218 Y75.749
G1 X78.552 Y76.049
G1 X78.891 Y76.344
G1 X79.234 Y76.632
G1 X79.539 Y76.879
G1 X79.847 Y77.12
G1 X80.159 Y77.357
G1 X80.476 Y77.588
G1 X80.796 Y77.814
G1 X81.119 Y78.034
G1 X81.447 Y78.249
G1 X81.778 Y78.458
G1 X82.159 Y78.692
G1 X82.545 Y78.919
G1 X82.933 Y79.141
G1 X83.325 Y79.357
G1 X83.72 Y79.567
G1 X84.118 Y79.771
G1 X84.52 Y79.97
G1 X84.579 Y80.002
G1 X84.634 Y80.042
G1 X84.684 Y80.087
G1 X84.728 Y80.138
G1 X84.767 Y80.193
G1 X84.799 Y80.253
G1 X84.824 Y80.315
G1 X84.842 Y80.38
G1 X84.853 Y80.447
G1 X84.856 Y80.514
G1 X83.996 Y128.221
G1 X83.991 Y128.272
G1 X83.979 Y128.321
G1 X83.959 Y128.367
G1 X83.932 Y128.41
G1 X83.898 Y128.448
G1 X83.859 Y128.481
G1 X83.816 Y128.507
G1 X83.769 Y128.526
G1 X83.72 Y128.538
G1 X83.669 Y128.542
G1 X69.973 Y128.529
G1 X69.922 Y128.525
G1 X69.873 Y128.513
G1 X69.826 Y128.494
G1 X69.782 Y128.468
G1 X69.743 Y128.435
G1 X69.71 Y128.397
G1 X69.683 Y128.354
G1 X69.663 Y128.307
G1 X69.65 Y128.258
G1 X69.646 Y128.208
G1 X69.398 Y112.199
G1 X68.767 Y76.972
G1 X68.757 Y76.58
G1 X68.739 Y76.188
G1 X68.715 Y75.797
G1 X68.683 Y75.407
G1 X68.645 Y75.017
; MOVEMENT_LINK_TRANSITION
G1 X68.631 Y74.926
G1 X68.61 Y74.837
G1 X68.581 Y74.75
G1 X68.544 Y74.665
G1 X68.501 Y74.584
G1 X68.451 Y74.507
G1 X68.395 Y74.435
G1 X68.332 Y74.368
G1 X68.264 Y74.306
G1 X68.191 Y74.25
G1 X68.114 Y74.201
G1 X68.033 Y74.158
G1 X67.948 Y74.123
G1 X67.861 Y74.094
G1 X67.774 Y74.067
G1 X67.69 Y74.032
G1 X67.608 Y73.991
G1 X67.531 Y73.943
G1 X67.457 Y73.89
G1 X67.388 Y73.83
G1 X67.323 Y73.766
G1 X67.265 Y73.696
G1 X67.211 Y73.622
G1 X67.164 Y73.544
G1 X67.124 Y73.463
G1 X67.09 Y73.378
G1 X67.062 Y73.291
G1 X67.042 Y73.202
; MOVEMENT_CUTTING
G1 X66.962 Y72.786
G1 X66.876 Y72.371
G1 X66.783 Y71.958
G1 X66.756 Y71.824
G1 X66.736 Y71.689
G1 X66.722 Y71.554
G1 X66.715 Y71.418
G1 Y71.282
G1 X66.722 Y71.145
G1 X66.736 Y71.01
G1 X66.757 Y70.875
G1 X66.784 Y70.742
G1 X66.818 Y70.61
G1 X66.935 Y70.186
G1 X67.045 Y69.76
G1 X67.147 Y69.332
G1 X67.242 Y68.902
G1 X67.329 Y68.471
G1 X67.409 Y68.038
G1 X67.481 Y67.604
G1 X67.545 Y67.169
G1 X67.602 Y66.733
G1 X67.652 Y66.295
G1 X67.694 Y65.857
G1 X67.728 Y65.419
G1 X67.755 Y64.98
G1 X67.773 Y64.54
G1 X67.785 Y64.1
G1 X67.789 Y64.055
G1 X67.802 Y64.011
G1 X67.822 Y63.97
G1 X67.848 Y63.932
G1 X67.881 Y63.9
G1 X67.918 Y63.874
G1 X67.96 Y63.855
G1 X68.004 Y63.843
G1 X68.049 Y63.839
G1 X68.095 Y63.843
G1 X68.507 Y63.911
G1 X68.921 Y63.971
G1 X69.336 Y64.024
G1 X69.751 Y64.07
G1 X70.167 Y64.109
G1 X70.584 Y64.141
G1 X71.001 Y64.166
G1 X71.419 Y64.184
G1 X71.837 Y64.194
G1 X71.9 Y64.199
G1 X71.961 Y64.212
G1 X72.021 Y64.232
G1 X72.078 Y64.258
G1 X72.131 Y64.292
G1 X72.18 Y64.332
G1 X72.224 Y64.377
G1 X72.262 Y64.427
G1 X72.294 Y64.482
G1 X72.319 Y64.54
G1 X72.473 Y64.957
G1 X72.634 Y65.371
G1 X72.803 Y65.782
G1 X72.979 Y66.191
G1 X73.162 Y66.596
G1 X73.352 Y66.998
G1 X73.549 Y67.396
G1 X73.753 Y67.791
G1 X73.964 Y68.183
G1 X74.181 Y68.571
G1 X74.406 Y68.954
G1 X74.637 Y69.334
G1 X74.874 Y69.71
G1 X75.119 Y70.082
G1 X75.369 Y70.449
G1 X75.626 Y70.811
G1 X75.89 Y71.17
G1 X76.159 Y71.523
G1 X76.435 Y71.872
G1 X76.717 Y72.216
G1 X77.005 Y72.555
G1 X77.298 Y72.889
G1 X77.598 Y73.217
G1 X77.903 Y73.541
G1 X78.214 Y73.859
G1 X78.53 Y74.171
G1 X78.852 Y74.478
G1 X79.179 Y74.779
G1 X79.511 Y75.075
G1 X79.848 Y75.364
G1 X80.191 Y75.648
G1 X80.538 Y75.925
G1 X80.89 Y76.197
G1 X81.247 Y76.462
G1 X81.608 Y76.721
G1 X81.974 Y76.974
G1 X82.344 Y77.22
G1 X82.719 Y77.46
G1 X83.097 Y77.693
G1 X83.48 Y77.919
G1 X83.867 Y78.139
G1 X84.257 Y78.352
G1 X84.651 Y78.558
G1 X85.048 Y78.757
G1 X85.449 Y78.949
G1 X85.854 Y79.135
G1 X85.912 Y79.165
G1 X85.966 Y79.201
G1 X86.016 Y79.244
G1 X86.061 Y79.293
G1 X86.099 Y79.346
G1 X86.131 Y79.403
G1 X86.157 Y79.464
G1 X86.175 Y79.527
G1 X86.185 Y79.592
G1 X86.188 Y79.658
G1 X85.291 Y129.541
G1 X85.286 Y129.592
G1 X85.273 Y129.641
G1 X85.253 Y129.687
G1 X85.226 Y129.73
G1 X85.193 Y129.768
G1 X85.154 Y129.801
G1 X85.111 Y129.827
G1 X85.064 Y129.846
G1 X85.014 Y129.858
G1 X84.964 Y129.862
G1 X68.907 Y129.845
G1 X68.84 Y129.841
G1 X68.774 Y129.829
G1 X68.71 Y129.809
G1 X68.649 Y129.781
G1 X68.591 Y129.747
G1 X68.538 Y129.705
G1 X68.491 Y129.658
G1 X68.449 Y129.606
G1 X68.413 Y129.549
G1 X68.385 Y129.488
G1 X68.364 Y129.424
G1 X68.351 Y129.358
G1 X68.346 Y129.291
G1 X68.078 Y112.223
G1 X67.448 Y76.995
G1 X67.438 Y76.632
G1 X67.422 Y76.268
G1 X67.4 Y75.905
G1 X67.371 Y75.543
G1 X67.336 Y75.181
G1 X67.295 Y74.82
G1 X67.247 Y74.459
G1 X67.185 Y74.039
G1 X67.117 Y73.62
G1 X67.042 Y73.202
; MOVEMENT_LINK_TRANSITION
G1 X67.023 Y73.119
G1 X66.997 Y73.038
G1 X66.965 Y72.959
G1 X66.925 Y72.883
G1 X66.88 Y72.811
G1 X66.829 Y72.742
G1 X66.772 Y72.679
G1 X66.71 Y72.62
G1 X66.644 Y72.566
G1 X66.573 Y72.519
G1 X66.498 Y72.477
G1 X66.421 Y72.442
G1 X66.34 Y72.413
G1 X66.258 Y72.391
G1 X66.173 Y72.377
G1 X66.088 Y72.361
G1 X66.005 Y72.338
G1 X65.924 Y72.308
G1 X65.847 Y72.271
G1 X65.772 Y72.227
G1 X65.703 Y72.176
G1 X65.638 Y72.119
G1 X65.578 Y72.056
G1 X65.524 Y71.989
G1 X65.477 Y71.917
G1 X65.436 Y71.84
G1 X65.403 Y71.761
G1 X65.377 Y71.679
G1 X65.358 Y71.594
G1 X65.347 Y71.509
; MOVEMENT_CUTTING
G1 X65.339 Y71.379
G1 Y71.25
G1 X65.345 Y71.121
G1 X65.359 Y70.992
G1 X65.38 Y70.864
G1 X65.407 Y70.737
G1 X65.441 Y70.613
G1 X65.564 Y70.195
G1 X65.679 Y69.775
G1 X65.786 Y69.354
G1 X65.885 Y68.93
G1 X65.977 Y68.505
G1 X66.061 Y68.078
G1 X66.137 Y67.649
G1 X66.205 Y67.22
G1 X66.266 Y66.789
G1 X66.318 Y66.357
G1 X66.363 Y65.924
G1 X66.4 Y65.491
G1 X66.429 Y65.056
G1 X66.45 Y64.622
G1 X66.463 Y64.187
G1 X66.468 Y63.752
G1 X66.465 Y63.317
G1 X66.454 Y62.882
G1 X66.436 Y62.447
G1 X66.438 Y62.405
G1 X66.447 Y62.363
G1 X66.464 Y62.324
G1 X66.488 Y62.289
G1 X66.519 Y62.259
G1 X66.554 Y62.235
G1 X66.593 Y62.218
G1 X66.634 Y62.208
G1 X66.677 Y62.207
G1 X66.719 Y62.213
G1 X67.118 Y62.306
G1 X67.518 Y62.392
G1 X67.919 Y62.472
G1 X68.322 Y62.544
G1 X68.726 Y62.609
G1 X69.131 Y62.667
G1 X69.537 Y62.719
G1 X69.944 Y62.763
G1 X70.352 Y62.8
G1 X70.76 Y62.83
G1 X71.168 Y62.852
G1 X71.577 Y62.868
G1 X71.987 Y62.877
G1 X72.396 Y62.878
G1 X72.805 Y62.872
G1 X72.864 Y62.875
G1 X72.923 Y62.885
G1 X72.98 Y62.902
G1 X73.034 Y62.927
G1 X73.084 Y62.958
G1 X73.13 Y62.996
G1 X73.171 Y63.039
G1 X73.206 Y63.087
G1 X73.235 Y63.139
G1 X73.256 Y63.194
G1 X73.39 Y63.601
G1 X73.53 Y64.006
G1 X73.677 Y64.409
G1 X73.832 Y64.808
G1 X73.993 Y65.205
G1 X74.161 Y65.599
G1 X74.336 Y65.99
G1 X74.518 Y66.378
G1 X74.707 Y66.763
G1 X74.902 Y67.144
G1 X75.104 Y67.522
G1 X75.312 Y67.897
G1 X75.527 Y68.267
G1 X75.749 Y68.634
G1 X75.976 Y68.997
G1 X76.21 Y69.356
G1 X76.451 Y69.711
G1 X76.697 Y70.062
G1 X76.949 Y70.408
G1 X77.208 Y70.749
G1 X77.472 Y71.087
G1 X77.742 Y71.419
G1 X78.019 Y71.747
G1 X78.301 Y72.07
G1 X78.588 Y72.388
G1 X78.882 Y72.7
G1 X79.181 Y73.007
G1 X79.486 Y73.309
G1 X79.796 Y73.605
G1 X80.111 Y73.895
G1 X80.432 Y74.18
G1 X80.757 Y74.458
G1 X81.088 Y74.731
G1 X81.423 Y74.998
G1 X81.764 Y75.259
G1 X82.109 Y75.513
G1 X82.458 Y75.762
G1 X82.812 Y76.004
G1 X83.17 Y76.239
G1 X83.533 Y76.468
G1 X83.899 Y76.69
G1 X84.269 Y76.906
G1 X84.644 Y77.115
G1 X85.022 Y77.317
G1 X85.285 Y77.451
G1 X85.552 Y77.58
G1 X85.821 Y77.702
G1 X86.093 Y77.819
G1 X86.64 Y78.044
G1 X87.188 Y78.267
G1 X87.245 Y78.294
G1 X87.299 Y78.328
G1 X87.349 Y78.369
G1 X87.393 Y78.415
G1 X87.432 Y78.466
G1 X87.464 Y78.521
G1 X87.489 Y78.58
G1 X87.507 Y78.641
G1 X87.518 Y78.704
G1 X87.521 Y78.768
G1 X86.585 Y130.861
G1 X86.58 Y130.912
G1 X86.568 Y130.961
G1 X86.548 Y131.007
G1 X86.521 Y131.05
G1 X86.487 Y131.088
G1 X86.449 Y131.121
G1 X86.405 Y131.147
G1 X86.358 Y131.166
G1 X86.309 Y131.178
G1 X86.258 Y131.182
G1 X68.88 Y131.165
G1 X68.773 Y131.161
G1 X68.668 Y131.151
G1 X68.562 Y131.135
G1 X68.458 Y131.113
G1 X68.356 Y131.084
G1 X68.255 Y131.05
G1 X68.157 Y131.009
G1 X67.777 Y130.844
G1 X67.394 Y130.685
G1 X67.334 Y130.656
G1 X67.279 Y130.622
G1 X67.227 Y130.58
G1 X67.181 Y130.534
G1 X67.141 Y130.482
G1 X67.107 Y130.425
G1 X67.08 Y130.366
G1 X67.06 Y130.303
G1 X67.047 Y130.239
G1 X67.042 Y130.173
G1 X66.758 Y112.247
G1 X66.128 Y77.019
G1 X66.118 Y76.648
G1 X66.101 Y76.277
G1 X66.077 Y75.907
G1 X66.046 Y75.537
G1 X66.009 Y75.167
G1 X65.964 Y74.799
G1 X65.913 Y74.431
G1 X65.846 Y74.004
G1 X65.772 Y73.577
G1 X65.691 Y73.152
G1 X65.604 Y72.728
G1 X65.51 Y72.305
G1 X65.409 Y71.884
G1 X65.381 Y71.76
G1 X65.361 Y71.635
G1 X65.347 Y71.509
; MOVEMENT_LINK_TRANSITION
G1 X65.335 Y71.417
G1 X65.316 Y71.326
G1 X65.29 Y71.238
G1 X65.256 Y71.151
G1 X65.216 Y71.068
G1 X65.169 Y70.989
G1 X65.115 Y70.913
G1 X65.056 Y70.842
G1 X64.991 Y70.776
G1 X64.92 Y70.716
G1 X64.845 Y70.662
G1 X64.766 Y70.614
G1 X64.696 Y70.571
G1 X64.631 Y70.521
G1 X64.57 Y70.466
G1 X64.515 Y70.405
G1 X64.467 Y70.339
G1 X64.424 Y70.268
G1 X64.389 Y70.194
G1 X64.361 Y70.117
G1 X64.34 Y70.037
G1 X64.327 Y69.956
G1 X64.322 Y69.874
G1 X64.325 Y69.792
G1 X64.335 Y69.711
G1 X64.353 Y69.631
; MOVEMENT_CUTTING
G1 X64.451 Y69.269
G1 X64.543 Y68.906
G1 X64.63 Y68.541
G1 X64.71 Y68.176
G1 X64.786 Y67.809
G1 X64.856 Y67.441
G1 X64.918 Y67.082
G1 X64.973 Y66.722
G1 X65.023 Y66.362
G1 X65.066 Y66
G1 X65.103 Y65.638
G1 X65.134 Y65.275
G1 X65.158 Y64.912
G1 X65.176 Y64.549
G1 X65.187 Y64.185
G1 X65.193 Y63.781
G1 X65.191 Y63.378
G1 X65.182 Y62.974
G1 X65.165 Y62.571
G1 X65.154 Y62.262
G1 X65.148 Y61.953
G1 Y61.644
G1 X65.153 Y61.413
G1 X65.163 Y61.181
G1 X65.179 Y60.95
G1 X65.2 Y60.719
G1 X65.208 Y60.675
G1 X65.224 Y60.634
G1 X65.248 Y60.596
G1 X65.277 Y60.563
G1 X65.312 Y60.535
G1 X65.351 Y60.514
G1 X65.393 Y60.501
G1 X65.437 Y60.495
G1 X65.481 Y60.497
G1 X65.525 Y60.506
G1 X65.925 Y60.63
G1 X66.329 Y60.746
G1 X66.734 Y60.854
G1 X67.141 Y60.955
G1 X67.55 Y61.048
G1 X67.961 Y61.133
G1 X68.373 Y61.211
G1 X68.787 Y61.281
G1 X69.202 Y61.343
G1 X69.618 Y61.397
G1 X70.035 Y61.443
G1 X70.452 Y61.482
G1 X70.871 Y61.513
G1 X71.29 Y61.535
G1 X71.709 Y61.55
G1 X72.128 Y61.557
G1 X72.548 Y61.556
G1 X72.967 Y61.548
G1 X73.386 Y61.531
G1 X73.805 Y61.507
G1 X73.861
G1 X73.916 Y61.514
G1 X73.97 Y61.53
G1 X74.021 Y61.552
G1 X74.069 Y61.581
G1 X74.112 Y61.617
G1 X74.15 Y61.658
G1 X74.182 Y61.704
G1 X74.207 Y61.753
G1 X74.225 Y61.806
G1 X74.337 Y62.207
G1 X74.457 Y62.606
G1 X74.583 Y63.002
G1 X74.716 Y63.396
G1 X74.857 Y63.788
G1 X75.004 Y64.177
G1 X75.158 Y64.564
G1 X75.319 Y64.948
G1 X75.487 Y65.328
G1 X75.662 Y65.706
G1 X75.843 Y66.081
G1 X76.031 Y66.452
G1 X76.225 Y66.82
G1 X76.426 Y67.184
G1 X76.634 Y67.545
G1 X76.848 Y67.902
G1 X77.068 Y68.255
G1 X77.294 Y68.604
G1 X77.527 Y68.949
G1 X77.766 Y69.29
G1 X78.01 Y69.627
G1 X78.261 Y69.959
G1 X78.518 Y70.287
G1 X78.782 Y70.609
G1 X79.051 Y70.927
G1 X79.325 Y71.24
G1 X79.606 Y71.548
G1 X79.892 Y71.85
G1 X80.184 Y72.147
G1 X80.482 Y72.438
G1 X80.784 Y72.724
G1 X81.092 Y73.004
G1 X81.405 Y73.279
G1 X81.723 Y73.548
G1 X82.047 Y73.81
G1 X82.374 Y74.067
G1 X82.707 Y74.317
G1 X83.044 Y74.562
G1 X83.386 Y74.8
G1 X83.732 Y75.031
G1 X84.082 Y75.256
G1 X84.437 Y75.475
G1 X84.76 Y75.666
G1 X85.088 Y75.85
G1 X85.419 Y76.028
G1 X85.753 Y76.199
G1 X86.092 Y76.363
G1 X86.433 Y76.52
G1 X86.846 Y76.701
G1 X87.261 Y76.876
G1 X87.679 Y77.045
G1 X88.099 Y77.207
G1 X88.522 Y77.364
G1 X88.579 Y77.388
G1 X88.633 Y77.42
G1 X88.682 Y77.458
G1 X88.726 Y77.502
G1 X88.765 Y77.55
G1 X88.797 Y77.604
G1 X88.822 Y77.66
G1 X88.84 Y77.72
G1 X88.851 Y77.781
G1 X88.854 Y77.843
G1 X87.88 Y132.181
G1 X87.875 Y132.232
G1 X87.862 Y132.281
G1 X87.842 Y132.327
G1 X87.815 Y132.37
G1 X87.782 Y132.408
G1 X87.743 Y132.441
G1 X87.7 Y132.467
G1 X87.653 Y132.486
G1 X87.603 Y132.498
G1 X87.553 Y132.502
G1 X68.721 Y132.484
G1 X68.595 Y132.48
G1 X68.469 Y132.47
G1 X68.344 Y132.453
G1 X68.22 Y132.429
G1 X68.098 Y132.399
G1 X67.977 Y132.362
G1 X67.859 Y132.319
G1 X67.743 Y132.27
G1 X67.416 Y132.125
G1 X67.088 Y131.985
G1 X66.757 Y131.851
G1 X66.424 Y131.722
G1 X66.089 Y131.598
G1 X66.03 Y131.572
G1 X65.975 Y131.54
G1 X65.924 Y131.502
G1 X65.879 Y131.457
G1 X65.838 Y131.408
G1 X65.805 Y131.354
G1 X65.777 Y131.296
G1 X65.757 Y131.236
G1 X65.745 Y131.173
G1 X65.74 Y131.11
G1 X65.481 Y114.676
G1 X64.808 Y77.042
G1 X64.798 Y76.664
G1 X64.78 Y76.285
G1 X64.754 Y75.908
G1 X64.721 Y75.53
G1 X64.68 Y75.154
G1 X64.633 Y74.778
G1 X64.577 Y74.403
G1 X64.504 Y73.968
G1 X64.424 Y73.533
G1 X64.336 Y73.1
G1 X64.24 Y72.669
G1 X64.137 Y72.24
G1 X64.027 Y71.812
G1 X63.999 Y71.694
G1 X63.977 Y71.574
G1 X63.963 Y71.453
G1 X63.956 Y71.332
G1 X63.955 Y71.211
G1 X63.962 Y71.09
G1 X63.976 Y70.969
G1 X63.996 Y70.849
G1 X64.023 Y70.731
G1 X64.057 Y70.614
G1 X64.161 Y70.288
G1 X64.259 Y69.96
G1 X64.353 Y69.631
; MOVEMENT_LINK_TRANSITION
G1 X64.374 Y69.541
G1 X64.387 Y69.45
G1 X64.393 Y69.359
G1 X64.39 Y69.267
G1 X64.38 Y69.176
G1 X64.362 Y69.086
G1 X64.336 Y68.998
G1 X64.304 Y68.912
G1 X64.263 Y68.829
G1 X64.216 Y68.751
G1 X64.163 Y68.676
G1 X64.103 Y68.606
G1 X64.038 Y68.542
G1 X63.967 Y68.483
G1 X63.897 Y68.425
G1 X63.832 Y68.362
G1 X63.772 Y68.294
G1 X63.717 Y68.221
G1 X63.668 Y68.144
G1 X63.626 Y68.063
G1 X63.59 Y67.98
G1 X63.561 Y67.894
G1 X63.538 Y67.805
G1 X63.523 Y67.716
G1 X63.514 Y67.625
G1 X63.513 Y67.534
G1 X63.519 Y67.443
G1 X63.533 Y67.353
; MOVEMENT_CUTTING
G1 X63.596 Y67.001
G1 X63.652 Y66.648
G1 X63.702 Y66.293
G1 X63.746 Y65.938
G1 X63.783 Y65.582
G1 X63.814 Y65.226
G1 X63.838 Y64.869
G1 X63.856 Y64.512
G1 X63.868 Y64.154
G1 X63.871 Y63.911
G1 X63.868 Y63.668
G1 X63.859 Y63.425
G1 X63.845 Y63.182
G1 X63.825 Y62.94
G1 X63.805 Y62.698
G1 X63.79 Y62.455
G1 X63.782 Y62.212
G1 X63.779 Y61.969
G1 X63.783 Y61.726
G1 X63.792 Y61.53
G1 X63.809 Y61.334
G1 X63.832 Y61.139
G1 X63.863 Y60.945
G1 X63.905 Y60.687
G1 X63.94 Y60.427
G1 X63.968 Y60.167
G1 X63.985 Y59.947
G1 X63.995 Y59.727
G1 X63.998 Y59.507
G1 X63.999 Y59.177
G1 X64.008 Y58.846
G1 X64.013 Y58.805
G1 X64.026 Y58.766
G1 X64.047 Y58.73
G1 X64.074 Y58.699
G1 X64.106 Y58.673
G1 X64.143 Y58.655
G1 X64.183 Y58.643
G1 X64.224 Y58.639
G1 X64.265 Y58.644
G1 X64.305 Y58.656
G1 X64.673 Y58.804
G1 X65.043 Y58.946
G1 X65.417 Y59.08
G1 X65.793 Y59.207
G1 X66.171 Y59.327
G1 X66.551 Y59.44
G1 X66.934 Y59.545
G1 X67.318 Y59.643
G1 X67.704 Y59.734
G1 X68.092 Y59.817
G1 X68.482 Y59.893
G1 X68.873 Y59.962
G1 X69.265 Y60.023
G1 X69.658 Y60.077
G1 X70.052 Y60.123
G1 X70.447 Y60.161
G1 X70.842 Y60.192
G1 X71.239 Y60.216
G1 X71.635 Y60.231
G1 X72.032 Y60.24
G1 X72.428
G1 X72.825 Y60.234
G1 X73.222 Y60.219
G1 X73.618 Y60.197
G1 X74.014 Y60.168
G1 X74.409 Y60.131
G1 X74.483 Y60.127
G1 X74.556 Y60.131
G1 X74.63 Y60.142
G1 X74.701 Y60.16
G1 X74.771 Y60.186
G1 X74.837 Y60.218
G1 X74.9 Y60.257
G1 X74.959 Y60.302
G1 X75.013 Y60.353
G1 X75.061 Y60.409
G1 X75.177 Y60.556
G1 X75.228 Y60.627
G1 X75.273 Y60.702
G1 X75.312 Y60.78
G1 X75.343 Y60.862
G1 X75.367 Y60.946
G1 X75.468 Y61.346
G1 X75.577 Y61.745
G1 X75.693 Y62.141
G1 X75.817 Y62.535
G1 X75.948 Y62.927
G1 X76.087 Y63.316
G1 X76.233 Y63.703
G1 X76.386 Y64.086
G1 X76.547 Y64.467
G1 X76.715 Y64.844
G1 X76.889 Y65.219
G1 X77.071 Y65.59
G1 X77.26 Y65.957
G1 X77.456 Y66.321
G1 X77.659 Y66.681
G1 X77.868 Y67.037
G1 X78.085 Y67.389
G1 X78.308 Y67.736
G1 X78.537 Y68.08
G1 X78.773 Y68.419
G1 X79.015 Y68.754
G1 X79.264 Y69.084
G1 X79.519 Y69.409
G1 X79.78 Y69.729
G1 X80.047 Y70.044
G1 X80.309 Y70.343
G1 X80.577 Y70.636
G1 X80.851 Y70.924
G1 X81.13 Y71.207
G1 X81.414 Y71.485
G1 X81.703 Y71.758
G1 X81.997 Y72.025
G1 X82.296 Y72.287
G1 X82.6 Y72.543
G1 X82.909 Y72.793
G1 X83.222 Y73.037
G1 X83.54 Y73.276
G1 X83.862 Y73.509
G1 X84.189 Y73.735
G1 X84.519 Y73.956
G1 X84.854 Y74.17
G1 X85.193 Y74.378
G1 X85.535 Y74.579
G1 X85.881 Y74.774
G1 X86.231 Y74.963
G1 X86.584 Y75.145
G1 X86.941 Y75.321
G1 X87.301 Y75.489
G1 X87.663 Y75.652
G1 X88.029 Y75.807
G1 X88.398 Y75.955
G1 X88.577 Y76.023
G1 X88.758 Y76.086
G1 X88.94 Y76.146
G1 X89.123 Y76.201
G1 X89.491 Y76.309
G1 X89.856 Y76.422
G1 X89.913 Y76.444
G1 X89.965 Y76.472
G1 X90.014 Y76.508
G1 X90.058 Y76.549
G1 X90.097 Y76.596
G1 X90.129 Y76.647
G1 X90.154 Y76.701
G1 X90.172 Y76.759
G1 X90.183 Y76.818
G1 X90.186 Y76.878
G1 X89.174 Y133.501
G1 X89.169 Y133.552
G1 X89.157 Y133.601
G1 X89.137 Y133.647
G1 X89.11 Y133.69
G1 X89.076 Y133.728
G1 X89.037 Y133.761
G1 X88.994 Y133.787
G1 X88.947 Y133.806
G1 X88.898 Y133.818
G1 X88.847 Y133.822
G1 X68.779 Y133.805
G1 X68.611 Y133.8
G1 X68.443 Y133.789
G1 X68.276 Y133.77
G1 X68.11 Y133.745
G1 X67.945 Y133.713
G1 X67.781 Y133.674
G1 X67.62 Y133.628
G1 X67.46 Y133.575
G1 X67.303 Y133.516
G1 X67.148 Y133.45
G1 X66.817 Y133.304
G1 X66.484 Y133.164
G1 X66.148 Y133.03
G1 X65.81 Y132.901
G1 X65.47 Y132.778
G1 X65.128 Y132.661
G1 X64.785 Y132.55
G1 X64.727 Y132.528
G1 X64.673 Y132.498
G1 X64.622 Y132.463
G1 X64.577 Y132.421
G1 X64.537 Y132.374
G1 X64.503 Y132.322
G1 X64.476 Y132.267
G1 X64.456 Y132.209
G1 X64.443 Y132.148
G1 X64.438 Y132.087
G1 X64.162 Y114.7
G1 X63.488 Y77.066
G1 X63.479 Y76.728
G1 X63.464 Y76.39
G1 X63.442 Y76.053
G1 X63.414 Y75.716
G1 X63.38 Y75.38
G1 X63.339 Y75.044
G1 X63.292 Y74.71
G1 X63.239 Y74.376
G1 X63.172 Y73.996
G1 X63.098 Y73.616
G1 X63.018 Y73.239
G1 X62.932 Y72.862
G1 X62.84 Y72.487
G1 X62.741 Y72.114
G1 X62.637 Y71.742
G1 X62.608 Y71.631
G1 X62.587 Y71.518
G1 X62.572 Y71.404
G1 X62.564 Y71.29
G1 Y71.175
G1 X62.57 Y71.061
G1 X62.584 Y70.947
G1 X62.604 Y70.834
G1 X62.631 Y70.722
G1 X62.666 Y70.613
G1 X62.797 Y70.222
G1 X62.922 Y69.829
G1 X63.039 Y69.434
G1 X63.149 Y69.037
G1 X63.253 Y68.638
G1 X63.348 Y68.237
G1 X63.437 Y67.834
G1 X63.518 Y67.43
G1 X63.533 Y67.353
; MOVEMENT_LINK_TRANSITION
G1 X63.546 Y67.261
G1 X63.551 Y67.168
G1 X63.549 Y67.075
G1 X63.538 Y66.983
G1 X63.52 Y66.892
G1 X63.493 Y66.802
G1 X63.46 Y66.716
G1 X63.419 Y66.632
G1 X63.371 Y66.553
G1 X63.316 Y66.477
G1 X63.255 Y66.407
G1 X63.189 Y66.342
G1 X63.117 Y66.283
G1 X63.04 Y66.23
G1 X62.964 Y66.179
G1 X62.892 Y66.121
G1 X62.825 Y66.058
G1 X62.763 Y65.99
G1 X62.707 Y65.917
G1 X62.656 Y65.84
G1 X62.612 Y65.76
G1 X62.573 Y65.676
G1 X62.542 Y65.59
G1 X62.517 Y65.501
G1 X62.5 Y65.411
G1 X62.489 Y65.319
G1 X62.486 Y65.227
G1 X62.489 Y65.135
; MOVEMENT_CUTTING
G1 X62.514 Y64.788
G1 X62.532 Y64.439
G1 X62.544 Y64.091
G1 X62.55 Y63.743
G1 X62.549 Y63.394
G1 X62.542 Y63.046
G1 X62.528 Y62.697
G1 X62.51 Y62.341
G1 X62.487 Y61.986
G1 X62.481 Y61.843
G1 X62.48 Y61.7
G1 X62.486 Y61.557
G1 X62.498 Y61.415
G1 X62.516 Y61.273
G1 X62.567 Y60.895
G1 X62.611 Y60.515
G1 X62.647 Y60.135
G1 X62.675 Y59.754
G1 X62.695 Y59.373
G1 X62.707 Y58.991
G1 X62.713 Y58.533
G1 X62.712 Y58.075
G1 X62.703 Y57.617
G1 X62.686 Y57.159
G1 X62.662 Y56.701
G1 X62.663 Y56.667
G1 X62.671 Y56.633
G1 X62.685 Y56.602
G1 X62.705 Y56.574
G1 X62.73 Y56.55
G1 X62.759 Y56.532
G1 X62.791 Y56.519
G1 X62.825 Y56.513
G1 X62.86 Y56.514
G1 X62.893 Y56.521
G1 X62.925 Y56.534
G1 X63.27 Y56.718
G1 X63.619 Y56.896
G1 X63.971 Y57.066
G1 X64.327 Y57.229
G1 X64.686 Y57.385
G1 X65.048 Y57.533
G1 X65.413 Y57.675
G1 X65.78 Y57.809
G1 X66.15 Y57.935
G1 X66.523 Y58.054
G1 X66.898 Y58.166
G1 X67.275 Y58.27
G1 X67.655 Y58.367
G1 X68.036 Y58.455
G1 X68.418 Y58.537
G1 X68.803 Y58.61
G1 X69.188 Y58.676
G1 X69.575 Y58.734
G1 X69.963 Y58.784
G1 X70.352 Y58.827
G1 X70.742 Y58.862
G1 X71.132 Y58.888
G1 X71.523 Y58.908
G1 X71.914 Y58.919
G1 X72.306 Y58.922
G1 X72.697 Y58.918
G1 X73.088 Y58.905
G1 X73.479 Y58.885
G1 X73.869 Y58.857
G1 X74.259 Y58.821
G1 X74.647 Y58.777
G1 X75.035 Y58.726
G1 X75.104 Y58.72
G1 X75.174 Y58.722
G1 X75.242 Y58.731
G1 X75.31 Y58.748
G1 X75.375 Y58.771
G1 X75.437 Y58.802
G1 X75.495 Y58.839
G1 X75.55 Y58.882
G1 X75.599 Y58.931
G1 X75.642 Y58.985
G1 X75.849 Y59.267
G1 X76.061 Y59.545
G1 X76.277 Y59.819
G1 X76.346 Y59.91
G1 X76.409 Y60.005
G1 X76.465 Y60.104
G1 X76.515 Y60.207
G1 X76.559 Y60.312
G1 X76.595 Y60.42
G1 X76.625 Y60.53
G1 X76.718 Y60.909
G1 X76.819 Y61.286
G1 X76.927 Y61.661
G1 X77.042 Y62.033
G1 X77.164 Y62.404
G1 X77.293 Y62.772
G1 X77.429 Y63.137
G1 X77.572 Y63.5
G1 X77.721 Y63.86
G1 X77.878 Y64.217
G1 X78.042 Y64.571
G1 X78.212 Y64.922
G1 X78.389 Y65.269
G1 X78.572 Y65.613
G1 X78.762 Y65.954
G1 X78.959 Y66.291
G1 X79.162 Y66.624
G1 X79.371 Y66.953
G1 X79.586 Y67.278
G1 X79.808 Y67.599
G1 X80.036 Y67.915
G1 X80.269 Y68.227
G1 X80.509 Y68.535
G1 X80.754 Y68.838
G1 X81.005 Y69.136
G1 X81.262 Y69.43
G1 X81.525 Y69.718
G1 X81.793 Y70.001
G1 X82.067 Y70.279
G1 X82.346 Y70.552
G1 X82.631 Y70.819
G1 X82.92 Y71.08
G1 X83.215 Y71.336
G1 X83.514 Y71.586
G1 X83.819 Y71.83
G1 X84.128 Y72.068
G1 X84.441 Y72.3
G1 X84.759 Y72.526
G1 X85.082 Y72.746
G1 X85.408 Y72.959
G1 X85.739 Y73.166
G1 X86.074 Y73.366
G1 X86.413 Y73.56
G1 X86.755 Y73.747
G1 X87.101 Y73.927
G1 X87.45 Y74.101
G1 X87.803 Y74.268
G1 X88.159 Y74.427
G1 X88.518 Y74.58
G1 X88.879 Y74.726
G1 X89.153 Y74.829
G1 X89.428 Y74.926
G1 X89.706 Y75.016
G1 X89.986 Y75.099
G1 X90.958 Y75.374
G1 X91.029 Y75.398
G1 X91.097 Y75.429
G1 X91.162 Y75.466
G1 X91.223 Y75.51
G1 X91.279 Y75.56
G1 X91.33 Y75.614
G1 X91.375 Y75.674
G1 X91.414 Y75.738
G1 X91.447 Y75.806
G1 X91.456 Y75.826
G1 X91.477 Y75.884
G1 X91.494 Y75.944
G1 X91.507 Y76.005
G1 X91.513 Y76.067
G1 X91.515 Y76.129
G1 X90.468 Y134.821
G1 X90.463 Y134.872
G1 X90.451 Y134.921
G1 X90.431 Y134.967
G1 X90.404 Y135.01
G1 X90.37 Y135.048
G1 X90.332 Y135.081
G1 X90.288 Y135.107
G1 X90.241 Y135.126
G1 X90.192 Y135.138
G1 X90.141 Y135.142
G1 X68.439 Y135.123
G1 X68.275 Y135.119
G1 X68.111 Y135.107
G1 X67.948 Y135.089
G1 X67.786 Y135.063
G1 X67.625 Y135.031
G1 X67.466 Y134.991
G1 X67.309 Y134.945
G1 X67.154 Y134.892
G1 X67.001 Y134.832
G1 X66.851 Y134.766
G1 X66.522 Y134.616
G1 X66.19 Y134.471
G1 X65.856 Y134.333
G1 X65.519 Y134.201
G1 X65.18 Y134.075
G1 X64.839 Y133.955
G1 X64.495 Y133.842
G1 X64.15 Y133.734
G1 X63.803 Y133.633
G1 X63.736 Y133.611
G1 X63.671 Y133.582
G1 X63.609 Y133.547
G1 X63.493 Y133.475
G1 X63.431 Y133.432
G1 X63.373 Y133.383
G1 X63.32 Y133.329
G1 X63.273 Y133.269
G1 X63.232 Y133.205
G1 X63.198 Y133.137
G1 X63.17 Y133.066
G1 X63.15 Y132.993
G1 X63.137 Y132.918
G1 X63.132 Y132.843
G1 X62.885 Y117.097
G1 X62.169 Y77.09
G1 X62.159 Y76.745
G1 X62.142 Y76.4
G1 X62.119 Y76.056
G1 X62.088 Y75.712
G1 X62.051 Y75.369
G1 X62.007 Y75.027
G1 X61.956 Y74.686
G1 X61.898 Y74.346
G1 X61.825 Y73.959
G1 X61.744 Y73.573
G1 X61.656 Y73.189
G1 X61.561 Y72.806
G1 X61.46 Y72.425
G1 X61.351 Y72.047
G1 X61.235 Y71.67
G1 X61.207 Y71.567
G1 X61.185 Y71.463
G1 X61.17 Y71.357
G1 X61.162 Y71.251
G1 X61.161 Y71.144
G1 X61.167 Y71.037
G1 X61.18 Y70.931
G1 X61.2 Y70.827
G1 X61.227 Y70.723
G1 X61.261 Y70.622
G1 X61.398 Y70.242
G1 X61.527 Y69.86
G1 X61.649 Y69.475
G1 X61.764 Y69.087
G1 X61.871 Y68.698
G1 X61.971 Y68.306
G1 X62.063 Y67.913
G1 X62.148 Y67.518
G1 X62.225 Y67.122
G1 X62.295 Y66.724
G1 X62.345 Y66.408
G1 X62.389 Y66.09
G1 X62.428 Y65.773
G1 X62.461 Y65.454
G1 X62.489 Y65.135
; MOVEMENT_LINK_TRANSITION
G1 X62.493 Y65.043
G1 X62.488 Y64.95
G1 X62.476 Y64.859
G1 X62.456 Y64.768
G1 X62.428 Y64.68
G1 X62.393 Y64.595
G1 X62.35 Y64.513
G1 X62.301 Y64.434
G1 X62.245 Y64.361
G1 X62.183 Y64.292
G1 X62.116 Y64.229
G1 X62.043 Y64.171
G1 X61.966 Y64.121
G1 X61.884 Y64.077
G1 X61.804 Y64.034
G1 X61.727 Y63.984
G1 X61.654 Y63.929
G1 X61.585 Y63.869
G1 X61.521 Y63.803
G1 X61.463 Y63.732
G1 X61.41 Y63.657
G1 X61.364 Y63.579
G1 X61.323 Y63.497
G1 X61.289 Y63.412
G1 X61.262 Y63.325
G1 X61.241 Y63.235
G1 X61.228 Y63.145
G1 X61.222 Y63.054
; MOVEMENT_CUTTING
G1 X61.21 Y62.76
G1 X61.169 Y61.907
G1 X61.164 Y61.741
G1 X61.166 Y61.575
G1 X61.174 Y61.41
G1 X61.189 Y61.245
G1 X61.21 Y61.081
G1 X61.259 Y60.727
G1 X61.301 Y60.372
G1 X61.337 Y60.017
G1 X61.366 Y59.661
G1 X61.388 Y59.304
G1 X61.404 Y58.947
G1 X61.413 Y58.59
G1 X61.416 Y58.233
G1 X61.412 Y57.876
G1 X61.402 Y57.519
G1 X61.383 Y57.123
G1 X61.357 Y56.727
G1 X61.324 Y56.332
G1 X61.283 Y55.937
G1 X61.236 Y55.543
G1 X61.182 Y55.15
G1 X61.121 Y54.758
G1 X61.053 Y54.367
G1 X60.979 Y53.978
G1 X60.976 Y53.947
G1 X60.98 Y53.916
G1 X60.991 Y53.887
G1 X61.007 Y53.861
G1 X61.029 Y53.839
G1 X61.056 Y53.823
G1 X61.085 Y53.813
G1 X61.115 Y53.809
G1 X61.146 Y53.813
G1 X61.175 Y53.822
G1 X61.202 Y53.838
G1 X61.505 Y54.067
G1 X61.814 Y54.289
G1 X62.127 Y54.505
G1 X62.444 Y54.714
G1 X62.765 Y54.916
G1 X63.091 Y55.112
G1 X63.421 Y55.301
G1 X63.755 Y55.482
G1 X64.092 Y55.657
G1 X64.433 Y55.825
G1 X64.777 Y55.985
G1 X65.125 Y56.139
G1 X65.476 Y56.285
G1 X65.83 Y56.423
G1 X66.186 Y56.554
G1 X66.546 Y56.678
G1 X66.907 Y56.794
G1 X67.272 Y56.903
G1 X67.638 Y57.003
G1 X68.006 Y57.097
G1 X68.377 Y57.182
G1 X68.748 Y57.26
G1 X69.122 Y57.33
G1 X69.497 Y57.392
G1 X69.873 Y57.446
G1 X70.25 Y57.492
G1 X70.628 Y57.531
G1 X71.007 Y57.561
G1 X71.386 Y57.584
G1 X71.766 Y57.598
G1 X72.146 Y57.605
G1 X72.526 Y57.604
G1 X72.906 Y57.594
G1 X73.285 Y57.577
G1 X73.664 Y57.552
G1 X74.043 Y57.519
G1 X74.421 Y57.478
G1 X74.797 Y57.429
G1 X75.173 Y57.372
G1 X75.548 Y57.308
G1 X75.62 Y57.298
G1 X75.693 Y57.296
G1 X75.765 Y57.301
G1 X75.837 Y57.312
G1 X75.908 Y57.331
G1 X75.976 Y57.356
G1 X76.041 Y57.387
G1 X76.104 Y57.425
G1 X76.162 Y57.469
G1 X76.216 Y57.518
G1 X76.265 Y57.572
G1 X76.308 Y57.631
G1 X76.493 Y57.902
G1 X76.683 Y58.17
G1 X76.876 Y58.435
G1 X77.075 Y58.697
G1 X77.277 Y58.956
G1 X77.367 Y59.073
G1 X77.451 Y59.194
G1 X77.53 Y59.319
G1 X77.604 Y59.447
G1 X77.671 Y59.578
G1 X77.733 Y59.712
G1 X77.789 Y59.849
G1 X77.839 Y59.988
G1 X77.883 Y60.128
G1 X77.92 Y60.271
G1 X78.012 Y60.639
G1 X78.111 Y61.004
G1 X78.217 Y61.368
G1 X78.331 Y61.729
G1 X78.451 Y62.088
G1 X78.579 Y62.444
G1 X78.713 Y62.798
G1 X78.855 Y63.15
G1 X79.004 Y63.498
G1 X79.159 Y63.843
G1 X79.321 Y64.185
G1 X79.49 Y64.524
G1 X79.666 Y64.86
G1 X79.848 Y65.192
G1 X80.037 Y65.52
G1 X80.232 Y65.844
G1 X80.434 Y66.165
G1 X80.642 Y66.481
G1 X80.856 Y66.794
G1 X81.077 Y67.102
G1 X81.303 Y67.405
G1 X81.535 Y67.704
G1 X81.774 Y67.998
G1 X82.018 Y68.288
G1 X82.268 Y68.573
G1 X82.523 Y68.852
G1 X82.784 Y69.127
G1 X83.051 Y69.396
G1 X83.323 Y69.659
G1 X83.601 Y69.917
G1 X83.884 Y70.169
G1 X84.171 Y70.416
G1 X84.464 Y70.657
G1 X84.761 Y70.891
G1 X85.064 Y71.12
G1 X85.37 Y71.342
G1 X85.682 Y71.558
G1 X85.997 Y71.768
G1 X86.317 Y71.971
G1 X86.641 Y72.168
G1 X86.968 Y72.358
G1 X87.3 Y72.541
G1 X87.635 Y72.718
G1 X87.974 Y72.888
G1 X88.316 Y73.051
G1 X88.661 Y73.206
G1 X89.009 Y73.355
G1 X89.361 Y73.497
G1 X89.608 Y73.591
G1 X89.856 Y73.68
G1 X90.106 Y73.763
G1 X90.358 Y73.842
G1 X90.612 Y73.916
G1 X91.248 Y74.09
G1 X91.886 Y74.257
G1 X91.961 Y74.28
G1 X92.033 Y74.309
G1 X92.101 Y74.346
G1 X92.166 Y74.389
G1 X92.227 Y74.438
G1 X92.282 Y74.492
G1 X92.332 Y74.552
G1 X92.377 Y74.616
G1 X92.415 Y74.684
G1 X92.446 Y74.755
G1 X92.566 Y75.058
G1 X92.691 Y75.359
G1 X92.73 Y75.458
G1 X92.763 Y75.559
G1 X92.79 Y75.662
G1 X92.811 Y75.767
G1 X92.826 Y75.872
G1 X92.834 Y75.978
G1 X92.836 Y76.085
G1 X91.763 Y136.141
G1 X91.758 Y136.192
G1 X91.745 Y136.241
G1 X91.725 Y136.287
G1 X91.698 Y136.33
G1 X91.665 Y136.368
G1 X91.626 Y136.401
G1 X91.582 Y136.427
G1 X91.535 Y136.446
G1 X91.486 Y136.458
G1 X91.435 Y136.462
G1 X68.078 Y136.441
G1 X67.92 Y136.436
G1 X67.763 Y136.425
G1 X67.606 Y136.406
G1 X67.45 Y136.381
G1 X67.295 Y136.348
G1 X67.142 Y136.309
G1 X66.991 Y136.263
G1 X66.842 Y136.21
G1 X66.695 Y136.151
G1 X66.552 Y136.085
G1 X66.213 Y135.926
G1 X65.872 Y135.773
G1 X65.528 Y135.626
G1 X65.18 Y135.487
G1 X64.831 Y135.354
G1 X64.478 Y135.228
G1 X64.123 Y135.11
G1 X63.766 Y134.998
G1 X63.407 Y134.893
G1 X63.309 Y134.862
G1 X63.214 Y134.826
G1 X63.12 Y134.785
G1 X63.029 Y134.738
G1 X62.941 Y134.686
G1 X62.692 Y134.532
G1 X62.44 Y134.382
G1 X62.186 Y134.235
G1 X62.124 Y134.196
G1 X62.067 Y134.151
G1 X62.014 Y134.099
G1 X61.968 Y134.043
G1 X61.927 Y133.982
G1 X61.893 Y133.917
G1 X61.865 Y133.849
G1 X61.845 Y133.779
G1 X61.832 Y133.707
G1 X61.827 Y133.633
G1 X61.565 Y117.12
G1 X60.849 Y77.113
G1 X60.839 Y76.761
G1 X60.821 Y76.41
G1 X60.795 Y76.058
G1 X60.762 Y75.708
G1 X60.722 Y75.358
G1 X60.673 Y75.009
G1 X60.617 Y74.662
G1 X60.554 Y74.315
G1 X60.484 Y73.97
G1 X60.407 Y73.627
G1 X60.325 Y73.285
G1 X60.236 Y72.944
G1 X60.141 Y72.605
G1 X60.04 Y72.268
G1 X59.934 Y71.933
G1 X59.821 Y71.599
G1 X59.792 Y71.504
G1 X59.769 Y71.407
G1 X59.754 Y71.309
G1 X59.746 Y71.209
G1 X59.744 Y71.11
G1 X59.75 Y71.01
G1 X59.764 Y70.912
G1 X59.784 Y70.814
G1 X59.811 Y70.718
G1 X59.845 Y70.625
G1 X59.978 Y70.284
G1 X60.105 Y69.941
G1 X60.226 Y69.596
G1 X60.34 Y69.249
G1 X60.447 Y68.9
G1 X60.548 Y68.548
G1 X60.642 Y68.195
G1 X60.73 Y67.84
G1 X60.811 Y67.484
G1 X60.885 Y67.126
G1 X60.952 Y66.766
G1 X61.014 Y66.399
G1 X61.068 Y66.03
G1 X61.114 Y65.66
G1 X61.153 Y65.289
G1 X61.183 Y64.917
G1 X61.206 Y64.545
G1 X61.222 Y64.172
G1 X61.229 Y63.799
G1 Y63.426
G1 X61.222 Y63.054
; MOVEMENT_LINK_TRANSITION
G1 X61.215 Y62.967
G1 X61.202 Y62.882
G1 X61.181 Y62.798
G1 X61.154 Y62.715
G1 X61.12 Y62.636
G1 X61.08 Y62.559
G1 X61.033 Y62.486
G1 X60.98 Y62.417
G1 X60.922 Y62.353
G1 X60.859 Y62.294
G1 X60.792 Y62.24
G1 X60.72 Y62.192
G1 X60.644 Y62.15
G1 X60.565 Y62.114
G1 X60.483 Y62.085
G1 X60.405 Y62.058
G1 X60.33 Y62.023
G1 X60.258 Y61.982
G1 X60.19 Y61.934
G1 X60.127 Y61.881
G1 X60.068 Y61.822
G1 X60.015 Y61.759
G1 X59.968 Y61.691
G1 X59.927 Y61.619
G1 X59.892 Y61.543
G1 X59.865 Y61.465
G1 X59.844 Y61.385
G1 X59.831 Y61.303
G1 X59.824 Y61.221
G1 X59.826 Y61.138
G1 X59.834 Y61.055
; MOVEMENT_CUTTING
G1 X59.89 Y60.65
G1 X59.938 Y60.244
G1 X59.979 Y59.837
G1 X60.011 Y59.429
G1 X60.035 Y59.021
G1 X60.052 Y58.612
G1 X60.061 Y58.203
G1 X60.062 Y57.794
G1 X60.055 Y57.385
G1 X60.04 Y56.976
G1 X60.017 Y56.568
G1 X59.99 Y56.203
G1 X59.955 Y55.84
G1 X59.913 Y55.476
G1 X59.864 Y55.114
G1 X59.808 Y54.753
G1 X59.745 Y54.393
G1 X59.674 Y54.034
G1 X59.597 Y53.677
G1 X59.512 Y53.321
G1 X59.421 Y52.967
G1 X59.322 Y52.615
G1 X59.217 Y52.265
G1 X59.104 Y51.917
G1 X59.014 Y51.659
G1 X58.918 Y51.404
G1 X58.814 Y51.151
G1 X58.704 Y50.901
G1 X58.476 Y50.405
G1 X58.243 Y49.911
G1 X58.231 Y49.879
G1 X58.226 Y49.845
G1 X58.227 Y49.81
G1 X58.235 Y49.776
G1 X58.249 Y49.744
G1 X58.269 Y49.716
G1 X58.294 Y49.692
G1 X58.323 Y49.673
G1 X58.355 Y49.66
G1 X58.389 Y49.653
G1 X58.424
G1 X58.451 Y49.656
G1 X58.48 Y49.661
G1 X58.508 Y49.67
G1 X58.533 Y49.685
G1 X58.556 Y49.703
G1 X58.798 Y49.928
G1 X59.045 Y50.147
G1 X59.296 Y50.362
G1 X59.551 Y50.572
G1 X59.811 Y50.777
G1 X59.848 Y50.808
G1 X59.882 Y50.842
G1 X60.131 Y51.107
G1 X60.385 Y51.367
G1 X60.644 Y51.621
G1 X60.91 Y51.87
G1 X61.18 Y52.113
G1 X61.456 Y52.35
G1 X61.736 Y52.581
G1 X62.022 Y52.806
G1 X62.312 Y53.024
G1 X62.607 Y53.237
G1 X62.906 Y53.443
G1 X63.21 Y53.643
G1 X63.518 Y53.836
G1 X63.83 Y54.022
G1 X64.147 Y54.201
G1 X64.466 Y54.374
G1 X64.79 Y54.54
G1 X65.117 Y54.699
G1 X65.447 Y54.85
G1 X65.781 Y54.995
G1 X66.117 Y55.132
G1 X66.457 Y55.262
G1 X66.799 Y55.385
G1 X67.143 Y55.5
G1 X67.491 Y55.608
G1 X67.84 Y55.709
G1 X68.191 Y55.802
G1 X68.545 Y55.887
G1 X68.9 Y55.965
G1 X69.256 Y56.035
G1 X69.615 Y56.097
G1 X69.974 Y56.151
G1 X70.334 Y56.198
G1 X70.696 Y56.237
G1 X71.058 Y56.269
G1 X71.421 Y56.292
G1 X71.784 Y56.308
G1 X72.147 Y56.316
G1 X72.511
G1 X72.874 Y56.308
G1 X73.237 Y56.292
G1 X73.6 Y56.269
G1 X73.962 Y56.238
G1 X74.324 Y56.199
G1 X74.549 Y56.168
G1 X74.774 Y56.13
G1 X74.997 Y56.084
G1 X75.331 Y56.011
G1 X75.665 Y55.942
G1 X75.756 Y55.928
G1 X75.847 Y55.921
G1 X75.938
G1 X76.029 Y55.928
G1 X76.119 Y55.943
G1 X76.207 Y55.964
G1 X76.294 Y55.993
G1 X76.378 Y56.028
G1 X76.459 Y56.07
G1 X76.537 Y56.118
G1 X76.844 Y56.322
G1 X76.931 Y56.382
G1 X77.014 Y56.446
G1 X77.093 Y56.516
G1 X77.168 Y56.59
G1 X77.239 Y56.668
G1 X77.305 Y56.751
G1 X77.365 Y56.837
G1 X77.548 Y57.106
G1 X77.735 Y57.373
G1 X77.927 Y57.635
G1 X78.123 Y57.895
G1 X78.324 Y58.151
G1 X78.53 Y58.403
G1 X78.615 Y58.511
G1 X78.695 Y58.623
G1 X78.77 Y58.738
G1 X78.839 Y58.858
G1 X78.903 Y58.98
G1 X78.96 Y59.105
G1 X79.011 Y59.233
G1 X79.056 Y59.363
G1 X79.095 Y59.495
G1 X79.128 Y59.629
G1 X79.211 Y59.995
G1 X79.302 Y60.358
G1 X79.401 Y60.72
G1 X79.508 Y61.08
G1 X79.622 Y61.437
G1 X79.744 Y61.791
G1 X79.873 Y62.143
G1 X80.01 Y62.492
G1 X80.154 Y62.839
G1 X80.306 Y63.182
G1 X80.465 Y63.521
G1 X80.631 Y63.858
G1 X80.804 Y64.19
G1 X80.984 Y64.519
G1 X81.171 Y64.844
G1 X81.365 Y65.165
G1 X81.566 Y65.482
G1 X81.773 Y65.794
G1 X81.987 Y66.102
G1 X82.208 Y66.405
G1 X82.435 Y66.704
G1 X82.668 Y66.997
G1 X82.907 Y67.286
G1 X83.153 Y67.569
G1 X83.404 Y67.848
G1 X83.662 Y68.12
G1 X83.925 Y68.388
G1 X84.193 Y68.649
G1 X84.468 Y68.905
G1 X84.747 Y69.155
G1 X85.032 Y69.399
G1 X85.322 Y69.636
G1 X85.617 Y69.868
G1 X85.917 Y70.093
G1 X86.221 Y70.312
G1 X86.531 Y70.524
G1 X86.844 Y70.73
G1 X87.162 Y70.929
G1 X87.484 Y71.121
G1 X87.81 Y71.306
G1 X88.14 Y71.484
G1 X88.474 Y71.655
G1 X88.811 Y71.819
G1 X89.151 Y71.976
G1 X89.495 Y72.126
G1 X89.842 Y72.268
G1 X90.142 Y72.381
G1 X90.444 Y72.488
G1 X90.748 Y72.587
G1 X91.054 Y72.68
G1 X91.363 Y72.766
G1 X91.879 Y72.899
G1 X92.397 Y73.026
G1 X92.916 Y73.147
G1 X92.987 Y73.166
G1 X93.055 Y73.193
G1 X93.119 Y73.226
G1 X93.18 Y73.266
G1 X93.237 Y73.312
G1 X93.289 Y73.364
G1 X93.335 Y73.42
G1 X93.375 Y73.481
G1 X93.409 Y73.545
G1 X93.436 Y73.613
G1 X93.557 Y73.954
G1 X93.683 Y74.292
G1 X93.817 Y74.628
G1 X93.957 Y74.961
G1 X94.005 Y75.078
G1 X94.046 Y75.198
G1 X94.081 Y75.319
G1 X94.11 Y75.443
G1 X94.132 Y75.567
G1 X94.147 Y75.693
G1 X94.156 Y75.819
G1 X94.158 Y75.946
G1 X93.057 Y137.461
G1 X93.052 Y137.512
G1 X93.039 Y137.561
G1 X93.019 Y137.607
G1 X92.992 Y137.65
G1 X92.959 Y137.688
G1 X92.92 Y137.721
G1 X92.876 Y137.747
G1 X92.829 Y137.766
G1 X92.78 Y137.778
G1 X92.73 Y137.782
G1 X67.71 Y137.758
G1 X67.557 Y137.754
G1 X67.406 Y137.743
G1 X67.255 Y137.724
G1 X67.105 Y137.699
G1 X66.956 Y137.667
G1 X66.809 Y137.628
G1 X66.664 Y137.582
G1 X66.521 Y137.529
G1 X66.38 Y137.47
G1 X66.243 Y137.405
G1 X65.891 Y137.231
G1 X65.537 Y137.063
G1 X65.18 Y136.9
G1 X64.821 Y136.742
G1 X64.532 Y136.621
G1 X64.239 Y136.506
G1 X63.944 Y136.399
G1 X63.647 Y136.298
G1 X63.348 Y136.204
G1 X63.161 Y136.144
G1 X62.976 Y136.079
G1 X62.794 Y136.009
G1 X62.613 Y135.933
G1 X62.435 Y135.851
G1 X62.26 Y135.764
G1 X62.087 Y135.672
G1 X61.687 Y135.454
G1 X61.284 Y135.24
G1 X60.88 Y135.03
G1 X60.818 Y134.995
G1 X60.762 Y134.953
G1 X60.709 Y134.905
G1 X60.663 Y134.852
G1 X60.622 Y134.794
G1 X60.588 Y134.732
G1 X60.561 Y134.667
G1 X60.541 Y134.599
G1 X60.528 Y134.53
G1 X60.523 Y134.459
G1 X59.529 Y77.137
G1 X59.52 Y76.817
G1 X59.504 Y76.498
G1 X59.481 Y76.179
G1 X59.452 Y75.861
G1 X59.416 Y75.544
G1 X59.373 Y75.227
G1 X59.324 Y74.911
G1 X59.268 Y74.597
G1 X59.205 Y74.283
G1 X59.127 Y73.932
G1 X59.043 Y73.583
G1 X58.951 Y73.236
G1 X58.852 Y72.89
G1 X58.747 Y72.546
G1 X58.635 Y72.205
G1 X58.516 Y71.866
G1 X58.39 Y71.529
G1 X58.36 Y71.442
G1 X58.338 Y71.353
G1 X58.322 Y71.263
G1 X58.313 Y71.171
G1 X58.311 Y71.079
G1 X58.317 Y70.987
G1 X58.33 Y70.896
G1 X58.35 Y70.806
G1 X58.376 Y70.718
G1 X58.41 Y70.633
G1 X58.555 Y70.291
G1 X58.693 Y69.946
G1 X58.823 Y69.598
G1 X58.946 Y69.248
G1 X59.061 Y68.895
G1 X59.169 Y68.54
G1 X59.269 Y68.182
G1 X59.361 Y67.823
G1 X59.446 Y67.462
G1 X59.523 Y67.098
G1 X59.593 Y66.734
G1 X59.654 Y66.368
G1 X59.708 Y66
G1 X59.754 Y65.632
G1 X59.792 Y65.262
G1 X59.822 Y64.892
G1 X59.844 Y64.522
G1 X59.859 Y64.151
G1 X59.865 Y63.78
G1 X59.864 Y63.408
G1 X59.854 Y63.037
G1 X59.837 Y62.666
G1 X59.812 Y62.296
G1 X59.779 Y61.926
G1 X59.769 Y61.801
G1 X59.766 Y61.676
G1 X59.77 Y61.551
G1 X59.78 Y61.426
G1 X59.796 Y61.302
G1 X59.834 Y61.055
; MOVEMENT_LINK_TRANSITION
G1 X59.844 Y60.964
G1 X59.845 Y60.872
G1 X59.839 Y60.78
G1 X59.825 Y60.689
G1 X59.804 Y60.599
G1 X59.775 Y60.512
G1 X59.738 Y60.427
G1 X59.695 Y60.346
G1 X59.644 Y60.268
G1 X59.588 Y60.196
G1 X59.525 Y60.128
G1 X59.457 Y60.066
G1 X59.383 Y60.01
G1 X59.306 Y59.961
G1 X59.228 Y59.912
G1 X59.155 Y59.858
G1 X59.087 Y59.797
G1 X59.023 Y59.732
G1 X58.964 Y59.662
G1 X58.912 Y59.587
G1 X58.865 Y59.509
G1 X58.824 Y59.427
G1 X58.79 Y59.343
G1 X58.763 Y59.255
G1 X58.743 Y59.166
G1 X58.729 Y59.076
G1 X58.723 Y58.985
G1 X58.724 Y58.894
; MOVEMENT_CUTTING
G1 X58.738 Y58.537
G1 X58.745 Y58.179
G1 X58.746 Y57.822
G1 X58.74 Y57.465
G1 X58.728 Y57.107
G1 X58.71 Y56.75
G1 X58.685 Y56.404
G1 X58.653 Y56.059
G1 X58.615 Y55.714
G1 X58.569 Y55.37
G1 X58.517 Y55.027
G1 X58.457 Y54.685
G1 X58.391 Y54.345
G1 X58.318 Y54.006
G1 X58.239 Y53.668
G1 X58.152 Y53.332
G1 X58.059 Y52.998
G1 X57.959 Y52.665
G1 X57.852 Y52.335
G1 X57.754 Y52.05
G1 X57.649 Y51.767
G1 X57.539 Y51.486
G1 X57.423 Y51.208
G1 X57.301 Y50.931
G1 X57.174 Y50.658
G1 X57.04 Y50.387
G1 X56.902 Y50.119
G1 X56.71 Y49.766
G1 X56.51 Y49.416
G1 X56.305 Y49.071
G1 X56.092 Y48.73
G1 X55.873 Y48.393
G1 X55.647 Y48.06
G1 X55.632 Y48.033
G1 X55.624 Y48.003
G1 X55.622 Y47.973
G1 X55.627 Y47.942
G1 X55.639 Y47.914
G1 X55.657 Y47.889
G1 X55.68 Y47.868
G1 X55.706 Y47.853
G1 X55.736 Y47.844
G1 X55.767 Y47.842
G1 X55.797 Y47.847
G1 X56.144 Y47.936
G1 X56.494 Y48.017
G1 X56.845 Y48.091
G1 X57.197 Y48.158
G1 X57.551 Y48.216
G1 X57.906 Y48.267
G1 X58.262 Y48.31
G1 X58.619 Y48.345
G1 X58.719 Y48.358
G1 X58.818 Y48.378
G1 X58.914 Y48.405
G1 X59.009 Y48.44
G1 X59.101 Y48.481
G1 X59.189 Y48.529
G1 X59.273 Y48.584
G1 X59.353 Y48.645
G1 X59.429 Y48.711
G1 X59.659 Y48.926
G1 X59.894 Y49.136
G1 X60.133 Y49.341
G1 X60.376 Y49.541
G1 X60.623 Y49.736
G1 X60.703 Y49.801
G1 X60.779 Y49.871
G1 X60.85 Y49.945
G1 X61.09 Y50.201
G1 X61.336 Y50.452
G1 X61.588 Y50.697
G1 X61.845 Y50.936
G1 X62.107 Y51.17
G1 X62.375 Y51.398
G1 X62.647 Y51.619
G1 X62.925 Y51.835
G1 X63.207 Y52.044
G1 X63.494 Y52.246
G1 X63.785 Y52.442
G1 X64.081 Y52.632
G1 X64.381 Y52.815
G1 X64.685 Y52.991
G1 X64.993 Y53.16
G1 X65.305 Y53.322
G1 X65.62 Y53.477
G1 X65.939 Y53.625
G1 X66.26 Y53.765
G1 X66.585 Y53.899
G1 X66.913 Y54.025
G1 X67.244 Y54.143
G1 X67.577 Y54.254
G1 X67.913 Y54.358
G1 X68.251 Y54.454
G1 X68.591 Y54.542
G1 X68.933 Y54.622
G1 X69.276 Y54.695
G1 X69.622 Y54.76
G1 X69.968 Y54.818
G1 X70.316 Y54.867
G1 X70.665 Y54.909
G1 X71.014 Y54.943
G1 X71.365 Y54.968
G1 X71.715 Y54.986
G1 X72.067 Y54.996
G1 X72.418 Y54.998
G1 X72.769 Y54.993
G1 X73.12 Y54.979
G1 X73.471 Y54.957
G1 X73.821 Y54.928
G1 X74.17 Y54.89
G1 X74.4 Y54.86
G1 X74.629 Y54.824
G1 X74.857 Y54.781
G1 X75.084 Y54.732
G1 X75.536 Y54.628
G1 X75.987 Y54.521
G1 X76.07 Y54.505
G1 X76.154 Y54.496
G1 X76.238 Y54.494
G1 X76.322 Y54.5
G1 X76.406 Y54.513
G1 X76.487 Y54.533
G1 X76.567 Y54.561
G1 X76.645 Y54.595
G1 X76.719 Y54.635
G1 X76.789 Y54.682
G1 X77.078 Y54.889
G1 X77.372 Y55.09
G1 X77.671 Y55.284
G1 X77.777 Y55.355
G1 X77.879 Y55.432
G1 X77.977 Y55.515
G1 X78.071 Y55.602
G1 X78.16 Y55.695
G1 X78.243 Y55.792
G1 X78.321 Y55.893
G1 X78.394 Y55.999
G1 X78.577 Y56.274
G1 X78.766 Y56.546
G1 X78.96 Y56.813
G1 X79.159 Y57.077
G1 X79.364 Y57.337
G1 X79.573 Y57.593
G1 X79.788 Y57.844
G1 X79.869 Y57.941
G1 X79.944 Y58.043
G1 X80.014 Y58.148
G1 X80.078 Y58.257
G1 X80.137 Y58.369
G1 X80.19 Y58.484
G1 X80.236 Y58.602
G1 X80.277 Y58.722
G1 X80.311 Y58.843
G1 X80.338 Y58.967
G1 X80.411 Y59.32
G1 X80.492 Y59.671
G1 X80.581 Y60.02
G1 X80.676 Y60.368
G1 X80.78 Y60.713
G1 X80.891 Y61.056
G1 X81.009 Y61.396
G1 X81.135 Y61.734
G1 X81.268 Y62.069
G1 X81.408 Y62.401
G1 X81.555 Y62.73
G1 X81.71 Y63.055
G1 X81.871 Y63.378
G1 X82.04 Y63.696
G1 X82.215 Y64.011
G1 X82.397 Y64.322
G1 X82.586 Y64.629
G1 X82.782 Y64.932
G1 X82.984 Y65.23
G1 X83.192 Y65.524
G1 X83.407 Y65.814
G1 X83.628 Y66.098
G1 X83.845 Y66.366
G1 X84.068 Y66.629
G1 X84.297 Y66.888
G1 X84.531 Y67.141
G1 X84.771 Y67.389
G1 X85.016 Y67.632
G1 X85.266 Y67.869
G1 X85.522 Y68.101
G1 X85.782 Y68.328
G1 X86.047 Y68.548
G1 X86.317 Y68.763
G1 X86.592 Y68.972
G1 X86.871 Y69.175
G1 X87.154 Y69.372
G1 X87.441 Y69.563
G1 X87.733 Y69.748
G1 X88.028 Y69.926
G1 X88.327 Y70.097
G1 X88.63 Y70.263
G1 X88.937 Y70.421
G1 X89.246 Y70.573
G1 X89.559 Y70.718
G1 X89.875 Y70.857
G1 X90.158 Y70.973
G1 X90.442 Y71.084
G1 X90.729 Y71.189
G1 X91.018 Y71.288
G1 X91.308 Y71.381
G1 X91.601 Y71.467
G1 X91.896 Y71.548
G1 X92.309 Y71.654
G1 X92.725 Y71.754
G1 X93.141 Y71.848
G1 X93.559 Y71.936
G1 X93.978 Y72.018
G1 X94.044 Y72.034
G1 X94.108 Y72.058
G1 X94.169 Y72.088
G1 X94.226 Y72.125
G1 X94.279 Y72.168
G1 X94.326 Y72.216
G1 X94.368 Y72.27
G1 X94.404 Y72.328
G1 X94.433 Y72.389
G1 X94.455 Y72.453
G1 X94.554 Y72.784
G1 X94.66 Y73.112
G1 X94.772 Y73.438
G1 X94.892 Y73.762
G1 X95.019 Y74.083
G1 X95.153 Y74.401
G1 X95.216 Y74.553
G1 X95.271 Y74.708
G1 X95.321 Y74.865
G1 X95.364 Y75.024
G1 X95.4 Y75.185
G1 X95.429 Y75.347
G1 X95.451 Y75.51
G1 X95.467 Y75.674
G1 X95.475 Y75.839
G1 X95.477 Y76.003
G1 X94.351 Y138.781
G1 X94.346 Y138.832
G1 X94.333 Y138.881
G1 X94.313 Y138.927
G1 X94.286 Y138.97
G1 X94.253 Y139.008
G1 X94.214 Y139.041
G1 X94.171 Y139.067
G1 X94.124 Y139.086
G1 X94.074 Y139.098
G1 X94.024 Y139.102
G1 X67.324 Y139.076
G1 X67.177 Y139.072
G1 X67.031 Y139.06
G1 X66.886 Y139.042
G1 X66.742 Y139.016
G1 X66.599 Y138.984
G1 X66.458 Y138.945
G1 X66.319 Y138.899
G1 X66.182 Y138.847
G1 X66.048 Y138.788
G1 X65.917 Y138.722
G1 X65.561 Y138.538
G1 X65.201 Y138.36
G1 X64.838 Y138.189
G1 X64.472 Y138.024
G1 X64.176 Y137.898
G1 X63.878 Y137.779
G1 X63.576 Y137.668
G1 X63.273 Y137.564
G1 X62.966 Y137.467
G1 X62.742 Y137.396
G1 X62.52 Y137.319
G1 X62.3 Y137.235
G1 X62.083 Y137.144
G1 X61.869 Y137.048
G1 X61.657 Y136.945
G1 X61.448 Y136.837
G1 X61.243 Y136.722
G1 X60.916 Y136.537
G1 X60.585 Y136.359
G1 X60.251 Y136.188
G1 X59.913 Y136.023
G1 X59.573 Y135.864
G1 X59.513 Y135.833
G1 X59.457 Y135.795
G1 X59.405 Y135.751
G1 X59.359 Y135.702
G1 X59.318 Y135.647
G1 X59.284 Y135.588
G1 X59.257 Y135.526
G1 X59.237 Y135.462
G1 X59.224 Y135.395
G1 X59.219 Y135.327
G1 X58.209 Y77.16
G1 X58.2 Y76.852
G1 X58.184 Y76.544
G1 X58.162 Y76.236
G1 X58.133 Y75.929
G1 X58.096 Y75.623
G1 X58.053 Y75.318
G1 X58.004 Y75.013
G1 X57.947 Y74.71
G1 X57.884 Y74.408
G1 X57.806 Y74.071
G1 X57.72 Y73.734
G1 X57.628 Y73.4
G1 X57.529 Y73.068
G1 X57.423 Y72.738
G1 X57.309 Y72.41
G1 X57.189 Y72.085
G1 X57.063 Y71.762
G1 X57.024 Y71.656
G1 X56.992 Y71.549
G1 X56.966 Y71.439
G1 X56.948 Y71.329
G1 X56.936 Y71.217
G1 X56.932 Y71.105
G1 X56.934 Y70.992
G1 X56.944 Y70.88
G1 X56.96 Y70.769
G1 X56.984 Y70.659
G1 X57.014 Y70.551
G1 X57.051 Y70.445
G1 X57.094 Y70.342
G1 X57.235 Y70.025
G1 X57.368 Y69.706
G1 X57.495 Y69.384
G1 X57.615 Y69.06
G1 X57.728 Y68.733
G1 X57.833 Y68.403
G1 X57.932 Y68.071
G1 X58.023 Y67.738
G1 X58.107 Y67.402
G1 X58.184 Y67.065
G1 X58.254 Y66.726
G1 X58.316 Y66.385
G1 X58.371 Y66.044
G1 X58.418 Y65.701
G1 X58.458 Y65.357
G1 X58.491 Y65.013
G1 X58.516 Y64.668
G1 X58.534 Y64.322
G1 X58.544 Y63.976
G1 X58.547 Y63.63
G1 X58.542 Y63.284
G1 X58.53 Y62.939
G1 X58.51 Y62.593
G1 X58.483 Y62.248
G1 X58.449 Y61.904
G1 X58.438 Y61.771
G1 X58.434 Y61.638
G1 X58.438 Y61.505
G1 X58.45 Y61.373
G1 X58.468 Y61.241
G1 X58.53 Y60.852
G1 X58.585 Y60.462
G1 X58.631 Y60.071
G1 X58.67 Y59.68
G1 X58.701 Y59.287
G1 X58.724 Y58.894
; MOVEMENT_LINK_TRANSITION
G1 Y58.802
G1 X58.717 Y58.71
G1 X58.702 Y58.619
G1 X58.679 Y58.529
G1 X58.648 Y58.442
G1 X58.61 Y58.358
G1 X58.566 Y58.278
G1 X58.514 Y58.201
G1 X58.456 Y58.129
G1 X58.393 Y58.063
G1 X58.323 Y58.002
G1 X58.249 Y57.947
G1 X58.171 Y57.899
G1 X58.088 Y57.858
G1 X58.007 Y57.817
G1 X57.928 Y57.77
G1 X57.854 Y57.717
G1 X57.784 Y57.659
G1 X57.718 Y57.595
G1 X57.658 Y57.527
G1 X57.603 Y57.454
G1 X57.555 Y57.377
G1 X57.512 Y57.296
G1 X57.475 Y57.213
G1 X57.446 Y57.126
G1 X57.422 Y57.038
G1 X57.406 Y56.948
G1 X57.397 Y56.858
; MOVEMENT_CUTTING
G1 X57.372 Y56.509
G1 X57.339 Y56.161
G1 X57.299 Y55.814
G1 X57.251 Y55.468
G1 X57.196 Y55.123
G1 X57.133 Y54.779
G1 X57.062 Y54.437
G1 X56.985 Y54.097
G1 X56.9 Y53.758
G1 X56.807 Y53.421
G1 X56.707 Y53.086
G1 X56.6 Y52.753
G1 X56.49 Y52.434
G1 X56.371 Y52.118
G1 X56.246 Y51.805
G1 X56.113 Y51.494
G1 X55.972 Y51.187
G1 X55.825 Y50.883
G1 X55.67 Y50.583
G1 X55.509 Y50.287
G1 X55.34 Y49.994
G1 X55.165 Y49.705
G1 X54.963 Y49.39
G1 X54.755 Y49.078
G1 X54.54 Y48.771
G1 X54.318 Y48.468
G1 X54.091 Y48.17
G1 X53.857 Y47.877
G1 X53.617 Y47.589
G1 X53.371 Y47.306
G1 X53.119 Y47.029
G1 X53.075 Y46.976
G1 X53.035 Y46.92
G1 X53.001 Y46.86
G1 X52.973 Y46.797
G1 X52.95 Y46.732
G1 X52.858 Y46.439
G1 X52.761 Y46.147
G1 X52.656 Y45.858
G1 X52.545 Y45.571
G1 X52.428 Y45.287
G1 X52.42 Y45.258
G1 X52.418 Y45.228
G1 X52.423 Y45.198
G1 X52.435 Y45.17
G1 X52.452 Y45.145
G1 X52.475 Y45.125
G1 X52.501 Y45.111
G1 X52.53 Y45.103
G1 X52.56 Y45.101
G1 X52.59 Y45.107
G1 X52.618 Y45.118
G1 X52.919 Y45.286
G1 X53.225 Y45.447
G1 X53.533 Y45.6
G1 X53.846 Y45.746
G1 X54.161 Y45.885
G1 X54.48 Y46.017
G1 X54.801 Y46.142
G1 X55.126 Y46.258
G1 X55.453 Y46.368
G1 X55.782 Y46.47
G1 X56.114 Y46.564
G1 X56.448 Y46.65
G1 X56.783 Y46.729
G1 X57.121 Y46.8
G1 X57.46 Y46.864
G1 X57.8 Y46.919
G1 X58.142 Y46.967
G1 X58.484 Y47.006
G1 X58.828 Y47.038
G1 X59.172 Y47.062
G1 X59.267 Y47.071
G1 X59.362 Y47.087
G1 X59.455 Y47.11
G1 X59.547 Y47.139
G1 X59.636 Y47.176
G1 X59.722 Y47.219
G1 X59.804 Y47.268
G1 X59.883 Y47.322
G1 X59.958 Y47.383
G1 X60.028 Y47.449
G1 X60.256 Y47.675
G1 X60.489 Y47.896
G1 X60.727 Y48.111
G1 X60.97 Y48.321
G1 X61.218 Y48.525
G1 X61.471 Y48.723
G1 X61.555 Y48.79
G1 X61.636 Y48.861
G1 X61.714 Y48.936
G1 X61.788 Y49.014
G1 X62.013 Y49.256
G1 X62.244 Y49.493
G1 X62.48 Y49.724
G1 X62.722 Y49.95
G1 X62.968 Y50.17
G1 X63.22 Y50.384
G1 X63.477 Y50.593
G1 X63.738 Y50.795
G1 X64.004 Y50.992
G1 X64.275 Y51.182
G1 X64.55 Y51.366
G1 X64.829 Y51.543
G1 X65.112 Y51.714
G1 X65.399 Y51.878
G1 X65.69 Y52.036
G1 X65.984 Y52.186
G1 X66.282 Y52.33
G1 X66.583 Y52.467
G1 X66.887 Y52.597
G1 X67.194 Y52.72
G1 X67.504 Y52.835
G1 X67.816 Y52.944
G1 X68.131 Y53.045
G1 X68.448 Y53.139
G1 X68.767 Y53.225
G1 X69.088 Y53.304
G1 X69.411 Y53.376
G1 X69.736 Y53.44
G1 X70.062 Y53.496
G1 X70.389 Y53.545
G1 X70.717 Y53.587
G1 X71.046 Y53.62
G1 X71.375 Y53.647
G1 X71.705 Y53.665
G1 X72.036 Y53.676
G1 X72.367 Y53.679
G1 X72.697 Y53.674
G1 X73.028 Y53.662
G1 X73.358 Y53.642
G1 X73.687 Y53.614
G1 X74.016 Y53.579
G1 X74.25 Y53.549
G1 X74.483 Y53.513
G1 X74.715 Y53.471
G1 X74.945 Y53.424
G1 X75.175 Y53.371
G1 X75.556 Y53.276
G1 X75.935 Y53.176
G1 X76.314 Y53.071
G1 X76.389 Y53.054
G1 X76.465 Y53.044
G1 X76.542 Y53.04
G1 X76.619 Y53.045
G1 X76.695 Y53.056
G1 X76.77 Y53.075
G1 X76.843 Y53.1
G1 X76.913 Y53.132
G1 X76.979 Y53.171
G1 X77.042 Y53.216
G1 X77.314 Y53.427
G1 X77.59 Y53.631
G1 X77.87 Y53.83
G1 X78.155 Y54.023
G1 X78.444 Y54.21
G1 X78.577 Y54.299
G1 X78.706 Y54.393
G1 X78.83 Y54.494
G1 X78.949 Y54.601
G1 X79.063 Y54.713
G1 X79.171 Y54.831
G1 X79.273 Y54.954
G1 X79.369 Y55.082
G1 X79.459 Y55.214
G1 X79.638 Y55.487
G1 X79.824 Y55.756
G1 X80.016 Y56.021
G1 X80.213 Y56.282
G1 X80.415 Y56.539
G1 X80.624 Y56.791
G1 X80.837 Y57.039
G1 X81.056 Y57.281
G1 X81.133 Y57.369
G1 X81.204 Y57.462
G1 X81.27 Y57.558
G1 X81.33 Y57.658
G1 X81.385 Y57.762
G1 X81.433 Y57.868
G1 X81.475 Y57.977
G1 X81.51 Y58.088
G1 X81.539 Y58.201
G1 X81.562 Y58.316
G1 X81.621 Y58.651
G1 X81.688 Y58.985
G1 X81.762 Y59.317
G1 X81.844 Y59.647
G1 X81.934 Y59.976
G1 X82.03 Y60.302
G1 X82.134 Y60.626
G1 X82.245 Y60.948
G1 X82.363 Y61.267
G1 X82.489 Y61.584
G1 X82.621 Y61.897
G1 X82.761 Y62.208
G1 X82.907 Y62.515
G1 X83.06 Y62.819
G1 X83.221 Y63.12
G1 X83.387 Y63.416
G1 X83.561 Y63.709
G1 X83.741 Y63.998
G1 X83.927 Y64.283
G1 X84.12 Y64.564
G1 X84.319 Y64.84
G1 X84.524 Y65.112
G1 X84.735 Y65.379
G1 X84.953 Y65.641
G1 X85.176 Y65.898
G1 X85.406 Y66.15
G1 X85.641 Y66.396
G1 X85.882 Y66.637
G1 X86.128 Y66.872
G1 X86.38 Y67.102
G1 X86.637 Y67.325
G1 X86.899 Y67.542
G1 X87.167 Y67.754
G1 X87.439 Y67.959
G1 X87.715 Y68.157
G1 X87.997 Y68.35
G1 X88.282 Y68.535
G1 X88.572 Y68.714
G1 X88.866 Y68.886
G1 X89.164 Y69.051
G1 X89.466 Y69.21
G1 X89.771 Y69.361
G1 X90.08 Y69.505
G1 X90.392 Y69.642
G1 X90.673 Y69.758
G1 X90.956 Y69.868
G1 X91.241 Y69.972
G1 X91.529 Y70.07
G1 X91.818 Y70.163
G1 X92.11 Y70.249
G1 X92.403 Y70.329
G1 X92.697 Y70.403
G1 X93.092 Y70.495
G1 X93.487 Y70.581
G1 X93.884 Y70.661
G1 X94.282 Y70.736
G1 X94.681 Y70.804
G1 X95.081 Y70.867
G1 X95.143 Y70.88
G1 X95.202 Y70.9
G1 X95.259 Y70.927
G1 X95.312 Y70.961
G1 X95.361 Y71.001
G1 X95.404 Y71.047
G1 X95.442 Y71.097
G1 X95.473 Y71.152
G1 X95.498 Y71.21
G1 X95.516 Y71.27
G1 X95.594 Y71.598
G1 X95.68 Y71.924
G1 X95.773 Y72.247
G1 X95.873 Y72.569
G1 X95.98 Y72.888
G1 X96.095 Y73.205
G1 X96.217 Y73.519
G1 X96.346 Y73.831
G1 X96.481 Y74.139
G1 X96.543 Y74.283
G1 X96.598 Y74.43
G1 X96.647 Y74.579
G1 X96.689 Y74.73
G1 X96.724 Y74.883
G1 X96.753 Y75.037
G1 X96.775 Y75.193
G1 X96.791 Y75.349
G1 X96.799 Y75.506
G1 X96.801 Y75.662
G1 X95.644 Y140.101
G1 X95.64 Y140.152
G1 X95.627 Y140.201
G1 X95.607 Y140.247
G1 X95.58 Y140.29
G1 X95.546 Y140.328
G1 X95.507 Y140.361
G1 X95.464 Y140.387
G1 X95.417 Y140.406
G1 X95.368 Y140.418
G1 X95.317 Y140.422
G1 X66.916 Y140.393
G1 X66.775 Y140.388
G1 X66.636 Y140.377
G1 X66.497 Y140.358
G1 X66.359 Y140.332
G1 X66.222 Y140.3
G1 X66.088 Y140.261
G1 X65.955 Y140.215
G1 X65.825 Y140.162
G1 X65.698 Y140.103
G1 X65.574 Y140.038
G1 X65.287 Y139.881
G1 X64.998 Y139.729
G1 X64.706 Y139.583
G1 X64.411 Y139.441
G1 X64.115 Y139.304
G1 X63.865 Y139.195
G1 X63.613 Y139.091
G1 X63.359 Y138.993
G1 X63.103 Y138.9
G1 X62.845 Y138.813
G1 X62.585 Y138.731
G1 X62.203 Y138.615
G1 X61.822 Y138.496
G1 X61.696 Y138.454
G1 X61.572 Y138.405
G1 X61.45 Y138.351
G1 X61.331 Y138.292
G1 X61.214 Y138.227
G1 X61.101 Y138.157
G1 X60.833 Y137.987
G1 X60.56 Y137.825
G1 X60.284 Y137.669
G1 X60.004 Y137.52
G1 X59.72 Y137.378
G1 X59.433 Y137.242
G1 X59.145 Y137.111
G1 X58.854 Y136.984
G1 X58.561 Y136.863
G1 X58.266 Y136.746
G1 X58.207 Y136.719
G1 X58.152 Y136.685
G1 X58.101 Y136.646
G1 X58.055 Y136.6
G1 X58.015 Y136.55
G1 X57.981 Y136.495
G1 X57.954 Y136.436
G1 X57.934 Y136.375
G1 X57.922 Y136.311
G1 X57.917 Y136.247
G1 X57.519 Y112.412
G1 X56.889 Y77.184
G1 X56.881 Y76.892
G1 X56.866 Y76.601
G1 X56.844 Y76.31
G1 X56.815 Y76.02
G1 X56.78 Y75.73
G1 X56.738 Y75.441
G1 X56.689 Y75.154
G1 X56.634 Y74.867
G1 X56.572 Y74.582
G1 X56.495 Y74.263
G1 X56.412 Y73.946
G1 X56.322 Y73.63
G1 X56.224 Y73.317
G1 X56.121 Y73.006
G1 X56.01 Y72.697
G1 X55.893 Y72.39
G1 X55.769 Y72.087
G1 X55.721 Y71.964
G1 X55.68 Y71.838
G1 X55.646 Y71.711
G1 X55.619 Y71.582
G1 X55.6 Y71.452
G1 X55.585 Y71.341
G1 X55.571 Y71.203
G1 X55.565 Y71.066
G1 X55.567 Y70.928
G1 X55.577 Y70.79
G1 X55.594 Y70.653
G1 X55.62 Y70.517
G1 X55.653 Y70.384
G1 X55.694 Y70.252
G1 X55.743 Y70.123
G1 X55.799 Y69.996
G1 X55.939 Y69.694
G1 X56.072 Y69.389
G1 X56.198 Y69.081
G1 X56.317 Y68.77
G1 X56.429 Y68.456
G1 X56.534 Y68.14
G1 X56.632 Y67.822
G1 X56.722 Y67.501
G1 X56.805 Y67.179
G1 X56.881 Y66.855
G1 X56.949 Y66.529
G1 X57.01 Y66.202
G1 X57.064 Y65.873
G1 X57.11 Y65.543
G1 X57.148 Y65.212
G1 X57.179 Y64.881
G1 X57.203 Y64.549
G1 X57.219 Y64.216
G1 X57.227 Y63.883
G1 X57.228 Y63.55
G1 X57.221 Y63.217
G1 X57.207 Y62.885
G1 X57.185 Y62.552
G1 X57.155 Y62.221
G1 X57.118 Y61.89
G1 X57.107 Y61.771
G1 X57.102 Y61.651
G1 Y61.531
G1 X57.109 Y61.412
G1 X57.121 Y61.293
G1 X57.14 Y61.174
G1 X57.2 Y60.824
G1 X57.253 Y60.473
G1 X57.299 Y60.121
G1 X57.339 Y59.768
G1 X57.371 Y59.414
G1 X57.396 Y59.06
G1 X57.415 Y58.705
G1 X57.426 Y58.35
G1 X57.43 Y57.995
G1 X57.428 Y57.64
G1 X57.418 Y57.285
G1 X57.401 Y56.93
G1 X57.397 Y56.858
; MOVEMENT_LINK_TRANSITION
G1 X57.388 Y56.765
G1 X57.37 Y56.673
G1 X57.345 Y56.584
G1 X57.312 Y56.496
G1 X57.272 Y56.412
G1 X57.225 Y56.332
G1 X57.171 Y56.256
G1 X57.111 Y56.185
G1 X57.045 Y56.119
G1 X56.974 Y56.059
G1 X56.897 Y56.005
G1 X56.817 Y55.958
G1 X56.733 Y55.918
G1 X56.645 Y55.886
G1 X56.559 Y55.854
G1 X56.475 Y55.816
G1 X56.395 Y55.771
G1 X56.318 Y55.721
G1 X56.245 Y55.664
G1 X56.177 Y55.603
G1 X56.113 Y55.536
G1 X56.055 Y55.465
G1 X56.002 Y55.39
G1 X55.955 Y55.311
G1 X55.915 Y55.228
G1 X55.88 Y55.143
G1 X55.852 Y55.055
G1 X55.831 Y54.966
; MOVEMENT_CUTTING
G1 X55.766 Y54.651
G1 X55.693 Y54.338
G1 X55.613 Y54.027
G1 X55.526 Y53.717
G1 X55.431 Y53.41
G1 X55.329 Y53.105
G1 X55.22 Y52.803
G1 X55.104 Y52.503
G1 X54.981 Y52.206
G1 X54.849 Y51.908
G1 X54.71 Y51.613
G1 X54.564 Y51.322
