;Fusion 360 CAM 2.0.7421
; Posts processor: DIYCNC_Marlin20.cps
; Gcode generated: Sun Feb  9 08:52:04 2020 GMT
; Document: Untitled
; Setup: 2D Contour1
; 
; Ranges table:
; X: Min=-6.443 Max=7.395 Size=13.838
; Y: Min=-6.443 Max=6.443 Size=12.885
; Z: Min=-3 Max=5 Size=8
; 
; Tools table:
; T1 D=3.175 CR=0 TAPER=22.5deg - ZMIN=-3 - chamfer mill 

; *** START begin ***
G90
G21
M84 S0
G92 X0 Y0 Z5
; *** START end ***

; *** SECTION begin ***
;2D Contour1 - Milling - Tool: 1 -  chamfer mill
; X Min: -6.443 - X Max: 7.395
; Y Min: -6.443 - Y Max: 6.443
; Z Min: -3 - Z Max: 5
; COMMAND_START_SPINDLE
; COMMAND_SPINDLE_CLOCKWISE
;M0 Turn ON 24000RPM
; COMMAND_COOLANT_ON
;M117  2D Contour1
; MOVEMENT_PLUNGE
G1 X3.827 Y-6.336 Z5 F180
G1 Z1.317
G1 X3.825 Y-6.333 Z1.268
G1 X3.819 Y-6.322 Z1.219
G1 X3.81 Y-6.306 Z1.173
G1 X3.798 Y-6.283 Z1.131
G1 X3.782 Y-6.254 Z1.093
G1 X3.764 Y-6.221 Z1.061
G1 X3.744 Y-6.184 Z1.035
G1 X3.722 Y-6.143 Z1.016
G1 X3.698 Y-6.101 Z1.004
G1 X3.675 Y-6.057 Z1
; MOVEMENT_LEAD_IN
G1 X3.522 Y-5.779
G1 X3.495 Y-5.737
G1 X3.461 Y-5.7
G1 X3.423 Y-5.669
G1 X3.379 Y-5.644
G1 X3.333 Y-5.626
G1 X3.284 Y-5.616
G1 X3.234 Y-5.614
G1 X3.185 Y-5.619
G1 X3.137 Y-5.632
G1 X3.091 Y-5.653
; MOVEMENT_RAMP
G1 X2.89 Y-5.758 Z0.992
G1 X2.686 Y-5.856 Z0.984
G1 X2.478 Y-5.947 Z0.976
G1 X2.267 Y-6.031 Z0.968
G1 X2.054 Y-6.107 Z0.96
G1 X1.837 Y-6.175 Z0.952
G1 X1.619 Y-6.236 Z0.945
G1 X1.398 Y-6.289 Z0.937
G1 X1.176 Y-6.334 Z0.929
G1 X0.952 Y-6.372 Z0.921
G1 X0.728 Y-6.401 Z0.913
G1 X0.502 Y-6.423 Z0.905
G1 X0.275 Y-6.437 Z0.897
G1 X0.049 Y-6.442 Z0.889
G1 X-0.178 Y-6.44 Z0.881
G1 X-0.405 Y-6.43 Z0.873
G1 X-0.631 Y-6.412 Z0.865
G1 X-0.856 Y-6.386 Z0.857
G1 X-1.08 Y-6.351 Z0.85
G1 X-1.303 Y-6.309 Z0.842
G1 X-1.524 Y-6.26 Z0.834
G1 X-1.744 Y-6.202 Z0.826
G1 X-1.961 Y-6.137 Z0.818
G1 X-2.176 Y-6.064 Z0.81
G1 X-2.388 Y-5.984 Z0.802
G1 X-2.597 Y-5.896 Z0.794
G1 X-2.803 Y-5.801 Z0.786
G1 X-3.006 Y-5.699 Z0.778
G1 X-3.204 Y-5.589 Z0.77
G1 X-3.399 Y-5.473 Z0.762
G1 X-3.59 Y-5.35 Z0.754
G1 X-3.776 Y-5.22 Z0.747
G1 X-3.957 Y-5.084 Z0.739
G1 X-4.134 Y-4.942 Z0.731
G1 X-4.305 Y-4.793 Z0.723
G1 X-4.471 Y-4.639 Z0.715
G1 X-4.631 Y-4.478 Z0.707
G1 X-4.786 Y-4.313 Z0.699
G1 X-4.935 Y-4.142 Z0.691
G1 X-5.078 Y-3.965 Z0.683
G1 X-5.214 Y-3.784 Z0.675
G1 X-5.344 Y-3.598 Z0.667
G1 X-5.468 Y-3.408 Z0.659
G1 X-5.584 Y-3.213 Z0.651
G1 X-5.694 Y-3.015 Z0.644
G1 X-5.796 Y-2.812 Z0.636
G1 X-5.892 Y-2.607 Z0.628
G1 X-5.98 Y-2.398 Z0.62
G1 X-6.061 Y-2.186 Z0.612
G1 X-6.134 Y-1.971 Z0.604
G1 X-6.199 Y-1.754 Z0.596
G1 X-6.257 Y-1.535 Z0.588
G1 X-6.307 Y-1.313 Z0.58
G1 X-6.35 Y-1.091 Z0.572
G1 X-6.384 Y-0.866 Z0.564
G1 X-6.411 Y-0.641 Z0.556
G1 X-6.429 Y-0.415 Z0.549
G1 X-6.44 Y-0.189 Z0.541
G1 X-6.443 Y0.038 Z0.533
G1 X-6.437 Y0.265 Z0.525
G1 X-6.424 Y0.491 Z0.517
G1 X-6.403 Y0.717 Z0.509
G1 X-6.373 Y0.942 Z0.501
G1 X-6.336 Y1.166 Z0.493
G1 X-6.291 Y1.388 Z0.485
G1 X-6.239 Y1.609 Z0.477
G1 X-6.178 Y1.827 Z0.469
G1 X-6.11 Y2.044 Z0.461
G1 X-6.034 Y2.258 Z0.453
G1 X-5.951 Y2.469 Z0.446
G1 X-5.86 Y2.676 Z0.438
G1 X-5.763 Y2.881 Z0.43
G1 X-5.658 Y3.082 Z0.422
G1 X-5.546 Y3.279 Z0.414
G1 X-5.427 Y3.473 Z0.406
G1 X-5.301 Y3.661 Z0.398
G1 X-5.169 Y3.846 Z0.39
G1 X-5.03 Y4.025 Z0.382
G1 X-4.886 Y4.2 Z0.374
G1 X-4.735 Y4.369 Z0.366
G1 X-4.578 Y4.533 Z0.358
G1 X-4.416 Y4.691 Z0.35
G1 X-4.248 Y4.844 Z0.343
G1 X-4.075 Y4.991 Z0.335
G1 X-3.896 Y5.131 Z0.327
G1 X-3.713 Y5.265 Z0.319
G1 X-3.526 Y5.392 Z0.311
G1 X-3.334 Y5.513 Z0.303
G1 X-3.138 Y5.627 Z0.295
G1 X-2.938 Y5.734 Z0.287
G1 X-2.734 Y5.834 Z0.279
G1 X-2.527 Y5.926 Z0.271
G1 X-2.317 Y6.012 Z0.263
G1 X-2.104 Y6.089 Z0.255
G1 X-1.888 Y6.16 Z0.248
G1 X-1.67 Y6.222 Z0.24
G1 X-1.45 Y6.277 Z0.232
G1 X-1.228 Y6.324 Z0.224
G1 X-1.005 Y6.364 Z0.216
G1 X-0.78 Y6.395 Z0.208
G1 X-0.555 Y6.419 Z0.2
G1 X-0.328 Y6.434 Z0.192
G1 X-0.102 Y6.442 Z0.184
G1 X0.125 Y6.441 Z0.176
G1 X0.352 Y6.433 Z0.168
G1 X0.578 Y6.417 Z0.16
G1 X0.804 Y6.392 Z0.152
G1 X1.028 Y6.36 Z0.145
G1 X1.251 Y6.32 Z0.137
G1 X1.473 Y6.272 Z0.129
G1 X1.693 Y6.216 Z0.121
G1 X1.911 Y6.153 Z0.113
G1 X2.126 Y6.082 Z0.105
G1 X2.339 Y6.003 Z0.097
G1 X2.549 Y5.917 Z0.089
G1 X2.755 Y5.824 Z0.081
G1 X2.959 Y5.723 Z0.073
G1 X3.158 Y5.615 Z0.065
G1 X3.354 Y5.501 Z0.057
G1 X3.545 Y5.379 Z0.05
G1 X3.733 Y5.251 Z0.042
G1 X3.915 Y5.117 Z0.034
G1 X4.093 Y4.976 Z0.026
G1 X4.265 Y4.828 Z0.018
G1 X4.433 Y4.675 Z0.01
G1 X4.594 Y4.516 Z0.002
G1 X4.751 Y4.352 Z-0.006
G1 X4.901 Y4.182 Z-0.014
G1 X5.045 Y4.007 Z-0.022
G1 X5.183 Y3.827 Z-0.03
G1 X5.314 Y3.642 Z-0.038
G1 X5.439 Y3.453 Z-0.046
G1 X5.557 Y3.259 Z-0.053
G1 X5.669 Y3.061 Z-0.061
G1 X5.773 Y2.86 Z-0.069
G1 X5.87 Y2.655 Z-0.077
G1 X5.96 Y2.447 Z-0.085
G1 X6.042 Y2.236 Z-0.093
G1 X6.117 Y2.021 Z-0.101
G1 X6.185 Y1.805 Z-0.109
G1 X6.244 Y1.586 Z-0.117
G1 X6.296 Y1.365 Z-0.125
G1 X6.34 Y1.143 Z-0.133
G1 X6.377 Y0.919 Z-0.141
G1 X6.405 Y0.694 Z-0.149
G1 X6.426 Y0.468 Z-0.156
G1 X6.438 Y0.242 Z-0.164
G1 X6.443 Y0.015 Z-0.172
G1 X6.439 Y-0.212 Z-0.18
G1 X6.428 Y-0.439 Z-0.188
G1 X6.408 Y-0.665 Z-0.196
G1 X6.381 Y-0.89 Z-0.204
G1 X6.346 Y-1.114 Z-0.212
G1 X6.303 Y-1.336 Z-0.22
G1 X6.252 Y-1.557 Z-0.228
G1 X6.193 Y-1.776 Z-0.236
G1 X6.127 Y-1.993 Z-0.244
G1 X6.053 Y-2.208 Z-0.251
G1 X5.971 Y-2.419 Z-0.259
G1 X5.882 Y-2.628 Z-0.267
G1 X5.786 Y-2.834 Z-0.275
G1 X5.683 Y-3.035 Z-0.283
G1 X5.572 Y-3.234 Z-0.291
G1 X5.455 Y-3.428 Z-0.299
G1 X5.331 Y-3.618 Z-0.307
G1 X5.2 Y-3.803 Z-0.315
G1 X5.063 Y-3.984 Z-0.323
G1 X4.92 Y-4.159 Z-0.331
G1 X4.771 Y-4.33 Z-0.339
G1 X4.615 Y-4.495 Z-0.347
G1 X4.454 Y-4.655 Z-0.354
G1 X4.287 Y-4.809 Z-0.362
G1 X4.116 Y-4.957 Z-0.37
G1 X3.939 Y-5.099 Z-0.378
G1 X3.757 Y-5.234 Z-0.386
G1 X3.57 Y-5.363 Z-0.394
G1 X3.379 Y-5.485 Z-0.402
G1 X3.184 Y-5.601 Z-0.41
G1 X2.985 Y-5.71 Z-0.418
G1 X2.782 Y-5.811 Z-0.426
G1 X2.576 Y-5.905 Z-0.434
G1 X2.366 Y-5.992 Z-0.442
G1 X2.154 Y-6.072 Z-0.45
G1 X1.939 Y-6.144 Z-0.457
G1 X1.721 Y-6.208 Z-0.465
G1 X1.502 Y-6.265 Z-0.473
G1 X1.28 Y-6.314 Z-0.481
G1 X1.057 Y-6.355 Z-0.489
G1 X0.833 Y-6.389 Z-0.497
G1 X0.607 Y-6.414 Z-0.505
G1 X0.381 Y-6.431 Z-0.513
G1 X0.155 Y-6.441 Z-0.521
G1 X-0.072 Y-6.442 Z-0.529
G1 X-0.299 Y-6.436 Z-0.537
G1 X-0.525 Y-6.421 Z-0.545
G1 X-0.751 Y-6.399 Z-0.552
G1 X-0.976 Y-6.368 Z-0.56
G1 X-1.199 Y-6.33 Z-0.568
G1 X-1.421 Y-6.284 Z-0.576
G1 X-1.642 Y-6.23 Z-0.584
G1 X-1.86 Y-6.168 Z-0.592
G1 X-2.076 Y-6.099 Z-0.6
G1 X-2.289 Y-6.022 Z-0.608
G1 X-2.5 Y-5.938 Z-0.616
G1 X-2.707 Y-5.846 Z-0.624
G1 X-2.911 Y-5.747 Z-0.632
G1 X-3.112 Y-5.641 Z-0.64
G1 X-3.308 Y-5.528 Z-0.648
G1 X-3.501 Y-5.408 Z-0.655
G1 X-3.689 Y-5.282 Z-0.663
G1 X-3.873 Y-5.149 Z-0.671
G1 X-4.052 Y-5.009 Z-0.679
G1 X-4.225 Y-4.863 Z-0.687
G1 X-4.394 Y-4.712 Z-0.695
G1 X-4.557 Y-4.554 Z-0.703
G1 X-4.715 Y-4.391 Z-0.711
G1 X-4.866 Y-4.222 Z-0.719
G1 X-5.012 Y-4.048 Z-0.727
G1 X-5.151 Y-3.869 Z-0.735
G1 X-5.284 Y-3.686 Z-0.743
G1 X-5.411 Y-3.497 Z-0.75
G1 X-5.53 Y-3.305 Z-0.758
G1 X-5.643 Y-3.108 Z-0.766
G1 X-5.749 Y-2.907 Z-0.774
G1 X-5.848 Y-2.703 Z-0.782
G1 X-5.94 Y-2.496 Z-0.79
G1 X-6.024 Y-2.285 Z-0.798
G1 X-6.1 Y-2.072 Z-0.806
G1 X-6.17 Y-1.856 Z-0.814
G1 X-6.231 Y-1.637 Z-0.822
G1 X-6.285 Y-1.417 Z-0.83
G1 X-6.331 Y-1.195 Z-0.838
G1 X-6.369 Y-0.971 Z-0.846
G1 X-6.399 Y-0.747 Z-0.853
G1 X-6.422 Y-0.521 Z-0.861
G1 X-6.436 Y-0.295 Z-0.869
G1 X-6.442 Y-0.068 Z-0.877
G1 X-6.441 Y0.159 Z-0.885
G1 X-6.431 Y0.386 Z-0.893
G1 X-6.414 Y0.612 Z-0.901
G1 X-6.388 Y0.837 Z-0.909
G1 X-6.355 Y1.061 Z-0.917
G1 X-6.313 Y1.284 Z-0.925
G1 X-6.264 Y1.506 Z-0.933
G1 X-6.207 Y1.725 Z-0.941
G1 X-6.143 Y1.943 Z-0.949
G1 X-6.071 Y2.158 Z-0.956
G1 X-5.991 Y2.37 Z-0.964
G1 X-5.904 Y2.58 Z-0.972
G1 X-5.809 Y2.786 Z-0.98
G1 X-5.708 Y2.989 Z-0.988
G1 X-5.599 Y3.188 Z-0.996
G1 X-5.483 Y3.383 Z-1.004
G1 X-5.361 Y3.574 Z-1.012
G1 X-5.232 Y3.76 Z-1.02
G1 X-5.096 Y3.942 Z-1.028
G1 X-4.954 Y4.119 Z-1.036
G1 X-4.806 Y4.291 Z-1.044
G1 X-4.652 Y4.457 Z-1.051
G1 X-4.492 Y4.618 Z-1.059
G1 X-4.327 Y4.773 Z-1.067
G1 X-4.156 Y4.923 Z-1.075
G1 X-3.98 Y5.066 Z-1.083
G1 X-3.8 Y5.203 Z-1.091
G1 X-3.614 Y5.334 Z-1.099
G1 X-3.424 Y5.457 Z-1.107
G1 X-3.23 Y5.575 Z-1.115
G1 X-3.032 Y5.685 Z-1.123
G1 X-2.83 Y5.788 Z-1.131
G1 X-2.624 Y5.884 Z-1.139
G1 X-2.415 Y5.973 Z-1.147
G1 X-2.204 Y6.054 Z-1.154
G1 X-1.989 Y6.128 Z-1.162
G1 X-1.772 Y6.194 Z-1.17
G1 X-1.553 Y6.253 Z-1.178
G1 X-1.332 Y6.303 Z-1.186
G1 X-1.109 Y6.346 Z-1.194
G1 X-0.885 Y6.382 Z-1.202
G1 X-0.66 Y6.409 Z-1.21
G1 X-0.434 Y6.428 Z-1.218
G1 X-0.208 Y6.439 Z-1.226
G1 X0.019 Y6.443 Z-1.234
G1 X0.246 Y6.438 Z-1.242
G1 X0.472 Y6.425 Z-1.25
G1 X0.698 Y6.405 Z-1.257
G1 X0.923 Y6.376 Z-1.265
G1 X1.147 Y6.34 Z-1.273
G1 X1.37 Y6.295 Z-1.281
G1 X1.59 Y6.243 Z-1.289
G1 X1.809 Y6.183 Z-1.297
G1 X2.026 Y6.116 Z-1.305
G1 X2.24 Y6.041 Z-1.313
G1 X2.451 Y5.958 Z-1.321
G1 X2.659 Y5.868 Z-1.329
G1 X2.864 Y5.771 Z-1.337
G1 X3.065 Y5.667 Z-1.345
G1 X3.263 Y5.555 Z-1.352
G1 X3.456 Y5.437 Z-1.36
G1 X3.646 Y5.312 Z-1.368
G1 X3.83 Y5.18 Z-1.376
G1 X4.01 Y5.042 Z-1.384
G1 X4.185 Y4.898 Z-1.392
G1 X4.355 Y4.748 Z-1.4
G1 X4.52 Y4.591 Z-1.408
G1 X4.678 Y4.43 Z-1.416
G1 X4.831 Y4.262 Z-1.424
G1 X4.978 Y4.089 Z-1.432
G1 X5.119 Y3.912 Z-1.44
G1 X5.254 Y3.729 Z-1.448
G1 X5.382 Y3.542 Z-1.455
G1 X5.503 Y3.35 Z-1.463
G1 X5.618 Y3.154 Z-1.471
G1 X5.725 Y2.955 Z-1.479
G1 X5.826 Y2.751 Z-1.487
G1 X5.919 Y2.545 Z-1.495
G1 X6.005 Y2.335 Z-1.503
G1 X6.083 Y2.122 Z-1.511
G1 X6.154 Y1.906 Z-1.519
G1 X6.217 Y1.689 Z-1.527
G1 X6.273 Y1.469 Z-1.535
G1 X6.321 Y1.247 Z-1.543
G1 X6.361 Y1.024 Z-1.55
G1 X6.393 Y0.799 Z-1.558
G1 X6.417 Y0.574 Z-1.566
G1 X6.433 Y0.347 Z-1.574
G1 X6.442 Y0.121 Z-1.582
G1 Y-0.106 Z-1.59
G1 X6.434 Y-0.333 Z-1.598
G1 X6.418 Y-0.559 Z-1.606
G1 X6.395 Y-0.785 Z-1.614
G1 X6.363 Y-1.009 Z-1.622
G1 X6.324 Y-1.232 Z-1.63
G1 X6.276 Y-1.454 Z-1.638
G1 X6.221 Y-1.674 Z-1.646
G1 X6.158 Y-1.892 Z-1.653
G1 X6.088 Y-2.108 Z-1.661
G1 X6.01 Y-2.321 Z-1.669
G1 X5.925 Y-2.531 Z-1.677
G1 X5.832 Y-2.738 Z-1.685
G1 X5.732 Y-2.942 Z-1.693
G1 X5.625 Y-3.141 Z-1.701
G1 X5.511 Y-3.338 Z-1.709
G1 X5.39 Y-3.529 Z-1.717
G1 X5.262 Y-3.717 Z-1.725
G1 X5.128 Y-3.9 Z-1.733
G1 X4.988 Y-4.078 Z-1.741
G1 X4.841 Y-4.251 Z-1.749
G1 X4.689 Y-4.419 Z-1.756
G1 X4.53 Y-4.581 Z-1.764
G1 X4.366 Y-4.738 Z-1.772
G1 X4.197 Y-4.888 Z-1.78
G1 X4.022 Y-5.033 Z-1.788
G1 X3.842 Y-5.172 Z-1.796
G1 X3.658 Y-5.304 Z-1.804
G1 X3.469 Y-5.429 Z-1.812
G1 X3.276 Y-5.548 Z-1.82
G1 X3.078 Y-5.66 Z-1.828
G1 X2.877 Y-5.765 Z-1.836
G1 X2.672 Y-5.862 Z-1.844
G1 X2.464 Y-5.953 Z-1.851
G1 X2.253 Y-6.036 Z-1.859
G1 X2.04 Y-6.111 Z-1.867
G1 X1.823 Y-6.179 Z-1.875
G1 X1.605 Y-6.24 Z-1.883
G1 X1.384 Y-6.292 Z-1.891
G1 X1.162 Y-6.337 Z-1.899
G1 X0.938 Y-6.374 Z-1.907
G1 X0.713 Y-6.403 Z-1.915
G1 X0.487 Y-6.424 Z-1.923
G1 X0.261 Y-6.437 Z-1.931
G1 X0.034 Y-6.443 Z-1.939
G1 X-0.193 Y-6.44 Z-1.947
G1 X-0.419 Y-6.429 Z-1.954
G1 X-0.645 Y-6.41 Z-1.962
G1 X-0.871 Y-6.384 Z-1.97
G1 X-1.095 Y-6.349 Z-1.978
G1 X-1.318 Y-6.306 Z-1.986
G1 X-1.539 Y-6.256 Z-1.994
G1 X-1.758 Y-6.198 Z-2.002
G1 X-1.975 Y-6.132 Z-2.01
G1 X-2.19 Y-6.059 Z-2.018
G1 X-2.402 Y-5.978 Z-2.026
G1 X-2.611 Y-5.89 Z-2.034
G1 X-2.816 Y-5.794 Z-2.042
G1 X-3.019 Y-5.692 Z-2.05
G1 X-3.217 Y-5.582 Z-2.057
G1 X-3.412 Y-5.465 Z-2.065
G1 X-3.602 Y-5.342 Z-2.073
G1 X-3.788 Y-5.212 Z-2.081
G1 X-3.969 Y-5.075 Z-2.089
G1 X-4.145 Y-4.932 Z-2.097
G1 X-4.316 Y-4.783 Z-2.105
G1 X-4.482 Y-4.628 Z-2.113
G1 X-4.642 Y-4.468 Z-2.121
G1 X-4.796 Y-4.302 Z-2.129
G1 X-4.945 Y-4.13 Z-2.137
G1 X-5.087 Y-3.954 Z-2.145
G1 X-5.223 Y-3.772 Z-2.152
G1 X-5.352 Y-3.586 Z-2.16
G1 X-5.475 Y-3.395 Z-2.168
G1 X-5.591 Y-3.2 Z-2.176
G1 X-5.701 Y-3.002 Z-2.184
G1 X-5.803 Y-2.799 Z-2.192
G1 X-5.898 Y-2.593 Z-2.2
G1 X-5.985 Y-2.384 Z-2.208
G1 X-6.066 Y-2.172 Z-2.216
G1 X-6.138 Y-1.957 Z-2.224
G1 X-6.203 Y-1.74 Z-2.232
G1 X-6.261 Y-1.52 Z-2.24
G1 X-6.31 Y-1.299 Z-2.248
G1 X-6.352 Y-1.076 Z-2.255
G1 X-6.386 Y-0.852 Z-2.263
G1 X-6.412 Y-0.626 Z-2.271
G1 X-6.43 Y-0.4 Z-2.279
G1 X-6.44 Y-0.174 Z-2.287
G1 X-6.442 Y0.053 Z-2.295
G1 X-6.437 Y0.28 Z-2.303
G1 X-6.423 Y0.506 Z-2.311
G1 X-6.401 Y0.732 Z-2.319
G1 X-6.371 Y0.957 Z-2.327
G1 X-6.334 Y1.18 Z-2.335
G1 X-6.288 Y1.403 Z-2.343
G1 X-6.235 Y1.623 Z-2.35
G1 X-6.174 Y1.842 Z-2.358
G1 X-6.105 Y2.058 Z-2.366
G1 X-6.029 Y2.271 Z-2.374
G1 X-5.945 Y2.482 Z-2.382
G1 X-5.854 Y2.69 Z-2.39
G1 X-5.756 Y2.894 Z-2.398
G1 X-5.65 Y3.095 Z-2.406
G1 X-5.538 Y3.292 Z-2.414
G1 X-5.419 Y3.485 Z-2.422
G1 X-5.293 Y3.674 Z-2.43
G1 X-5.16 Y3.858 Z-2.438
G1 X-5.021 Y4.037 Z-2.446
G1 X-4.876 Y4.211 Z-2.453
G1 X-4.725 Y4.38 Z-2.461
G1 X-4.568 Y4.544 Z-2.469
G1 X-4.405 Y4.702 Z-2.477
G1 X-4.237 Y4.854 Z-2.485
G1 X-4.063 Y5 Z-2.493
G1 X-3.885 Y5.14 Z-2.501
G1 X-3.701 Y5.273 Z-2.509
G1 X-3.513 Y5.4 Z-2.517
G1 X-3.321 Y5.521 Z-2.525
G1 X-3.125 Y5.634 Z-2.533
G1 X-2.925 Y5.741 Z-2.541
G1 X-2.721 Y5.84 Z-2.549
G1 X-2.513 Y5.932 Z-2.556
G1 X-2.303 Y6.017 Z-2.564
G1 X-2.09 Y6.094 Z-2.572
G1 X-1.874 Y6.164 Z-2.58
G1 X-1.656 Y6.226 Z-2.588
G1 X-1.436 Y6.281 Z-2.596
G1 X-1.214 Y6.327 Z-2.604
G1 X-0.99 Y6.366 Z-2.612
G1 X-0.766 Y6.397 Z-2.62
G1 X-0.54 Y6.42 Z-2.628
G1 X-0.314 Y6.435 Z-2.636
G1 X-0.087 Y6.442 Z-2.644
G1 X0.14 Y6.441 Z-2.651
G1 X0.367 Y6.432 Z-2.659
G1 X0.593 Y6.415 Z-2.667
G1 X0.818 Y6.39 Z-2.675
G1 X1.043 Y6.358 Z-2.683
G1 X1.266 Y6.317 Z-2.691
G1 X1.487 Y6.269 Z-2.699
G1 X1.707 Y6.212 Z-2.707
G1 X1.925 Y6.148 Z-2.715
G1 X2.14 Y6.077 Z-2.723
G1 X2.352 Y5.998 Z-2.731
G1 X2.562 Y5.911 Z-2.739
G1 X2.769 Y5.817 Z-2.747
G1 X2.972 Y5.716 Z-2.754
G1 X3.171 Y5.608 Z-2.762
G1 X3.366 Y5.493 Z-2.77
G1 X3.558 Y5.371 Z-2.778
G1 X3.745 Y5.243 Z-2.786
G1 X3.927 Y5.108 Z-2.794
G1 X4.104 Y4.966 Z-2.802
G1 X4.276 Y4.819 Z-2.81
G1 X4.443 Y4.665 Z-2.818
G1 X4.605 Y4.506 Z-2.826
G1 X4.761 Y4.341 Z-2.834
G1 X4.91 Y4.171 Z-2.842
G1 X5.054 Y3.995 Z-2.85
G1 X5.192 Y3.815 Z-2.857
G1 X5.323 Y3.63 Z-2.865
G1 X5.447 Y3.44 Z-2.873
G1 X5.565 Y3.246 Z-2.881
G1 X5.676 Y3.048 Z-2.889
G1 X5.78 Y2.847 Z-2.897
G1 X5.876 Y2.642 Z-2.905
G1 X5.966 Y2.433 Z-2.913
G1 X6.047 Y2.222 Z-2.921
G1 X6.122 Y2.007 Z-2.929
G1 X6.189 Y1.791 Z-2.937
G1 X6.248 Y1.572 Z-2.945
G1 X6.299 Y1.351 Z-2.952
G1 X6.343 Y1.128 Z-2.96
G1 X6.379 Y0.904 Z-2.968
G1 X6.407 Y0.679 Z-2.976
G1 X6.427 Y0.453 Z-2.984
G1 X6.439 Y0.227 Z-2.992
G1 X6.443 Y0 Z-3
; MOVEMENT_FINISH_CUTTING
G1 X6.439 Y-0.225 F480
G1 X6.427 Y-0.449
G1 X6.407 Y-0.673
G1 X6.38 Y-0.897
G1 X6.345 Y-1.119
G1 X6.302 Y-1.34
G1 X6.251 Y-1.559
G1 X6.193 Y-1.776
G1 X6.127 Y-1.991
G1 X6.054 Y-2.204
G1 X5.974 Y-2.413
G1 X5.886 Y-2.62
G1 X5.791 Y-2.824
G1 X5.689 Y-3.025
G1 X5.579 Y-3.221
G1 X5.464 Y-3.414
G1 X5.341 Y-3.603
G1 X5.212 Y-3.787
G1 X5.077 Y-3.966
G1 X4.935 Y-4.141
G1 X4.788 Y-4.311
G1 X4.634 Y-4.475
G1 X4.475 Y-4.634
G1 X4.311 Y-4.788
G1 X4.141 Y-4.935
G1 X3.966 Y-5.077
G1 X3.787 Y-5.212
G1 X3.603 Y-5.341
G1 X3.414 Y-5.464
G1 X3.221 Y-5.579
G1 X3.025 Y-5.689
G1 X2.824 Y-5.791
G1 X2.62 Y-5.886
G1 X2.413 Y-5.974
G1 X2.204 Y-6.054
G1 X1.991 Y-6.127
G1 X1.776 Y-6.193
G1 X1.559 Y-6.251
G1 X1.34 Y-6.302
G1 X1.119 Y-6.345
G1 X0.897 Y-6.38
G1 X0.673 Y-6.407
G1 X0.449 Y-6.427
G1 X0.225 Y-6.439
G1 X0 Y-6.443
G1 X-0.225 Y-6.439
G1 X-0.449 Y-6.427
G1 X-0.673 Y-6.407
G1 X-0.897 Y-6.38
G1 X-1.119 Y-6.345
G1 X-1.34 Y-6.302
G1 X-1.559 Y-6.251
G1 X-1.776 Y-6.193
G1 X-1.991 Y-6.127
G1 X-2.204 Y-6.054
G1 X-2.413 Y-5.974
G1 X-2.62 Y-5.886
G1 X-2.824 Y-5.791
G1 X-3.025 Y-5.689
G1 X-3.221 Y-5.579
G1 X-3.414 Y-5.464
G1 X-3.603 Y-5.341
G1 X-3.787 Y-5.212
G1 X-3.966 Y-5.077
G1 X-4.141 Y-4.935
G1 X-4.311 Y-4.788
G1 X-4.475 Y-4.634
G1 X-4.634 Y-4.475
G1 X-4.788 Y-4.311
G1 X-4.935 Y-4.141
G1 X-5.077 Y-3.966
G1 X-5.212 Y-3.787
G1 X-5.341 Y-3.603
G1 X-5.464 Y-3.414
G1 X-5.579 Y-3.221
G1 X-5.689 Y-3.025
G1 X-5.791 Y-2.824
G1 X-5.886 Y-2.62
G1 X-5.974 Y-2.413
G1 X-6.054 Y-2.204
G1 X-6.127 Y-1.991
G1 X-6.193 Y-1.776
G1 X-6.251 Y-1.559
G1 X-6.302 Y-1.34
G1 X-6.345 Y-1.119
G1 X-6.38 Y-0.897
G1 X-6.407 Y-0.673
G1 X-6.427 Y-0.449
G1 X-6.439 Y-0.225
G1 X-6.443 Y0
G1 X-6.439 Y0.225
G1 X-6.427 Y0.449
G1 X-6.407 Y0.673
G1 X-6.38 Y0.897
G1 X-6.345 Y1.119
G1 X-6.302 Y1.34
G1 X-6.251 Y1.559
G1 X-6.193 Y1.776
G1 X-6.127 Y1.991
G1 X-6.054 Y2.204
G1 X-5.974 Y2.413
G1 X-5.886 Y2.62
G1 X-5.791 Y2.824
G1 X-5.689 Y3.025
G1 X-5.579 Y3.221
G1 X-5.464 Y3.414
G1 X-5.341 Y3.603
G1 X-5.212 Y3.787
G1 X-5.077 Y3.966
G1 X-4.935 Y4.141
G1 X-4.788 Y4.311
G1 X-4.634 Y4.475
G1 X-4.475 Y4.634
G1 X-4.311 Y4.788
G1 X-4.141 Y4.935
G1 X-3.966 Y5.077
G1 X-3.787 Y5.212
G1 X-3.603 Y5.341
G1 X-3.414 Y5.464
G1 X-3.221 Y5.579
G1 X-3.025 Y5.689
G1 X-2.824 Y5.791
G1 X-2.62 Y5.886
G1 X-2.413 Y5.974
G1 X-2.204 Y6.054
G1 X-1.991 Y6.127
G1 X-1.776 Y6.193
G1 X-1.559 Y6.251
G1 X-1.34 Y6.302
G1 X-1.119 Y6.345
G1 X-0.897 Y6.38
G1 X-0.673 Y6.407
G1 X-0.449 Y6.427
G1 X-0.225 Y6.439
G1 X0 Y6.443
G1 X0.225 Y6.439
G1 X0.449 Y6.427
G1 X0.673 Y6.407
G1 X0.897 Y6.38
G1 X1.119 Y6.345
G1 X1.34 Y6.302
G1 X1.559 Y6.251
G1 X1.776 Y6.193
G1 X1.991 Y6.127
G1 X2.204 Y6.054
G1 X2.413 Y5.974
G1 X2.62 Y5.886
G1 X2.824 Y5.791
G1 X3.025 Y5.689
G1 X3.221 Y5.579
G1 X3.414 Y5.464
G1 X3.603 Y5.341
G1 X3.787 Y5.212
G1 X3.966 Y5.077
G1 X4.141 Y4.935
G1 X4.311 Y4.788
G1 X4.475 Y4.634
G1 X4.634 Y4.475
G1 X4.788 Y4.311
G1 X4.935 Y4.141
G1 X5.077 Y3.966
G1 X5.212 Y3.787
G1 X5.341 Y3.603
G1 X5.464 Y3.414
G1 X5.579 Y3.221
G1 X5.689 Y3.025
G1 X5.791 Y2.824
G1 X5.886 Y2.62
G1 X5.974 Y2.413
G1 X6.054 Y2.204
G1 X6.127 Y1.991
G1 X6.193 Y1.776
G1 X6.251 Y1.559
G1 X6.302 Y1.34
G1 X6.345 Y1.119
G1 X6.38 Y0.897
G1 X6.407 Y0.673
G1 X6.427 Y0.449
G1 X6.439 Y0.225
G1 X6.443 Y0
; MOVEMENT_LEAD_OUT
G1 X6.447 Y-0.05 F180
G1 X6.458 Y-0.098
G1 X6.477 Y-0.144
G1 X6.503 Y-0.187
G1 X6.536 Y-0.225
G1 X6.574 Y-0.257
G1 X6.616 Y-0.283
G1 X6.662 Y-0.302
G1 X6.71 Y-0.314
G1 X6.76 Y-0.317
G1 X7.078
G1 X7.127 Z-2.996
G1 X7.176 Z-2.984
G1 X7.222 Z-2.965
G1 X7.264 Z-2.939
G1 X7.302 Z-2.907
G1 X7.335 Z-2.869
G1 X7.361 Z-2.827
G1 X7.38 Z-2.781
G1 X7.391 Z-2.732
G1 X7.395 Z-2.683
; MOVEMENT_RAPID
G0 Z5 F300
; *** SECTION end ***

; *** STOP begin ***
M400
; COMMAND_COOLANT_OFF
G0 X0 Y0 F2500
; COMMAND_STOP_SPINDLE
;M300 S300 P3000
;M0 Turn OFF spindle
;M117 Job end
; *** STOP end ***
