;Fusion 360 CAM 2.0.7463
; Posts processor: DIYCNC_Marlin20.cps
; Gcode generated: Sat Feb 29 08:54:10 2020 GMT
; Document: 4x4Coaster W Team Male
; Setup: Setup1
; 
; Ranges table:
; X: Min=-51.127 Max=39.593 Size=90.721
; Y: Min=-54.493 Max=40.071 Size=94.564
; Z: Min=-3 Max=3 Size=6
; 
; Tools table:
; T1 D=3.175 CR=0 - ZMIN=-3 - flat end mill 
; T3 D=3.175 CR=0 TAPER=22.5deg - ZMIN=-3 - chamfer mill 

; *** START begin ***
G90
G21
M84 S0
G92 X0 Y0 Z5
; *** START end ***

; *** SECTION begin ***
;2D Adaptive1 - Milling - Tool: 1 -  flat end mill
; X Min: -51.127 - X Max: 50.967
; Y Min: -54.493 - Y Max: 50.967
; Z Min: -3 - Z Max: 3
; COMMAND_START_SPINDLE
; COMMAND_SPINDLE_CLOCKWISE
; COMMAND_COOLANT_ON
G0 Z3 F300
G0 X-51.127 Y-54.493 F2500
G0 Z-2.365 F300
; MOVEMENT_LEAD_IN
G1 Z-2.682 F480
G1 X-51.126 Y-54.489 Z-2.732
G1 X-51.124 Y-54.478 Z-2.781
G1 X-51.119 Y-54.459 Z-2.827
G1 X-51.112 Y-54.434 Z-2.869
G1 X-51.104 Y-54.403 Z-2.907
G1 X-51.095 Y-54.366 Z-2.939
G1 X-51.084 Y-54.325 Z-2.965
G1 X-51.073 Y-54.28 Z-2.984
G1 X-51.061 Y-54.233 Z-2.996
G1 X-51.049 Y-54.185 Z-3
G1 X-50.99 Y-53.942
G1 X-50.94 Y-53.698
G1 X-50.896 Y-53.451
G1 X-50.861 Y-53.204
G1 X-50.833 Y-52.956
G1 X-50.813 Y-52.707
G1 X-50.8 Y-52.457
; MOVEMENT_CUTTING
G1 Y-52.307
G1 X-50.868 Y-51.668
G1 X-50.908 Y-51.027
G1 X-50.932 Y-50.386
G1 X-50.947 Y-49.744
G1 X-50.955 Y-49.101
G1 X-50.96 Y-48.459
G1 X-50.963 Y-47.817
G1 X-50.966 Y-46.533
G1 X-50.967 Y-43.322
G1 Y-2.222
G1 Y47.869
G1 Y49.313
G1 X-50.928 Y49.469
G1 X-50.782 Y49.755
G1 X-50.346 Y50.226
G1 X-49.775 Y50.52
G1 X-49.158 Y50.7
G1 X-48.525 Y50.808
G1 X-47.886 Y50.872
G1 X-47.245 Y50.911
G1 X-46.603 Y50.934
G1 X-45.961 Y50.948
G1 X-45.319 Y50.956
G1 X-44.677 Y50.96
G1 X-44.035 Y50.963
G1 X-42.751 Y50.966
G1 X-38.897 Y50.967
G1 X-2.935
G1 X47.155
G1 X49.243
G1 X49.402 Y50.953
G1 X49.554 Y50.9
G1 X49.825 Y50.728
G1 X50.271 Y50.266
G1 X50.548 Y49.686
G1 X50.716 Y49.067
G1 X50.817 Y48.433
G1 X50.878 Y47.793
G1 X50.914 Y47.152
G1 X50.936 Y46.51
G1 X50.949 Y45.868
G1 X50.956 Y45.226
G1 X50.961 Y44.584
G1 X50.964 Y43.942
G1 X50.966 Y42.657
G1 X50.967 Y38.804
G1 Y3.484
G1 Y-46.607
G1 Y-49.336
G1 X50.928 Y-49.491
G1 X50.775 Y-49.774
G1 X50.331 Y-50.238
G1 X49.758 Y-50.528
G1 X49.141 Y-50.704
G1 X48.507 Y-50.81
G1 X47.868 Y-50.874
G1 X47.227 Y-50.912
G1 X46.585 Y-50.934
G1 X45.943 Y-50.948
G1 X45.301 Y-50.956
G1 X44.659 Y-50.961
G1 X44.017 Y-50.963
G1 X42.732 Y-50.966
G1 X38.879 Y-50.967
G1 X4.201
G1 X-45.889
G1 X-47.816
G1 X-47.974 Y-50.939
G1 X-48.267 Y-50.809
G1 X-48.512 Y-50.601
G1 X-48.912 Y-50.099
G1 X-49.162 Y-49.507
G1 X-49.315 Y-48.883
G1 X-49.408 Y-48.248
G1 X-49.464 Y-47.608
G1 X-49.497 Y-46.967
G1 X-49.517 Y-46.325
G1 X-49.529 Y-45.683
G1 X-49.537 Y-45.041
G1 X-49.541 Y-44.398
G1 X-49.544 Y-43.756
G1 X-49.546 Y-42.472
G1 X-49.547 Y-38.619
G1 X-49.548 Y-3.299
G1 Y46.792
G1 Y47.434
G1 X-49.524 Y47.754
G1 X-49.404 Y48.052
G1 X-49.215 Y48.311
G1 X-48.747 Y48.751
G1 X-48.174 Y49.043
G1 X-47.56 Y49.231
G1 X-46.929 Y49.35
G1 X-46.292 Y49.425
G1 X-45.651 Y49.472
G1 X-45.01 Y49.501
G1 X-44.368 Y49.519
G1 X-43.726 Y49.53
G1 X-43.083 Y49.537
G1 X-42.441 Y49.541
G1 X-41.157 Y49.545
G1 X-38.588 Y49.547
G1 X-0.699 Y49.548
G1 X47.465
G1 X47.784 Y49.513
G1 X48.078 Y49.384
G1 X48.589 Y48.995
G1 X48.936 Y48.454
G1 X49.161 Y47.853
G1 X49.306 Y47.227
G1 X49.397 Y46.592
G1 X49.454 Y45.952
G1 X49.49 Y45.311
G1 X49.512 Y44.669
G1 X49.525 Y44.027
G1 X49.534 Y43.385
G1 X49.539 Y42.743
G1 X49.542 Y42.1
G1 X49.546 Y40.816
G1 X49.547 Y37.605
G1 X49.548 Y-1.568
G1 Y-47.485
G1 X49.51 Y-47.803
G1 X49.376 Y-48.095
G1 X48.982 Y-48.602
G1 X48.438 Y-48.944
G1 X47.836 Y-49.167
G1 X47.21 Y-49.309
G1 X46.574 Y-49.399
G1 X45.934 Y-49.455
G1 X45.293 Y-49.491
G1 X44.651 Y-49.512
G1 X44.009 Y-49.526
G1 X43.367 Y-49.534
G1 X42.725 Y-49.539
G1 X42.083 Y-49.542
G1 X40.798 Y-49.546
G1 X37.587 Y-49.547
G1 X-4.155 Y-49.548
G1 X-45.897
G1 X-46.218 Y-49.543
G1 X-46.524 Y-49.447
G1 X-46.796 Y-49.276
G1 X-47.263 Y-48.835
G1 X-47.576 Y-48.274
G1 X-47.779 Y-47.665
G1 X-47.909 Y-47.036
G1 X-47.991 Y-46.399
G1 X-48.043 Y-45.759
G1 X-48.075 Y-45.118
G1 X-48.095 Y-44.476
G1 X-48.107 Y-43.834
G1 X-48.115 Y-43.191
G1 X-48.12 Y-42.549
G1 X-48.123 Y-41.907
G1 X-48.126 Y-40.623
G1 X-48.127 Y-37.412
G1 Y8.183
G1 Y46.072
G1 X-48.05 Y46.384
G1 X-47.897 Y46.666
G1 X-47.484 Y47.158
G1 X-46.939 Y47.498
G1 X-46.337 Y47.723
G1 X-45.712 Y47.869
G1 X-45.077 Y47.963
G1 X-44.438 Y48.024
G1 X-43.797 Y48.062
G1 X-43.155 Y48.086
G1 X-42.513 Y48.102
G1 X-41.871 Y48.111
G1 X-41.229 Y48.117
G1 X-40.586 Y48.121
G1 X-39.302 Y48.125
G1 X-36.733 Y48.127
G1 X13.357
G1 X46.109
G1 X46.418 Y48.041
G1 X46.696 Y47.881
G1 X47.18 Y47.458
G1 X47.512 Y46.909
G1 X47.733 Y46.306
G1 X47.876 Y45.68
G1 X47.968 Y45.044
G1 X48.027 Y44.405
G1 X48.064 Y43.764
G1 X48.087 Y43.122
G1 X48.102 Y42.48
G1 X48.112 Y41.838
G1 X48.118 Y41.196
G1 X48.121 Y40.553
G1 X48.125 Y39.269
G1 X48.127 Y36.7
G1 Y31.563
G1 Y-18.528
G1 Y-46.142
G1 X48.032 Y-46.448
G1 X47.866 Y-46.723
G1 X47.435 Y-47.199
G1 X46.882 Y-47.525
G1 X46.277 Y-47.741
G1 X45.65 Y-47.881
G1 X45.014 Y-47.971
G1 X44.375 Y-48.029
G1 X43.734 Y-48.065
G1 X43.092 Y-48.088
G1 X42.45 Y-48.103
G1 X41.808 Y-48.112
G1 X41.166 Y-48.118
G1 X40.523 Y-48.121
G1 X39.239 Y-48.125
G1 X36.67 Y-48.127
G1 X26.395
G1 X-23.695
G1 X-44.566
G1 X-44.882 Y-48.07
G1 X-45.173 Y-47.935
G1 X-45.684 Y-47.546
G1 X-46.04 Y-47.011
G1 X-46.277 Y-46.414
G1 X-46.432 Y-45.791
G1 X-46.532 Y-45.157
G1 X-46.596 Y-44.518
G1 X-46.637 Y-43.877
G1 X-46.663 Y-43.235
G1 X-46.679 Y-42.593
G1 X-46.69 Y-41.951
G1 X-46.696 Y-41.309
G1 X-46.701 Y-40.667
G1 X-46.705 Y-39.382
G1 X-46.707 Y-37.456
G1 X-46.708 Y-19.475
G1 Y30.616
G1 Y44.423
G1 X-46.675 Y44.742
G1 X-46.563 Y45.044
G1 X-46.388 Y45.312
G1 X-45.946 Y45.779
G1 X-45.39 Y46.1
G1 X-44.785 Y46.314
G1 X-44.158 Y46.454
G1 X-43.522 Y46.545
G1 X-42.883 Y46.604
G1 X-42.242 Y46.642
G1 X-41.6 Y46.666
G1 X-40.958 Y46.681
G1 X-40.316 Y46.691
G1 X-39.674 Y46.697
G1 X-39.032 Y46.701
G1 X-37.747 Y46.705
G1 X-35.178 Y46.707
G1 X-11.418 Y46.708
G1 X38.673
G1 X44.453
G1 X44.771 Y46.668
G1 X45.07 Y46.55
G1 X45.602 Y46.19
G1 X45.979 Y45.67
G1 X46.234 Y45.081
G1 X46.401 Y44.461
G1 X46.511 Y43.828
G1 X46.582 Y43.19
G1 X46.627 Y42.549
G1 X46.656 Y41.908
G1 X46.675 Y41.266
G1 X46.687 Y40.624
G1 X46.694 Y39.981
G1 X46.699 Y39.339
G1 X46.702 Y38.697
G1 X46.705 Y37.413
G1 X46.707 Y34.844
G1 X46.708 Y3.377
G1 Y-44.466
G1 X46.664 Y-44.784
G1 X46.544 Y-45.082
G1 X46.179 Y-45.61
G1 X45.658 Y-45.986
G1 X45.067 Y-46.238
G1 X44.447 Y-46.404
G1 X43.814 Y-46.513
G1 X43.176 Y-46.583
G1 X42.535 Y-46.628
G1 X41.894 Y-46.657
G1 X41.252 Y-46.675
G1 X40.61 Y-46.687
G1 X39.968 Y-46.694
G1 X39.325 Y-46.699
G1 X38.683 Y-46.702
G1 X37.399 Y-46.705
G1 X34.83 Y-46.707
G1 X-4.985 Y-46.708
G1 X-42.874
G1 X-43.195 Y-46.698
G1 X-43.506 Y-46.616
G1 X-43.788 Y-46.463
G1 X-44.283 Y-46.054
G1 X-44.628 Y-45.512
G1 X-44.859 Y-44.913
G1 X-45.011 Y-44.289
G1 X-45.11 Y-43.655
G1 X-45.174 Y-43.016
G1 X-45.215 Y-42.375
G1 X-45.241 Y-41.733
G1 X-45.258 Y-41.091
G1 X-45.269 Y-40.449
G1 X-45.276 Y-39.807
G1 X-45.28 Y-39.165
G1 X-45.283 Y-38.523
G1 X-45.286 Y-37.238
G1 X-45.287 Y-35.312
G1 Y14.779
G1 Y43.035
G1 X-45.236 Y43.352
G1 X-45.112 Y43.648
G1 X-44.744 Y44.175
G1 X-44.224 Y44.551
G1 X-43.635 Y44.806
G1 X-43.015 Y44.975
G1 X-42.382 Y45.085
G1 X-41.744 Y45.157
G1 X-41.104 Y45.204
G1 X-40.462 Y45.234
G1 X-39.82 Y45.253
G1 X-39.178 Y45.265
G1 X-38.536 Y45.273
G1 X-37.894 Y45.279
G1 X-37.252 Y45.282
G1 X-35.967 Y45.285
G1 X-33.399 Y45.287
G1 X-24.408
G1 X25.682
G1 X43.021
G1 X43.34 Y45.246
G1 X43.638 Y45.127
G1 X44.17 Y44.767
G1 X44.547 Y44.248
G1 X44.803 Y43.659
G1 X44.973 Y43.039
G1 X45.084 Y42.407
G1 X45.156 Y41.769
G1 X45.203 Y41.128
G1 X45.233 Y40.487
G1 X45.253 Y39.845
G1 X45.265 Y39.203
G1 X45.273 Y38.561
G1 X45.278 Y37.918
G1 X45.282 Y37.276
G1 X45.285 Y35.992
G1 X45.287 Y33.423
G1 Y13.515
G1 Y-36.575
G1 Y-42.997
G1 X45.251 Y-43.316
G1 X45.138 Y-43.617
G1 X44.962 Y-43.885
G1 X44.519 Y-44.35
G1 X43.964 Y-44.672
G1 X43.359 Y-44.888
G1 X42.732 Y-45.029
G1 X42.097 Y-45.121
G1 X41.457 Y-45.181
G1 X40.816 Y-45.219
G1 X40.174 Y-45.244
G1 X39.533 Y-45.259
G1 X38.89 Y-45.27
G1 X38.248 Y-45.276
G1 X37.606 Y-45.28
G1 X36.322 Y-45.285
G1 X34.395 Y-45.287
G1 X21.551
G1 X2.286
G1 X-41.383
G1 X-41.704 Y-45.281
G1 X-42.017 Y-45.212
G1 X-42.305 Y-45.07
G1 X-42.814 Y-44.678
G1 X-43.171 Y-44.144
G1 X-43.412 Y-43.549
G1 X-43.572 Y-42.927
G1 X-43.676 Y-42.293
G1 X-43.744 Y-41.655
G1 X-43.788 Y-41.014
G1 X-43.817 Y-40.373
G1 X-43.835 Y-39.731
G1 X-43.847 Y-39.089
G1 X-43.854 Y-38.447
G1 X-43.859 Y-37.804
G1 X-43.862 Y-37.162
G1 X-43.865 Y-35.878
G1 X-43.867 Y-33.309
G1 X-43.868 Y10.36
G1 Y41.827
G1 X-43.763 Y42.13
G1 X-43.596 Y42.404
G1 X-43.167 Y42.882
G1 X-42.619 Y43.217
G1 X-42.017 Y43.442
G1 X-41.393 Y43.591
G1 X-40.758 Y43.689
G1 X-40.119 Y43.752
G1 X-39.478 Y43.793
G1 X-38.836 Y43.82
G1 X-38.194 Y43.837
G1 X-37.552 Y43.848
G1 X-36.91 Y43.855
G1 X-36.268 Y43.859
G1 X-35.626 Y43.862
G1 X-34.341 Y43.865
G1 X-31.13 Y43.867
G1 X-25.993
G1 X24.097 Y43.868
G1 X41.436
G1 X41.757 Y43.855
G1 X42.067 Y43.771
G1 X42.349 Y43.617
G1 X42.844 Y43.208
G1 X43.191 Y42.667
G1 X43.425 Y42.069
G1 X43.58 Y41.446
G1 X43.682 Y40.812
G1 X43.748 Y40.173
G1 X43.79 Y39.533
G1 X43.818 Y38.891
G1 X43.836 Y38.249
G1 X43.847 Y37.607
G1 X43.854 Y36.965
G1 X43.859 Y36.323
G1 X43.862 Y35.68
G1 X43.865 Y34.396
G1 X43.867 Y31.827
G1 X43.868 Y11.92
G1 Y-38.171
G1 Y-41.382
G1 X43.858 Y-41.703
G1 X43.785 Y-42.015
G1 X43.642 Y-42.303
G1 X43.248 Y-42.809
G1 X42.714 Y-43.167
G1 X42.119 Y-43.409
G1 X41.498 Y-43.569
G1 X40.864 Y-43.674
G1 X40.225 Y-43.743
G1 X39.585 Y-43.787
G1 X38.943 Y-43.816
G1 X38.301 Y-43.834
G1 X37.659 Y-43.846
G1 X37.017 Y-43.854
G1 X36.375 Y-43.859
G1 X35.733 Y-43.862
G1 X34.448 Y-43.865
G1 X31.88 Y-43.867
G1 X25.772
G1 X25.719 Y-43.87
G1 X25.666 Y-43.876
G1 X25.615 Y-43.887
G1 X25.456 Y-43.927
G1 X24.955 Y-44.043
G1 X24.517 Y-44.135
G1 X24.074 Y-44.219
G1 X23.934 Y-44.243
G1 X23.496 Y-44.314
G1 X23.058 Y-44.377
G1 X22.62 Y-44.431
G1 X22.328 Y-44.463
G1 X22.182 Y-44.478
G1 X22.037 Y-44.492
G1 X21.599 Y-44.529
G1 X21.161 Y-44.557
G1 X20.723 Y-44.576
G1 X20.577 Y-44.581
G1 X20.139 Y-44.592
G1 X19.702 Y-44.597
G1 X19.264 Y-44.591
G1 X19.118 Y-44.586
G1 X18.826 Y-44.573
G1 X18.68 Y-44.564
G1 X18.242 Y-44.528
G1 X17.367 Y-44.481
G1 X17.221 Y-44.471
G1 X16.783 Y-44.43
G1 X16.637 Y-44.412
G1 X16.491 Y-44.385
G1 X16.402 Y-44.365
G1 X16.345 Y-44.348
G1 X16.199 Y-44.296
G1 X16.058 Y-44.245
G1 X15.519 Y-44.11
G1 X14.885 Y-44.011
G1 X14.245 Y-43.952
G1 X13.604 Y-43.918
G1 X12.962 Y-43.897
G1 X12.32 Y-43.885
G1 X11.678 Y-43.878
G1 X11.036 Y-43.874
G1 X10.394 Y-43.871
G1 X9.109 Y-43.869
G1 X4.614 Y-43.868
G1 X-33.917
G1 X-40.339
G1 X-40.648 Y-43.779
G1 X-40.929 Y-43.624
G1 X-41.422 Y-43.213
G1 X-41.769 Y-42.673
G1 X-42.003 Y-42.075
G1 X-42.158 Y-41.451
G1 X-42.26 Y-40.817
G1 X-42.326 Y-40.179
G1 X-42.369 Y-39.538
G1 X-42.397 Y-38.896
G1 X-42.415 Y-38.254
G1 X-42.427 Y-37.612
G1 X-42.434 Y-36.97
G1 X-42.439 Y-36.328
G1 X-42.442 Y-35.686
G1 X-42.445 Y-34.401
G1 X-42.447 Y-31.833
G1 Y-1.008
G1 Y40.092
G1 X-42.419 Y40.412
G1 X-42.314 Y40.715
G1 X-42.145 Y40.989
G1 X-41.716 Y41.466
G1 X-41.167 Y41.799
G1 X-40.565 Y42.023
G1 X-39.94 Y42.171
G1 X-39.305 Y42.268
G1 X-38.666 Y42.332
G1 X-38.025 Y42.373
G1 X-37.384 Y42.399
G1 X-36.742 Y42.416
G1 X-36.099 Y42.427
G1 X-35.457 Y42.435
G1 X-34.815 Y42.439
G1 X-34.173 Y42.442
G1 X-32.889 Y42.445
G1 X-30.32 Y42.447
G1 X15.917
G1 X40.321
G1 X40.63 Y42.363
G1 X40.913 Y42.21
G1 X41.411 Y41.804
G1 X41.76 Y41.266
G1 X41.997 Y40.669
G1 X42.154 Y40.046
G1 X42.257 Y39.412
G1 X42.324 Y38.773
G1 X42.368 Y38.133
G1 X42.396 Y37.491
G1 X42.414 Y36.849
G1 X42.426 Y36.207
G1 X42.434 Y35.565
G1 X42.439 Y34.923
G1 X42.442 Y34.281
G1 X42.445 Y32.996
G1 X42.447 Y30.428
G1 Y17.584
G1 Y-32.507
G1 Y-40.213
G1 X42.39 Y-40.529
G1 X42.26 Y-40.822
G1 X41.885 Y-41.344
G1 X41.36 Y-41.714
G1 X40.769 Y-41.965
G1 X40.149 Y-42.133
G1 X39.516 Y-42.243
G1 X38.878 Y-42.315
G1 X38.238 Y-42.362
G1 X37.596 Y-42.392
G1 X36.954 Y-42.412
G1 X36.312 Y-42.424
G1 X35.67 Y-42.433
G1 X35.028 Y-42.438
G1 X34.386 Y-42.441
G1 X33.102 Y-42.445
G1 X30.533 Y-42.447
G1 X29.778
G1 X29.684 Y-42.454
G1 X29.593 Y-42.475
G1 X29.505 Y-42.508
G1 X29.282 Y-42.614
G1 X28.896 Y-42.783
G1 X28.75 Y-42.845
G1 X28.312 Y-43.024
G1 X27.858 Y-43.197
G1 X27.436 Y-43.347
G1 X27.29 Y-43.397
G1 X26.998 Y-43.494
G1 X26.852 Y-43.541
G1 X26.415 Y-43.674
G1 X26.269 Y-43.715
G1 X25.977 Y-43.794
G1 X25.685 Y-43.869
G1 X25.615 Y-43.887
; MOVEMENT_LEAD_OUT
G1 X25.456 Y-43.927
G1 X25.393 Y-43.942
G1 X25.101 Y-44.009
G1 X24.955 Y-44.043
G1 X24.85 Y-44.065
; MOVEMENT_LINK_TRANSITION
G1 X24.517 Y-44.135
G1 X24.372 Y-44.163
G1 X24.074 Y-44.219
G1 X23.934 Y-44.243
G1 X23.642 Y-44.291
G1 X23.496 Y-44.314
G1 X23.058 Y-44.377
G1 X22.62 Y-44.431
G1 X22.474 Y-44.447
G1 X22.182 Y-44.478
G1 X22.037 Y-44.492
G1 X21.745 Y-44.517
G1 X21.599 Y-44.529
G1 X21.161 Y-44.557
G1 X21.015 Y-44.563
G1 X20.723 Y-44.576
G1 X20.577 Y-44.581
G1 X20.285 Y-44.589
G1 X20.139 Y-44.592
G1 X19.702 Y-44.597
G1 X19.556 Y-44.595
G1 X19.264 Y-44.591
G1 X19.118 Y-44.586
G1 X18.826 Y-44.573
G1 X18.68 Y-44.564
G1 X18.388 Y-44.54
G1 X18.242 Y-44.528
G1 X17.367 Y-44.481
G1 X17.221 Y-44.471
G1 X16.966 Y-44.448
; MOVEMENT_LEAD_IN
G1 X16.929 Y-44.444
G1 X16.783 Y-44.43
G1 X16.637 Y-44.412
G1 X16.491 Y-44.385
G1 X16.402 Y-44.365
G1 X16.345 Y-44.348
G1 X16.199 Y-44.296
; MOVEMENT_CUTTING
G1 X16.012 Y-44.201
G1 X15.977 Y-44.18
G1 X15.761 Y-44.016
G1 X15.671 Y-43.927
G1 X15.615 Y-43.864
G1 X15.55 Y-43.781
G1 X15.526 Y-43.744
G1 X15.438 Y-43.622
G1 X15.333 Y-43.515
G1 X15.2 Y-43.401
G1 X15.025 Y-43.277
G1 X14.806 Y-43.149
G1 X14.52 Y-43.014
G1 X14.142 Y-42.876
G1 X13.613 Y-42.733
G1 X12.98 Y-42.622
G1 X12.342 Y-42.554
G1 X11.701 Y-42.513
G1 X11.059 Y-42.487
G1 X10.417 Y-42.472
G1 X9.775 Y-42.462
G1 X9.133 Y-42.457
G1 X8.491 Y-42.453
G1 X7.206 Y-42.45
G1 X4.638 Y-42.448
G1 X-34.536 Y-42.447
G1 X-38.71
G1 X-39.029 Y-42.409
G1 X-39.329 Y-42.295
G1 X-39.867 Y-41.945
G1 X-40.255 Y-41.434
G1 X-40.52 Y-40.848
G1 X-40.696 Y-40.231
G1 X-40.812 Y-39.599
G1 X-40.887 Y-38.961
G1 X-40.937 Y-38.321
G1 X-40.969 Y-37.68
G1 X-40.99 Y-37.038
G1 X-41.003 Y-36.396
G1 X-41.012 Y-35.754
G1 X-41.017 Y-35.111
G1 X-41.021 Y-34.469
G1 X-41.025 Y-33.185
G1 X-41.027 Y-30.616
G1 X-41.028 Y2.777
G1 Y23.291
G1 X-41.029 Y23.317
G1 X-41.047 Y23.642
G1 X-41.068 Y24.08
G1 X-41.083 Y24.517
G1 X-41.092 Y24.955
G1 X-41.094 Y25.101
G1 X-41.097 Y25.539
G1 X-41.093 Y25.977
G1 X-41.082 Y26.415
G1 X-41.077 Y26.561
G1 X-41.081 Y27.203
G1 X-41.059 Y27.845
G1 X-41.046 Y28.487
G1 X-41.039 Y29.129
G1 X-41.034 Y29.771
G1 X-41.031 Y30.413
G1 X-41.029 Y31.697
G1 X-41.028 Y35.551
G1 Y38.762
G1 X-40.973 Y39.078
G1 X-40.847 Y39.373
G1 X-40.479 Y39.9
G1 X-39.96 Y40.278
G1 X-39.371 Y40.534
G1 X-38.752 Y40.705
G1 X-38.12 Y40.818
G1 X-37.482 Y40.891
G1 X-36.842 Y40.939
G1 X-36.17 Y40.971
G1 X-36.025 Y40.996
G1 X-35.893 Y41.058
G1 X-35.782 Y41.154
G1 X-35.609 Y41.301
G1 X-35.572 Y41.328
G1 X-35.536 Y41.35
G1 X-35.366 Y41.446
G1 X-35.317 Y41.468
G1 X-35.171 Y41.526
G1 X-35.025 Y41.565
G1 X-34.879 Y41.591
G1 X-34.733 Y41.606
G1 X-34.587 Y41.603
G1 X-34.471 Y41.592
G1 X-34.441 Y41.588
G1 X-34.295 Y41.56
G1 X-34.149 Y41.518
G1 X-34.105 Y41.5
G1 X-33.92 Y41.431
G1 X-33.427 Y41.298
G1 X-32.794 Y41.187
G1 X-32.155 Y41.121
G1 X-31.514 Y41.083
G1 X-30.873 Y41.06
G1 X-30.231 Y41.047
G1 X-29.588 Y41.039
G1 X-28.946 Y41.034
G1 X-28.304 Y41.031
G1 X-27.02 Y41.029
G1 X-23.167 Y41.028
G1 X16.007
G1 X18.396
G1 X18.434 Y41.029
G1 X18.472 Y41.032
G1 X18.51 Y41.038
G1 X18.68 Y41.069
G1 X18.826 Y41.093
G1 X19.252 Y41.154
G1 X19.702 Y41.203
G1 X20.139 Y41.237
G1 X20.285 Y41.245
G1 X20.577 Y41.256
G1 X20.723 Y41.259
G1 X21.161
G1 X21.599 Y41.25
G1 X21.745 Y41.244
G1 X22.037 Y41.226
G1 X22.182 Y41.215
G1 X22.474 Y41.191
G1 X22.62 Y41.178
G1 X22.766 Y41.163
G1 X23.407 Y41.127
G1 X24.048 Y41.086
G1 X24.69 Y41.062
G1 X25.332 Y41.048
G1 X25.974 Y41.04
G1 X26.616 Y41.035
G1 X27.259 Y41.032
G1 X28.543 Y41.029
G1 X32.396 Y41.028
G1 X38.818
G1 X39.133 Y40.964
G1 X39.423 Y40.828
G1 X39.939 Y40.445
G1 X40.304 Y39.916
G1 X40.552 Y39.324
G1 X40.717 Y38.703
G1 X40.825 Y38.07
G1 X40.896 Y37.432
G1 X40.942 Y36.792
G1 X40.972 Y36.15
G1 X40.992 Y35.508
G1 X41.004 Y34.866
G1 X41.013 Y34.224
G1 X41.018 Y33.582
G1 X41.021 Y32.94
G1 X41.025 Y31.655
G1 X41.027 Y29.087
G1 X41.028 Y21.695
G1 X41.032 Y21.646
G1 X41.037 Y21.599
G1 X41.077 Y21.161
G1 X41.087 Y21.015
G1 X41.103 Y20.723
G1 X41.11 Y20.577
G1 X41.126 Y20.139
G1 X41.133 Y19.702
G1 X41.126 Y19.264
G1 X41.12 Y19.118
G1 X41.105 Y18.826
G1 X41.097 Y18.184
G1 X41.069 Y17.542
G1 X41.052 Y16.9
G1 X41.042 Y16.258
G1 X41.036 Y15.616
G1 X41.033 Y14.974
G1 X41.029 Y13.689
G1 X41.028 Y10.479
G1 Y-31.264
G1 Y-38.97
G1 X40.925 Y-39.274
G1 X40.759 Y-39.549
G1 X40.333 Y-40.029
G1 X39.786 Y-40.366
G1 X39.186 Y-40.594
G1 X38.561 Y-40.745
G1 X37.927 Y-40.844
G1 X37.288 Y-40.908
G1 X36.647 Y-40.95
G1 X36.005 Y-40.978
G1 X35.364 Y-40.995
G1 X34.721 Y-41.007
G1 X34.079 Y-41.014
G1 X33.437 Y-41.019
G1 X32.338 Y-41.023
G1 X32.217 Y-41.035
G1 X32.101 Y-41.069
G1 X31.994 Y-41.125
G1 X31.72 Y-41.3
G1 X31.522 Y-41.42
G1 X31.231 Y-41.596
G1 X30.939 Y-41.767
G1 X30.727 Y-41.884
G1 X30.355 Y-42.084
G1 X30.18 Y-42.176
G1 X29.771 Y-42.382
G1 X29.505 Y-42.508
; MOVEMENT_LEAD_OUT
G1 X29.463 Y-42.534
G1 X29.426 Y-42.566
G1 X29.394 Y-42.603
G1 X29.368 Y-42.645
G1 X29.349 Y-42.69
G1 X29.337 Y-42.738
G1 X29.333 Y-42.787
G1 X29.336 Y-42.835
G1 X29.346 Y-42.883
G1 X29.364 Y-42.929
G1 X29.389 Y-42.971
G1 X29.42 Y-43.009
G1 X29.456 Y-43.042
G1 X29.497 Y-43.069
G1 X29.542 Y-43.089
G1 X29.589 Y-43.102
G1 X29.638 Y-43.112 Z-2.996
G1 X29.686 Y-43.121 Z-2.984
G1 X29.731 Y-43.13 Z-2.965
G1 X29.773 Y-43.138 Z-2.939
G1 X29.81 Y-43.145 Z-2.907
G1 X29.842 Y-43.151 Z-2.869
G1 X29.867 Y-43.156 Z-2.827
G1 X29.886 Y-43.16 Z-2.781
G1 X29.897 Y-43.162 Z-2.732
G1 X29.901 Y-43.163 Z-2.682
; MOVEMENT_RAPID
G0 Z3 F300
G0 X15.764 Y-44.813 F2500
G0 Z-2.365 F300
; MOVEMENT_LEAD_IN
G1 Z-2.682 F480
G1 Y-44.809 Z-2.732
G1 X15.763 Y-44.798 Z-2.781
G1 X15.762 Y-44.779 Z-2.827
G1 X15.761 Y-44.753 Z-2.869
G1 X15.76 Y-44.72 Z-2.907
G1 X15.758 Y-44.682 Z-2.939
G1 X15.757 Y-44.64 Z-2.965
G1 X15.755 Y-44.594 Z-2.984
G1 X15.753 Y-44.546 Z-2.996
G1 X15.751 Y-44.496 Z-3
G1 X15.744 Y-44.397
G1 X15.731 Y-44.299
G1 X15.711 Y-44.201
G1 X15.686 Y-44.106
G1 X15.654 Y-44.012
G1 X15.617 Y-43.92
G1 X15.574 Y-43.83
G1 X15.526 Y-43.744
; MOVEMENT_CUTTING
G1 X15.455 Y-43.635
G1 X15.381 Y-43.489
G1 X15.322 Y-43.343
G1 X15.278 Y-43.197
G1 X15.263 Y-43.117
G1 X15.229 Y-42.971
G1 X15.176 Y-42.831
G1 X15.106 Y-42.698
G1 X15.022 Y-42.571
G1 X14.909 Y-42.431
G1 X14.78 Y-42.298
G1 X14.61 Y-42.15
G1 X14.392 Y-41.992
G1 X14.137 Y-41.84
G1 X13.8 Y-41.678
G1 X13.375 Y-41.518
G1 X12.795 Y-41.357
G1 X12.163 Y-41.241
G1 X11.526 Y-41.166
G1 X10.885 Y-41.116
G1 X10.244 Y-41.084
G1 X9.602 Y-41.064
G1 X8.96 Y-41.051
G1 X8.318 Y-41.042
G1 X7.676 Y-41.037
G1 X7.034 Y-41.033
G1 X5.749 Y-41.03
G1 X3.181 Y-41.028
G1 X-34.066
G1 X-37.277
G1 X-37.596 Y-40.992
G1 X-37.898 Y-40.884
G1 X-38.169 Y-40.711
G1 X-38.64 Y-40.275
G1 X-38.969 Y-39.723
G1 X-39.19 Y-39.12
G1 X-39.335 Y-38.495
G1 X-39.431 Y-37.859
G1 X-39.493 Y-37.22
G1 X-39.533 Y-36.579
G1 X-39.56 Y-35.938
G1 X-39.577 Y-35.296
G1 X-39.588 Y-34.654
G1 X-39.595 Y-34.012
G1 X-39.599 Y-33.369
G1 X-39.603 Y-32.565
G1 X-39.614 Y-32.445
G1 X-39.648 Y-32.329
G1 X-39.704 Y-32.222
G1 X-39.778 Y-32.106
G1 X-39.841 Y-31.977
G1 X-39.848 Y-31.96
G1 X-39.901 Y-31.814
G1 X-39.937 Y-31.668
G1 X-39.962 Y-31.522
G1 X-39.972 Y-31.377
G1 X-39.974 Y-31.231
G1 Y-14.302
G1 X-39.971 Y-14.01
G1 X-39.969 Y-13.864
G1 X-39.95 Y-13.718
G1 X-39.917 Y-13.572
G1 X-39.814 Y-13.112
G1 X-39.729 Y-12.475
G1 X-39.679 Y-11.835
G1 X-39.65 Y-11.194
G1 X-39.633 Y-10.552
G1 X-39.622 Y-9.91
G1 X-39.616 Y-9.267
G1 X-39.613 Y-8.625
G1 X-39.609 Y-7.341
G1 X-39.608 Y-4.772
G1 X-39.607 Y14.792
G1 X-39.61 Y14.846
G1 X-39.617 Y14.9
G1 X-39.628 Y14.953
G1 X-39.76 Y15.469
G1 X-39.869 Y15.907
G1 X-39.987 Y16.395
G1 X-40.076 Y16.783
G1 X-40.173 Y17.221
G1 X-40.205 Y17.367
G1 X-40.296 Y17.804
G1 X-40.382 Y18.242
G1 X-40.463 Y18.68
G1 X-40.489 Y18.826
G1 X-40.571 Y19.299
G1 X-40.635 Y19.702
G1 X-40.716 Y20.246
G1 X-40.762 Y20.577
G1 X-40.817 Y21.015
G1 X-40.835 Y21.161
G1 X-40.884 Y21.599
G1 X-40.914 Y21.891
G1 X-40.943 Y22.182
G1 X-40.981 Y22.62
G1 X-41.012 Y23.058
G1 X-41.029 Y23.317
; MOVEMENT_LEAD_OUT
G1 X-41.034 Y23.36
G1 X-41.046 Y23.402
G1 X-41.063 Y23.442
G1 X-41.085 Y23.48
G1 X-41.113 Y23.514
G1 X-41.144 Y23.543
G1 X-41.176 Y23.573
G1 X-41.203 Y23.607
G1 X-41.225 Y23.644
G1 X-41.243 Y23.684
G1 X-41.254 Y23.725
G1 X-41.26 Y23.768
G1 X-41.277 Y24.031
; MOVEMENT_LINK_DIRECT
G1 X-41.382 Y25.623
G1 Y25.664
G1 X-41.377 Y25.704
G1 X-41.366 Y25.744
G1 X-41.351 Y25.782
G1 X-41.331 Y25.817
G1 X-41.279 Y25.902
G1 X-41.232 Y25.99
G1 X-41.192 Y26.08
G1 X-41.157 Y26.173
G1 X-41.128 Y26.268
G1 X-41.105 Y26.364
G1 X-41.087 Y26.462
G1 X-41.077 Y26.561
; MOVEMENT_CUTTING
G1 X-41.057 Y26.998
G1 X-41.03 Y27.436
G1 X-40.996 Y27.874
G1 X-40.969 Y28.166
G1 X-40.939 Y28.458
G1 X-40.889 Y28.896
G1 X-40.831 Y29.333
G1 X-40.766 Y29.771
G1 X-40.716 Y30.068
G1 X-40.667 Y30.355
G1 X-40.585 Y30.793
G1 X-40.494 Y31.231
G1 X-40.462 Y31.377
G1 X-40.396 Y31.668
G1 X-40.362 Y31.814
G1 X-40.279 Y32.151
G1 X-40.252 Y32.252
G1 X-40.133 Y32.7
G1 X-40.009 Y33.128
G1 X-39.862 Y33.753
G1 X-39.757 Y34.386
G1 X-39.696 Y35.026
G1 X-39.66 Y35.667
G1 X-39.639 Y36.309
G1 X-39.626 Y36.951
G1 X-39.622 Y37.272
G1 X-39.584 Y37.591
G1 X-39.473 Y37.892
G1 X-39.3 Y38.163
G1 X-38.864 Y38.634
G1 X-38.313 Y38.964
G1 X-37.711 Y39.186
G1 X-37.435 Y39.25
G1 X-37.283 Y39.303
G1 X-37.149 Y39.393
G1 X-37.041 Y39.513
; MOVEMENT_RAPID
G0 Z3 F300
G0 X-40.663 Y32.249 F2500
G0 Z-2.365 F300
; MOVEMENT_LEAD_IN
G1 Z-2.682 F480
G1 X-40.661 Y32.251 Z-2.732
G1 X-40.652 Y32.259 Z-2.781
G1 X-40.638 Y32.272 Z-2.827
G1 X-40.619 Y32.29 Z-2.869
G1 X-40.596 Y32.312 Z-2.907
G1 X-40.568 Y32.338 Z-2.939
G1 X-40.537 Y32.367 Z-2.965
G1 X-40.503 Y32.399 Z-2.984
G1 X-40.468 Y32.432 Z-2.996
G1 X-40.432 Y32.466 Z-3
G1 X-40.361 Y32.536
G1 X-40.296 Y32.61
G1 X-40.235 Y32.688
G1 X-40.179 Y32.77
G1 X-40.128 Y32.855
G1 X-40.083 Y32.944
G1 X-40.043 Y33.035
G1 X-40.009 Y33.128
; MOVEMENT_CUTTING
G1 X-39.987 Y33.205
G1 X-39.83 Y33.712
G1 X-39.691 Y34.149
G1 X-39.543 Y34.587
G1 X-39.491 Y34.733
G1 X-39.329 Y35.171
G1 X-39.155 Y35.609
G1 X-38.965 Y36.054
G1 X-38.839 Y36.338
G1 X-38.771 Y36.484
G1 X-38.673 Y36.688
G1 X-38.488 Y37.068
G1 X-38.382 Y37.277
G1 X-38.261 Y37.506
G1 X-38.02 Y37.944
G1 X-37.938 Y38.09
G1 X-37.853 Y38.236
G1 X-37.766 Y38.382
G1 X-37.678 Y38.527
G1 X-37.405 Y38.965
G1 X-37.116 Y39.403
G1 X-37.016 Y39.549
G1 X-36.916 Y39.695
G1 X-36.776 Y39.891
G1 X-36.598 Y40.133
G1 X-36.484 Y40.286
G1 X-36.379 Y40.425
G1 X-36.033 Y40.862
G1 X-35.901 Y41.019
G1 X-35.782 Y41.154
; MOVEMENT_LEAD_OUT
G1 X-35.755 Y41.189
G1 X-35.734 Y41.227
G1 X-35.718 Y41.267
G1 X-35.707 Y41.31
G1 X-35.703 Y41.353
G1 X-35.704 Y41.397
G1 X-35.705 Y41.446
G1 X-35.699 Y41.495
G1 X-35.685 Y41.543
G1 X-35.664 Y41.587
G1 X-35.636 Y41.628
G1 X-35.602 Y41.664
G1 X-35.434 Y41.816
; MOVEMENT_LINK_DIRECT
G1 X-35.181 Y42.046
G1 X-35.143 Y42.076
G1 X-35.101 Y42.099
G1 X-35.056 Y42.116
G1 X-35.008 Y42.126
G1 X-34.96 Y42.128
G1 X-34.912 Y42.124
G1 X-34.865 Y42.111
G1 X-34.821 Y42.092
G1 X-34.78 Y42.067
G1 X-34.743 Y42.035
G1 X-34.712 Y41.999
G1 X-34.651 Y41.92
G1 X-34.585 Y41.846
G1 X-34.515 Y41.776
G1 X-34.44 Y41.711
G1 X-34.361 Y41.65
G1 X-34.279 Y41.595
G1 X-34.194 Y41.545
G1 X-34.105 Y41.5
; MOVEMENT_CUTTING
G1 X-33.98 Y41.446
G1 X-33.857 Y41.382
G1 X-33.712 Y41.297
G1 X-32.245 Y40.425
G1 X-31.877 Y40.23
G1 X-31.561 Y40.097
G1 X-31.13 Y39.96
G1 X-30.503 Y39.82
G1 X-29.867 Y39.735
G1 X-29.227 Y39.685
G1 X-28.585 Y39.654
G1 X-27.943 Y39.636
G1 X-27.301 Y39.625
G1 X-26.659 Y39.618
G1 X-26.017 Y39.614
G1 X-24.732 Y39.61
G1 X-22.961 Y39.608
G1 X-22.76 Y39.64
G1 X-22.579 Y39.734
G1 X-22.437 Y39.88
G1 X-22.412 Y39.914
G1 X-22.343 Y39.987
G1 X-22.182 Y40.135
G1 X-22.037 Y40.237
G1 X-21.973 Y40.279
G1 X-21.891 Y40.321
G1 X-21.745 Y40.385
G1 X-21.599 Y40.43
G1 X-21.453 Y40.46
G1 X-21.307 Y40.478
G1 X-21.161 Y40.484
G1 X-21.015 Y40.478
G1 X-9.048 Y39.889
G1 X-8.902 Y39.875
G1 X-8.586 Y39.841
G1 X-8.549 Y39.832
G1 X-8.228 Y39.769
G1 X-7.589 Y39.703
G1 X-6.948 Y39.664
G1 X-6.306 Y39.641
G1 X-5.664 Y39.627
G1 X-5.022 Y39.619
G1 X-4.38 Y39.614
G1 X-3.738 Y39.612
G1 X-2.454 Y39.609
G1 X1.4 Y39.608
G1 X14.225 Y39.607
G1 X14.322 Y39.615
G1 X14.418 Y39.637
G1 X14.509 Y39.674
G1 X14.74 Y39.785
G1 X14.886 Y39.853
G1 X15.032 Y39.919
G1 X15.469 Y40.111
G1 X15.907 Y40.294
G1 X16.345 Y40.459
G1 X16.491 Y40.509
G1 X16.783 Y40.607
G1 X16.929 Y40.653
G1 X17.221 Y40.739
G1 X17.367 Y40.78
G1 X17.804 Y40.892
G1 X18.242 Y40.988
G1 X18.388 Y41.016
G1 X18.51 Y41.038
; MOVEMENT_RAPID
G0 Z3 F300
G0 X-9.454 Y40.45 F2500
G0 Z-2.365 F300
; MOVEMENT_LEAD_IN
G1 Z-2.682 F480
G1 X-9.451 Y40.448 Z-2.732
G1 X-9.443 Y40.439 Z-2.781
G1 X-9.429 Y40.426 Z-2.827
G1 X-9.411 Y40.408 Z-2.869
G1 X-9.388 Y40.385 Z-2.907
G1 X-9.361 Y40.358 Z-2.939
G1 X-9.33 Y40.329 Z-2.965
G1 X-9.298 Y40.296 Z-2.984
G1 X-9.263 Y40.262 Z-2.996
G1 X-9.228 Y40.227 Z-3
G1 X-9.155 Y40.16
G1 X-9.078 Y40.097
G1 X-8.997 Y40.039
G1 X-8.913 Y39.987
G1 X-8.826 Y39.94
G1 X-8.736 Y39.898
G1 X-8.644 Y39.862
G1 X-8.549 Y39.832
; MOVEMENT_CUTTING
G1 X-8.464 Y39.811
G1 X-8.318 Y39.759
G1 X-8.172 Y39.69
G1 X-8.027 Y39.597
G1 X-7.958 Y39.549
G1 X-7.774 Y39.387
G1 X-7.761 Y39.37
G1 X-7.661 Y39.258
G1 X-7.547 Y39.153
G1 X-7.402 Y39.041
G1 X-7.215 Y38.921
G1 X-6.972 Y38.795
G1 X-6.652 Y38.663
G1 X-6.215 Y38.527
G1 X-5.587 Y38.391
G1 X-4.95 Y38.31
G1 X-4.31 Y38.261
G1 X-3.668 Y38.232
G1 X-3.026 Y38.214
G1 X-2.384 Y38.204
G1 X-1.742 Y38.197
G1 X-1.1 Y38.193
G1 X0.184 Y38.19
G1 X2.753 Y38.188
G1 X11.937
G1 X12.074 Y38.202
G1 X12.205 Y38.246
G1 X12.323 Y38.317
G1 X12.409 Y38.382
G1 X12.551 Y38.486
G1 X12.609 Y38.527
G1 X13.033 Y38.819
G1 X13.134 Y38.886
G1 X13.491 Y39.111
G1 X13.572 Y39.161
G1 X13.864 Y39.331
G1 X14.01 Y39.414
G1 X14.448 Y39.644
G1 X14.509 Y39.674
; MOVEMENT_LEAD_OUT
G1 X14.55 Y39.7
G1 X14.587 Y39.733
G1 X14.618 Y39.771
G1 X14.643 Y39.813
G1 X14.661 Y39.859
G1 X14.672 Y39.906
G1 X14.676 Y39.955
G1 X14.672 Y40.004
G1 X14.66 Y40.052
G1 X14.641 Y40.097
G1 X14.616 Y40.139
G1 X14.584 Y40.176
G1 X14.547 Y40.209
G1 X14.505 Y40.235
G1 X14.46 Y40.254
G1 X14.413 Y40.266
G1 X14.364 Y40.275 Z-2.996
G1 X14.316 Y40.283 Z-2.984
G1 X14.271 Y40.291 Z-2.965
G1 X14.229 Y40.298 Z-2.939
G1 X14.192 Y40.305 Z-2.907
G1 X14.16 Y40.311 Z-2.869
G1 X14.134 Y40.315 Z-2.827
G1 X14.115 Y40.318 Z-2.781
G1 X14.104 Y40.32 Z-2.732
G1 X14.1 Y40.321 Z-2.682
; MOVEMENT_RAPID
G0 Z3 F300
G0 X-8.103 Y40.411 F2500
G0 Z-2.365 F300
; MOVEMENT_LEAD_IN
G1 Z-2.682 F480
G1 Y40.408 Z-2.732
G1 X-8.101 Y40.396 Z-2.781
G1 X-8.098 Y40.377 Z-2.827
G1 X-8.095 Y40.351 Z-2.869
G1 X-8.09 Y40.319 Z-2.907
G1 X-8.085 Y40.282 Z-2.939
G1 X-8.079 Y40.24 Z-2.965
G1 X-8.073 Y40.194 Z-2.984
G1 X-8.066 Y40.146 Z-2.996
G1 X-8.059 Y40.097 Z-3
G1 X-8.042 Y39.999
G1 X-8.019 Y39.903
G1 X-7.991 Y39.808
G1 X-7.956 Y39.715
G1 X-7.915 Y39.624
G1 X-7.869 Y39.537
G1 X-7.818 Y39.452
G1 X-7.761 Y39.37
; MOVEMENT_CUTTING
G1 X-7.67 Y39.257
G1 X-7.589 Y39.145
G1 X-7.506 Y39.002
G1 X-7.491 Y38.965
G1 X-7.386 Y38.673
G1 X-7.358 Y38.593
G1 X-7.302 Y38.454
G1 X-7.227 Y38.324
G1 X-7.139 Y38.203
G1 X-7.019 Y38.067
G1 X-6.873 Y37.927
G1 X-6.699 Y37.788
G1 X-6.469 Y37.635
G1 X-6.194 Y37.487
G1 X-5.828 Y37.329
G1 X-5.359 Y37.174
G1 X-4.734 Y37.028
G1 X-4.099 Y36.934
G1 X-3.459 Y36.873
G1 X-2.818 Y36.835
G1 X-2.176 Y36.81
G1 X-1.534 Y36.794
G1 X-0.892 Y36.784
G1 X-0.25 Y36.778
G1 X0.392 Y36.774
G1 X1.676 Y36.77
G1 X4.245 Y36.768
G1 X10.271
G1 X10.43 Y36.788
G1 X10.579 Y36.847
G1 X10.709 Y36.941
G1 X11.091 Y37.296
G1 X11.16 Y37.36
G1 X11.237 Y37.429
G1 X11.529 Y37.681
G1 X11.675 Y37.805
G1 X11.844 Y37.944
G1 X12.113 Y38.158
G1 X12.323 Y38.317
; MOVEMENT_LEAD_OUT
G1 X12.359 Y38.351
G1 X12.389 Y38.39
G1 X12.412 Y38.433
G1 X12.429 Y38.479
G1 X12.439 Y38.527
G1 X12.44 Y38.576
G1 X12.435 Y38.625
G1 X12.422 Y38.672
G1 X12.401 Y38.717
G1 X12.374 Y38.758
G1 X12.342 Y38.794
G1 X12.304 Y38.825
G1 X12.261 Y38.85
G1 X12.215 Y38.867
G1 X12.168 Y38.878
G1 X12.119 Y38.881
G1 X12.069 Y38.88 Z-2.996
G1 X12.021 Z-2.984
G1 X11.975 Y38.879 Z-2.965
G1 X11.932 Y38.878 Z-2.939
G1 X11.894 Z-2.907
G1 X11.862 Y38.877 Z-2.869
G1 X11.836 Z-2.827
G1 X11.817 Z-2.781
G1 X11.805 Z-2.732
G1 X11.801 Y38.876 Z-2.682
; MOVEMENT_RAPID
G0 Z3 F300
G0 X-7.33 Y39.689 F2500
G0 Z-2.365 F300
; MOVEMENT_LEAD_IN
G1 Z-2.682 F480
G1 X-7.331 Y39.685 Z-2.732
G1 X-7.333 Y39.673 Z-2.781
G1 X-7.337 Y39.655 Z-2.827
G1 X-7.343 Y39.629 Z-2.869
G1 X-7.349 Y39.597 Z-2.907
G1 X-7.357 Y39.56 Z-2.939
G1 X-7.365 Y39.519 Z-2.965
G1 X-7.375 Y39.474 Z-2.984
G1 X-7.384 Y39.426 Z-2.996
G1 X-7.395 Y39.378 Z-3
G1 X-7.412 Y39.28
G1 X-7.422 Y39.181
G1 X-7.427 Y39.082
G1 X-7.426 Y38.983
G1 X-7.418 Y38.884
G1 X-7.404 Y38.786
G1 X-7.384 Y38.689
G1 X-7.358 Y38.593
; MOVEMENT_CUTTING
G1 X-7.335 Y38.527
G1 X-7.019 Y37.506
G1 X-6.968 Y37.365
G1 X-6.904 Y37.229
G1 X-6.824 Y37.097
G1 X-6.714 Y36.946
G1 X-6.588 Y36.802
G1 X-6.421 Y36.643
G1 X-6.204 Y36.47
G1 X-5.961 Y36.309
G1 X-5.633 Y36.132
G1 X-5.241 Y35.963
G1 X-4.715 Y35.79
G1 X-4.09 Y35.644
G1 X-3.455 Y35.545
G1 X-2.817 Y35.479
G1 X-2.176 Y35.434
G1 X-1.535 Y35.405
G1 X-0.893 Y35.385
G1 X-0.251 Y35.372
G1 X0.392 Y35.363
G1 X1.034 Y35.358
G1 X1.676 Y35.354
G1 X2.96 Y35.35
G1 X5.529 Y35.348
G1 X8.941
G1 X9.127 Y35.375
G1 X9.297 Y35.456
G1 X9.437 Y35.583
G1 X9.703 Y35.901
G1 X9.778 Y35.986
G1 X10.108 Y36.338
G1 X10.216 Y36.452
G1 X10.247 Y36.484
G1 X10.689 Y36.922
G1 X10.709 Y36.941
; MOVEMENT_LEAD_OUT
G1 X10.741 Y36.978
G1 X10.766 Y37.02
G1 X10.785 Y37.065
G1 X10.797 Y37.113
G1 X10.801 Y37.162
G1 X10.798 Y37.21
G1 X10.787 Y37.258
G1 X10.769 Y37.304
G1 X10.744 Y37.346
G1 X10.713 Y37.384
G1 X10.677 Y37.417
G1 X10.636 Y37.444
G1 X10.591 Y37.464
G1 X10.544 Y37.477
G1 X10.495 Y37.482
G1 X10.446 Y37.48
G1 X10.397 Y37.474 Z-2.996
G1 X10.348 Y37.468 Z-2.984
G1 X10.303 Y37.463 Z-2.965
G1 X10.261 Y37.458 Z-2.939
G1 X10.223 Y37.453 Z-2.907
G1 X10.191 Y37.449 Z-2.869
G1 X10.165 Y37.446 Z-2.827
G1 X10.146 Y37.444 Z-2.781
G1 X10.134 Y37.442 Z-2.732
G1 X10.131 Z-2.682
; MOVEMENT_RAPID
G0 Z3 F300
G0 X-6.956 Y38.6 F2500
G0 Z-2.365 F300
; MOVEMENT_LEAD_IN
G1 Z-2.682 F480
G1 X-6.957 Y38.596 Z-2.732
G1 X-6.96 Y38.585 Z-2.781
G1 X-6.964 Y38.566 Z-2.827
G1 X-6.97 Y38.541 Z-2.869
G1 X-6.978 Y38.509 Z-2.907
G1 X-6.987 Y38.473 Z-2.939
G1 X-6.997 Y38.431 Z-2.965
G1 X-7.007 Y38.387 Z-2.984
G1 X-7.019 Y38.339 Z-2.996
G1 X-7.03 Y38.291 Z-3
G1 X-7.051 Y38.194
G1 X-7.065 Y38.096
G1 X-7.073 Y37.997
G1 X-7.074 Y37.898
G1 X-7.07 Y37.799
G1 X-7.059 Y37.7
G1 X-7.042 Y37.602
G1 X-7.019 Y37.506
; MOVEMENT_CUTTING
G1 X-6.613 Y36.192
G1 X-6.562 Y36.052
G1 X-6.492 Y35.912
G1 X-6.408 Y35.775
G1 X-6.293 Y35.621
G1 X-6.142 Y35.452
G1 X-5.97 Y35.291
G1 X-5.737 Y35.109
G1 X-5.463 Y34.931
G1 X-5.109 Y34.745
G1 X-4.678 Y34.564
G1 X-4.097 Y34.379
G1 X-3.471 Y34.239
G1 X-2.836 Y34.142
G1 X-2.197 Y34.074
G1 X-1.557 Y34.027
G1 X-0.915 Y33.995
G1 X-0.274 Y33.973
G1 X0.368 Y33.958
G1 X1.01 Y33.948
G1 X1.653 Y33.941
G1 X2.295 Y33.937
G1 X2.937 Y33.933
G1 X4.221 Y33.93
G1 X6.79 Y33.928
G1 X7.937
G1 X8.148 Y33.964
G1 X8.336 Y34.068
G1 X8.479 Y34.228
G1 X8.705 Y34.587
G1 X8.756 Y34.665
G1 X8.905 Y34.879
G1 X9.007 Y35.025
G1 X9.048 Y35.081
G1 X9.225 Y35.317
G1 X9.34 Y35.465
G1 X9.437 Y35.583
; MOVEMENT_LEAD_OUT
G1 X9.463 Y35.624
G1 X9.483 Y35.669
G1 X9.496 Y35.717
G1 X9.501 Y35.765
G1 X9.499 Y35.814
G1 X9.489 Y35.862
G1 X9.472 Y35.908
G1 X9.448 Y35.951
G1 X9.418 Y35.99
G1 X9.382 Y36.023
G1 X9.342 Y36.051
G1 X9.297 Y36.072
G1 X9.25 Y36.086
G1 X9.202 Y36.092
G1 X9.153 Y36.091
G1 X9.104 Y36.083
G1 X9.056 Y36.07 Z-2.996
G1 X9.009 Y36.058 Z-2.984
G1 X8.965 Y36.047 Z-2.965
G1 X8.924 Y36.036 Z-2.939
G1 X8.887 Y36.026 Z-2.907
G1 X8.856 Y36.018 Z-2.869
G1 X8.831 Y36.012 Z-2.827
G1 X8.812 Y36.007 Z-2.781
G1 X8.801 Y36.004 Z-2.732
G1 X8.797 Y36.003 Z-2.682
; MOVEMENT_RAPID
G0 Z3 F300
G0 X-6.55 Y37.286 F2500
G0 Z-2.365 F300
; MOVEMENT_LEAD_IN
G1 Z-2.682 F480
G1 X-6.551 Y37.283 Z-2.732
G1 X-6.554 Y37.271 Z-2.781
G1 X-6.558 Y37.253 Z-2.827
G1 X-6.564 Y37.227 Z-2.869
G1 X-6.572 Y37.196 Z-2.907
G1 X-6.581 Y37.159 Z-2.939
G1 X-6.591 Y37.118 Z-2.965
G1 X-6.601 Y37.073 Z-2.984
G1 X-6.613 Y37.026 Z-2.996
G1 X-6.624 Y36.978 Z-3
G1 X-6.645 Y36.881
G1 X-6.659 Y36.782
G1 X-6.667 Y36.684
G1 X-6.668 Y36.584
G1 X-6.664 Y36.485
G1 X-6.653 Y36.387
G1 X-6.636 Y36.289
G1 X-6.613 Y36.192
; MOVEMENT_CUTTING
G1 X-6.208 Y34.879
G1 X-6.156 Y34.738
G1 X-6.092 Y34.603
G1 X-6.002 Y34.45
G1 X-5.895 Y34.302
G1 X-5.751 Y34.135
G1 X-5.564 Y33.954
G1 X-5.352 Y33.782
G1 X-5.063 Y33.587
G1 X-4.732 Y33.405
G1 X-4.292 Y33.211
G1 X-3.721 Y33.018
G1 X-3.097 Y32.867
G1 X-2.463 Y32.76
G1 X-1.826 Y32.684
G1 X-1.186 Y32.63
G1 X-0.545 Y32.592
G1 X0.097 Y32.566
G1 X0.739 Y32.548
G1 X1.381 Y32.535
G1 X2.023 Y32.526
G1 X2.665 Y32.52
G1 X3.307 Y32.516
G1 X4.592 Y32.511
G1 X6.518 Y32.509
G1 X7.157 Y32.512
G1 X7.238 Y32.519
G1 X7.401 Y32.557
G1 X7.548 Y32.634
G1 X7.671 Y32.748
G1 X7.76 Y32.889
G1 X7.803 Y32.982
G1 X7.881 Y33.145
G1 X8.098 Y33.566
G1 X8.176 Y33.712
G1 X8.318 Y33.963
G1 X8.429 Y34.149
G1 X8.479 Y34.228
; MOVEMENT_LEAD_OUT
G1 X8.501 Y34.273
G1 X8.515 Y34.321
G1 X8.521 Y34.371
G1 X8.52 Y34.421
G1 X8.511 Y34.471
G1 X8.494 Y34.518
G1 X8.47 Y34.562
G1 X8.439 Y34.601
G1 X8.402 Y34.636
G1 X8.361 Y34.664
G1 X8.315 Y34.685
G1 X8.267 Y34.699
G1 X8.217 Y34.705
G1 X8.085 Y34.71
; MOVEMENT_LINK_DIRECT
G1 X-5.699 Y35.272
; MOVEMENT_LEAD_IN
G1 X-5.888 Y35.279
G1 X-5.938 Y35.277
G1 X-5.986 Y35.268
G1 X-6.033 Y35.251
G1 X-6.076 Y35.227
G1 X-6.115 Y35.196
G1 X-6.149 Y35.16
G1 X-6.177 Y35.119
G1 X-6.198 Y35.074
G1 X-6.212 Y35.026
G1 X-6.218 Y34.977
G1 X-6.217 Y34.928
G1 X-6.208 Y34.879
; MOVEMENT_CUTTING
G1 X-5.802 Y33.566
G1 X-5.736 Y33.385
G1 X-5.671 Y33.246
G1 X-5.583 Y33.095
G1 X-5.476 Y32.944
G1 X-5.33 Y32.772
G1 X-5.148 Y32.593
G1 X-4.93 Y32.414
G1 X-4.642 Y32.217
G1 X-4.306 Y32.029
G1 X-3.866 Y31.831
G1 X-3.291 Y31.633
G1 X-2.668 Y31.477
G1 X-2.036 Y31.366
G1 X-1.399 Y31.285
G1 X-0.759 Y31.227
G1 X-0.118 Y31.186
G1 X0.523 Y31.157
G1 X1.165 Y31.136
G1 X1.807 Y31.121
G1 X2.449 Y31.111
G1 X3.091 Y31.103
G1 X3.733 Y31.098
G1 X4.376 Y31.095
G1 X5.66 Y31.091
G1 X6.302 Y31.092
G1 X6.677 Y31.121
G1 X6.722 Y31.128
G1 X6.886 Y31.179
G1 X7.031 Y31.272
G1 X7.146 Y31.4
G1 X7.223 Y31.554
G1 X7.297 Y31.769
G1 X7.368 Y31.96
G1 X7.443 Y32.153
G1 X7.483 Y32.252
G1 X7.668 Y32.69
G1 X7.76 Y32.889
; MOVEMENT_LEAD_OUT
G1 X7.775 Y32.933
G1 X7.783 Y32.979
G1 X7.784 Y33.026
G1 X7.779 Y33.073
G1 X7.766 Y33.118
G1 X7.748 Y33.161
G1 X7.723 Y33.2
G1 X7.692 Y33.236
G1 X7.657 Y33.267
G1 X7.617 Y33.292
G1 X7.574 Y33.311
G1 X7.529 Y33.323
G1 X7.483 Y33.329
G1 X7.307 Y33.338
; MOVEMENT_LINK_DIRECT
G1 X-5.293 Y33.957
; MOVEMENT_LEAD_IN
G1 X-5.48 Y33.966
G1 X-5.53 Y33.964
G1 X-5.579 Y33.955
G1 X-5.626 Y33.938
G1 X-5.669 Y33.914
G1 X-5.709 Y33.884
G1 X-5.743 Y33.848
G1 X-5.771 Y33.807
G1 X-5.792 Y33.762
G1 X-5.806 Y33.714
G1 X-5.813 Y33.664
G1 X-5.811 Y33.615
G1 X-5.802 Y33.566
; MOVEMENT_CUTTING
G1 X-5.352 Y32.106
G1 X-5.3 Y31.965
G1 X-5.225 Y31.818
G1 X-5.131 Y31.667
G1 X-5.01 Y31.506
G1 X-4.844 Y31.323
G1 X-4.654 Y31.147
G1 X-4.407 Y30.957
G1 X-4.102 Y30.762
G1 X-3.712 Y30.559
G1 X-3.233 Y30.362
G1 X-2.62 Y30.171
G1 X-1.993 Y30.032
G1 X-1.359 Y29.93
G1 X-0.721 Y29.857
G1 X-0.081 Y29.803
G1 X0.56 Y29.764
G1 X1.201 Y29.736
G1 X1.843 Y29.716
G1 X2.485 Y29.702
G1 X3.127 Y29.692
G1 X3.769 Y29.684
G1 X4.412 Y29.679
G1 X5.054 Y29.676
G1 X5.696 Y29.683
G1 X6.112 Y29.716
G1 X6.296 Y29.747
G1 X6.469 Y29.802
G1 X6.619 Y29.904
G1 X6.735 Y30.043
G1 X6.807 Y30.209
G1 X6.859 Y30.397
G1 X6.978 Y30.793
G1 X7.113 Y31.231
G1 X7.212 Y31.522
G1 X7.223 Y31.554
; MOVEMENT_LEAD_OUT
G1 X7.233 Y31.601
G1 X7.236 Y31.649
G1 X7.232 Y31.697
G1 X7.221 Y31.744
G1 X7.203 Y31.788
G1 X7.178 Y31.829
G1 X7.147 Y31.866
G1 X7.111 Y31.898
G1 X7.071 Y31.925
G1 X7.027 Y31.944
G1 X6.981 Y31.957
G1 X6.933 Y31.963
G1 X6.725 Y31.973
; MOVEMENT_LINK_DIRECT
G1 X-4.843 Y32.498
; MOVEMENT_LEAD_IN
G1 X-5.031 Y32.506
G1 X-5.08 Y32.505
G1 X-5.129 Y32.495
G1 X-5.176 Y32.478
G1 X-5.219 Y32.454
G1 X-5.259 Y32.424
G1 X-5.293 Y32.388
G1 X-5.321 Y32.347
G1 X-5.342 Y32.302
G1 X-5.356 Y32.254
G1 X-5.362 Y32.205
G1 X-5.361 Y32.155
G1 X-5.352 Y32.106
; MOVEMENT_CUTTING
G1 X-4.946 Y30.793
G1 X-4.88 Y30.612
G1 X-4.817 Y30.476
G1 X-4.728 Y30.324
G1 X-4.61 Y30.157
G1 X-4.47 Y29.994
G1 X-4.28 Y29.808
G1 X-4.051 Y29.62
G1 X-3.766 Y29.426
G1 X-3.409 Y29.227
G1 X-2.946 Y29.021
G1 X-2.35 Y28.816
G1 X-1.727 Y28.662
G1 X-1.094 Y28.549
G1 X-0.458 Y28.467
G1 X0.182 Y28.407
G1 X0.822 Y28.362
G1 X1.464 Y28.33
G1 X2.106 Y28.307
G1 X2.748 Y28.29
G1 X3.39 Y28.278
G1 X4.032 Y28.269
G1 X4.674 Y28.266
G1 X5.316 Y28.281
G1 X5.731 Y28.323
G1 X6.038 Y28.383
G1 X6.199 Y28.454
G1 X6.334 Y28.566
G1 X6.434 Y28.711
G1 X6.491 Y28.878
G1 X6.586 Y29.333
G1 X6.691 Y29.771
G1 X6.713 Y29.859
G1 X6.807 Y30.209
; MOVEMENT_LEAD_OUT
G1 X6.814 Y30.255
G1 X6.815 Y30.301
G1 X6.809 Y30.347
G1 X6.796 Y30.392
G1 X6.777 Y30.434
G1 X6.752 Y30.473
G1 X6.722 Y30.508
G1 X6.687 Y30.538
G1 X6.648 Y30.563
G1 X6.605 Y30.581
G1 X6.561 Y30.594
G1 X6.515 Y30.6
G1 X6.286 Y30.612
; MOVEMENT_LINK_DIRECT
G1 X-4.437 Y31.183
; MOVEMENT_LEAD_IN
G1 X-4.623 Y31.193
G1 X-4.673 Y31.191
G1 X-4.722 Y31.182
G1 X-4.769 Y31.166
G1 X-4.813 Y31.142
G1 X-4.852 Y31.112
G1 X-4.887 Y31.075
G1 X-4.915 Y31.034
G1 X-4.936 Y30.989
G1 X-4.951 Y30.941
G1 X-4.957 Y30.892
G1 X-4.956 Y30.842
G1 X-4.946 Y30.793
; MOVEMENT_CUTTING
G1 X-4.496 Y29.333
G1 X-4.445 Y29.192
G1 X-4.373 Y29.047
G1 X-4.275 Y28.888
G1 X-4.158 Y28.73
G1 X-3.997 Y28.55
G1 X-3.798 Y28.363
G1 X-3.559 Y28.176
G1 X-3.248 Y27.973
G1 X-2.868 Y27.772
G1 X-2.384 Y27.568
G1 X-1.772 Y27.372
G1 X-1.146 Y27.228
G1 X-0.513 Y27.122
G1 X0.125 Y27.043
G1 X0.764 Y26.985
G1 X1.405 Y26.942
G1 X2.046 Y26.911
G1 X2.688 Y26.888
G1 X3.33 Y26.872
G1 X3.972 Y26.863
G1 X4.614 Y26.869
G1 X5.189 Y26.904
G1 X5.557 Y26.959
G1 X5.835 Y27.026
G1 X5.843 Y27.029
G1 X6.001 Y27.109
G1 X6.131 Y27.228
G1 X6.224 Y27.379
G1 X6.272 Y27.549
G1 X6.317 Y27.874
G1 X6.386 Y28.312
G1 X6.421 Y28.507
G1 X6.491 Y28.878
; MOVEMENT_LEAD_OUT
G1 X6.495 Y28.926
G1 X6.491 Y28.975
G1 X6.48 Y29.022
G1 X6.462 Y29.067
G1 X6.438 Y29.108
G1 X6.407 Y29.146
G1 X6.371 Y29.178
G1 X6.331 Y29.205
G1 X6.287 Y29.225
G1 X6.24 Y29.238
G1 X6.192 Y29.244
G1 X5.94 Y29.256
; MOVEMENT_LINK_DIRECT
G1 X-3.987 Y29.725
; MOVEMENT_LEAD_IN
G1 X-4.175 Y29.733
G1 X-4.225 Y29.732
G1 X-4.274 Y29.723
G1 X-4.32 Y29.706
G1 X-4.364 Y29.682
G1 X-4.403 Y29.651
G1 X-4.437 Y29.615
G1 X-4.465 Y29.574
G1 X-4.487 Y29.529
G1 X-4.501 Y29.481
G1 X-4.507 Y29.432
G1 X-4.506 Y29.382
G1 X-4.496 Y29.333
; MOVEMENT_CUTTING
G1 X-4.092 Y28.02
G1 X-4.018 Y27.817
G1 X-3.954 Y27.681
G1 X-3.864 Y27.526
G1 X-3.746 Y27.361
G1 X-3.605 Y27.195
G1 X-3.411 Y27.005
G1 X-3.183 Y26.817
G1 X-2.892 Y26.619
G1 X-2.534 Y26.419
G1 X-2.066 Y26.209
G1 X-1.459 Y26
G1 X-0.835 Y25.845
G1 X-0.203 Y25.731
G1 X0.433 Y25.646
G1 X1.072 Y25.583
G1 X1.713 Y25.536
G1 X2.354 Y25.502
G1 X2.996 Y25.478
G1 X3.638 Y25.466
G1 X4.28 Y25.473
G1 X4.908 Y25.511
G1 X5.297 Y25.57
G1 X5.579 Y25.639
G1 X5.708 Y25.682
G1 X5.874 Y25.768
G1 X6.009 Y25.898
G1 X6.1 Y26.061
G1 X6.141 Y26.243
G1 X6.153 Y26.415
G1 X6.165 Y26.561
G1 X6.192 Y26.852
G1 X6.207 Y26.998
G1 X6.257 Y27.436
G1 X6.272 Y27.549
; MOVEMENT_LEAD_OUT
G1 X6.274 Y27.595
G1 X6.268 Y27.642
G1 X6.256 Y27.687
G1 X6.237 Y27.73
G1 X6.212 Y27.769
G1 X6.182 Y27.805
G1 X6.147 Y27.835
G1 X6.107 Y27.86
G1 X6.065 Y27.88
G1 X6.02 Y27.892
G1 X5.973 Y27.898
G1 X5.702 Y27.913
; MOVEMENT_LINK_DIRECT
G1 X-3.582 Y28.41
; MOVEMENT_LEAD_IN
G1 X-3.768 Y28.42
G1 X-3.818 Y28.419
G1 X-3.867 Y28.41
G1 X-3.914 Y28.393
G1 X-3.958 Y28.369
G1 X-3.998 Y28.339
G1 X-4.032 Y28.302
G1 X-4.06 Y28.261
G1 X-4.082 Y28.216
G1 X-4.096 Y28.168
G1 X-4.102 Y28.119
G1 X-4.101 Y28.069
G1 X-4.092 Y28.02
; MOVEMENT_CUTTING
G1 X-3.648 Y26.581
G1 X-3.59 Y26.422
G1 X-3.525 Y26.282
G1 X-3.432 Y26.122
G1 X-3.322 Y25.966
G1 X-3.174 Y25.792
G1 X-2.977 Y25.598
G1 X-2.756 Y25.416
G1 X-2.455 Y25.21
G1 X-2.105 Y25.014
G1 X-1.639 Y24.804
G1 X-1.033 Y24.594
G1 X-0.41 Y24.438
G1 X0.222 Y24.322
G1 X0.858 Y24.236
G1 X1.497 Y24.172
G1 X2.138 Y24.125
G1 X2.779 Y24.093
G1 X3.421 Y24.077
G1 X4.063 Y24.084
G1 X4.704 Y24.127
G1 X5.128 Y24.193
G1 X5.43 Y24.268
G1 X5.696 Y24.36
G1 X5.703 Y24.364
G1 X5.857 Y24.461
G1 X5.977 Y24.597
G1 X6.054 Y24.761
G1 X6.082 Y24.941
G1 X6.085 Y25.101
G1 X6.1 Y25.539
G1 X6.122 Y25.977
G1 X6.141 Y26.243
; MOVEMENT_LEAD_OUT
G1 X6.139 Y26.293
G1 X6.129 Y26.342
G1 X6.112 Y26.388
G1 X6.088 Y26.431
G1 X6.057 Y26.47
G1 X6.021 Y26.504
G1 X5.979 Y26.532
G1 X5.935 Y26.552
G1 X5.887 Y26.566
G1 X5.838 Y26.572
G1 X5.549 Y26.585
; MOVEMENT_LINK_DIRECT
G1 X-3.139 Y26.973
; MOVEMENT_LEAD_IN
G1 X-3.328 Y26.981
G1 X-3.377 Y26.98
G1 X-3.426 Y26.97
G1 X-3.473 Y26.953
G1 X-3.516 Y26.93
G1 X-3.556 Y26.899
G1 X-3.59 Y26.863
G1 X-3.618 Y26.822
G1 X-3.639 Y26.777
G1 X-3.653 Y26.729
G1 X-3.659 Y26.68
G1 X-3.658 Y26.63
G1 X-3.648 Y26.581
; MOVEMENT_CUTTING
G1 X-3.211 Y25.16
G1 X-3.158 Y25.015
G1 X-3.092 Y24.875
G1 X-3 Y24.715
G1 X-2.89 Y24.559
G1 X-2.741 Y24.384
G1 X-2.545 Y24.191
G1 X-2.323 Y24.008
G1 X-2.02 Y23.801
G1 X-1.669 Y23.604
G1 X-1.202 Y23.394
G1 X-0.595 Y23.183
G1 X0.028 Y23.027
G1 X0.66 Y22.911
G1 X1.296 Y22.824
G1 X1.935 Y22.761
G1 X2.576 Y22.719
G1 X3.218 Y22.698
G1 X3.86 Y22.702
G1 X4.501 Y22.744
G1 X4.993 Y22.819
G1 X5.341 Y22.904
G1 X5.595 Y22.991
G1 X5.709 Y23.041
G1 X5.868 Y23.142
G1 X5.991 Y23.284
G1 X6.067 Y23.455
G1 X6.091 Y23.642
G1 X6.082 Y24.08
G1 X6.078 Y24.517
G1 X6.082 Y24.941
; MOVEMENT_LEAD_OUT
G1 X6.077 Y24.988
G1 X6.065 Y25.035
G1 X6.047 Y25.079
G1 X6.022 Y25.12
G1 X5.991 Y25.156
G1 X5.954 Y25.188
G1 X5.914 Y25.214
G1 X5.87 Y25.233
G1 X5.824 Y25.245
G1 X5.776 Y25.251
G1 X5.471 Y25.262
; MOVEMENT_LINK_DIRECT
G1 X-2.701 Y25.553
; MOVEMENT_LEAD_IN
G1 X-2.893 Y25.56
G1 X-2.942 Y25.558
G1 X-2.991 Y25.548
G1 X-3.037 Y25.531
G1 X-3.08 Y25.507
G1 X-3.119 Y25.476
G1 X-3.153 Y25.44
G1 X-3.18 Y25.399
G1 X-3.201 Y25.354
G1 X-3.215 Y25.307
G1 X-3.221 Y25.258
G1 X-3.22 Y25.208
G1 X-3.211 Y25.16
; MOVEMENT_CUTTING
G1 X-2.788 Y23.788
G1 X-2.722 Y23.605
G1 X-2.657 Y23.465
G1 X-2.564 Y23.305
G1 X-2.454 Y23.15
G1 X-2.305 Y22.974
G1 X-2.109 Y22.781
G1 X-1.886 Y22.598
G1 X-1.584 Y22.39
G1 X-1.231 Y22.193
G1 X-0.764 Y21.982
G1 X-0.157 Y21.772
G1 X0.466 Y21.616
G1 X1.098 Y21.5
G1 X1.734 Y21.417
G1 X2.374 Y21.36
G1 X3.016 Y21.329
G1 X3.658 Y21.328
G1 X4.299 Y21.365
G1 X4.859 Y21.441
G1 X5.248 Y21.53
G1 X5.537 Y21.624
G1 X5.786 Y21.73
G1 X5.818 Y21.747
G1 X5.966 Y21.856
G1 X6.077 Y22.002
G1 X6.141 Y22.173
G1 X6.155 Y22.356
G1 X6.137 Y22.62
G1 X6.112 Y23.058
G1 X6.101 Y23.35
G1 X6.091 Y23.642
; MOVEMENT_LEAD_OUT
G1 X6.084 Y23.688
G1 X6.071 Y23.733
G1 X6.052 Y23.776
G1 X6.026 Y23.815
G1 X5.995 Y23.85
G1 X5.959 Y23.879
G1 X5.919 Y23.904
G1 X5.876 Y23.922
G1 X5.83 Y23.934
G1 X5.784 Y23.938
G1 X5.467 Y23.948
; MOVEMENT_LINK_DIRECT
G1 X-2.279 Y24.182
; MOVEMENT_LEAD_IN
G1 X-2.472 Y24.188
G1 X-2.522 Y24.186
G1 X-2.57 Y24.176
G1 X-2.616 Y24.158
G1 X-2.659 Y24.134
G1 X-2.698 Y24.104
G1 X-2.731 Y24.067
G1 X-2.758 Y24.026
G1 X-2.779 Y23.982
G1 X-2.793 Y23.934
G1 X-2.799 Y23.885
G1 X-2.798 Y23.836
G1 X-2.788 Y23.788
; MOVEMENT_CUTTING
G1 X-2.34 Y22.328
G1 X-2.288 Y22.187
G1 X-2.221 Y22.045
G1 X-2.126 Y21.884
G1 X-2.013 Y21.728
G1 X-1.861 Y21.551
G1 X-1.662 Y21.357
G1 X-1.434 Y21.172
G1 X-1.126 Y20.965
G1 X-0.767 Y20.766
G1 X-0.295 Y20.558
G1 X0.313 Y20.352
G1 X0.937 Y20.2
G1 X1.57 Y20.091
G1 X2.208 Y20.017
G1 X2.848 Y19.974
G1 X3.49 Y19.964
G1 X4.132 Y19.993
G1 X4.728 Y20.065
G1 X5.195 Y20.163
G1 X5.533 Y20.266
G1 X5.782 Y20.367
G1 X5.922 Y20.439
G1 X6.079 Y20.552
G1 X6.194 Y20.706
G1 X6.259 Y20.887
G1 X6.267 Y21.08
G1 X6.258 Y21.161
G1 X6.215 Y21.599
G1 X6.202 Y21.745
G1 X6.167 Y22.182
G1 X6.155 Y22.356
; MOVEMENT_LEAD_OUT
G1 X6.147 Y22.401
G1 X6.132 Y22.445
G1 X6.112 Y22.486
G1 X6.085 Y22.524
G1 X6.053 Y22.558
G1 X6.017 Y22.586
G1 X5.977 Y22.609
G1 X5.934 Y22.626
G1 X5.889 Y22.637
G1 X5.843 Y22.641
G1 X5.52 Y22.644
; MOVEMENT_LINK_DIRECT
G1 X-1.83 Y22.726
; MOVEMENT_LEAD_IN
G1 X-2.029 Y22.729
G1 X-2.078 Y22.725
G1 X-2.126 Y22.715
G1 X-2.171 Y22.697
G1 X-2.213 Y22.672
G1 X-2.251 Y22.642
G1 X-2.284 Y22.606
G1 X-2.311 Y22.565
G1 X-2.331 Y22.52
G1 X-2.344 Y22.474
G1 X-2.35 Y22.425
G1 X-2.349 Y22.376
G1 X-2.34 Y22.328
; MOVEMENT_CUTTING
G1 X-1.897 Y20.89
G1 X-1.846 Y20.749
G1 X-1.774 Y20.604
G1 X-1.673 Y20.441
G1 X-1.554 Y20.282
G1 X-1.394 Y20.103
G1 X-1.187 Y19.909
G1 X-0.948 Y19.723
G1 X-0.63 Y19.517
G1 X-0.254 Y19.319
G1 X0.227 Y19.117
G1 X0.839 Y18.923
G1 X1.466 Y18.783
G1 X2.101 Y18.688
G1 X2.741 Y18.632
G1 X3.383 Y18.612
G1 X4.024 Y18.633
G1 X4.655 Y18.699
G1 X5.182 Y18.802
G1 X5.558 Y18.911
G1 X5.838 Y19.021
G1 X6.078 Y19.139
G1 X6.122 Y19.166
G1 X6.264 Y19.284
G1 X6.366 Y19.438
G1 X6.42 Y19.615
G1 X6.422 Y19.799
G1 X6.377 Y20.139
G1 X6.341 Y20.431
G1 X6.306 Y20.723
G1 X6.267 Y21.08
; MOVEMENT_LEAD_OUT
G1 X6.257 Y21.124
G1 X6.241 Y21.167
G1 X6.219 Y21.207
G1 X6.192 Y21.243
G1 X6.159 Y21.275
G1 X6.123 Y21.302
G1 X6.083 Y21.324
G1 X6.04 Y21.339
G1 X5.995 Y21.348
G1 X5.95 Y21.351
G1 X5.62 Y21.349
; MOVEMENT_LINK_DIRECT
G1 X-1.388 Y21.291
; MOVEMENT_LEAD_IN
G1 X-1.593 Y21.29
G1 X-1.641 Y21.286
G1 X-1.688 Y21.274
G1 X-1.733 Y21.256
G1 X-1.774 Y21.231
G1 X-1.811 Y21.2
G1 X-1.843 Y21.164
G1 X-1.87 Y21.124
G1 X-1.889 Y21.08
G1 X-1.902 Y21.033
G1 X-1.908 Y20.985
G1 X-1.906 Y20.937
G1 X-1.897 Y20.89
; MOVEMENT_CUTTING
G1 X-1.487 Y19.556
G1 X-1.42 Y19.372
G1 X-1.357 Y19.236
G1 X-1.268 Y19.082
G1 X-1.149 Y18.915
G1 X-1.009 Y18.75
G1 X-0.817 Y18.561
G1 X-0.588 Y18.374
G1 X-0.305 Y18.18
G1 X0.045 Y17.984
G1 X0.492 Y17.784
G1 X1.018 Y17.602
G1 X1.641 Y17.447
G1 X2.275 Y17.345
G1 X2.915 Y17.288
G1 X3.557 Y17.274
G1 X4.198 Y17.302
G1 X4.836 Y17.379
G1 X5.358 Y17.489
G1 X5.726 Y17.602
G1 X6.026 Y17.724
G1 X6.253 Y17.841
G1 X6.325 Y17.886
G1 X6.466 Y18.008
G1 X6.567 Y18.165
G1 X6.618 Y18.344
G1 X6.615 Y18.531
G1 X6.567 Y18.826
G1 X6.499 Y19.264
G1 X6.428 Y19.755
G1 X6.422 Y19.799
; MOVEMENT_LEAD_OUT
G1 X6.41 Y19.848
G1 X6.39 Y19.894
G1 X6.363 Y19.936
G1 X6.33 Y19.973
G1 X6.292 Y20.005
G1 X6.249 Y20.031
G1 X6.203 Y20.049
G1 X6.154 Y20.06
G1 X6.104 Y20.063
G1 X5.768 Y20.058
; MOVEMENT_LINK_DIRECT
G1 X-0.978 Y19.959
; MOVEMENT_LEAD_IN
G1 X-1.185 Y19.956
G1 X-1.233 Y19.951
G1 X-1.28 Y19.94
G1 X-1.324 Y19.921
G1 X-1.365 Y19.896
G1 X-1.402 Y19.866
G1 X-1.434 Y19.829
G1 X-1.46 Y19.789
G1 X-1.48 Y19.745
G1 X-1.492 Y19.699
G1 X-1.498 Y19.651
G1 X-1.496 Y19.603
G1 X-1.487 Y19.556
; MOVEMENT_CUTTING
G1 X-1.039 Y18.096
G1 X-0.988 Y17.955
G1 X-0.917 Y17.811
G1 X-0.822 Y17.654
G1 X-0.707 Y17.497
G1 X-0.549 Y17.318
G1 X-0.364 Y17.142
G1 X-0.129 Y16.955
G1 X0.165 Y16.761
G1 X0.515 Y16.573
G1 X0.94 Y16.391
G1 X1.47 Y16.218
G1 X2.096 Y16.073
G1 X2.732 Y15.984
G1 X3.373 Y15.944
G1 X4.015 Y15.951
G1 X4.655 Y16.006
G1 X5.227 Y16.101
G1 X5.712 Y16.227
G1 X6.058 Y16.35
G1 X6.325 Y16.473
G1 X6.549 Y16.602
G1 X6.576 Y16.62
G1 X6.709 Y16.745
G1 X6.802 Y16.903
G1 X6.847 Y17.08
G1 X6.839 Y17.263
G1 X6.739 Y17.804
G1 X6.662 Y18.242
G1 X6.615 Y18.531
; MOVEMENT_LEAD_OUT
G1 X6.601 Y18.579
G1 X6.58 Y18.624
G1 X6.552 Y18.666
G1 X6.519 Y18.702
G1 X6.479 Y18.733
G1 X6.436 Y18.758
G1 X6.389 Y18.775
G1 X6.34 Y18.784
G1 X6.29 Y18.786
G1 X5.954 Y18.772
; MOVEMENT_LINK_DIRECT
G1 X-0.529 Y18.505
; MOVEMENT_LEAD_IN
G1 X-0.745 Y18.496
G1 X-0.793 Y18.491
G1 X-0.838 Y18.478
G1 X-0.882 Y18.459
G1 X-0.922 Y18.434
G1 X-0.958 Y18.403
G1 X-0.988 Y18.367
G1 X-1.013 Y18.326
G1 X-1.032 Y18.283
G1 X-1.044 Y18.237
G1 X-1.05 Y18.19
G1 X-1.048 Y18.143
G1 X-1.039 Y18.096
; MOVEMENT_CUTTING
G1 X-0.636 Y16.783
G1 X-0.566 Y16.589
G1 X-0.502 Y16.453
G1 X-0.412 Y16.298
G1 X-0.306 Y16.147
G1 X-0.163 Y15.979
G1 X0.019 Y15.8
G1 X0.231 Y15.626
G1 X0.516 Y15.43
G1 X0.826 Y15.256
G1 X1.234 Y15.073
G1 X1.704 Y14.91
G1 X2.255 Y14.772
G1 X2.889 Y14.672
G1 X3.53 Y14.627
G1 X4.172 Y14.632
G1 X4.812 Y14.687
G1 X5.411 Y14.788
G1 X5.912 Y14.92
G1 X6.262 Y15.046
G1 X6.551 Y15.18
G1 X6.769 Y15.306
G1 X6.83 Y15.349
G1 X6.965 Y15.476
G1 X7.058 Y15.637
G1 X7.1 Y15.818
G1 X7.089 Y16.004
G1 X7.005 Y16.412
G1 X6.874 Y17.075
G1 X6.839 Y17.263
; MOVEMENT_LEAD_OUT
G1 X6.825 Y17.31
G1 X6.803 Y17.355
G1 X6.775 Y17.395
G1 X6.741 Y17.431
G1 X6.702 Y17.461
G1 X6.658 Y17.484
G1 X6.612 Y17.501
G1 X6.563 Y17.51
G1 X6.514 Y17.511
G1 X6.173 Y17.495
; MOVEMENT_LINK_DIRECT
G1 X-0.126 Y17.193
; MOVEMENT_LEAD_IN
G1 X-0.344 Y17.182
G1 X-0.391 Y17.177
G1 X-0.437 Y17.164
G1 X-0.48 Y17.145
G1 X-0.52 Y17.119
G1 X-0.555 Y17.088
G1 X-0.586 Y17.052
G1 X-0.611 Y17.012
G1 X-0.629 Y16.969
G1 X-0.641 Y16.923
G1 X-0.646 Y16.876
G1 X-0.645 Y16.829
G1 X-0.636 Y16.783
; MOVEMENT_CUTTING
G1 X-0.188 Y15.323
G1 X-0.137 Y15.182
G1 X-0.063 Y15.036
G1 X0.026 Y14.893
G1 X0.146 Y14.733
G1 X0.299 Y14.562
G1 X0.479 Y14.394
G1 X0.72 Y14.208
G1 X0.982 Y14.039
G1 X1.336 Y13.853
G1 X1.716 Y13.695
G1 X2.197 Y13.544
G1 X2.769 Y13.418
G1 X3.406 Y13.336
G1 X4.047 Y13.311
G1 X4.689 Y13.34
G1 X5.326 Y13.422
G1 X5.868 Y13.54
G1 X6.327 Y13.683
G1 X6.656 Y13.82
G1 X6.908 Y13.951
G1 X7.125 Y14.09
G1 X7.13 Y14.094
G1 X7.257 Y14.224
G1 X7.341 Y14.385
G1 X7.378 Y14.562
G1 X7.363 Y14.743
G1 X7.297 Y15.04
G1 X7.203 Y15.469
G1 X7.089 Y16.004
; MOVEMENT_LEAD_OUT
G1 X7.074 Y16.051
G1 X7.051 Y16.095
G1 X7.022 Y16.135
G1 X6.986 Y16.17
G1 X6.946 Y16.199
G1 X6.902 Y16.222
G1 X6.855 Y16.237
G1 X6.806 Y16.245
G1 X6.756
G1 X6.419 Y16.218
; MOVEMENT_LINK_DIRECT
G1 X0.321 Y15.74
; MOVEMENT_LEAD_IN
G1 X0.094 Y15.722
G1 X0.048 Y15.715
G1 X0.004 Y15.702
G1 X-0.038 Y15.682
G1 X-0.077 Y15.656
G1 X-0.111 Y15.625
G1 X-0.141 Y15.589
G1 X-0.165 Y15.549
G1 X-0.182 Y15.506
G1 X-0.194 Y15.461
G1 X-0.199 Y15.415
G1 X-0.197 Y15.369
G1 X-0.188 Y15.323
; MOVEMENT_CUTTING
G1 X0.215 Y14.01
G1 X0.267 Y13.866
G1 X0.331 Y13.73
G1 X0.417 Y13.581
G1 X0.521 Y13.435
G1 X0.661 Y13.271
G1 X0.829 Y13.105
G1 X1.036 Y12.935
G1 X1.299 Y12.756
G1 X1.597 Y12.59
G1 X1.975 Y12.42
G1 X2.407 Y12.271
G1 X2.903 Y12.148
G1 X3.488 Y12.057
G1 X4.129 Y12.015
G1 X4.771 Y12.029
G1 X5.406 Y12.097
G1 X5.982 Y12.21
G1 X6.486 Y12.358
G1 X6.842 Y12.497
G1 X7.132 Y12.641
G1 X7.345 Y12.772
G1 X7.417 Y12.826
G1 X7.549 Y12.958
G1 X7.638 Y13.123
G1 X7.675 Y13.305
G1 X7.658 Y13.491
G1 X7.533 Y14.01
G1 X7.43 Y14.448
G1 X7.363 Y14.743
; MOVEMENT_LEAD_OUT
G1 X7.347 Y14.789
G1 X7.324 Y14.833
G1 X7.294 Y14.872
G1 X7.259 Y14.906
G1 X7.218 Y14.935
G1 X7.174 Y14.957
G1 X7.127 Y14.971
G1 X7.078 Y14.979
G1 X7.029 Y14.978
G1 X6.689 Y14.948
; MOVEMENT_LINK_DIRECT
G1 X0.724 Y14.429
; MOVEMENT_LEAD_IN
G1 X0.494 Y14.409
G1 X0.444 Y14.4
G1 X0.397 Y14.384
G1 X0.352 Y14.361
G1 X0.312 Y14.331
G1 X0.277 Y14.295
G1 X0.248 Y14.253
G1 X0.226 Y14.208
G1 X0.211 Y14.16
G1 X0.204 Y14.11
G1 X0.206 Y14.059
G1 X0.215 Y14.01
; MOVEMENT_CUTTING
G1 X0.618 Y12.697
G1 X0.677 Y12.533
G1 X0.741 Y12.396
G1 X0.819 Y12.26
G1 X0.927 Y12.108
G1 X1.062 Y11.948
G1 X1.224 Y11.788
G1 X1.435 Y11.614
G1 X1.67 Y11.452
G1 X1.981 Y11.277
G1 X2.317 Y11.126
G1 X2.746 Y10.976
G1 X3.237 Y10.853
G1 X3.776 Y10.768
G1 X4.391 Y10.726
G1 X5.034 Y10.739
G1 X5.672 Y10.808
G1 X6.255 Y10.925
G1 X6.755 Y11.072
G1 X7.121 Y11.215
G1 X7.42 Y11.365
G1 X7.637 Y11.499
G1 X7.735 Y11.572
G1 X7.868 Y11.706
G1 X7.956 Y11.873
G1 X7.992 Y12.059
G1 X7.972 Y12.247
G1 X7.856 Y12.697
G1 X7.735 Y13.18
G1 X7.658 Y13.491
; MOVEMENT_LEAD_OUT
G1 X7.641 Y13.538
G1 X7.617 Y13.581
G1 X7.587 Y13.619
G1 X7.551 Y13.653
G1 X7.511 Y13.681
G1 X7.466 Y13.702
G1 X7.419 Y13.716
G1 X7.37 Y13.723
G1 X7.321 Y13.722
G1 X6.98 Y13.689
; MOVEMENT_LINK_DIRECT
G1 X1.126 Y13.118
; MOVEMENT_LEAD_IN
G1 X0.893 Y13.095
G1 X0.844 Y13.086
G1 X0.797 Y13.07
G1 X0.753 Y13.046
G1 X0.713 Y13.016
G1 X0.678 Y12.98
G1 X0.65 Y12.939
G1 X0.628 Y12.893
G1 X0.614 Y12.845
G1 X0.607 Y12.796
G1 X0.608 Y12.746
G1 X0.618 Y12.697
; MOVEMENT_CUTTING
G1 X1.02 Y11.383
G1 X1.082 Y11.211
G1 X1.146 Y11.075
G1 X1.224 Y10.94
G1 X1.333 Y10.786
G1 X1.462 Y10.635
G1 X1.627 Y10.473
G1 X1.831 Y10.305
G1 X2.069 Y10.143
G1 X2.364 Y9.978
G1 X2.705 Y9.825
G1 X3.109 Y9.685
G1 X3.601 Y9.563
G1 X4.114 Y9.483
G1 X4.708 Y9.444
G1 X5.342 Y9.459
G1 X5.974 Y9.53
G1 X6.555 Y9.648
G1 X7.054 Y9.797
G1 X7.43 Y9.946
G1 X7.736 Y10.1
G1 X7.955 Y10.236
G1 X8.072 Y10.324
G1 X8.205 Y10.46
G1 X8.293 Y10.629
G1 X8.327 Y10.816
G1 X8.305 Y11.006
G1 X8.162 Y11.529
G1 X8.027 Y12.036
G1 X7.972 Y12.247
; MOVEMENT_LEAD_OUT
G1 X7.954 Y12.292
G1 X7.93 Y12.335
G1 X7.899 Y12.373
G1 X7.863 Y12.406
G1 X7.822 Y12.433
G1 X7.778 Y12.454
G1 X7.731 Y12.467
G1 X7.682 Y12.473
G1 X7.633 Y12.472
G1 X7.291 Y12.434
; MOVEMENT_LINK_DIRECT
G1 X1.529 Y11.807
; MOVEMENT_LEAD_IN
G1 X1.292 Y11.781
G1 X1.243 Y11.772
G1 X1.197 Y11.755
G1 X1.153 Y11.731
G1 X1.114 Y11.701
G1 X1.079 Y11.665
G1 X1.051 Y11.624
G1 X1.03 Y11.579
G1 X1.016 Y11.531
G1 X1.01 Y11.482
G1 X1.011 Y11.432
G1 X1.02 Y11.383
; MOVEMENT_CUTTING
G1 X1.422 Y10.07
G1 X1.482 Y9.904
G1 X1.545 Y9.768
G1 X1.624 Y9.634
G1 X1.732 Y9.482
G1 X1.858 Y9.334
G1 X2.023 Y9.173
G1 X2.222 Y9.01
G1 X2.46 Y8.848
G1 X2.744 Y8.689
G1 X3.084 Y8.537
G1 X3.472 Y8.404
G1 X3.953 Y8.285
G1 X4.457 Y8.207
G1 X5.033 Y8.169
G1 X5.654 Y8.184
G1 X6.277 Y8.255
G1 X6.856 Y8.373
G1 X7.363 Y8.525
G1 X7.751 Y8.68
G1 X8.064 Y8.838
G1 X8.286 Y8.977
G1 X8.424 Y9.08
G1 X8.558 Y9.218
G1 X8.646 Y9.39
G1 X8.679 Y9.579
G1 X8.654 Y9.77
G1 X8.567 Y10.07
G1 X8.402 Y10.653
G1 X8.305 Y11.006
; MOVEMENT_LEAD_OUT
G1 X8.286 Y11.051
G1 X8.261 Y11.093
G1 X8.23 Y11.131
G1 X8.194 Y11.163
G1 X8.153 Y11.19
G1 X8.108 Y11.21
G1 X8.061 Y11.223
G1 X8.012 Y11.228
G1 X7.963 Y11.226
G1 X7.621 Y11.185
; MOVEMENT_LINK_DIRECT
G1 X1.931 Y10.496
; MOVEMENT_LEAD_IN
G1 X1.691 Y10.467
G1 X1.642 Y10.457
G1 X1.596 Y10.44
G1 X1.553 Y10.416
G1 X1.514 Y10.386
G1 X1.48 Y10.35
G1 X1.453 Y10.309
G1 X1.432 Y10.264
G1 X1.418 Y10.217
G1 X1.412 Y10.168
G1 X1.413 Y10.118
G1 X1.422 Y10.07
; MOVEMENT_CUTTING
G1 X1.824 Y8.756
G1 X1.878 Y8.609
G1 X1.941 Y8.473
G1 X2.019 Y8.339
G1 X2.127 Y8.188
G1 X2.251 Y8.043
G1 X2.416 Y7.882
G1 X2.61 Y7.724
G1 X2.848 Y7.562
G1 X3.125 Y7.408
G1 X3.465 Y7.257
G1 X3.841 Y7.128
G1 X4.309 Y7.013
G1 X4.813 Y6.936
G1 X5.372 Y6.9
G1 X5.981 Y6.916
G1 X6.599 Y6.987
G1 X7.178 Y7.106
G1 X7.69 Y7.26
G1 X8.09 Y7.42
G1 X8.409 Y7.582
G1 X8.636 Y7.724
G1 X8.791 Y7.841
G1 X8.927 Y7.981
G1 X9.014 Y8.154
G1 X9.045 Y8.346
G1 X9.018 Y8.538
G1 X8.822 Y9.194
G1 X8.654 Y9.77
; MOVEMENT_LEAD_OUT
G1 X8.635 Y9.815
G1 X8.609 Y9.857
G1 X8.578 Y9.894
G1 X8.541 Y9.927
G1 X8.5 Y9.952
G1 X8.455 Y9.972
G1 X8.407 Y9.984
G1 X8.359 Y9.989
G1 X8.31 Y9.986
G1 X7.968 Y9.94
; MOVEMENT_LINK_DIRECT
G1 X2.332 Y9.186
; MOVEMENT_LEAD_IN
G1 X2.089 Y9.153
G1 X2.041 Y9.143
G1 X1.995 Y9.125
G1 X1.953 Y9.101
G1 X1.914 Y9.071
G1 X1.881 Y9.034
G1 X1.854 Y8.994
G1 X1.833 Y8.949
G1 X1.82 Y8.902
G1 X1.814 Y8.853
G1 X1.815 Y8.804
G1 X1.824 Y8.756
; MOVEMENT_CUTTING
G1 X2.226 Y7.443
G1 X2.277 Y7.302
G1 X2.343 Y7.167
G1 X2.426 Y7.03
G1 X2.536 Y6.881
G1 X2.665 Y6.735
G1 X2.837 Y6.572
G1 X3.03 Y6.42
G1 X3.28 Y6.256
G1 X3.554 Y6.109
G1 X3.907 Y5.959
G1 X4.281 Y5.838
G1 X4.742 Y5.732
G1 X5.274 Y5.66
G1 X5.823 Y5.634
G1 X6.423 Y5.659
G1 X7.037 Y5.74
G1 X7.613 Y5.868
G1 X8.103 Y6.024
G1 X8.499 Y6.19
G1 X8.814 Y6.357
G1 X9.035 Y6.5
G1 X9.179 Y6.612
G1 X9.311 Y6.753
G1 X9.396 Y6.926
G1 X9.425 Y7.117
G1 X9.396 Y7.308
G1 X9.263 Y7.735
G1 X9.085 Y8.318
G1 X9.018 Y8.538
; MOVEMENT_LEAD_OUT
G1 X8.999 Y8.583
G1 X8.973 Y8.624
G1 X8.941 Y8.661
G1 X8.903 Y8.693
G1 X8.862 Y8.718
G1 X8.816 Y8.737
G1 X8.769 Y8.749
G1 X8.72 Y8.753
G1 X8.671 Y8.75
G1 X8.33 Y8.699
; MOVEMENT_LINK_DIRECT
G1 X2.734 Y7.876
; MOVEMENT_LEAD_IN
G1 X2.487 Y7.839
G1 X2.439 Y7.828
G1 X2.394 Y7.811
G1 X2.352 Y7.786
G1 X2.314 Y7.755
G1 X2.282 Y7.719
G1 X2.255 Y7.679
G1 X2.235 Y7.634
G1 X2.222 Y7.587
G1 X2.216 Y7.539
G1 X2.217 Y7.491
G1 X2.226 Y7.443
; MOVEMENT_CUTTING
G1 X2.627 Y6.133
G1 X2.678 Y5.992
G1 X2.747 Y5.859
G1 X2.834 Y5.722
G1 X2.949 Y5.572
G1 X3.083 Y5.427
G1 X3.261 Y5.265
G1 X3.46 Y5.114
G1 X3.717 Y4.953
G1 X4.003 Y4.808
G1 X4.365 Y4.663
G1 X4.748 Y4.547
G1 X5.215 Y4.451
G1 X5.754 Y4.388
G1 X6.31 Y4.373
G1 X6.91 Y4.411
G1 X7.515 Y4.503
G1 X8.078 Y4.641
G1 X8.557 Y4.805
G1 X8.938 Y4.974
G1 X9.242 Y5.143
G1 X9.457 Y5.288
G1 X9.582 Y5.39
G1 X9.711 Y5.533
G1 X9.792 Y5.708
G1 X9.818 Y5.899
G1 X9.785 Y6.089
G1 X9.63 Y6.567
G1 X9.486 Y7.02
G1 X9.396 Y7.308
; MOVEMENT_LEAD_OUT
G1 X9.376 Y7.353
G1 X9.349 Y7.394
G1 X9.317 Y7.431
G1 X9.279 Y7.462
G1 X9.237 Y7.487
G1 X9.191 Y7.506
G1 X9.144 Y7.517
G1 X9.095 Y7.52
G1 X9.046 Y7.516
G1 X8.707 Y7.462
; MOVEMENT_LINK_DIRECT
G1 X3.134 Y6.569
; MOVEMENT_LEAD_IN
G1 X2.883 Y6.529
G1 X2.836 Y6.518
G1 X2.792 Y6.499
G1 X2.75 Y6.475
G1 X2.713 Y6.444
G1 X2.681 Y6.408
G1 X2.655 Y6.367
G1 X2.635 Y6.323
G1 X2.622 Y6.277
G1 X2.616 Y6.229
G1 X2.618 Y6.181
G1 X2.627 Y6.133
; MOVEMENT_CUTTING
G1 X2.851 Y5.4
G1 X2.991 Y4.962
G1 X3.039 Y4.816
G1 X3.093 Y4.676
G1 X3.167 Y4.542
G1 X3.259 Y4.405
G1 X3.383 Y4.253
G1 X3.525 Y4.109
G1 X3.711 Y3.949
G1 X3.921 Y3.799
G1 X4.188 Y3.642
G1 X4.488 Y3.5
G1 X4.864 Y3.361
G1 X5.26 Y3.254
G1 X5.74 Y3.168
G1 X6.29 Y3.12
G1 X6.861 Y3.121
G1 X7.459 Y3.176
G1 X8.055 Y3.284
G1 X8.593 Y3.432
G1 X9.059 Y3.606
G1 X9.418 Y3.777
G1 X9.703 Y3.946
G1 X9.91 Y4.095
G1 X10.004 Y4.177
G1 X10.127 Y4.319
G1 X10.203 Y4.492
G1 X10.226 Y4.679
G1 X10.193 Y4.864
G1 X9.785 Y6.089
; MOVEMENT_LEAD_OUT
G1 X9.764 Y6.134
G1 X9.737 Y6.174
G1 X9.704 Y6.21
G1 X9.666 Y6.241
G1 X9.624 Y6.265
G1 X9.578 Y6.283
G1 X9.53 Y6.293
G1 X9.481 Y6.296
G1 X9.433 Y6.291
G1 X9.093 Y6.232
; MOVEMENT_LINK_DIRECT
G1 X3.538 Y5.26
; MOVEMENT_LEAD_IN
G1 X3.289 Y5.217
G1 X3.242 Y5.205
G1 X3.198 Y5.186
G1 X3.157 Y5.16
G1 X3.12 Y5.129
G1 X3.088 Y5.092
G1 X3.063 Y5.051
G1 X3.044 Y5.007
G1 X3.032 Y4.96
G1 X3.027 Y4.912
G1 X3.029 Y4.863
G1 X3.039 Y4.816
; MOVEMENT_CUTTING
G1 X3.134 Y4.524
G1 X3.329 Y3.94
G1 X3.456 Y3.568
G1 X3.511 Y3.429
G1 X3.581 Y3.296
G1 X3.667 Y3.162
G1 X3.777 Y3.021
G1 X3.918 Y2.87
G1 X4.08 Y2.724
G1 X4.293 Y2.565
G1 X4.525 Y2.422
G1 X4.828 Y2.27
G1 X5.153 Y2.141
G1 X5.557 Y2.022
G1 X6.012 Y1.93
G1 X6.508 Y1.876
G1 X7.075 Y1.864
G1 X7.674 Y1.905
G1 X8.271 Y1.999
G1 X8.829 Y2.139
G1 X9.335 Y2.315
G1 X9.733 Y2.494
G1 X10.04 Y2.667
G1 X10.263 Y2.82
G1 X10.404 Y2.936
G1 X10.532 Y3.079
G1 X10.612 Y3.254
G1 X10.636 Y3.444
G1 X10.604 Y3.633
G1 X10.193 Y4.864
; MOVEMENT_LEAD_OUT
G1 X10.173 Y4.909
G1 X10.145 Y4.949
G1 X10.112 Y4.986
G1 X10.074 Y5.016
G1 X10.031 Y5.04
G1 X9.986 Y5.058
G1 X9.938 Y5.068
G1 X9.889 Y5.071
G1 X9.84 Y5.066
G1 X9.501 Y5.006
; MOVEMENT_LINK_DIRECT
G1 X3.949 Y4.017
; MOVEMENT_LEAD_IN
G1 X3.704 Y3.973
G1 X3.657 Y3.961
G1 X3.612 Y3.942
G1 X3.571 Y3.916
G1 X3.534 Y3.884
G1 X3.502 Y3.847
G1 X3.477 Y3.805
G1 X3.458 Y3.76
G1 X3.446 Y3.713
G1 X3.442 Y3.664
G1 X3.445 Y3.616
G1 X3.456 Y3.568
; MOVEMENT_CUTTING
G1 X3.648 Y3.013
G1 X3.838 Y2.481
G1 X3.918 Y2.261
G1 X3.977 Y2.123
G1 X4.049 Y1.991
G1 X4.14 Y1.856
G1 X4.259 Y1.711
G1 X4.397 Y1.57
G1 X4.58 Y1.414
G1 X4.781 Y1.271
G1 X5.042 Y1.117
G1 X5.323 Y0.985
G1 X5.685 Y0.852
G1 X6.072 Y0.747
G1 X6.535 Y0.666
G1 X7.07 Y0.62
G1 X7.63 Y0.622
G1 X8.213 Y0.676
G1 X8.813 Y0.785
G1 X9.367 Y0.939
G1 X9.841 Y1.116
G1 X10.217 Y1.296
G1 X10.514 Y1.473
G1 X10.724 Y1.625
G1 X10.826 Y1.713
G1 X10.949 Y1.856
G1 X11.025 Y2.028
G1 X11.047 Y2.215
G1 X11.015 Y2.4
G1 X10.604 Y3.633
; MOVEMENT_LEAD_OUT
G1 X10.583 Y3.678
G1 X10.555 Y3.719
G1 X10.522 Y3.755
G1 X10.483 Y3.786
G1 X10.44 Y3.81
G1 X10.394 Y3.827
G1 X10.345 Y3.837
G1 X10.296 Y3.839
G1 X10.247 Y3.834
G1 X9.913 Y3.77
; MOVEMENT_LINK_DIRECT
G1 X4.403 Y2.717
; MOVEMENT_LEAD_IN
G1 X4.16 Y2.671
G1 X4.113 Y2.658
G1 X4.069 Y2.638
G1 X4.028 Y2.611
G1 X3.991 Y2.579
G1 X3.96 Y2.541
G1 X3.935 Y2.499
G1 X3.917 Y2.454
G1 X3.906 Y2.406
G1 X3.903 Y2.357
G1 X3.907 Y2.308
G1 X3.918 Y2.261
; MOVEMENT_CUTTING
G1 X4.052 Y1.897
G1 X4.16 Y1.605
G1 X4.326 Y1.167
G1 X4.414 Y0.941
G1 X4.475 Y0.804
G1 X4.551 Y0.675
G1 X4.649 Y0.541
G1 X4.774 Y0.398
G1 X4.919 Y0.259
G1 X5.11 Y0.106
G1 X5.319 Y-0.033
G1 X5.592 Y-0.182
G1 X5.886 Y-0.31
G1 X6.261 Y-0.435
G1 X6.661 Y-0.529
G1 X7.131 Y-0.597
G1 X7.674 Y-0.626
G1 X8.249 Y-0.606
G1 X8.835 Y-0.534
G1 X9.414 Y-0.409
G1 X9.938 Y-0.246
G1 X10.396 Y-0.058
G1 X10.736 Y0.119
G1 X11.002 Y0.289
G1 X11.206 Y0.445
G1 X11.254 Y0.489
G1 X11.369 Y0.632
G1 X11.44 Y0.801
G1 X11.46 Y0.983
G1 X11.427 Y1.163
G1 X11.015 Y2.4
; MOVEMENT_LEAD_OUT
G1 X10.994 Y2.445
G1 X10.966 Y2.487
G1 X10.932 Y2.523
G1 X10.892 Y2.554
G1 X10.848 Y2.578
G1 X10.801 Y2.595
G1 X10.752 Y2.605
G1 X10.702 Y2.606
G1 X10.653 Y2.6
G1 X10.325 Y2.532
; MOVEMENT_LINK_DIRECT
G1 X4.889 Y1.406
; MOVEMENT_LEAD_IN
G1 X4.649 Y1.357
G1 X4.602 Y1.343
G1 X4.557 Y1.322
G1 X4.517 Y1.295
G1 X4.481 Y1.262
G1 X4.45 Y1.223
G1 X4.426 Y1.181
G1 X4.409 Y1.135
G1 X4.399 Y1.087
G1 X4.396 Y1.038
G1 X4.401 Y0.989
G1 X4.414 Y0.941
; MOVEMENT_CUTTING
G1 X4.553 Y0.584
G1 X4.727 Y0.146
G1 X4.904 Y-0.292
G1 X4.979 Y-0.451
G1 X5.055 Y-0.581
G1 X5.144 Y-0.706
G1 X5.264 Y-0.846
G1 X5.405 Y-0.984
G1 X5.579 Y-1.126
G1 X5.792 Y-1.27
G1 X6.036 Y-1.407
G1 X6.338 Y-1.541
G1 X6.679 Y-1.658
G1 X7.077 Y-1.756
G1 X7.552 Y-1.829
G1 X8.043 Y-1.86
G1 X8.595 Y-1.846
G1 X9.18 Y-1.779
G1 X9.764 Y-1.659
G1 X10.304 Y-1.496
G1 X10.775 Y-1.308
G1 X11.116 Y-1.135
G1 X11.395 Y-0.961
G1 X11.597 Y-0.808
G1 X11.661 Y-0.75
G1 X11.779 Y-0.607
G1 X11.851 Y-0.437
G1 X11.871 Y-0.254
G1 X11.839 Y-0.072
G1 X11.427 Y1.163
; MOVEMENT_LEAD_OUT
G1 X11.406 Y1.208
G1 X11.378 Y1.25
G1 X11.344 Y1.286
G1 X11.304 Y1.317
G1 X11.261 Y1.341
G1 X11.214 Y1.358
G1 X11.164 Y1.368
G1 X11.114 Y1.369
G1 X11.065 Y1.363
G1 X10.737 Y1.295
; MOVEMENT_LINK_DIRECT
G1 X5.373 Y0.177
; MOVEMENT_LEAD_IN
G1 X5.138 Y0.128
G1 X5.09 Y0.114
G1 X5.045 Y0.093
G1 X5.004 Y0.066
G1 X4.968 Y0.032
G1 X4.938 Y-0.007
G1 X4.914 Y-0.051
G1 X4.897 Y-0.097
G1 X4.887 Y-0.146
G1 X4.885 Y-0.195
G1 X4.891 Y-0.244
G1 X4.904 Y-0.292
; MOVEMENT_CUTTING
G1 X5.108 Y-0.782
G1 X5.254 Y-1.125
G1 X5.334 Y-1.313
G1 X5.462 Y-1.605
G1 X5.531 Y-1.744
G1 X5.609 Y-1.872
G1 X5.709 Y-2.003
G1 X5.832 Y-2.138
G1 X5.979 Y-2.274
G1 X6.169 Y-2.42
G1 X6.378 Y-2.554
G1 X6.647 Y-2.693
G1 X6.936 Y-2.811
G1 X7.298 Y-2.924
G1 X7.697 Y-3.01
G1 X8.154 Y-3.066
G1 X8.682 Y-3.084
G1 X9.247 Y-3.053
G1 X9.819 Y-2.97
G1 X10.378 Y-2.838
G1 X10.879 Y-2.671
G1 X11.317 Y-2.481
G1 X11.632 Y-2.309
G1 X11.877 Y-2.146
G1 X12.076 Y-1.987
G1 X12.087 Y-1.975
G1 X12.198 Y-1.833
G1 X12.266 Y-1.666
G1 X12.284 Y-1.487
G1 X12.251 Y-1.31
G1 X11.839 Y-0.072
; MOVEMENT_LEAD_OUT
G1 X11.82 Y-0.031
G1 X11.795 Y0.008
G1 X11.765 Y0.042
G1 X11.731 Y0.072
G1 X11.692 Y0.096
G1 X11.651 Y0.115
G1 X11.607 Y0.128
G1 X11.562 Y0.134
G1 X11.516 Y0.133
G1 X11.471 Y0.127
G1 X11.15 Y0.054
; MOVEMENT_LINK_DIRECT
G1 X5.918 Y-1.126
; MOVEMENT_LEAD_IN
G1 X5.687 Y-1.178
G1 X5.639 Y-1.193
G1 X5.595 Y-1.215
G1 X5.554 Y-1.244
G1 X5.518 Y-1.279
G1 X5.488 Y-1.318
G1 X5.465 Y-1.362
G1 X5.449 Y-1.41
G1 X5.441 Y-1.459
G1 X5.44 Y-1.508
G1 X5.447 Y-1.558
G1 X5.462 Y-1.605
; MOVEMENT_CUTTING
G1 X5.59 Y-1.897
G1 X5.787 Y-2.335
G1 X5.988 Y-2.773
G1 X6.057 Y-2.919
G1 X6.128 Y-3.051
G1 X6.211 Y-3.175
G1 X6.318 Y-3.306
G1 X6.449 Y-3.439
G1 X6.606 Y-3.572
G1 X6.803 Y-3.712
G1 X7.022 Y-3.84
G1 X7.304 Y-3.972
G1 X7.606 Y-4.082
G1 X7.984 Y-4.183
G1 X8.399 Y-4.256
G1 X8.865 Y-4.295
G1 X9.394 Y-4.292
G1 X9.954 Y-4.239
G1 X10.515 Y-4.135
G1 X11.038 Y-3.989
G1 X11.51 Y-3.811
G1 X11.889 Y-3.629
G1 X12.172 Y-3.46
G1 X12.382 Y-3.308
G1 X12.474 Y-3.227
G1 X12.596 Y-3.084
G1 X12.672 Y-2.912
G1 X12.694 Y-2.726
G1 X12.662 Y-2.541
G1 X12.251 Y-1.31
; MOVEMENT_LEAD_OUT
G1 X12.232 Y-1.268
G1 X12.207 Y-1.23
G1 X12.177 Y-1.195
G1 X12.142 Y-1.165
G1 X12.102 Y-1.141
G1 X12.06 Y-1.122
G1 X12.016 Y-1.11
G1 X11.97 Y-1.104
G1 X11.924 Y-1.105
G1 X11.878 Y-1.113
G1 X11.564 Y-1.19
; MOVEMENT_LINK_DIRECT
G1 X6.501 Y-2.43
; MOVEMENT_LEAD_IN
G1 X6.273 Y-2.486
G1 X6.226 Y-2.501
G1 X6.181 Y-2.524
G1 X6.141 Y-2.554
G1 X6.106 Y-2.59
G1 X6.077 Y-2.63
G1 X6.054 Y-2.675
G1 X6.039 Y-2.723
G1 X6.032 Y-2.772
G1 X6.033 Y-2.822
G1 X6.041 Y-2.871
G1 X6.057 Y-2.919
; MOVEMENT_CUTTING
G1 X6.275 Y-3.381
G1 X6.476 Y-3.794
G1 X6.661 Y-4.167
G1 X6.734 Y-4.297
G1 X6.819 Y-4.421
G1 X6.919 Y-4.541
G1 X7.051 Y-4.676
G1 X7.202 Y-4.803
G1 X7.391 Y-4.936
G1 X7.611 Y-5.063
G1 X7.874 Y-5.186
G1 X8.18 Y-5.296
G1 X8.542 Y-5.392
G1 X8.937 Y-5.459
G1 X9.408 Y-5.497
G1 X9.919 Y-5.493
G1 X10.442 Y-5.442
G1 X10.987 Y-5.339
G1 X11.508 Y-5.192
G1 X11.96 Y-5.02
G1 X12.309 Y-4.85
G1 X12.594 Y-4.679
G1 X12.799 Y-4.529
G1 X12.869 Y-4.468
G1 X12.988 Y-4.329
G1 X13.063 Y-4.162
G1 X13.088 Y-3.981
G1 X13.061 Y-3.8
G1 X12.97 Y-3.502
G1 X12.835 Y-3.065
G1 X12.662 Y-2.541
; MOVEMENT_LEAD_OUT
G1 X12.642 Y-2.499
G1 X12.617 Y-2.46
G1 X12.586 Y-2.425
G1 X12.551 Y-2.395
G1 X12.511 Y-2.37
G1 X12.469 Y-2.352
G1 X12.424 Y-2.34
G1 X12.378 Y-2.334
G1 X12.331 Y-2.336
G1 X12.285 Y-2.344
G1 X11.975 Y-2.423
; MOVEMENT_LINK_DIRECT
G1 X7.095 Y-3.671
; MOVEMENT_LEAD_IN
G1 X6.871 Y-3.728
G1 X6.828 Y-3.742
G1 X6.786 Y-3.763
G1 X6.749 Y-3.79
G1 X6.715 Y-3.822
G1 X6.687 Y-3.858
G1 X6.664 Y-3.898
G1 X6.647 Y-3.941
G1 X6.636 Y-3.986
G1 X6.633 Y-4.032
G1 X6.635 Y-4.078
G1 X6.645 Y-4.123
G1 X6.661 Y-4.167
; MOVEMENT_CUTTING
G1 X6.767 Y-4.378
G1 X6.991 Y-4.816
G1 X7.221 Y-5.254
G1 X7.297 Y-5.395
G1 X7.403 Y-5.57
G1 X7.491 Y-5.691
G1 X7.603 Y-5.816
G1 X7.736 Y-5.941
G1 X7.896 Y-6.067
G1 X8.097 Y-6.197
G1 X8.32 Y-6.315
G1 X8.602 Y-6.434
G1 X8.905 Y-6.531
G1 X9.271 Y-6.613
G1 X9.686 Y-6.668
G1 X10.132 Y-6.688
G1 X10.635 Y-6.665
G1 X11.161 Y-6.593
G1 X11.671 Y-6.478
G1 X12.147 Y-6.324
G1 X12.552 Y-6.152
G1 X12.856 Y-5.99
G1 X13.086 Y-5.839
G1 X13.21 Y-5.742
G1 X13.339 Y-5.606
G1 X13.422 Y-5.438
G1 X13.454 Y-5.253
G1 X13.431 Y-5.067
G1 X13.276 Y-4.524
G1 X13.134 Y-4.044
G1 X13.061 Y-3.8
; MOVEMENT_LEAD_OUT
G1 X13.042 Y-3.756
G1 X13.017 Y-3.716
G1 X12.986 Y-3.68
G1 X12.951 Y-3.648
G1 X12.91 Y-3.623
G1 X12.867 Y-3.603
G1 X12.821 Y-3.591
G1 X12.774 Y-3.585
G1 X12.727 Y-3.587
G1 X12.68 Y-3.595
G1 X12.38 Y-3.673
; MOVEMENT_LINK_DIRECT
G1 X7.716 Y-4.891
; MOVEMENT_LEAD_IN
G1 X7.501 Y-4.947
G1 X7.457 Y-4.962
G1 X7.415 Y-4.984
G1 X7.377 Y-5.011
G1 X7.344 Y-5.044
G1 X7.315 Y-5.082
G1 X7.293 Y-5.123
G1 X7.276 Y-5.167
G1 X7.267 Y-5.213
G1 X7.264 Y-5.259
G1 X7.268 Y-5.306
G1 X7.279 Y-5.352
G1 X7.297 Y-5.395
; MOVEMENT_CUTTING
G1 X7.456 Y-5.692
G1 X7.735 Y-6.195
G1 X8.027 Y-6.708
G1 X8.107 Y-6.835
G1 X8.201 Y-6.952
G1 X8.319 Y-7.073
G1 X8.462 Y-7.197
G1 X8.629 Y-7.318
G1 X8.839 Y-7.442
G1 X9.068 Y-7.551
G1 X9.357 Y-7.659
G1 X9.667 Y-7.744
G1 X10.04 Y-7.812
G1 X10.462 Y-7.851
G1 X10.902 Y-7.852
G1 X11.389 Y-7.809
G1 X11.888 Y-7.721
G1 X12.363 Y-7.592
G1 X12.784 Y-7.437
G1 X13.106 Y-7.284
G1 X13.355 Y-7.138
G1 X13.562 Y-6.99
G1 X13.573 Y-6.981
G1 X13.691 Y-6.846
G1 X13.768 Y-6.684
G1 X13.796 Y-6.507
G1 X13.774 Y-6.328
G1 X13.563 Y-5.546
G1 X13.431 Y-5.067
; MOVEMENT_LEAD_OUT
G1 X13.412 Y-5.022
G1 X13.387 Y-4.979
G1 X13.356 Y-4.942
G1 X13.319 Y-4.909
G1 X13.278 Y-4.883
G1 X13.233 Y-4.863
G1 X13.185 Y-4.85
G1 X13.136 Y-4.845
G1 X13.087 Y-4.848
G1 X13.039 Y-4.858
G1 X12.757 Y-4.94
; MOVEMENT_LINK_DIRECT
G1 X8.433 Y-6.194
; MOVEMENT_LEAD_IN
G1 X8.219 Y-6.256
G1 X8.175 Y-6.272
G1 X8.134 Y-6.295
G1 X8.097 Y-6.323
G1 X8.064 Y-6.357
G1 X8.037 Y-6.395
G1 X8.016 Y-6.436
G1 X8 Y-6.481
G1 X7.992 Y-6.527
G1 X7.99 Y-6.574
G1 X7.996 Y-6.62
G1 X8.008 Y-6.665
G1 X8.027 Y-6.708
; MOVEMENT_CUTTING
G1 X8.318 Y-7.206
G1 X8.638 Y-7.735
G1 X8.728 Y-7.881
G1 X8.756 Y-7.926
G1 X8.852 Y-8.061
G1 X8.949 Y-8.175
G1 X9.066 Y-8.29
G1 X9.215 Y-8.412
G1 X9.381 Y-8.524
G1 X9.592 Y-8.642
G1 X9.82 Y-8.743
G1 X10.108 Y-8.842
G1 X10.411 Y-8.917
G1 X10.78 Y-8.974
G1 X11.183 Y-9
G1 X11.61 Y-8.989
G1 X12.071 Y-8.936
G1 X12.526 Y-8.843
G1 X12.954 Y-8.714
G1 X13.295 Y-8.578
G1 X13.573 Y-8.437
G1 X13.783 Y-8.306
G1 X13.847 Y-8.258
G1 X13.974 Y-8.13
G1 X14.06 Y-7.972
G1 X14.099 Y-7.797
G1 X14.088 Y-7.617
G1 X14.052 Y-7.443
G1 X13.949 Y-7.005
G1 X13.837 Y-6.567
G1 X13.774 Y-6.328
; MOVEMENT_LEAD_OUT
G1 X13.756 Y-6.282
G1 X13.731 Y-6.239
G1 X13.699 Y-6.201
G1 X13.662 Y-6.168
G1 X13.62 Y-6.141
G1 X13.575 Y-6.121
G1 X13.526 Y-6.109
G1 X13.477 Y-6.104
G1 X13.427 Y-6.107
G1 X13.379 Y-6.118
G1 X13.103 Y-6.201
; MOVEMENT_LINK_DIRECT
G1 X9.141 Y-7.4
; MOVEMENT_LEAD_IN
G1 X8.938 Y-7.461
G1 X8.896 Y-7.477
G1 X8.857 Y-7.499
G1 X8.821 Y-7.526
G1 X8.789 Y-7.558
G1 X8.762 Y-7.594
G1 X8.741 Y-7.634
G1 X8.725 Y-7.676
G1 X8.716 Y-7.72
G1 X8.713 Y-7.765
G1 X8.715 Y-7.807
G1 X8.724 Y-7.848
G1 X8.737 Y-7.888
G1 X8.756 Y-7.926
; MOVEMENT_CUTTING
G1 X8.913 Y-8.172
G1 X9.201 Y-8.61
G1 X9.34 Y-8.813
G1 X9.605 Y-9.194
G1 X9.698 Y-9.311
G1 X9.803 Y-9.419
G1 X9.938 Y-9.534
G1 X10.088 Y-9.641
G1 X10.277 Y-9.751
G1 X10.488 Y-9.851
G1 X10.742 Y-9.944
G1 X11.023 Y-10.02
G1 X11.36 Y-10.079
G1 X11.709 Y-10.109
G1 X12.104 Y-10.108
G1 X12.516 Y-10.07
G1 X12.925 Y-9.995
G1 X13.309 Y-9.889
G1 X13.61 Y-9.776
G1 X13.866 Y-9.653
G1 X14 Y-9.573
G1 X14.141 Y-9.459
G1 X14.245 Y-9.31
G1 X14.303 Y-9.137
G1 X14.31 Y-8.955
; MOVEMENT_LEAD_OUT
G1 X14.3 Y-8.91
G1 X14.284 Y-8.868
G1 X14.262 Y-8.828
G1 X14.235 Y-8.791
G1 X14.203 Y-8.759
G1 X14.166 Y-8.732
G1 X14.126 Y-8.71
G1 X14.083 Y-8.694
G1 X14.039 Y-8.685
G1 X13.993 Y-8.682
G1 X13.664 Y-8.684
; MOVEMENT_LINK_DIRECT
G1 X9.976 Y-8.704
; MOVEMENT_LEAD_IN
G1 X9.87
G1 X9.821 Y-8.708
G1 X9.774 Y-8.719
G1 X9.729 Y-8.738
G1 X9.688 Y-8.763
G1 X9.651 Y-8.794
G1 X9.618 Y-8.83
G1 X9.592 Y-8.871
G1 X9.572 Y-8.915
G1 X9.56 Y-8.962
G1 X9.554 Y-9.01
G1 X9.556 Y-9.058
G1 X9.565 Y-9.106
G1 X9.582 Y-9.151
G1 X9.605 Y-9.194
; MOVEMENT_CUTTING
G1 X9.71 Y-9.34
G1 X9.928 Y-9.632
G1 X10.07 Y-9.814
G1 X10.216 Y-9.998
G1 X10.362 Y-10.175
G1 X10.597 Y-10.44
G1 X10.701 Y-10.547
G1 X10.82 Y-10.648
G1 X10.967 Y-10.751
G1 X11.13 Y-10.846
G1 X11.335 Y-10.942
G1 X11.554 Y-11.021
G1 X11.82 Y-11.092
G1 X12.106 Y-11.141
G1 X12.424 Y-11.167
G1 X12.765 Y-11.165
G1 X13.114 Y-11.131
G1 X13.435 Y-11.071
G1 X13.722 Y-10.991
G1 X13.95 Y-10.904
G1 X13.997 Y-10.882
G1 X14.141 Y-10.786
G1 X14.254 Y-10.656
G1 X14.328 Y-10.499
G1 X14.358 Y-10.329
; MOVEMENT_LEAD_OUT
G1 Y-10.328
G1 X14.354 Y-10.28
G1 X14.343 Y-10.232
G1 X14.324 Y-10.187
G1 X14.299 Y-10.145
G1 X14.268 Y-10.107
G1 X14.231 Y-10.075
G1 X14.19 Y-10.048
G1 X14.145 Y-10.029
G1 X14.098 Y-10.016
G1 X14.049 Y-10.011
G1 X13.754 Y-10.003
; MOVEMENT_LINK_DIRECT
G1 X10.909 Y-9.922
; MOVEMENT_LEAD_IN
G1 X10.85 Y-9.921
G1 X10.802 Y-9.923
G1 X10.755 Y-9.933
G1 X10.709 Y-9.949
G1 X10.667 Y-9.973
G1 X10.629 Y-10.003
G1 X10.595 Y-10.038
G1 X10.568 Y-10.077
G1 X10.546 Y-10.121
G1 X10.532 Y-10.167
G1 X10.525 Y-10.215
G1 Y-10.263
G1 X10.532 Y-10.311
G1 X10.547 Y-10.357
G1 X10.569 Y-10.401
G1 X10.597 Y-10.44
; MOVEMENT_CUTTING
G1 X10.656 Y-10.507
G1 X10.799 Y-10.663
G1 X11.091 Y-10.949
G1 X11.239 Y-11.091
G1 X11.383 Y-11.217
G1 X11.675 Y-11.453
G1 X11.778 Y-11.529
G1 X11.991 Y-11.675
G1 X12.113 Y-11.746
G1 X12.246 Y-11.821
G1 X12.259 Y-11.827
G1 X12.405 Y-11.892
G1 X12.551 Y-11.953
G1 X12.697 Y-11.992
G1 X12.842 Y-12.028
G1 X12.915 Y-12.038
G1 X12.988 Y-12.04
G1 X13.134 Y-12.014
G1 X13.335 Y-11.967
G1 X13.426 Y-11.945
G1 X13.718 Y-11.868
G1 X13.785 Y-11.85
G1 X13.819 Y-11.837
G1 X13.852 Y-11.821
G1 X13.864 Y-11.814
G1 X13.937 Y-11.762
G1 X14.01 Y-11.689
G1 X14.021 Y-11.675
G1 X14.072 Y-11.602
G1 X14.111 Y-11.529
G1 X14.156 Y-11.43
G1 X14.224 Y-11.237
G1 X14.26 Y-11.091
G1 X14.29 Y-10.945
G1 X14.348 Y-10.507
G1 X14.356 Y-10.362
G1 X14.367 Y-10.07
G1 X14.37 Y-9.924
G1 X14.357 Y-9.486
G1 X14.345 Y-9.34
G1 X14.319 Y-9.048
G1 X14.302 Y-8.886
G1 X14.246 Y-8.464
G1 X14.171 Y-8.027
G1 X14.156 Y-7.945
G1 X14.088 Y-7.617
; MOVEMENT_LEAD_OUT
G1 X14.073 Y-7.57
G1 X14.051 Y-7.527
G1 X14.022 Y-7.487
G1 X13.988 Y-7.452
G1 X13.948 Y-7.423
G1 X13.905 Y-7.4
G1 X13.858 Y-7.384
G1 X13.81 Y-7.376
G1 X13.761 Y-7.375
G1 X13.712 Y-7.382
G1 X13.665 Y-7.396
G1 X13.621 Y-7.417
G1 X13.581 Y-7.445
G1 X13.545 Y-7.478
G1 X13.515 Y-7.517
G1 X13.491 Y-7.56
G1 X13.47 Y-7.605 Z-2.996
G1 X13.45 Y-7.649 Z-2.984
G1 X13.431 Y-7.691 Z-2.965
G1 X13.413 Y-7.729 Z-2.939
G1 X13.398 Y-7.764 Z-2.907
G1 X13.384 Y-7.793 Z-2.869
G1 X13.373 Y-7.817 Z-2.827
G1 X13.365 Y-7.834 Z-2.781
G1 X13.36 Y-7.845 Z-2.732
G1 X13.359 Y-7.848 Z-2.682
; MOVEMENT_RAPID
G0 Z3 F300
G0 X15.071 Y-44.196 F2500
G0 Z-2.365 F300
; MOVEMENT_LEAD_IN
G1 Z-2.682 F480
G1 X15.072 Y-44.192 Z-2.732
G1 X15.076 Y-44.181 Z-2.781
G1 X15.083 Y-44.163 Z-2.827
G1 X15.092 Y-44.139 Z-2.869
G1 X15.103 Y-44.109 Z-2.907
G1 X15.116 Y-44.073 Z-2.939
G1 X15.131 Y-44.033 Z-2.965
G1 X15.147 Y-43.99 Z-2.984
G1 X15.164 Y-43.945 Z-2.996
G1 X15.181 Y-43.898 Z-3
G1 X15.213 Y-43.804
G1 X15.238 Y-43.708
G1 X15.258 Y-43.611
G1 X15.272 Y-43.513
G1 X15.279 Y-43.414
G1 X15.28 Y-43.315
G1 X15.275 Y-43.216
G1 X15.263 Y-43.117
; MOVEMENT_CUTTING
G1 X15.251 Y-43.051
G1 X15.227 Y-42.906
G1 X15.088 Y-42.03
G1 X15.058 Y-41.883
G1 X15.007 Y-41.742
G1 X14.943 Y-41.606
G1 X14.857 Y-41.463
G1 X14.742 Y-41.303
G1 X14.609 Y-41.149
G1 X14.429 Y-40.975
G1 X14.212 Y-40.799
G1 X13.95 Y-40.623
G1 X13.615 Y-40.439
G1 X13.199 Y-40.257
G1 X12.669 Y-40.078
G1 X12.044 Y-39.928
G1 X11.41 Y-39.825
G1 X10.772 Y-39.754
G1 X10.132 Y-39.705
G1 X9.49 Y-39.673
G1 X8.849 Y-39.651
G1 X8.207 Y-39.636
G1 X7.565 Y-39.626
G1 X6.922 Y-39.62
G1 X6.28 Y-39.616
G1 X4.996 Y-39.611
G1 X3.069 Y-39.608
G1 X-5.921
G1 X-34.177 Y-39.607
G1 X-36.104
G1 X-36.41 Y-39.509
G1 X-36.687 Y-39.347
G1 X-37.174 Y-38.929
G1 X-37.515 Y-38.385
G1 X-37.746 Y-37.785
G1 X-37.899 Y-37.162
G1 X-38 Y-36.527
G1 X-38.066 Y-35.889
G1 X-38.108 Y-35.248
G1 X-38.136 Y-34.606
G1 X-38.154 Y-33.964
G1 X-38.165 Y-33.519
G1 X-38.206 Y-33.308
G1 X-38.313 Y-33.123
G1 X-38.475 Y-32.983
G1 X-38.673 Y-32.903
; MOVEMENT_LEAD_OUT
G1 X-38.722 Y-32.898
G1 X-38.771 Y-32.9
G1 X-38.819 Y-32.911
G1 X-38.865 Y-32.928
G1 X-38.908 Y-32.952
G1 X-38.946 Y-32.982
G1 X-38.979 Y-33.018
G1 X-39.007 Y-33.059
G1 X-39.028 Y-33.104
G1 X-39.041 Y-33.151
G1 X-39.047 Y-33.199
G1 X-39.046 Y-33.248
G1 X-39.037 Y-33.297
G1 X-39.021 Y-33.343
G1 X-38.998 Y-33.386
G1 X-38.968 Y-33.425
G1 X-38.936 Y-33.463 Z-2.996
G1 X-38.904 Y-33.499 Z-2.984
G1 X-38.873 Y-33.533 Z-2.965
G1 X-38.845 Y-33.565 Z-2.939
G1 X-38.82 Y-33.594 Z-2.907
G1 X-38.799 Y-33.618 Z-2.869
G1 X-38.781 Y-33.638 Z-2.827
G1 X-38.769 Y-33.652 Z-2.781
G1 X-38.761 Y-33.661 Z-2.732
G1 X-38.759 Y-33.663 Z-2.682
; MOVEMENT_RAPID
G0 Z3 F300
G0 X14.87 Y-43.104 F2500
G0 Z-2.365 F300
; MOVEMENT_LEAD_IN
G1 Z-2.682 F480
G1 X14.871 Y-43.1 Z-2.732
G1 X14.875 Y-43.089 Z-2.781
G1 X14.882 Y-43.072 Z-2.827
G1 X14.892 Y-43.047 Z-2.869
G1 X14.904 Y-43.017 Z-2.907
G1 X14.918 Y-42.982 Z-2.939
G1 X14.934 Y-42.943 Z-2.965
G1 X14.951 Y-42.9 Z-2.984
G1 X14.969 Y-42.855 Z-2.996
G1 X14.987 Y-42.809 Z-3
G1 X15.021 Y-42.716
G1 X15.049 Y-42.62
G1 X15.071 Y-42.524
G1 X15.087 Y-42.426
G1 X15.097 Y-42.327
G1 X15.1 Y-42.228
G1 X15.097 Y-42.129
G1 X15.088 Y-42.03
; MOVEMENT_CUTTING
G1 X15.019 Y-41.592
G1 X14.999 Y-41.446
G1 X14.98 Y-41.3
G1 Y-41.154
G1 X14.983 Y-41.11
G1 X14.987 Y-40.96
G1 X14.967 Y-40.812
G1 X14.929 Y-40.666
G1 X14.874 Y-40.522
G1 X14.805 Y-40.377
G1 X14.708 Y-40.215
G1 X14.583 Y-40.043
G1 X14.431 Y-39.868
G1 X14.226 Y-39.671
G1 X13.999 Y-39.488
G1 X13.689 Y-39.281
G1 X13.339 Y-39.09
G1 X12.877 Y-38.888
G1 X12.284 Y-38.691
G1 X11.66 Y-38.542
G1 X11.026 Y-38.436
G1 X10.389 Y-38.36
G1 X9.749 Y-38.307
G1 X9.108 Y-38.27
G1 X8.466 Y-38.244
G1 X7.824 Y-38.226
G1 X7.182 Y-38.213
G1 X6.54 Y-38.205
G1 X5.898 Y-38.199
G1 X5.255 Y-38.195
G1 X3.971 Y-38.191
G1 X2.044 Y-38.188
G1 X-5.662
G1 X-33.918
G1 X-34.56
G1 X-34.874 Y-38.122
G1 X-35.165 Y-37.985
G1 X-35.679 Y-37.6
G1 X-36.043 Y-37.071
G1 X-36.291 Y-36.478
G1 X-36.456 Y-35.858
G1 X-36.564 Y-35.225
G1 X-36.696 Y-34.063
G1 X-36.769 Y-33.705
G1 X-36.846 Y-33.448
G1 X-36.891 Y-33.336
G1 X-36.987 Y-33.172
G1 X-37.127 Y-33.043
G1 X-37.298 Y-32.961
G1 X-37.486 Y-32.933
G1 X-38.09
G1 X-38.236 Y-32.93
G1 X-38.527 Y-32.919
G1 X-38.673 Y-32.903
; MOVEMENT_LEAD_OUT
G1 X-38.722
G1 X-38.771 Y-32.911
G1 X-38.818 Y-32.926
G1 X-38.861 Y-32.948
G1 X-38.901 Y-32.976
G1 X-38.936 Y-33.01
G1 X-38.966 Y-33.05
G1 X-38.989 Y-33.093
G1 X-39.005 Y-33.139
G1 X-39.013 Y-33.188
G1 X-39.014 Y-33.237
G1 X-39.008 Y-33.285
G1 X-38.994 Y-33.332
G1 X-38.973 Y-33.377
G1 X-38.946 Y-33.417
G1 X-38.912 Y-33.453
G1 X-38.876 Y-33.487 Z-2.996
G1 X-38.84 Y-33.52 Z-2.984
G1 X-38.806 Y-33.551 Z-2.965
G1 X-38.775 Y-33.58 Z-2.939
G1 X-38.747 Y-33.605 Z-2.907
G1 X-38.723 Y-33.627 Z-2.869
G1 X-38.704 Y-33.645 Z-2.827
G1 X-38.69 Y-33.658 Z-2.781
G1 X-38.682 Y-33.666 Z-2.732
G1 X-38.679 Y-33.668 Z-2.682
; MOVEMENT_RAPID
G0 Z3 F300
G0 X14.523 Y-42.105 F2500
G0 Z-2.365 F300
; MOVEMENT_LEAD_IN
G1 Z-2.682 F480
G1 X14.525 Y-42.101 Z-2.732
G1 X14.532 Y-42.092 Z-2.781
G1 X14.543 Y-42.076 Z-2.827
G1 X14.558 Y-42.055 Z-2.869
G1 X14.576 Y-42.028 Z-2.907
G1 X14.598 Y-41.997 Z-2.939
G1 X14.623 Y-41.963 Z-2.965
G1 X14.649 Y-41.925 Z-2.984
G1 X14.677 Y-41.885 Z-2.996
G1 X14.705 Y-41.845 Z-3
G1 X14.76 Y-41.762
G1 X14.809 Y-41.676
G1 X14.853 Y-41.587
G1 X14.891 Y-41.495
G1 X14.923 Y-41.401
G1 X14.949 Y-41.305
G1 X14.969 Y-41.208
G1 X14.983 Y-41.11
; MOVEMENT_CUTTING
G1 X14.991 Y-41.008
G1 X15.014 Y-40.862
G1 X15.052 Y-40.716
G1 X15.106 Y-40.571
G1 X15.127 Y-40.526
G1 X15.186 Y-40.388
G1 X15.217 Y-40.241
G1 X15.226 Y-40.092
G1 X15.218 Y-39.942
G1 X15.193 Y-39.794
G1 X15.155 Y-39.645
G1 X15.094 Y-39.475
G1 X15.013 Y-39.299
G1 X14.904 Y-39.108
G1 X14.766 Y-38.911
G1 X14.591 Y-38.702
G1 X14.374 Y-38.486
G1 X14.105 Y-38.261
G1 X13.778 Y-38.034
G1 X13.368 Y-37.801
G1 X12.893 Y-37.584
G1 X12.287 Y-37.369
G1 X11.666 Y-37.208
G1 X11.035 Y-37.088
G1 X10.399 Y-36.998
G1 X9.76 Y-36.933
G1 X9.12 Y-36.885
G1 X8.479 Y-36.85
G1 X7.837 Y-36.826
G1 X7.195 Y-36.808
G1 X6.553 Y-36.796
G1 X5.911 Y-36.787
G1 X5.269 Y-36.781
G1 X4.626 Y-36.777
G1 X3.342 Y-36.772
G1 X1.416 Y-36.769
G1 X-4.364 Y-36.768
G1 X-33.263
G1 X-33.569 Y-36.67
G1 X-33.846 Y-36.508
G1 X-34.332 Y-36.089
G1 X-34.674 Y-35.545
G1 X-34.912 Y-34.949
G1 X-35.1 Y-34.335
G1 X-35.287 Y-33.728
G1 X-35.418 Y-33.408
G1 X-35.484 Y-33.279
G1 X-35.585 Y-33.137
G1 X-35.72 Y-33.026
G1 X-35.88 Y-32.957
G1 X-36.053 Y-32.933
G1 X-37.486
; MOVEMENT_LEAD_OUT
G1 X-37.535 Y-32.938
G1 X-37.582 Y-32.951
G1 X-37.627 Y-32.971
G1 X-37.668 Y-32.998
G1 X-37.705 Y-33.031
G1 X-37.736 Y-33.069
G1 X-37.761 Y-33.111
G1 X-37.779 Y-33.157
G1 X-37.79 Y-33.205
G1 X-37.793 Y-33.253
G1 X-37.789 Y-33.302
G1 X-37.777 Y-33.35
G1 X-37.758 Y-33.395
G1 X-37.732 Y-33.437
G1 X-37.7 Y-33.474
G1 X-37.663 Y-33.506
G1 X-37.623 Y-33.536 Z-2.996
G1 X-37.584 Y-33.564 Z-2.984
G1 X-37.547 Y-33.591 Z-2.965
G1 X-37.513 Y-33.617 Z-2.939
G1 X-37.482 Y-33.639 Z-2.907
G1 X-37.456 Y-33.658 Z-2.869
G1 X-37.435 Y-33.674 Z-2.827
G1 X-37.42 Y-33.685 Z-2.781
G1 X-37.41 Y-33.692 Z-2.732
G1 X-37.407 Y-33.694 Z-2.682
; MOVEMENT_RAPID
G0 Z3 F300
G0 X14.335 Y-41.283 F2500
G0 Z-2.365 F300
; MOVEMENT_LEAD_IN
G1 Z-2.682 F480
G1 X14.338 Y-41.281 Z-2.732
G1 X14.348 Y-41.275 Z-2.781
G1 X14.364 Y-41.264 Z-2.827
G1 X14.385 Y-41.25 Z-2.869
G1 X14.412 Y-41.232 Z-2.907
G1 X14.444 Y-41.211 Z-2.939
G1 X14.479 Y-41.188 Z-2.965
G1 X14.518 Y-41.162 Z-2.984
G1 X14.558 Y-41.136 Z-2.996
G1 X14.6 Y-41.108 Z-3
G1 X14.681 Y-41.051
G1 X14.758 Y-40.989
G1 X14.831 Y-40.922
G1 X14.9 Y-40.851
G1 X14.964 Y-40.775
G1 X15.024 Y-40.696
G1 X15.078 Y-40.613
G1 X15.127 Y-40.526
; MOVEMENT_CUTTING
G1 X15.177 Y-40.423
G1 X15.222 Y-40.351
G1 X15.269 Y-40.279
G1 X15.323 Y-40.209
G1 X15.386 Y-40.133
G1 X15.432 Y-40.087
G1 X15.533 Y-39.977
G1 X15.61 Y-39.848
G1 X15.666 Y-39.709
G1 X15.703 Y-39.563
G1 X15.723 Y-39.415
G1 X15.728 Y-39.265
G1 X15.719 Y-39.107
G1 X15.693 Y-38.929
G1 X15.649 Y-38.745
G1 X15.579 Y-38.537
G1 X15.488 Y-38.328
G1 X15.358 Y-38.092
G1 X15.204 Y-37.863
G1 X14.997 Y-37.605
G1 X14.753 Y-37.354
G1 X14.452 Y-37.093
G1 X14.07 Y-36.817
G1 X13.647 Y-36.566
G1 X13.109 Y-36.307
G1 X12.507 Y-36.082
G1 X11.89 Y-35.904
G1 X11.263 Y-35.766
G1 X10.63 Y-35.659
G1 X9.993 Y-35.578
G1 X9.353 Y-35.516
G1 X8.713 Y-35.47
G1 X8.072 Y-35.436
G1 X7.43 Y-35.411
G1 X6.788 Y-35.393
G1 X6.146 Y-35.38
G1 X5.504 Y-35.37
G1 X4.862 Y-35.363
G1 X4.219 Y-35.359
G1 X3.577 Y-35.355
G1 X2.293 Y-35.351
G1 X0.366 Y-35.349
G1 X-6.055 Y-35.348
G1 X-31.743 Y-35.347
G1 X-32.056 Y-35.276
G1 X-32.635 Y-34.998
G1 X-33.083 Y-34.538
G1 X-33.438 Y-34.003
G1 X-33.756 Y-33.445
G1 X-33.891 Y-33.232
G1 X-34.034 Y-33.072
G1 X-34.221 Y-32.969
G1 X-34.433 Y-32.933
G1 X-36.053
; MOVEMENT_LEAD_OUT
G1 X-36.102 Y-32.938
G1 X-36.149 Y-32.951
G1 X-36.194 Y-32.971
G1 X-36.235 Y-32.998
G1 X-36.272 Y-33.031
G1 X-36.303 Y-33.069
G1 X-36.328 Y-33.111
G1 X-36.346 Y-33.157
G1 X-36.357 Y-33.205
G1 X-36.36 Y-33.253
G1 X-36.356 Y-33.302
G1 X-36.344 Y-33.35
G1 X-36.325 Y-33.395
G1 X-36.299 Y-33.437
G1 X-36.267 Y-33.474
G1 X-36.23 Y-33.506
G1 X-36.19 Y-33.536 Z-2.996
G1 X-36.151 Y-33.564 Z-2.984
G1 X-36.114 Y-33.591 Z-2.965
G1 X-36.08 Y-33.617 Z-2.939
G1 X-36.049 Y-33.639 Z-2.907
G1 X-36.023 Y-33.658 Z-2.869
G1 X-36.002 Y-33.674 Z-2.827
G1 X-35.987 Y-33.685 Z-2.781
G1 X-35.977 Y-33.692 Z-2.732
G1 X-35.974 Y-33.694 Z-2.682
; MOVEMENT_RAPID
G0 Z3 F300
G0 X14.433 Y-40.538 F2500
G0 Z-2.365 F300
; MOVEMENT_LEAD_IN
G1 Z-2.682 F480
G1 X14.437 Y-40.537 Z-2.732
G1 X14.448 Y-40.534 Z-2.781
G1 X14.466 Y-40.529 Z-2.827
G1 X14.492 Y-40.523 Z-2.869
G1 X14.523 Y-40.515 Z-2.907
G1 X14.56 Y-40.506 Z-2.939
G1 X14.601 Y-40.496 Z-2.965
G1 X14.646 Y-40.484 Z-2.984
G1 X14.693 Y-40.473 Z-2.996
G1 X14.741 Y-40.461 Z-3
G1 X14.836 Y-40.434
G1 X14.93 Y-40.401
G1 X15.021 Y-40.362
G1 X15.11 Y-40.318
G1 X15.196 Y-40.268
G1 X15.278 Y-40.213
G1 X15.357 Y-40.152
G1 X15.432 Y-40.087
; MOVEMENT_CUTTING
G1 X15.469 Y-40.05
G1 X15.536 Y-39.987
G1 X15.615 Y-39.926
G1 X15.739 Y-39.841
G1 X15.761 Y-39.827
G1 X15.841 Y-39.785
G1 X15.971 Y-39.709
G1 X16.085 Y-39.612
G1 X16.181 Y-39.496
G1 X16.26 Y-39.369
G1 X16.323 Y-39.233
G1 X16.371 Y-39.091
G1 X16.405 Y-38.945
G1 X16.429 Y-38.777
G1 X16.438 Y-38.598
G1 X16.431 Y-38.402
G1 X16.403 Y-38.184
G1 X16.354 Y-37.959
G1 X16.275 Y-37.705
G1 X16.17 Y-37.453
G1 X16.026 Y-37.177
G1 X15.838 Y-36.883
G1 X15.613 Y-36.594
G1 X15.326 Y-36.284
G1 X14.978 Y-35.97
G1 X14.58 Y-35.67
G1 X14.082 Y-35.36
G1 X13.509 Y-35.071
G1 X12.913 Y-34.831
G1 X12.301 Y-34.635
G1 X11.679 Y-34.476
G1 X11.05 Y-34.349
G1 X10.415 Y-34.249
G1 X9.778 Y-34.171
G1 X9.139 Y-34.11
G1 X8.498 Y-34.063
G1 X7.857 Y-34.028
G1 X7.215 Y-34.001
G1 X6.573 Y-33.981
G1 X5.931 Y-33.966
G1 X5.289 Y-33.955
G1 X4.647 Y-33.947
G1 X4.005 Y-33.942
G1 X3.363 Y-33.938
G1 X2.078 Y-33.932
G1 X0.152 Y-33.929
G1 X-4.343 Y-33.928
G1 X-30.031
G1 X-30.352 Y-33.922
G1 X-30.668 Y-33.866
G1 X-31.27 Y-33.643
G1 X-31.785 Y-33.259
G1 X-31.944 Y-33.108
G1 X-32.075 Y-33.013
G1 X-32.225 Y-32.953
G1 X-32.385 Y-32.933
G1 X-34.433
; MOVEMENT_LEAD_OUT
G1 X-34.482 Y-32.938
G1 X-34.529 Y-32.951
G1 X-34.574 Y-32.971
G1 X-34.615 Y-32.998
G1 X-34.651 Y-33.031
G1 X-34.682 Y-33.069
G1 X-34.707 Y-33.111
G1 X-34.725 Y-33.157
G1 X-34.736 Y-33.205
G1 X-34.739 Y-33.253
G1 X-34.735 Y-33.302
G1 X-34.723 Y-33.35
G1 X-34.704 Y-33.395
G1 X-34.679 Y-33.437
G1 X-34.647 Y-33.474
G1 X-34.61 Y-33.506
G1 X-34.57 Y-33.536 Z-2.996
G1 X-34.531 Y-33.564 Z-2.984
G1 X-34.493 Y-33.591 Z-2.965
G1 X-34.459 Y-33.617 Z-2.939
G1 X-34.429 Y-33.639 Z-2.907
G1 X-34.403 Y-33.658 Z-2.869
G1 X-34.382 Y-33.674 Z-2.827
G1 X-34.366 Y-33.685 Z-2.781
G1 X-34.357 Y-33.692 Z-2.732
G1 X-34.354 Y-33.694 Z-2.682
; MOVEMENT_RAPID
G0 Z3 F300
G0 X14.754 Y-39.922 F2500
G0 Z-2.365 F300
; MOVEMENT_LEAD_IN
G1 Z-2.682 F480
G1 X14.758 Z-2.732
G1 X14.77 Y-39.923 Z-2.781
G1 X14.789 Y-39.924 Z-2.827
G1 X14.815 Y-39.925 Z-2.869
G1 X14.847 Y-39.927 Z-2.907
G1 X14.885 Y-39.929 Z-2.939
G1 X14.927 Y-39.931 Z-2.965
G1 X14.973 Y-39.934 Z-2.984
G1 X15.022 Y-39.936 Z-2.996
G1 X15.071 Y-39.939 Z-3
G1 X15.17 Y-39.941
G1 X15.27 Y-39.937
G1 X15.368 Y-39.927
G1 X15.466 Y-39.911
G1 X15.563 Y-39.888
G1 X15.658 Y-39.86
G1 X15.751 Y-39.825
G1 X15.841 Y-39.785
; MOVEMENT_CUTTING
G1 X15.907 Y-39.751
G1 X16.053 Y-39.684
G1 X16.356 Y-39.549
G1 X16.491 Y-39.483
G1 X16.571 Y-39.44
G1 X16.699 Y-39.362
G1 X16.815 Y-39.266
G1 X16.917 Y-39.156
G1 X17.004 Y-39.034
G1 X17.079 Y-38.904
G1 X17.141 Y-38.767
G1 X17.198 Y-38.605
G1 X17.242 Y-38.43
G1 X17.274 Y-38.234
G1 X17.289 Y-38.015
G1 X17.285 Y-37.785
G1 X17.257 Y-37.521
G1 X17.204 Y-37.253
G1 X17.118 Y-36.96
G1 X16.993 Y-36.64
G1 X16.835 Y-36.323
G1 X16.625 Y-35.98
G1 X16.355 Y-35.618
G1 X16.042 Y-35.267
G1 X15.66 Y-34.909
G1 X15.188 Y-34.539
G1 X14.649 Y-34.19
G1 X14.083 Y-33.888
G1 X13.495 Y-33.629
G1 X12.891 Y-33.412
G1 X12.274 Y-33.23
G1 X11.65 Y-33.081
G1 X11.02 Y-32.958
G1 X10.909 Y-32.941
G1 X10.876 Y-32.936
G1 X10.843 Y-32.934
G1 X10.81 Y-32.933
G1 X-32.385
; MOVEMENT_LEAD_OUT
G1 X-32.434 Y-32.938
G1 X-32.481 Y-32.951
G1 X-32.526 Y-32.971
G1 X-32.567 Y-32.998
G1 X-32.603 Y-33.031
G1 X-32.634 Y-33.069
G1 X-32.659 Y-33.111
G1 X-32.677 Y-33.157
G1 X-32.688 Y-33.205
G1 X-32.691 Y-33.253
G1 X-32.687 Y-33.302
G1 X-32.675 Y-33.35
G1 X-32.656 Y-33.395
G1 X-32.631 Y-33.437
G1 X-32.599 Y-33.474
G1 X-32.562 Y-33.506
G1 X-32.521 Y-33.536 Z-2.996
G1 X-32.482 Y-33.564 Z-2.984
G1 X-32.445 Y-33.591 Z-2.965
G1 X-32.411 Y-33.617 Z-2.939
G1 X-32.381 Y-33.639 Z-2.907
G1 X-32.354 Y-33.658 Z-2.869
G1 X-32.333 Y-33.674 Z-2.827
G1 X-32.318 Y-33.685 Z-2.781
G1 X-32.309 Y-33.692 Z-2.732
G1 X-32.306 Y-33.694 Z-2.682
; MOVEMENT_RAPID
G0 Z3 F300
G0 X15.486 Y-39.59 F2500
G0 Z-2.365 F300
; MOVEMENT_LEAD_IN
G1 Z-2.682 F480
G1 X15.49 Z-2.732
G1 X15.501 Z-2.781
G1 X15.52 Y-39.591 Z-2.827
G1 X15.546 Y-39.592 Z-2.869
G1 X15.579 Y-39.594 Z-2.907
G1 X15.616 Y-39.595 Z-2.939
G1 X15.659 Y-39.597 Z-2.965
G1 X15.705 Y-39.599 Z-2.984
G1 X15.753 Y-39.601 Z-2.996
G1 X15.803 Y-39.603 Z-3
G1 X15.902 Y-39.604
G1 X16.001 Y-39.599
G1 X16.1 Y-39.587
G1 X16.197 Y-39.57
G1 X16.294 Y-39.546
G1 X16.388 Y-39.516
G1 X16.481 Y-39.481
G1 X16.571 Y-39.44
; MOVEMENT_CUTTING
G1 X16.639 Y-39.403
G1 X16.929 Y-39.221
G1 X17.075 Y-39.107
G1 X17.25 Y-38.965
G1 X17.367 Y-38.867
G1 X17.414 Y-38.819
G1 X17.512 Y-38.716
G1 X17.658 Y-38.538
G1 X17.667 Y-38.527
G1 X17.804 Y-38.319
G1 X17.844 Y-38.236
G1 X17.911 Y-38.09
G1 X17.996 Y-37.876
G1 X18.045 Y-37.711
G1 X18.086 Y-37.513
G1 X18.109 Y-37.305
G1 X18.115 Y-37.063
G1 X18.098 Y-36.806
G1 X18.054 Y-36.522
G1 X17.975 Y-36.204
G1 X17.864 Y-35.883
G1 X17.703 Y-35.523
G1 X17.491 Y-35.145
G1 X17.236 Y-34.771
G1 X16.901 Y-34.362
G1 X16.485 Y-33.938
G1 X16.004 Y-33.528
G1 X15.48 Y-33.157
G1 X15.29 Y-33.044
G1 X15.209 Y-33.004
G1 X15.123 Y-32.975
G1 X15.034 Y-32.959
; MOVEMENT_LEAD_OUT
G1 X14.985
G1 X14.937 Y-32.966
G1 X14.89 Y-32.981
G1 X14.847 Y-33.003
G1 X14.807 Y-33.031
G1 X14.772 Y-33.065
G1 X14.742 Y-33.105
G1 X14.719 Y-33.148
G1 X14.703 Y-33.194
G1 X14.694 Y-33.242
G1 X14.693 Y-33.291
G1 X14.699 Y-33.339
G1 X14.713 Y-33.386
G1 X14.733 Y-33.43
G1 X14.782 Y-33.518
; MOVEMENT_LINK_DIRECT
G1 X17.302 Y-38.018
; MOVEMENT_LEAD_IN
G1 X17.35 Y-38.103
G1 X17.377 Y-38.144
G1 X17.41 Y-38.18
G1 X17.449 Y-38.21
G1 X17.491 Y-38.235
G1 X17.537 Y-38.252
G1 X17.585 Y-38.262
G1 X17.634 Y-38.265
G1 X17.683 Y-38.26
G1 X17.731 Y-38.248
G1 X17.776 Y-38.228
G1 X17.817 Y-38.202
G1 X17.854 Y-38.169
G1 X17.886 Y-38.132
G1 X17.911 Y-38.09
; MOVEMENT_CUTTING
G1 X17.978 Y-37.944
G1 X18.043 Y-37.798
G1 X18.084 Y-37.652
G1 X18.159 Y-37.36
G1 X18.192 Y-37.214
G1 X18.244 Y-36.776
G1 X18.251 Y-36.63
G1 X18.252 Y-36.338
G1 Y-36.192
G1 X18.194 Y-35.755
G1 X18.167 Y-35.609
G1 X18.129 Y-35.463
G1 X18.096 Y-35.361
G1 X18.028 Y-35.171
G1 X17.95 Y-35
G1 X17.892 Y-34.879
G1 X17.804 Y-34.726
G1 X17.721 Y-34.587
G1 X17.614 Y-34.441
G1 X17.506 Y-34.295
G1 X17.367 Y-34.14
G1 X17.234 Y-34.003
G1 X17.073 Y-33.857
G1 X16.929 Y-33.734
G1 X16.703 Y-33.566
G1 X16.637 Y-33.518
G1 X16.476 Y-33.42
G1 X16.345 Y-33.349
G1 X16.196 Y-33.274
G1 X16.053 Y-33.213
G1 X15.907 Y-33.153
G1 X15.761 Y-33.111
G1 X15.469 Y-33.03
G1 X15.323 Y-32.995
G1 X15.244 Y-32.982
G1 X14.886 Y-32.942
G1 X14.74 Y-32.937
G1 X14.302 Y-32.933
G1 X10.81
; MOVEMENT_LEAD_OUT
G1 X10.761 Y-32.938
G1 X10.714 Y-32.951
G1 X10.669 Y-32.971
G1 X10.628 Y-32.998
G1 X10.591 Y-33.031
G1 X10.56 Y-33.069
G1 X10.536 Y-33.111
G1 X10.518 Y-33.157
G1 X10.507 Y-33.205
G1 X10.503 Y-33.253
G1 X10.508 Y-33.302
G1 X10.52 Y-33.35
G1 X10.538 Y-33.395
G1 X10.564 Y-33.437
G1 X10.596 Y-33.474
G1 X10.633 Y-33.506
G1 X10.673 Y-33.536 Z-2.996
G1 X10.712 Y-33.564 Z-2.984
G1 X10.749 Y-33.591 Z-2.965
G1 X10.784 Y-33.617 Z-2.939
G1 X10.814 Y-33.639 Z-2.907
G1 X10.84 Y-33.658 Z-2.869
G1 X10.861 Y-33.674 Z-2.827
G1 X10.877 Y-33.685 Z-2.781
G1 X10.886 Y-33.692 Z-2.732
G1 X10.889 Y-33.694 Z-2.682
; MOVEMENT_RAPID
G0 Z3 F300
G0 X-40.586 Y-14.44 F2500
G0 Z-2.365 F300
; MOVEMENT_LEAD_IN
G1 Z-2.682 F480
G1 X-40.583 Y-14.438 Z-2.732
G1 X-40.574 Y-14.43 Z-2.781
G1 X-40.56 Y-14.417 Z-2.827
G1 X-40.541 Y-14.4 Z-2.869
G1 X-40.517 Y-14.378 Z-2.907
G1 X-40.489 Y-14.352 Z-2.939
G1 X-40.457 Y-14.324 Z-2.965
G1 X-40.423 Y-14.293 Z-2.984
G1 X-40.387 Y-14.261 Z-2.996
G1 X-40.35 Y-14.227 Z-3
G1 X-40.279 Y-14.158
G1 X-40.212 Y-14.085
G1 X-40.15 Y-14.008
G1 X-40.092 Y-13.927
G1 X-40.04 Y-13.843
G1 X-39.993 Y-13.755
G1 X-39.952 Y-13.665
G1 X-39.917 Y-13.572
; MOVEMENT_CUTTING
G1 X-39.872 Y-13.426
G1 X-39.841 Y-13.35
G1 X-39.81 Y-13.28
G1 X-39.695 Y-13.085
G1 X-39.623 Y-12.988
G1 X-39.549 Y-12.901
G1 X-39.489 Y-12.842
G1 X-39.403 Y-12.761
G1 X-39.377 Y-12.742
G1 X-39.262 Y-12.645
G1 X-39.153 Y-12.525
G1 X-39.038 Y-12.372
G1 X-38.915 Y-12.175
G1 X-38.786 Y-11.919
G1 X-38.652 Y-11.584
G1 X-38.513 Y-11.122
G1 X-38.384 Y-10.493
G1 X-38.307 Y-9.856
G1 X-38.26 Y-9.215
G1 X-38.231 Y-8.574
G1 X-38.214 Y-7.932
G1 X-38.204 Y-7.29
G1 X-38.197 Y-6.647
G1 X-38.193 Y-6.005
G1 X-38.19 Y-4.721
G1 X-38.188 Y-2.152
G1 Y10.165
G1 X-38.192 Y10.237
G1 X-38.203 Y10.307
G1 X-38.223 Y10.376
G1 X-38.37 Y10.799
G1 X-38.527 Y11.27
G1 X-38.614 Y11.529
G1 X-38.756 Y11.967
G1 X-38.895 Y12.405
G1 X-38.985 Y12.697
G1 X-39.074 Y12.988
G1 X-39.204 Y13.426
G1 X-39.332 Y13.864
G1 X-39.494 Y14.448
G1 X-39.628 Y14.953
; MOVEMENT_LEAD_OUT
G1 X-39.645 Y14.999
G1 X-39.67 Y15.041
G1 X-39.7 Y15.08
G1 X-39.737 Y15.113
G1 X-39.777 Y15.14
G1 X-39.822 Y15.16
G1 X-39.869 Y15.174
G1 X-39.918 Y15.18
G1 X-39.967 Y15.178
G1 X-40.015 Y15.169
G1 X-40.061 Y15.153
G1 X-40.104 Y15.13
G1 X-40.143 Y15.1
G1 X-40.177 Y15.065
G1 X-40.206 Y15.024
G1 X-40.227 Y14.98
G1 X-40.246 Y14.934 Z-2.996
G1 X-40.264 Y14.889 Z-2.984
G1 X-40.281 Y14.847 Z-2.965
G1 X-40.296 Y14.807 Z-2.939
G1 X-40.31 Y14.772 Z-2.907
G1 X-40.322 Y14.742 Z-2.869
G1 X-40.332 Y14.718 Z-2.827
G1 X-40.339 Y14.7 Z-2.781
G1 X-40.343 Y14.689 Z-2.732
G1 X-40.345 Y14.686 Z-2.682
; MOVEMENT_RAPID
G0 Z3 F300
G0 X-40.428 Y-13.054 F2500
G0 Z-2.365 F300
; MOVEMENT_LEAD_IN
G1 Z-2.682 F480
G1 X-40.424 Y-13.053 Z-2.732
G1 X-40.412 Y-13.052 Z-2.781
G1 X-40.393 Y-13.05 Z-2.827
G1 X-40.367 Y-13.047 Z-2.869
G1 X-40.335 Y-13.044 Z-2.907
G1 X-40.298 Y-13.039 Z-2.939
G1 X-40.255 Y-13.035 Z-2.965
G1 X-40.21 Y-13.03 Z-2.984
G1 X-40.161 Y-13.024 Z-2.996
G1 X-40.112 Y-13.019 Z-3
G1 X-40.014 Y-13.005
G1 X-39.917 Y-12.985
G1 X-39.821 Y-12.959
G1 X-39.727 Y-12.927
G1 X-39.635 Y-12.889
G1 X-39.546 Y-12.845
G1 X-39.46 Y-12.796
G1 X-39.377 Y-12.742
; MOVEMENT_CUTTING
G1 X-39.318 Y-12.697
G1 X-39.257 Y-12.653
G1 X-39.111 Y-12.568
G1 X-39.075 Y-12.551
G1 X-38.965 Y-12.504
G1 X-38.819 Y-12.453
G1 X-38.739 Y-12.436
G1 X-38.594 Y-12.396
G1 X-38.458 Y-12.334
G1 X-38.329 Y-12.257
G1 X-38.209 Y-12.168
G1 X-38.074 Y-12.048
G1 X-37.925 Y-11.89
G1 X-37.786 Y-11.712
G1 X-37.634 Y-11.479
G1 X-37.479 Y-11.189
G1 X-37.321 Y-10.814
G1 X-37.164 Y-10.326
G1 X-37.023 Y-9.699
G1 X-36.931 Y-9.064
G1 X-36.872 Y-8.424
G1 X-36.834 Y-7.783
G1 X-36.81 Y-7.141
G1 X-36.794 Y-6.499
G1 X-36.785 Y-5.857
G1 X-36.778 Y-5.215
G1 X-36.774 Y-4.573
G1 X-36.77 Y-3.289
G1 X-36.768 Y-0.72
G1 Y6.39
G1 X-36.773 Y6.472
G1 X-36.788 Y6.552
G1 X-36.814 Y6.629
G1 X-37.021 Y7.151
G1 X-37.25 Y7.735
G1 X-37.418 Y8.172
G1 X-37.583 Y8.61
G1 X-37.8 Y9.194
G1 X-37.944 Y9.588
G1 X-38.116 Y10.07
G1 X-38.223 Y10.376
; MOVEMENT_LEAD_OUT
G1 X-38.244 Y10.42
G1 X-38.272 Y10.461
G1 X-38.306 Y10.497
G1 X-38.345 Y10.527
G1 X-38.388 Y10.55
G1 X-38.434 Y10.567
G1 X-38.482 Y10.577
G1 X-38.531 Y10.579
G1 X-38.579 Y10.573
G1 X-38.627 Y10.56
G1 X-38.671 Y10.54
G1 X-38.713 Y10.513
G1 X-38.749 Y10.48
G1 X-38.78 Y10.442
G1 X-38.805 Y10.4
G1 X-38.823 Y10.354
G1 X-38.837 Y10.307 Z-2.996
G1 X-38.852 Y10.261 Z-2.984
G1 X-38.865 Y10.217 Z-2.965
G1 X-38.877 Y10.176 Z-2.939
G1 X-38.889 Y10.14 Z-2.907
G1 X-38.898 Y10.109 Z-2.869
G1 X-38.906 Y10.084 Z-2.827
G1 X-38.911 Y10.066 Z-2.781
G1 X-38.915 Y10.055 Z-2.732
G1 X-38.916 Y10.051 Z-2.682
; MOVEMENT_RAPID
G0 Z3 F300
G0 X-39.824 Y-12.28 F2500
G0 Z-2.365 F300
; MOVEMENT_LEAD_IN
G1 Z-2.682 F480
G1 X-39.82 Y-12.281 Z-2.732
G1 X-39.809 Y-12.285 Z-2.781
G1 X-39.791 Y-12.291 Z-2.827
G1 X-39.766 Y-12.299 Z-2.869
G1 X-39.736 Y-12.31 Z-2.907
G1 X-39.7 Y-12.322 Z-2.939
G1 X-39.659 Y-12.335 Z-2.965
G1 X-39.616 Y-12.35 Z-2.984
G1 X-39.57 Y-12.365 Z-2.996
G1 X-39.522 Y-12.38 Z-3
G1 X-39.427 Y-12.409
G1 X-39.331 Y-12.431
G1 X-39.233 Y-12.447
G1 X-39.134 Y-12.457
G1 X-39.035 Y-12.461
G1 X-38.936 Y-12.459
G1 X-38.837 Y-12.45
G1 X-38.739 Y-12.436
; MOVEMENT_CUTTING
G1 X-38.673 Y-12.421
G1 X-38.527 Y-12.405
G1 X-38.236 Y-12.394
G1 X-38.09 Y-12.392
G1 X-37.944
G1 X-37.794 Y-12.384
G1 X-37.648 Y-12.351
G1 X-37.506 Y-12.301
G1 X-37.37 Y-12.237
G1 X-37.217 Y-12.147
G1 X-37.069 Y-12.042
G1 X-36.902 Y-11.899
G1 X-36.73 Y-11.724
G1 X-36.558 Y-11.513
G1 X-36.368 Y-11.234
G1 X-36.193 Y-10.921
G1 X-36.009 Y-10.507
G1 X-35.826 Y-9.977
G1 X-35.673 Y-9.353
G1 X-35.567 Y-8.72
G1 X-35.494 Y-8.082
G1 X-35.445 Y-7.441
G1 X-35.412 Y-6.8
G1 X-35.39 Y-6.158
G1 X-35.376 Y-5.516
G1 X-35.366 Y-4.874
G1 X-35.36 Y-4.232
G1 X-35.355 Y-3.59
G1 X-35.351 Y-2.305
G1 X-35.348 Y-0.379
G1 Y3.003
G1 X-35.354 Y3.091
G1 X-35.372 Y3.178
G1 X-35.402 Y3.261
G1 X-35.633 Y3.794
G1 X-35.901 Y4.417
G1 X-36.13 Y4.962
G1 X-36.313 Y5.4
G1 X-36.493 Y5.837
G1 X-36.671 Y6.275
G1 X-36.814 Y6.629
; MOVEMENT_LEAD_OUT
G1 X-36.837 Y6.672
G1 X-36.867 Y6.711
G1 X-36.902 Y6.745
G1 X-36.942 Y6.774
G1 X-36.986 Y6.795
G1 X-37.033 Y6.81
G1 X-37.081 Y6.817
G1 X-37.13
G1 X-37.179 Y6.809
G1 X-37.225 Y6.794
G1 X-37.269 Y6.772
G1 X-37.309 Y6.743
G1 X-37.344 Y6.709
G1 X-37.373 Y6.669
G1 X-37.396 Y6.626
G1 X-37.412 Y6.579
G1 X-37.424 Y6.531 Z-2.996
G1 X-37.436 Y6.484 Z-2.984
G1 X-37.447 Y6.44 Z-2.965
G1 X-37.458 Y6.398 Z-2.939
G1 X-37.467 Y6.362 Z-2.907
G1 X-37.475 Y6.33 Z-2.869
G1 X-37.482 Y6.305 Z-2.827
G1 X-37.487 Y6.287 Z-2.781
G1 X-37.489 Y6.275 Z-2.732
G1 X-37.49 Y6.272 Z-2.682
; MOVEMENT_RAPID
G0 Z3 F300
G0 X-38.97 Y-12.008 F2500
G0 Z-2.365 F300
; MOVEMENT_LEAD_IN
G1 Z-2.682 F480
G1 X-38.967 Y-12.01 Z-2.732
G1 X-38.957 Y-12.016 Z-2.781
G1 X-38.94 Y-12.026 Z-2.827
G1 X-38.918 Y-12.039 Z-2.869
G1 X-38.89 Y-12.055 Z-2.907
G1 X-38.858 Y-12.075 Z-2.939
G1 X-38.821 Y-12.097 Z-2.965
G1 X-38.782 Y-12.12 Z-2.984
G1 X-38.74 Y-12.145 Z-2.996
G1 X-38.697 Y-12.17 Z-3
G1 X-38.61 Y-12.218
G1 X-38.521 Y-12.261
G1 X-38.429 Y-12.297
G1 X-38.334 Y-12.328
G1 X-38.238 Y-12.353
G1 X-38.141 Y-12.372
G1 X-38.043 Y-12.385
G1 X-37.944 Y-12.392
; MOVEMENT_CUTTING
G1 X-36.922
G1 X-36.772 Y-12.384
G1 X-36.624 Y-12.362
G1 X-36.479 Y-12.324
G1 X-36.333 Y-12.27
G1 X-36.176 Y-12.196
G1 X-36.013 Y-12.1
G1 X-35.83 Y-11.968
G1 X-35.653 Y-11.817
G1 X-35.451 Y-11.609
G1 X-35.259 Y-11.374
G1 X-35.05 Y-11.064
G1 X-34.851 Y-10.705
G1 X-34.645 Y-10.239
G1 X-34.445 Y-9.65
G1 X-34.292 Y-9.026
G1 X-34.183 Y-8.393
G1 X-34.105 Y-7.756
G1 X-34.05 Y-7.116
G1 X-34.012 Y-6.475
G1 X-33.985 Y-5.833
