;Fusion 360 CAM 2.0.7463
; Posts processor: DIYCNC_Marlin20.cps
; Gcode generated: Sun Mar  1 01:18:03 2020 GMT
; Document: 4x4Coaster W Team Female v2
; Setup: Setup1
; 
; Ranges table:
; X: Min=-55.295 Max=57.107 Size=112.402
; Y: Min=-53.953 Max=50.754 Size=104.707
; Z: Min=-0.2 Max=3 Size=3.2
; 
; Tools table:
; T6 D=6.35 CR=0 - ZMIN=-0.2 - face mill 

; *** START begin ***
G90
G21
M84 S0
G92 X0 Y0 Z5
; *** START end ***

; *** SECTION begin ***
;Face1 - Milling - Tool: 6 -  face mill
; X Min: -55.295 - X Max: 57.107
; Y Min: -53.953 - Y Max: 50.754
; Z Min: -0.2 - Z Max: 3
; COMMAND_START_SPINDLE
; COMMAND_SPINDLE_CLOCKWISE
; COMMAND_COOLANT_ON
; MOVEMENT_LEAD_IN
G1 X57.107 Y-53.953 Z3 F360
G1 Z0.435
G1 X57.103 Z0.364
G1 X57.091 Z0.294
G1 X57.071 Z0.225
G1 X57.044 Z0.159
G1 X57.009 Z0.097
G1 X56.968 Z0.039
G1 X56.921 Z-0.014
G1 X56.868 Z-0.061
G1 X56.81 Z-0.103
G1 X56.747 Z-0.137
G1 X56.681 Z-0.164
G1 X56.613 Z-0.184
G1 X56.543 Z-0.196
G1 X56.472 Z-0.2
G1 X53.8
; MOVEMENT_FINISH_CUTTING
G1 X-53.8
; MOVEMENT_LINK_TRANSITION
G1 X-53.909 Y-53.949
G1 X-54.018 Y-53.937
G1 X-54.125 Y-53.918
G1 X-54.231 Y-53.89
G1 X-54.334 Y-53.855
G1 X-54.435 Y-53.812
G1 X-54.532 Y-53.762
G1 X-54.625 Y-53.705
G1 X-54.714 Y-53.641
G1 X-54.798 Y-53.572
G1 X-54.877 Y-53.496
G1 X-54.95 Y-53.414
G1 X-55.017 Y-53.328
G1 X-55.077 Y-53.237
G1 X-55.13 Y-53.142
G1 X-55.177 Y-53.043
G1 X-55.216 Y-52.941
G1 X-55.247 Y-52.836
G1 X-55.271 Y-52.729
G1 X-55.287 Y-52.621
G1 X-55.295 Y-52.512
G1 Y-52.403
G1 X-55.287 Y-52.294
G1 X-55.271 Y-52.186
G1 X-55.247 Y-52.079
G1 X-55.216 Y-51.975
G1 X-55.177 Y-51.873
G1 X-55.13 Y-51.774
G1 X-55.077 Y-51.678
G1 X-55.017 Y-51.587
G1 X-54.95 Y-51.501
G1 X-54.877 Y-51.419
G1 X-54.798 Y-51.344
G1 X-54.714 Y-51.274
G1 X-54.625 Y-51.21
G1 X-54.532 Y-51.153
G1 X-54.435 Y-51.103
G1 X-54.334 Y-51.06
G1 X-54.231 Y-51.025
G1 X-54.125 Y-50.998
G1 X-54.018 Y-50.978
G1 X-53.909 Y-50.966
G1 X-53.8 Y-50.962
; MOVEMENT_FINISH_CUTTING
G1 X53.8
; MOVEMENT_LINK_TRANSITION
G1 X53.909 Y-50.958
G1 X54.018 Y-50.946
G1 X54.125 Y-50.926
G1 X54.231 Y-50.898
G1 X54.334 Y-50.863
G1 X54.435 Y-50.82
G1 X54.532 Y-50.77
G1 X54.625 Y-50.713
G1 X54.714 Y-50.65
G1 X54.798 Y-50.58
G1 X54.877 Y-50.504
G1 X54.95 Y-50.423
G1 X55.017 Y-50.336
G1 X55.077 Y-50.245
G1 X55.13 Y-50.15
G1 X55.177 Y-50.051
G1 X55.216 Y-49.949
G1 X55.247 Y-49.844
G1 X55.271 Y-49.738
G1 X55.287 Y-49.63
G1 X55.295 Y-49.521
G1 Y-49.411
G1 X55.287 Y-49.302
G1 X55.271 Y-49.194
G1 X55.247 Y-49.088
G1 X55.216 Y-48.983
G1 X55.177 Y-48.881
G1 X55.13 Y-48.782
G1 X55.077 Y-48.687
G1 X55.017 Y-48.596
G1 X54.95 Y-48.509
G1 X54.877 Y-48.428
G1 X54.798 Y-48.352
G1 X54.714 Y-48.282
G1 X54.625 Y-48.218
G1 X54.532 Y-48.161
G1 X54.435 Y-48.112
G1 X54.334 Y-48.069
G1 X54.231 Y-48.034
G1 X54.125 Y-48.006
G1 X54.018 Y-47.986
G1 X53.909 Y-47.974
G1 X53.8 Y-47.97
; MOVEMENT_FINISH_CUTTING
G1 X-53.8
; MOVEMENT_LINK_TRANSITION
G1 X-53.909 Y-47.966
G1 X-54.018 Y-47.954
G1 X-54.125 Y-47.934
G1 X-54.231 Y-47.907
G1 X-54.334 Y-47.871
G1 X-54.435 Y-47.829
G1 X-54.532 Y-47.779
G1 X-54.625 Y-47.722
G1 X-54.714 Y-47.658
G1 X-54.798 Y-47.588
G1 X-54.877 Y-47.512
G1 X-54.95 Y-47.431
G1 X-55.017 Y-47.345
G1 X-55.077 Y-47.254
G1 X-55.13 Y-47.158
G1 X-55.177 Y-47.059
G1 X-55.216 Y-46.957
G1 X-55.247 Y-46.853
G1 X-55.271 Y-46.746
G1 X-55.287 Y-46.638
G1 X-55.295 Y-46.529
G1 Y-46.42
G1 X-55.287 Y-46.311
G1 X-55.271 Y-46.203
G1 X-55.247 Y-46.096
G1 X-55.216 Y-45.991
G1 X-55.177 Y-45.889
G1 X-55.13 Y-45.79
G1 X-55.077 Y-45.695
G1 X-55.017 Y-45.604
G1 X-54.95 Y-45.517
G1 X-54.877 Y-45.436
G1 X-54.798 Y-45.36
G1 X-54.714 Y-45.29
G1 X-54.625 Y-45.227
G1 X-54.532 Y-45.17
G1 X-54.435 Y-45.12
G1 X-54.334 Y-45.077
G1 X-54.231 Y-45.042
G1 X-54.125 Y-45.014
G1 X-54.018 Y-44.994
G1 X-53.909 Y-44.982
G1 X-53.8 Y-44.978
; MOVEMENT_FINISH_CUTTING
G1 X53.8
; MOVEMENT_LINK_TRANSITION
G1 X53.909 Y-44.974
G1 X54.018 Y-44.963
G1 X54.125 Y-44.943
G1 X54.231 Y-44.915
G1 X54.334 Y-44.88
G1 X54.435 Y-44.837
G1 X54.532 Y-44.787
G1 X54.625 Y-44.73
G1 X54.714 Y-44.667
G1 X54.798 Y-44.597
G1 X54.877 Y-44.521
G1 X54.95 Y-44.439
G1 X55.017 Y-44.353
G1 X55.077 Y-44.262
G1 X55.13 Y-44.167
G1 X55.177 Y-44.068
G1 X55.216 Y-43.966
G1 X55.247 Y-43.861
G1 X55.271 Y-43.754
G1 X55.287 Y-43.646
G1 X55.295 Y-43.537
G1 Y-43.428
G1 X55.287 Y-43.319
G1 X55.271 Y-43.211
G1 X55.247 Y-43.104
G1 X55.216 Y-43
G1 X55.177 Y-42.898
G1 X55.13 Y-42.799
G1 X55.077 Y-42.703
G1 X55.017 Y-42.612
G1 X54.95 Y-42.526
G1 X54.877 Y-42.444
G1 X54.798 Y-42.369
G1 X54.714 Y-42.299
G1 X54.625 Y-42.235
G1 X54.532 Y-42.178
G1 X54.435 Y-42.128
G1 X54.334 Y-42.086
G1 X54.231 Y-42.05
G1 X54.125 Y-42.023
G1 X54.018 Y-42.003
G1 X53.909 Y-41.991
G1 X53.8 Y-41.987
; MOVEMENT_FINISH_CUTTING
G1 X-53.8
; MOVEMENT_LINK_TRANSITION
G1 X-53.909 Y-41.983
G1 X-54.018 Y-41.971
G1 X-54.125 Y-41.951
G1 X-54.231 Y-41.923
G1 X-54.334 Y-41.888
G1 X-54.435 Y-41.845
G1 X-54.532 Y-41.795
G1 X-54.625 Y-41.739
G1 X-54.714 Y-41.675
G1 X-54.798 Y-41.605
G1 X-54.877 Y-41.529
G1 X-54.95 Y-41.448
G1 X-55.017 Y-41.361
G1 X-55.077 Y-41.27
G1 X-55.13 Y-41.175
G1 X-55.177 Y-41.076
G1 X-55.216 Y-40.974
G1 X-55.247 Y-40.869
G1 X-55.271 Y-40.763
G1 X-55.287 Y-40.655
G1 X-55.295 Y-40.546
G1 Y-40.436
G1 X-55.287 Y-40.327
G1 X-55.271 Y-40.219
G1 X-55.247 Y-40.113
G1 X-55.216 Y-40.008
G1 X-55.177 Y-39.906
G1 X-55.13 Y-39.807
G1 X-55.077 Y-39.712
G1 X-55.017 Y-39.621
G1 X-54.95 Y-39.534
G1 X-54.877 Y-39.453
G1 X-54.798 Y-39.377
G1 X-54.714 Y-39.307
G1 X-54.625 Y-39.244
G1 X-54.532 Y-39.187
G1 X-54.435 Y-39.137
G1 X-54.334 Y-39.094
G1 X-54.231 Y-39.059
G1 X-54.125 Y-39.031
G1 X-54.018 Y-39.011
G1 X-53.909 Y-38.999
G1 X-53.8 Y-38.995
; MOVEMENT_FINISH_CUTTING
G1 X53.8
; MOVEMENT_LINK_TRANSITION
G1 X53.909 Y-38.991
G1 X54.018 Y-38.979
G1 X54.125 Y-38.959
G1 X54.231 Y-38.932
G1 X54.334 Y-38.897
G1 X54.435 Y-38.854
G1 X54.532 Y-38.804
G1 X54.625 Y-38.747
G1 X54.714 Y-38.683
G1 X54.798 Y-38.613
G1 X54.877 Y-38.538
G1 X54.95 Y-38.456
G1 X55.017 Y-38.37
G1 X55.077 Y-38.279
G1 X55.13 Y-38.183
G1 X55.177 Y-38.084
G1 X55.216 Y-37.982
G1 X55.247 Y-37.878
G1 X55.271 Y-37.771
G1 X55.287 Y-37.663
G1 X55.295 Y-37.554
G1 Y-37.445
G1 X55.287 Y-37.336
G1 X55.271 Y-37.228
G1 X55.247 Y-37.121
G1 X55.216 Y-37.016
G1 X55.177 Y-36.914
G1 X55.13 Y-36.815
G1 X55.077 Y-36.72
G1 X55.017 Y-36.629
G1 X54.95 Y-36.543
G1 X54.877 Y-36.461
G1 X54.798 Y-36.385
G1 X54.714 Y-36.315
G1 X54.625 Y-36.252
G1 X54.532 Y-36.195
G1 X54.435 Y-36.145
G1 X54.334 Y-36.102
G1 X54.231 Y-36.067
G1 X54.125 Y-36.039
G1 X54.018 Y-36.02
G1 X53.909 Y-36.008
G1 X53.8 Y-36.004
; MOVEMENT_FINISH_CUTTING
G1 X-53.8
; MOVEMENT_LINK_TRANSITION
G1 X-53.909 Y-36
G1 X-54.018 Y-35.988
G1 X-54.125 Y-35.968
G1 X-54.231 Y-35.94
G1 X-54.334 Y-35.905
G1 X-54.435 Y-35.862
G1 X-54.532 Y-35.812
G1 X-54.625 Y-35.755
G1 X-54.714 Y-35.692
G1 X-54.798 Y-35.622
G1 X-54.877 Y-35.546
G1 X-54.95 Y-35.465
G1 X-55.017 Y-35.378
G1 X-55.077 Y-35.287
G1 X-55.13 Y-35.192
G1 X-55.177 Y-35.093
G1 X-55.216 Y-34.991
G1 X-55.247 Y-34.886
G1 X-55.271 Y-34.779
G1 X-55.287 Y-34.671
G1 X-55.295 Y-34.562
G1 Y-34.453
G1 X-55.287 Y-34.344
G1 X-55.271 Y-34.236
G1 X-55.247 Y-34.129
G1 X-55.216 Y-34.025
G1 X-55.177 Y-33.923
G1 X-55.13 Y-33.824
G1 X-55.077 Y-33.729
G1 X-55.017 Y-33.637
G1 X-54.95 Y-33.551
G1 X-54.877 Y-33.47
G1 X-54.798 Y-33.394
G1 X-54.714 Y-33.324
G1 X-54.625 Y-33.26
G1 X-54.532 Y-33.203
G1 X-54.435 Y-33.153
G1 X-54.334 Y-33.111
G1 X-54.231 Y-33.075
G1 X-54.125 Y-33.048
G1 X-54.018 Y-33.028
G1 X-53.909 Y-33.016
G1 X-53.8 Y-33.012
; MOVEMENT_FINISH_CUTTING
G1 X53.8
; MOVEMENT_LINK_TRANSITION
G1 X53.909 Y-33.008
G1 X54.018 Y-32.996
G1 X54.125 Y-32.976
G1 X54.231 Y-32.949
G1 X54.334 Y-32.913
G1 X54.435 Y-32.871
G1 X54.532 Y-32.821
G1 X54.625 Y-32.764
G1 X54.714 Y-32.7
G1 X54.798 Y-32.63
G1 X54.877 Y-32.554
G1 X54.95 Y-32.473
G1 X55.017 Y-32.386
G1 X55.077 Y-32.295
G1 X55.13 Y-32.2
G1 X55.177 Y-32.101
G1 X55.216 Y-31.999
G1 X55.247 Y-31.894
G1 X55.271 Y-31.788
G1 X55.287 Y-31.68
G1 X55.295 Y-31.571
G1 Y-31.461
G1 X55.287 Y-31.353
G1 X55.271 Y-31.244
G1 X55.247 Y-31.138
G1 X55.216 Y-31.033
G1 X55.177 Y-30.931
G1 X55.13 Y-30.832
G1 X55.077 Y-30.737
G1 X55.017 Y-30.646
G1 X54.95 Y-30.559
G1 X54.877 Y-30.478
G1 X54.798 Y-30.402
G1 X54.714 Y-30.332
G1 X54.625 Y-30.269
G1 X54.532 Y-30.212
G1 X54.435 Y-30.162
G1 X54.334 Y-30.119
G1 X54.231 Y-30.084
G1 X54.125 Y-30.056
G1 X54.018 Y-30.036
G1 X53.909 Y-30.024
G1 X53.8 Y-30.02
; MOVEMENT_FINISH_CUTTING
G1 X-53.8
; MOVEMENT_LINK_TRANSITION
G1 X-53.909 Y-30.016
G1 X-54.018 Y-30.004
G1 X-54.125 Y-29.985
G1 X-54.231 Y-29.957
G1 X-54.334 Y-29.922
G1 X-54.435 Y-29.879
G1 X-54.532 Y-29.829
G1 X-54.625 Y-29.772
G1 X-54.714 Y-29.708
G1 X-54.798 Y-29.639
G1 X-54.877 Y-29.563
G1 X-54.95 Y-29.481
G1 X-55.017 Y-29.395
G1 X-55.077 Y-29.304
G1 X-55.13 Y-29.208
G1 X-55.177 Y-29.11
G1 X-55.216 Y-29.007
G1 X-55.247 Y-28.903
G1 X-55.271 Y-28.796
G1 X-55.287 Y-28.688
G1 X-55.295 Y-28.579
G1 Y-28.47
G1 X-55.287 Y-28.361
G1 X-55.271 Y-28.253
G1 X-55.247 Y-28.146
G1 X-55.216 Y-28.042
G1 X-55.177 Y-27.939
G1 X-55.13 Y-27.841
G1 X-55.077 Y-27.745
G1 X-55.017 Y-27.654
G1 X-54.95 Y-27.568
G1 X-54.877 Y-27.486
G1 X-54.798 Y-27.41
G1 X-54.714 Y-27.341
G1 X-54.625 Y-27.277
G1 X-54.532 Y-27.22
G1 X-54.435 Y-27.17
G1 X-54.334 Y-27.127
G1 X-54.231 Y-27.092
G1 X-54.125 Y-27.064
G1 X-54.018 Y-27.045
G1 X-53.909 Y-27.033
G1 X-53.8 Y-27.029
; MOVEMENT_FINISH_CUTTING
G1 X53.8
; MOVEMENT_LINK_TRANSITION
G1 X53.909 Y-27.025
G1 X54.018 Y-27.013
G1 X54.125 Y-26.993
G1 X54.231 Y-26.965
G1 X54.334 Y-26.93
G1 X54.435 Y-26.887
G1 X54.532 Y-26.837
G1 X54.625 Y-26.78
G1 X54.714 Y-26.717
G1 X54.798 Y-26.647
G1 X54.877 Y-26.571
G1 X54.95 Y-26.49
G1 X55.017 Y-26.403
G1 X55.077 Y-26.312
G1 X55.13 Y-26.217
G1 X55.177 Y-26.118
G1 X55.216 Y-26.016
G1 X55.247 Y-25.911
G1 X55.271 Y-25.805
G1 X55.287 Y-25.696
G1 X55.295 Y-25.587
G1 Y-25.478
G1 X55.287 Y-25.369
G1 X55.271 Y-25.261
G1 X55.247 Y-25.155
G1 X55.216 Y-25.05
G1 X55.177 Y-24.948
G1 X55.13 Y-24.849
G1 X55.077 Y-24.754
G1 X55.017 Y-24.663
G1 X54.95 Y-24.576
G1 X54.877 Y-24.495
G1 X54.798 Y-24.419
G1 X54.714 Y-24.349
G1 X54.625 Y-24.285
G1 X54.532 Y-24.228
G1 X54.435 Y-24.178
G1 X54.334 Y-24.136
G1 X54.231 Y-24.1
G1 X54.125 Y-24.073
G1 X54.018 Y-24.053
G1 X53.909 Y-24.041
G1 X53.8 Y-24.037
; MOVEMENT_FINISH_CUTTING
G1 X-53.8
; MOVEMENT_LINK_TRANSITION
G1 X-53.909 Y-24.033
G1 X-54.018 Y-24.021
G1 X-54.125 Y-24.001
G1 X-54.231 Y-23.974
G1 X-54.334 Y-23.938
G1 X-54.435 Y-23.896
G1 X-54.532 Y-23.846
G1 X-54.625 Y-23.789
G1 X-54.714 Y-23.725
G1 X-54.798 Y-23.655
G1 X-54.877 Y-23.579
G1 X-54.95 Y-23.498
G1 X-55.017 Y-23.412
G1 X-55.077 Y-23.32
G1 X-55.13 Y-23.225
G1 X-55.177 Y-23.126
G1 X-55.216 Y-23.024
G1 X-55.247 Y-22.92
G1 X-55.271 Y-22.813
G1 X-55.287 Y-22.705
G1 X-55.295 Y-22.596
G1 Y-22.487
G1 X-55.287 Y-22.378
G1 X-55.271 Y-22.27
G1 X-55.247 Y-22.163
G1 X-55.216 Y-22.058
G1 X-55.177 Y-21.956
G1 X-55.13 Y-21.857
G1 X-55.077 Y-21.762
G1 X-55.017 Y-21.671
G1 X-54.95 Y-21.584
G1 X-54.877 Y-21.503
G1 X-54.798 Y-21.427
G1 X-54.714 Y-21.357
G1 X-54.625 Y-21.294
G1 X-54.532 Y-21.237
G1 X-54.435 Y-21.187
G1 X-54.334 Y-21.144
G1 X-54.231 Y-21.109
G1 X-54.125 Y-21.081
G1 X-54.018 Y-21.061
G1 X-53.909 Y-21.049
G1 X-53.8 Y-21.045
; MOVEMENT_FINISH_CUTTING
G1 X53.8
; MOVEMENT_LINK_TRANSITION
G1 X53.909 Y-21.041
G1 X54.018 Y-21.029
G1 X54.125 Y-21.01
G1 X54.231 Y-20.982
G1 X54.334 Y-20.947
G1 X54.435 Y-20.904
G1 X54.532 Y-20.854
G1 X54.625 Y-20.797
G1 X54.714 Y-20.734
G1 X54.798 Y-20.664
G1 X54.877 Y-20.588
G1 X54.95 Y-20.506
G1 X55.017 Y-20.42
G1 X55.077 Y-20.329
G1 X55.13 Y-20.234
G1 X55.177 Y-20.135
G1 X55.216 Y-20.033
G1 X55.247 Y-19.928
G1 X55.271 Y-19.821
G1 X55.287 Y-19.713
G1 X55.295 Y-19.604
G1 Y-19.495
G1 X55.287 Y-19.386
G1 X55.271 Y-19.278
G1 X55.247 Y-19.171
G1 X55.216 Y-19.067
G1 X55.177 Y-18.965
G1 X55.13 Y-18.866
G1 X55.077 Y-18.77
G1 X55.017 Y-18.679
G1 X54.95 Y-18.593
G1 X54.877 Y-18.511
G1 X54.798 Y-18.436
G1 X54.714 Y-18.366
G1 X54.625 Y-18.302
G1 X54.532 Y-18.245
G1 X54.435 Y-18.195
G1 X54.334 Y-18.152
G1 X54.231 Y-18.117
G1 X54.125 Y-18.09
G1 X54.018 Y-18.07
G1 X53.909 Y-18.058
G1 X53.8 Y-18.054
; MOVEMENT_FINISH_CUTTING
G1 X-53.8
; MOVEMENT_LINK_TRANSITION
G1 X-53.909 Y-18.05
G1 X-54.018 Y-18.038
G1 X-54.125 Y-18.018
G1 X-54.231 Y-17.99
G1 X-54.334 Y-17.955
G1 X-54.435 Y-17.912
G1 X-54.532 Y-17.862
G1 X-54.625 Y-17.805
G1 X-54.714 Y-17.742
G1 X-54.798 Y-17.672
G1 X-54.877 Y-17.596
G1 X-54.95 Y-17.515
G1 X-55.017 Y-17.428
G1 X-55.077 Y-17.337
G1 X-55.13 Y-17.242
G1 X-55.177 Y-17.143
G1 X-55.216 Y-17.041
G1 X-55.247 Y-16.936
G1 X-55.271 Y-16.83
G1 X-55.287 Y-16.722
G1 X-55.295 Y-16.613
G1 Y-16.503
G1 X-55.287 Y-16.394
G1 X-55.271 Y-16.286
G1 X-55.247 Y-16.18
G1 X-55.216 Y-16.075
G1 X-55.177 Y-15.973
G1 X-55.13 Y-15.874
G1 X-55.077 Y-15.779
G1 X-55.017 Y-15.688
G1 X-54.95 Y-15.601
G1 X-54.877 Y-15.52
G1 X-54.798 Y-15.444
G1 X-54.714 Y-15.374
G1 X-54.625 Y-15.31
G1 X-54.532 Y-15.254
G1 X-54.435 Y-15.204
G1 X-54.334 Y-15.161
G1 X-54.231 Y-15.126
G1 X-54.125 Y-15.098
G1 X-54.018 Y-15.078
G1 X-53.909 Y-15.066
G1 X-53.8 Y-15.062
; MOVEMENT_FINISH_CUTTING
G1 X53.8
; MOVEMENT_LINK_TRANSITION
G1 X53.909 Y-15.058
G1 X54.018 Y-15.046
G1 X54.125 Y-15.026
G1 X54.231 Y-14.999
G1 X54.334 Y-14.963
G1 X54.435 Y-14.921
G1 X54.532 Y-14.871
G1 X54.625 Y-14.814
G1 X54.714 Y-14.75
G1 X54.798 Y-14.68
G1 X54.877 Y-14.605
G1 X54.95 Y-14.523
G1 X55.017 Y-14.437
G1 X55.077 Y-14.346
G1 X55.13 Y-14.25
G1 X55.177 Y-14.151
G1 X55.216 Y-14.049
G1 X55.247 Y-13.945
G1 X55.271 Y-13.838
G1 X55.287 Y-13.73
G1 X55.295 Y-13.621
G1 Y-13.512
G1 X55.287 Y-13.403
G1 X55.271 Y-13.295
G1 X55.247 Y-13.188
G1 X55.216 Y-13.083
G1 X55.177 Y-12.981
G1 X55.13 Y-12.882
G1 X55.077 Y-12.787
G1 X55.017 Y-12.696
G1 X54.95 Y-12.61
G1 X54.877 Y-12.528
G1 X54.798 Y-12.452
G1 X54.714 Y-12.382
G1 X54.625 Y-12.319
G1 X54.532 Y-12.262
G1 X54.435 Y-12.212
G1 X54.334 Y-12.169
G1 X54.231 Y-12.134
G1 X54.125 Y-12.106
G1 X54.018 Y-12.086
G1 X53.909 Y-12.075
G1 X53.8 Y-12.071
; MOVEMENT_FINISH_CUTTING
G1 X-53.8
; MOVEMENT_LINK_TRANSITION
G1 X-53.909 Y-12.067
G1 X-54.018 Y-12.055
G1 X-54.125 Y-12.035
G1 X-54.231 Y-12.007
G1 X-54.334 Y-11.972
G1 X-54.435 Y-11.929
G1 X-54.532 Y-11.879
G1 X-54.625 Y-11.822
G1 X-54.714 Y-11.759
G1 X-54.798 Y-11.689
G1 X-54.877 Y-11.613
G1 X-54.95 Y-11.532
G1 X-55.017 Y-11.445
G1 X-55.077 Y-11.354
G1 X-55.13 Y-11.259
G1 X-55.177 Y-11.16
G1 X-55.216 Y-11.058
G1 X-55.247 Y-10.953
G1 X-55.271 Y-10.846
G1 X-55.287 Y-10.738
G1 X-55.295 Y-10.629
G1 Y-10.52
G1 X-55.287 Y-10.411
G1 X-55.271 Y-10.303
G1 X-55.247 Y-10.196
G1 X-55.216 Y-10.092
G1 X-55.177 Y-9.99
G1 X-55.13 Y-9.891
G1 X-55.077 Y-9.795
G1 X-55.017 Y-9.704
G1 X-54.95 Y-9.618
G1 X-54.877 Y-9.536
G1 X-54.798 Y-9.461
G1 X-54.714 Y-9.391
G1 X-54.625 Y-9.327
G1 X-54.532 Y-9.27
G1 X-54.435 Y-9.22
G1 X-54.334 Y-9.178
G1 X-54.231 Y-9.142
G1 X-54.125 Y-9.115
G1 X-54.018 Y-9.095
G1 X-53.909 Y-9.083
G1 X-53.8 Y-9.079
; MOVEMENT_FINISH_CUTTING
G1 X53.8
; MOVEMENT_LINK_TRANSITION
G1 X53.909 Y-9.075
G1 X54.018 Y-9.063
G1 X54.125 Y-9.043
G1 X54.231 Y-9.015
G1 X54.334 Y-8.98
G1 X54.435 Y-8.937
G1 X54.532 Y-8.887
G1 X54.625 Y-8.831
G1 X54.714 Y-8.767
G1 X54.798 Y-8.697
G1 X54.877 Y-8.621
G1 X54.95 Y-8.54
G1 X55.017 Y-8.453
G1 X55.077 Y-8.362
G1 X55.13 Y-8.267
G1 X55.177 Y-8.168
G1 X55.216 Y-8.066
G1 X55.247 Y-7.961
G1 X55.271 Y-7.855
G1 X55.287 Y-7.747
G1 X55.295 Y-7.638
G1 Y-7.528
G1 X55.287 Y-7.419
G1 X55.271 Y-7.311
G1 X55.247 Y-7.205
G1 X55.216 Y-7.1
G1 X55.177 Y-6.998
G1 X55.13 Y-6.899
G1 X55.077 Y-6.804
G1 X55.017 Y-6.713
G1 X54.95 Y-6.626
G1 X54.877 Y-6.545
G1 X54.798 Y-6.469
G1 X54.714 Y-6.399
G1 X54.625 Y-6.336
G1 X54.532 Y-6.279
G1 X54.435 Y-6.229
G1 X54.334 Y-6.186
G1 X54.231 Y-6.151
G1 X54.125 Y-6.123
G1 X54.018 Y-6.103
G1 X53.909 Y-6.091
G1 X53.8 Y-6.087
; MOVEMENT_FINISH_CUTTING
G1 X-53.8
; MOVEMENT_LINK_TRANSITION
G1 X-53.909 Y-6.083
G1 X-54.018 Y-6.071
G1 X-54.125 Y-6.051
G1 X-54.231 Y-6.024
G1 X-54.334 Y-5.989
G1 X-54.435 Y-5.946
G1 X-54.532 Y-5.896
G1 X-54.625 Y-5.839
G1 X-54.714 Y-5.775
G1 X-54.798 Y-5.705
G1 X-54.877 Y-5.63
G1 X-54.95 Y-5.548
G1 X-55.017 Y-5.462
G1 X-55.077 Y-5.371
G1 X-55.13 Y-5.275
G1 X-55.177 Y-5.176
G1 X-55.216 Y-5.074
G1 X-55.247 Y-4.97
G1 X-55.271 Y-4.863
G1 X-55.287 Y-4.755
G1 X-55.295 Y-4.646
G1 Y-4.537
G1 X-55.287 Y-4.428
G1 X-55.271 Y-4.32
G1 X-55.247 Y-4.213
G1 X-55.216 Y-4.108
G1 X-55.177 Y-4.006
G1 X-55.13 Y-3.907
G1 X-55.077 Y-3.812
G1 X-55.017 Y-3.721
G1 X-54.95 Y-3.635
G1 X-54.877 Y-3.553
G1 X-54.798 Y-3.477
G1 X-54.714 Y-3.408
G1 X-54.625 Y-3.344
G1 X-54.532 Y-3.287
G1 X-54.435 Y-3.237
G1 X-54.334 Y-3.194
G1 X-54.231 Y-3.159
G1 X-54.125 Y-3.131
G1 X-54.018 Y-3.112
G1 X-53.909 Y-3.1
G1 X-53.8 Y-3.096
; MOVEMENT_FINISH_CUTTING
G1 X53.8
; MOVEMENT_LINK_TRANSITION
G1 X53.909 Y-3.092
G1 X54.018 Y-3.08
G1 X54.125 Y-3.06
G1 X54.231 Y-3.032
G1 X54.334 Y-2.997
G1 X54.435 Y-2.954
G1 X54.532 Y-2.904
G1 X54.625 Y-2.847
G1 X54.714 Y-2.784
G1 X54.798 Y-2.714
G1 X54.877 Y-2.638
G1 X54.95 Y-2.557
G1 X55.017 Y-2.47
G1 X55.077 Y-2.379
G1 X55.13 Y-2.284
G1 X55.177 Y-2.185
G1 X55.216 Y-2.083
G1 X55.247 Y-1.978
G1 X55.271 Y-1.872
G1 X55.287 Y-1.763
G1 X55.295 Y-1.654
G1 Y-1.545
G1 X55.287 Y-1.436
G1 X55.271 Y-1.328
G1 X55.247 Y-1.221
G1 X55.216 Y-1.117
G1 X55.177 Y-1.015
G1 X55.13 Y-0.916
G1 X55.077 Y-0.821
G1 X55.017 Y-0.729
G1 X54.95 Y-0.643
G1 X54.877 Y-0.562
G1 X54.798 Y-0.486
G1 X54.714 Y-0.416
G1 X54.625 Y-0.352
G1 X54.532 Y-0.295
G1 X54.435 Y-0.245
G1 X54.334 Y-0.203
G1 X54.231 Y-0.167
G1 X54.125 Y-0.14
G1 X54.018 Y-0.12
G1 X53.909 Y-0.108
G1 X53.8 Y-0.104
; MOVEMENT_FINISH_CUTTING
G1 X-53.8
; MOVEMENT_LINK_TRANSITION
G1 X-53.909 Y-0.1
G1 X-54.018 Y-0.088
G1 X-54.125 Y-0.068
G1 X-54.231 Y-0.041
G1 X-54.334 Y-0.005
G1 X-54.435 Y0.037
G1 X-54.532 Y0.087
G1 X-54.625 Y0.144
G1 X-54.714 Y0.208
G1 X-54.798 Y0.278
G1 X-54.877 Y0.354
G1 X-54.95 Y0.435
G1 X-55.017 Y0.521
G1 X-55.077 Y0.613
G1 X-55.13 Y0.708
G1 X-55.177 Y0.807
G1 X-55.216 Y0.909
G1 X-55.247 Y1.013
G1 X-55.271 Y1.12
G1 X-55.287 Y1.228
G1 X-55.295 Y1.337
G1 Y1.446
G1 X-55.287 Y1.555
G1 X-55.271 Y1.664
G1 X-55.247 Y1.77
G1 X-55.216 Y1.875
G1 X-55.177 Y1.977
G1 X-55.13 Y2.076
G1 X-55.077 Y2.171
G1 X-55.017 Y2.262
G1 X-54.95 Y2.349
G1 X-54.877 Y2.43
G1 X-54.798 Y2.506
G1 X-54.714 Y2.576
G1 X-54.625 Y2.639
G1 X-54.532 Y2.696
G1 X-54.435 Y2.746
G1 X-54.334 Y2.789
G1 X-54.231 Y2.824
G1 X-54.125 Y2.852
G1 X-54.018 Y2.872
G1 X-53.909 Y2.884
G1 X-53.8 Y2.888
; MOVEMENT_FINISH_CUTTING
G1 X53.8
; MOVEMENT_LINK_TRANSITION
G1 X53.909 Y2.892
G1 X54.018 Y2.904
G1 X54.125 Y2.923
G1 X54.231 Y2.951
G1 X54.334 Y2.986
G1 X54.435 Y3.029
G1 X54.532 Y3.079
G1 X54.625 Y3.136
G1 X54.714 Y3.2
G1 X54.798 Y3.269
G1 X54.877 Y3.345
G1 X54.95 Y3.427
G1 X55.017 Y3.513
G1 X55.077 Y3.604
G1 X55.13 Y3.7
G1 X55.177 Y3.798
G1 X55.216 Y3.9
G1 X55.247 Y4.005
G1 X55.271 Y4.112
G1 X55.287 Y4.22
G1 X55.295 Y4.329
G1 Y4.438
G1 X55.287 Y4.547
G1 X55.271 Y4.655
G1 X55.247 Y4.762
G1 X55.216 Y4.866
G1 X55.177 Y4.968
G1 X55.13 Y5.067
G1 X55.077 Y5.163
G1 X55.017 Y5.254
G1 X54.95 Y5.34
G1 X54.877 Y5.422
G1 X54.798 Y5.497
G1 X54.714 Y5.567
G1 X54.625 Y5.631
G1 X54.532 Y5.688
G1 X54.435 Y5.738
G1 X54.334 Y5.781
G1 X54.231 Y5.816
G1 X54.125 Y5.843
G1 X54.018 Y5.863
G1 X53.909 Y5.875
G1 X53.8 Y5.879
; MOVEMENT_FINISH_CUTTING
G1 X-53.8
; MOVEMENT_LINK_TRANSITION
G1 X-53.909 Y5.883
G1 X-54.018 Y5.895
G1 X-54.125 Y5.915
G1 X-54.231 Y5.943
G1 X-54.334 Y5.978
G1 X-54.435 Y6.021
G1 X-54.532 Y6.071
G1 X-54.625 Y6.128
G1 X-54.714 Y6.191
G1 X-54.798 Y6.261
G1 X-54.877 Y6.337
G1 X-54.95 Y6.418
G1 X-55.017 Y6.505
G1 X-55.077 Y6.596
G1 X-55.13 Y6.691
G1 X-55.177 Y6.79
G1 X-55.216 Y6.892
G1 X-55.247 Y6.997
G1 X-55.271 Y7.103
G1 X-55.287 Y7.211
G1 X-55.295 Y7.32
G1 Y7.43
G1 X-55.287 Y7.539
G1 X-55.271 Y7.647
G1 X-55.247 Y7.753
G1 X-55.216 Y7.858
G1 X-55.177 Y7.96
G1 X-55.13 Y8.059
G1 X-55.077 Y8.154
G1 X-55.017 Y8.245
G1 X-54.95 Y8.332
G1 X-54.877 Y8.413
G1 X-54.798 Y8.489
G1 X-54.714 Y8.559
G1 X-54.625 Y8.623
G1 X-54.532 Y8.68
G1 X-54.435 Y8.729
G1 X-54.334 Y8.772
G1 X-54.231 Y8.807
G1 X-54.125 Y8.835
G1 X-54.018 Y8.855
G1 X-53.909 Y8.867
G1 X-53.8 Y8.871
; MOVEMENT_FINISH_CUTTING
G1 X53.8
; MOVEMENT_LINK_TRANSITION
G1 X53.909 Y8.875
G1 X54.018 Y8.887
G1 X54.125 Y8.907
G1 X54.231 Y8.934
G1 X54.334 Y8.97
G1 X54.435 Y9.012
G1 X54.532 Y9.062
G1 X54.625 Y9.119
G1 X54.714 Y9.183
G1 X54.798 Y9.253
G1 X54.877 Y9.329
G1 X54.95 Y9.41
G1 X55.017 Y9.496
G1 X55.077 Y9.587
G1 X55.13 Y9.683
G1 X55.177 Y9.782
G1 X55.216 Y9.884
G1 X55.247 Y9.988
G1 X55.271 Y10.095
G1 X55.287 Y10.203
G1 X55.295 Y10.312
G1 Y10.421
G1 X55.287 Y10.53
G1 X55.271 Y10.638
G1 X55.247 Y10.745
G1 X55.216 Y10.85
G1 X55.177 Y10.952
G1 X55.13 Y11.051
G1 X55.077 Y11.146
G1 X55.017 Y11.237
G1 X54.95 Y11.324
G1 X54.877 Y11.405
G1 X54.798 Y11.481
G1 X54.714 Y11.551
G1 X54.625 Y11.614
G1 X54.532 Y11.671
G1 X54.435 Y11.721
G1 X54.334 Y11.764
G1 X54.231 Y11.799
G1 X54.125 Y11.827
G1 X54.018 Y11.847
G1 X53.909 Y11.859
G1 X53.8 Y11.863
; MOVEMENT_FINISH_CUTTING
G1 X-53.8
; MOVEMENT_LINK_TRANSITION
G1 X-53.909 Y11.867
G1 X-54.018 Y11.878
G1 X-54.125 Y11.898
G1 X-54.231 Y11.926
G1 X-54.334 Y11.961
G1 X-54.435 Y12.004
G1 X-54.532 Y12.054
G1 X-54.625 Y12.111
G1 X-54.714 Y12.174
G1 X-54.798 Y12.244
G1 X-54.877 Y12.32
G1 X-54.95 Y12.402
G1 X-55.017 Y12.488
G1 X-55.077 Y12.579
G1 X-55.13 Y12.674
G1 X-55.177 Y12.773
G1 X-55.216 Y12.875
G1 X-55.247 Y12.98
G1 X-55.271 Y13.087
G1 X-55.287 Y13.195
G1 X-55.295 Y13.304
G1 Y13.413
G1 X-55.287 Y13.522
G1 X-55.271 Y13.63
G1 X-55.247 Y13.737
G1 X-55.216 Y13.841
G1 X-55.177 Y13.943
G1 X-55.13 Y14.042
G1 X-55.077 Y14.138
G1 X-55.017 Y14.229
G1 X-54.95 Y14.315
G1 X-54.877 Y14.397
G1 X-54.798 Y14.472
G1 X-54.714 Y14.542
G1 X-54.625 Y14.606
G1 X-54.532 Y14.663
G1 X-54.435 Y14.713
G1 X-54.334 Y14.755
G1 X-54.231 Y14.791
G1 X-54.125 Y14.818
G1 X-54.018 Y14.838
G1 X-53.909 Y14.85
G1 X-53.8 Y14.854
; MOVEMENT_FINISH_CUTTING
G1 X53.8
; MOVEMENT_LINK_TRANSITION
G1 X53.909 Y14.858
G1 X54.018 Y14.87
G1 X54.125 Y14.89
G1 X54.231 Y14.918
G1 X54.334 Y14.953
G1 X54.435 Y14.996
G1 X54.532 Y15.046
G1 X54.625 Y15.102
G1 X54.714 Y15.166
G1 X54.798 Y15.236
G1 X54.877 Y15.312
G1 X54.95 Y15.393
G1 X55.017 Y15.48
G1 X55.077 Y15.571
G1 X55.13 Y15.666
G1 X55.177 Y15.765
G1 X55.216 Y15.867
G1 X55.247 Y15.972
G1 X55.271 Y16.078
G1 X55.287 Y16.186
G1 X55.295 Y16.295
G1 Y16.405
G1 X55.287 Y16.514
G1 X55.271 Y16.622
G1 X55.247 Y16.728
G1 X55.216 Y16.833
G1 X55.177 Y16.935
G1 X55.13 Y17.034
G1 X55.077 Y17.129
G1 X55.017 Y17.22
G1 X54.95 Y17.307
G1 X54.877 Y17.388
G1 X54.798 Y17.464
G1 X54.714 Y17.534
G1 X54.625 Y17.597
G1 X54.532 Y17.654
G1 X54.435 Y17.704
G1 X54.334 Y17.747
G1 X54.231 Y17.782
G1 X54.125 Y17.81
G1 X54.018 Y17.83
G1 X53.909 Y17.842
G1 X53.8 Y17.846
; MOVEMENT_FINISH_CUTTING
G1 X-53.8
; MOVEMENT_LINK_TRANSITION
G1 X-53.909 Y17.85
G1 X-54.018 Y17.862
G1 X-54.125 Y17.882
G1 X-54.231 Y17.909
G1 X-54.334 Y17.944
G1 X-54.435 Y17.987
G1 X-54.532 Y18.037
G1 X-54.625 Y18.094
G1 X-54.714 Y18.158
G1 X-54.798 Y18.228
G1 X-54.877 Y18.303
G1 X-54.95 Y18.385
G1 X-55.017 Y18.471
G1 X-55.077 Y18.562
G1 X-55.13 Y18.658
G1 X-55.177 Y18.757
G1 X-55.216 Y18.859
G1 X-55.247 Y18.963
G1 X-55.271 Y19.07
G1 X-55.287 Y19.178
G1 X-55.295 Y19.287
G1 Y19.396
G1 X-55.287 Y19.505
G1 X-55.271 Y19.613
G1 X-55.247 Y19.72
G1 X-55.216 Y19.825
G1 X-55.177 Y19.927
G1 X-55.13 Y20.026
G1 X-55.077 Y20.121
G1 X-55.017 Y20.212
G1 X-54.95 Y20.298
G1 X-54.877 Y20.38
G1 X-54.798 Y20.456
G1 X-54.714 Y20.526
G1 X-54.625 Y20.589
G1 X-54.532 Y20.646
G1 X-54.435 Y20.696
G1 X-54.334 Y20.739
G1 X-54.231 Y20.774
G1 X-54.125 Y20.802
G1 X-54.018 Y20.821
G1 X-53.909 Y20.833
G1 X-53.8 Y20.837
; MOVEMENT_FINISH_CUTTING
G1 X53.8
; MOVEMENT_LINK_TRANSITION
G1 X53.909 Y20.841
G1 X54.018 Y20.853
G1 X54.125 Y20.873
G1 X54.231 Y20.901
G1 X54.334 Y20.936
G1 X54.435 Y20.979
G1 X54.532 Y21.029
G1 X54.625 Y21.086
G1 X54.714 Y21.149
G1 X54.798 Y21.219
G1 X54.877 Y21.295
G1 X54.95 Y21.376
G1 X55.017 Y21.463
G1 X55.077 Y21.554
G1 X55.13 Y21.649
G1 X55.177 Y21.748
G1 X55.216 Y21.85
G1 X55.247 Y21.955
G1 X55.271 Y22.062
G1 X55.287 Y22.17
G1 X55.295 Y22.279
G1 Y22.388
G1 X55.287 Y22.497
G1 X55.271 Y22.605
G1 X55.247 Y22.712
G1 X55.216 Y22.816
G1 X55.177 Y22.918
G1 X55.13 Y23.017
G1 X55.077 Y23.112
G1 X55.017 Y23.204
G1 X54.95 Y23.29
G1 X54.877 Y23.371
G1 X54.798 Y23.447
G1 X54.714 Y23.517
G1 X54.625 Y23.581
G1 X54.532 Y23.638
G1 X54.435 Y23.688
G1 X54.334 Y23.73
G1 X54.231 Y23.766
G1 X54.125 Y23.793
G1 X54.018 Y23.813
G1 X53.909 Y23.825
G1 X53.8 Y23.829
; MOVEMENT_FINISH_CUTTING
G1 X-53.8
; MOVEMENT_LINK_TRANSITION
G1 X-53.909 Y23.833
G1 X-54.018 Y23.845
G1 X-54.125 Y23.865
G1 X-54.231 Y23.892
G1 X-54.334 Y23.928
G1 X-54.435 Y23.97
G1 X-54.532 Y24.02
G1 X-54.625 Y24.077
G1 X-54.714 Y24.141
G1 X-54.798 Y24.211
G1 X-54.877 Y24.287
G1 X-54.95 Y24.368
G1 X-55.017 Y24.455
G1 X-55.077 Y24.546
G1 X-55.13 Y24.641
G1 X-55.177 Y24.74
G1 X-55.216 Y24.842
G1 X-55.247 Y24.947
G1 X-55.271 Y25.053
G1 X-55.287 Y25.161
G1 X-55.295 Y25.27
G1 Y25.38
G1 X-55.287 Y25.488
G1 X-55.271 Y25.597
G1 X-55.247 Y25.703
G1 X-55.216 Y25.808
G1 X-55.177 Y25.91
G1 X-55.13 Y26.009
G1 X-55.077 Y26.104
G1 X-55.017 Y26.195
G1 X-54.95 Y26.282
G1 X-54.877 Y26.363
G1 X-54.798 Y26.439
G1 X-54.714 Y26.509
G1 X-54.625 Y26.572
G1 X-54.532 Y26.629
G1 X-54.435 Y26.679
G1 X-54.334 Y26.722
G1 X-54.231 Y26.757
G1 X-54.125 Y26.785
G1 X-54.018 Y26.805
G1 X-53.909 Y26.817
G1 X-53.8 Y26.821
; MOVEMENT_FINISH_CUTTING
G1 X53.8
; MOVEMENT_LINK_TRANSITION
G1 X53.909 Y26.825
G1 X54.018 Y26.837
G1 X54.125 Y26.856
G1 X54.231 Y26.884
G1 X54.334 Y26.919
G1 X54.435 Y26.962
G1 X54.532 Y27.012
G1 X54.625 Y27.069
G1 X54.714 Y27.133
G1 X54.798 Y27.202
G1 X54.877 Y27.278
G1 X54.95 Y27.36
G1 X55.017 Y27.446
G1 X55.077 Y27.537
G1 X55.13 Y27.633
G1 X55.177 Y27.731
G1 X55.216 Y27.834
G1 X55.247 Y27.938
G1 X55.271 Y28.045
G1 X55.287 Y28.153
G1 X55.295 Y28.262
G1 Y28.371
G1 X55.287 Y28.48
G1 X55.271 Y28.588
G1 X55.247 Y28.695
G1 X55.216 Y28.799
G1 X55.177 Y28.902
G1 X55.13 Y29
G1 X55.077 Y29.096
G1 X55.017 Y29.187
G1 X54.95 Y29.273
G1 X54.877 Y29.355
G1 X54.798 Y29.431
G1 X54.714 Y29.5
G1 X54.625 Y29.564
G1 X54.532 Y29.621
G1 X54.435 Y29.671
G1 X54.334 Y29.714
G1 X54.231 Y29.749
G1 X54.125 Y29.777
G1 X54.018 Y29.796
G1 X53.909 Y29.808
G1 X53.8 Y29.812
; MOVEMENT_FINISH_CUTTING
G1 X-53.8
; MOVEMENT_LINK_TRANSITION
G1 X-53.909 Y29.816
G1 X-54.018 Y29.828
G1 X-54.125 Y29.848
G1 X-54.231 Y29.876
G1 X-54.334 Y29.911
G1 X-54.435 Y29.954
G1 X-54.532 Y30.004
G1 X-54.625 Y30.061
G1 X-54.714 Y30.124
G1 X-54.798 Y30.194
G1 X-54.877 Y30.27
G1 X-54.95 Y30.351
G1 X-55.017 Y30.438
G1 X-55.077 Y30.529
G1 X-55.13 Y30.624
G1 X-55.177 Y30.723
G1 X-55.216 Y30.825
G1 X-55.247 Y30.93
G1 X-55.271 Y31.036
G1 X-55.287 Y31.145
G1 X-55.295 Y31.254
G1 Y31.363
G1 X-55.287 Y31.472
G1 X-55.271 Y31.58
G1 X-55.247 Y31.686
G1 X-55.216 Y31.791
G1 X-55.177 Y31.893
G1 X-55.13 Y31.992
G1 X-55.077 Y32.087
G1 X-55.017 Y32.178
G1 X-54.95 Y32.265
G1 X-54.877 Y32.346
G1 X-54.798 Y32.422
G1 X-54.714 Y32.492
G1 X-54.625 Y32.556
G1 X-54.532 Y32.613
G1 X-54.435 Y32.663
G1 X-54.334 Y32.705
G1 X-54.231 Y32.741
G1 X-54.125 Y32.768
G1 X-54.018 Y32.788
G1 X-53.909 Y32.8
G1 X-53.8 Y32.804
; MOVEMENT_FINISH_CUTTING
G1 X53.8
; MOVEMENT_LINK_TRANSITION
G1 X53.909 Y32.808
G1 X54.018 Y32.82
G1 X54.125 Y32.84
G1 X54.231 Y32.867
G1 X54.334 Y32.903
G1 X54.435 Y32.945
G1 X54.532 Y32.995
G1 X54.625 Y33.052
G1 X54.714 Y33.116
G1 X54.798 Y33.186
G1 X54.877 Y33.262
G1 X54.95 Y33.343
G1 X55.017 Y33.429
G1 X55.077 Y33.521
G1 X55.13 Y33.616
G1 X55.177 Y33.715
G1 X55.216 Y33.817
G1 X55.247 Y33.921
G1 X55.271 Y34.028
G1 X55.287 Y34.136
G1 X55.295 Y34.245
G1 Y34.354
G1 X55.287 Y34.463
G1 X55.271 Y34.571
G1 X55.247 Y34.678
G1 X55.216 Y34.783
G1 X55.177 Y34.885
G1 X55.13 Y34.984
G1 X55.077 Y35.079
G1 X55.017 Y35.17
G1 X54.95 Y35.257
G1 X54.877 Y35.338
G1 X54.798 Y35.414
G1 X54.714 Y35.484
G1 X54.625 Y35.547
G1 X54.532 Y35.604
G1 X54.435 Y35.654
G1 X54.334 Y35.697
G1 X54.231 Y35.732
G1 X54.125 Y35.76
G1 X54.018 Y35.78
G1 X53.909 Y35.792
G1 X53.8 Y35.796
; MOVEMENT_FINISH_CUTTING
G1 X-53.8
; MOVEMENT_LINK_TRANSITION
G1 X-53.909 Y35.8
G1 X-54.018 Y35.812
G1 X-54.125 Y35.831
G1 X-54.231 Y35.859
G1 X-54.334 Y35.894
G1 X-54.435 Y35.937
G1 X-54.532 Y35.987
G1 X-54.625 Y36.044
G1 X-54.714 Y36.107
G1 X-54.798 Y36.177
G1 X-54.877 Y36.253
G1 X-54.95 Y36.335
G1 X-55.017 Y36.421
G1 X-55.077 Y36.512
G1 X-55.13 Y36.607
G1 X-55.177 Y36.706
G1 X-55.216 Y36.808
G1 X-55.247 Y36.913
G1 X-55.271 Y37.02
G1 X-55.287 Y37.128
G1 X-55.295 Y37.237
G1 Y37.346
G1 X-55.287 Y37.455
G1 X-55.271 Y37.563
G1 X-55.247 Y37.67
G1 X-55.216 Y37.774
G1 X-55.177 Y37.876
G1 X-55.13 Y37.975
G1 X-55.077 Y38.071
G1 X-55.017 Y38.162
G1 X-54.95 Y38.248
G1 X-54.877 Y38.33
G1 X-54.798 Y38.405
G1 X-54.714 Y38.475
G1 X-54.625 Y38.539
G1 X-54.532 Y38.596
G1 X-54.435 Y38.646
G1 X-54.334 Y38.689
G1 X-54.231 Y38.724
G1 X-54.125 Y38.751
G1 X-54.018 Y38.771
G1 X-53.909 Y38.783
G1 X-53.8 Y38.787
; MOVEMENT_FINISH_CUTTING
G1 X53.8
; MOVEMENT_LINK_TRANSITION
G1 X53.909 Y38.791
G1 X54.018 Y38.803
G1 X54.125 Y38.823
G1 X54.231 Y38.851
G1 X54.334 Y38.886
G1 X54.435 Y38.929
G1 X54.532 Y38.979
G1 X54.625 Y39.036
G1 X54.714 Y39.099
G1 X54.798 Y39.169
G1 X54.877 Y39.245
G1 X54.95 Y39.326
G1 X55.017 Y39.413
G1 X55.077 Y39.504
G1 X55.13 Y39.599
G1 X55.177 Y39.698
G1 X55.216 Y39.8
G1 X55.247 Y39.905
G1 X55.271 Y40.011
G1 X55.287 Y40.119
G1 X55.295 Y40.228
G1 Y40.338
G1 X55.287 Y40.447
G1 X55.271 Y40.555
G1 X55.247 Y40.661
G1 X55.216 Y40.766
G1 X55.177 Y40.868
G1 X55.13 Y40.967
G1 X55.077 Y41.062
G1 X55.017 Y41.153
G1 X54.95 Y41.24
G1 X54.877 Y41.321
G1 X54.798 Y41.397
G1 X54.714 Y41.467
G1 X54.625 Y41.531
G1 X54.532 Y41.587
G1 X54.435 Y41.637
G1 X54.334 Y41.68
G1 X54.231 Y41.715
G1 X54.125 Y41.743
G1 X54.018 Y41.763
G1 X53.909 Y41.775
G1 X53.8 Y41.779
; MOVEMENT_FINISH_CUTTING
G1 X-53.8
; MOVEMENT_LINK_TRANSITION
G1 X-53.909 Y41.783
G1 X-54.018 Y41.795
G1 X-54.125 Y41.815
G1 X-54.231 Y41.842
G1 X-54.334 Y41.878
G1 X-54.435 Y41.92
G1 X-54.532 Y41.97
G1 X-54.625 Y42.027
G1 X-54.714 Y42.091
G1 X-54.798 Y42.161
G1 X-54.877 Y42.236
G1 X-54.95 Y42.318
G1 X-55.017 Y42.404
G1 X-55.077 Y42.495
G1 X-55.13 Y42.591
G1 X-55.177 Y42.69
G1 X-55.216 Y42.792
G1 X-55.247 Y42.896
G1 X-55.271 Y43.003
G1 X-55.287 Y43.111
G1 X-55.295 Y43.22
G1 Y43.329
G1 X-55.287 Y43.438
G1 X-55.271 Y43.546
G1 X-55.247 Y43.653
G1 X-55.216 Y43.758
G1 X-55.177 Y43.86
G1 X-55.13 Y43.959
G1 X-55.077 Y44.054
G1 X-55.017 Y44.145
G1 X-54.95 Y44.232
G1 X-54.877 Y44.313
G1 X-54.798 Y44.389
G1 X-54.714 Y44.459
G1 X-54.625 Y44.522
G1 X-54.532 Y44.579
G1 X-54.435 Y44.629
G1 X-54.334 Y44.672
G1 X-54.231 Y44.707
G1 X-54.125 Y44.735
G1 X-54.018 Y44.755
G1 X-53.909 Y44.766
G1 X-53.8 Y44.77
; MOVEMENT_FINISH_CUTTING
G1 X53.8
; MOVEMENT_LINK_TRANSITION
G1 X53.909 Y44.774
G1 X54.018 Y44.786
G1 X54.125 Y44.806
G1 X54.231 Y44.834
G1 X54.334 Y44.869
G1 X54.435 Y44.912
G1 X54.532 Y44.962
G1 X54.625 Y45.019
G1 X54.714 Y45.082
G1 X54.798 Y45.152
G1 X54.877 Y45.228
G1 X54.95 Y45.309
G1 X55.017 Y45.396
G1 X55.077 Y45.487
G1 X55.13 Y45.582
G1 X55.177 Y45.681
G1 X55.216 Y45.783
G1 X55.247 Y45.888
G1 X55.271 Y45.995
G1 X55.287 Y46.103
G1 X55.295 Y46.212
G1 Y46.321
G1 X55.287 Y46.43
G1 X55.271 Y46.538
G1 X55.247 Y46.645
G1 X55.216 Y46.749
G1 X55.177 Y46.851
G1 X55.13 Y46.95
G1 X55.077 Y47.046
G1 X55.017 Y47.137
G1 X54.95 Y47.223
G1 X54.877 Y47.305
G1 X54.798 Y47.38
G1 X54.714 Y47.45
G1 X54.625 Y47.514
G1 X54.532 Y47.571
G1 X54.435 Y47.621
G1 X54.334 Y47.663
G1 X54.231 Y47.699
G1 X54.125 Y47.726
G1 X54.018 Y47.746
G1 X53.909 Y47.758
G1 X53.8 Y47.762
; MOVEMENT_FINISH_CUTTING
G1 X-53.8
; MOVEMENT_LINK_TRANSITION
G1 X-53.909 Y47.766
G1 X-54.018 Y47.778
G1 X-54.125 Y47.798
G1 X-54.231 Y47.826
G1 X-54.334 Y47.861
G1 X-54.435 Y47.904
G1 X-54.532 Y47.954
G1 X-54.625 Y48.01
G1 X-54.714 Y48.074
G1 X-54.798 Y48.144
G1 X-54.877 Y48.22
G1 X-54.95 Y48.301
G1 X-55.017 Y48.388
G1 X-55.077 Y48.479
G1 X-55.13 Y48.574
G1 X-55.177 Y48.673
G1 X-55.216 Y48.775
G1 X-55.247 Y48.88
G1 X-55.271 Y48.986
G1 X-55.287 Y49.094
G1 X-55.295 Y49.203
G1 Y49.313
G1 X-55.287 Y49.422
G1 X-55.271 Y49.53
G1 X-55.247 Y49.636
G1 X-55.216 Y49.741
G1 X-55.177 Y49.843
G1 X-55.13 Y49.942
G1 X-55.077 Y50.037
G1 X-55.017 Y50.128
G1 X-54.95 Y50.215
G1 X-54.877 Y50.296
G1 X-54.798 Y50.372
G1 X-54.714 Y50.442
G1 X-54.625 Y50.505
G1 X-54.532 Y50.562
G1 X-54.435 Y50.612
G1 X-54.334 Y50.655
G1 X-54.231 Y50.69
G1 X-54.125 Y50.718
G1 X-54.018 Y50.738
G1 X-53.909 Y50.75
G1 X-53.8 Y50.754
; MOVEMENT_FINISH_CUTTING
G1 X53.8
; MOVEMENT_LEAD_OUT
G1 X53.871 Z-0.196
G1 X53.941 Z-0.184
G1 X54.01 Z-0.164
G1 X54.076 Z-0.137
G1 X54.138 Z-0.103
G1 X54.196 Z-0.061
G1 X54.249 Z-0.014
G1 X54.296 Z0.039
G1 X54.338 Z0.097
G1 X54.372 Z0.159
G1 X54.399 Z0.225
G1 X54.419 Z0.294
G1 X54.431 Z0.364
G1 X54.435 Z0.435
; MOVEMENT_RAPID
G0 Z3 F300
; *** SECTION end ***

; *** STOP begin ***
M400
; COMMAND_COOLANT_OFF
G0 X0 Y0 F2500
; COMMAND_STOP_SPINDLE
M300 S300 P3000
M117 Job end
; *** STOP end ***
