;Fusion 360 CAM 2.0.7463
; Posts processor: DIYCNC_Marlin20.cps
; Gcode generated: Sun Mar  8 07:53:57 2020 GMT
; Document: 4x4Coaster W Team Female v7
; Setup: Setup1
; 
; Ranges table:
; X: Min=-37.994 Max=36.722 Size=74.716
; Y: Min=-41.46 Max=36.888 Size=78.348
; Z: Min=-3.2 Max=3 Size=6.2
; 
; Tools table:
; T1 D=3.175 CR=0 - ZMIN=-3.2 - flat end mill 
; T3 D=3.175 CR=0 TAPER=22.5deg - ZMIN=-3 - chamfer mill 

; *** START begin ***
G90
G21
M84 S0
G92 X0 Y0 Z5
; *** START end ***

; *** SECTION begin ***
;2D Pocket1 - Milling - Tool: 1 -  flat end mill
; X Min: -36.758 - X Max: 36.722
; Y Min: -40.124 - Y Max: 36.888
; Z Min: -3.2 - Z Max: 3
; COMMAND_START_SPINDLE
; COMMAND_SPINDLE_CLOCKWISE
; COMMAND_COOLANT_ON
; MOVEMENT_LEAD_IN
G1 X2.617 Y-3.33 Z3 F180
G1 Z1.317
; MOVEMENT_RAMP_HELIX
G1 X2.594 Y-3.332 Z1.198
G1 X2.528 Y-3.339 Z1.097
G1 X2.43 Y-3.355 Z1.027
G1 X2.372 Y-3.367 Z1.014
G1 X2.315 Y-3.382 Z1
G1 X2.21 Y-3.415 Z0.996
G1 X2.109 Y-3.456 Z0.992
G1 X2.01 Y-3.504 Z0.988
G1 X1.915 Y-3.559 Z0.985
G1 X1.824 Y-3.621 Z0.981
G1 X1.738 Y-3.689 Z0.977
G1 X1.657 Y-3.764 Z0.973
G1 X1.582 Y-3.844 Z0.969
G1 X1.513 Y-3.929 Z0.965
G1 X1.45 Y-4.019 Z0.962
G1 X1.394 Y-4.114 Z0.958
G1 X1.345 Y-4.212 Z0.954
G1 X1.304 Y-4.314 Z0.95
G1 X1.27 Y-4.418 Z0.946
G1 X1.243 Y-4.525 Z0.942
G1 X1.224 Y-4.633 Z0.939
G1 X1.214 Y-4.742 Z0.935
G1 X1.211 Y-4.852 Z0.931
G1 X1.216 Y-4.962 Z0.927
G1 X1.229 Y-5.071 Z0.923
G1 X1.25 Y-5.178 Z0.919
G1 X1.279 Y-5.284 Z0.916
G1 X1.316 Y-5.388 Z0.912
G1 X1.36 Y-5.489 Z0.908
G1 X1.411 Y-5.586 Z0.904
G1 X1.469 Y-5.679 Z0.9
G1 X1.534 Y-5.768 Z0.896
G1 X1.605 Y-5.851 Z0.893
G1 X1.682 Y-5.93 Z0.889
G1 X1.764 Y-6.002 Z0.885
G1 X1.852 Y-6.069 Z0.881
G1 X1.944 Y-6.129 Z0.877
G1 X2.04 Y-6.182 Z0.873
G1 X2.14 Y-6.227 Z0.87
G1 X2.243 Y-6.266 Z0.866
G1 X2.348 Y-6.297 Z0.862
G1 X2.455 Y-6.32 Z0.858
G1 X2.564 Y-6.335 Z0.854
G1 X2.674 Y-6.342 Z0.85
G1 X2.783 Z0.847
G1 X2.893 Y-6.333 Z0.843
G1 X3.001 Y-6.316 Z0.839
G1 X3.108 Y-6.292 Z0.835
G1 X3.213 Y-6.26 Z0.831
G1 X3.316 Y-6.22 Z0.827
G1 X3.415 Y-6.173 Z0.824
G1 X3.51 Y-6.119 Z0.82
G1 X3.602 Y-6.058 Z0.816
G1 X3.688 Y-5.99 Z0.812
G1 X3.77 Y-5.917 Z0.808
G1 X3.846 Y-5.837 Z0.804
G1 X3.916 Y-5.753 Z0.801
G1 X3.979 Y-5.663 Z0.797
G1 X4.036 Y-5.569 Z0.793
G1 X4.086 Y-5.471 Z0.789
G1 X4.129 Y-5.37 Z0.785
G1 X4.164 Y-5.266 Z0.781
G1 X4.192 Y-5.16 Z0.778
G1 X4.211 Y-5.052 Z0.774
G1 X4.223 Y-4.943 Z0.77
G1 X4.227 Y-4.833 Z0.766
G1 X4.223 Y-4.723 Z0.762
G1 X4.211 Y-4.614 Z0.758
G1 X4.191 Y-4.506 Z0.755
G1 X4.163 Y-4.4 Z0.751
G1 X4.127 Y-4.296 Z0.747
G1 X4.085 Y-4.195 Z0.743
G1 X4.034 Y-4.097 Z0.739
G1 X3.977 Y-4.003 Z0.735
G1 X3.913 Y-3.914 Z0.732
G1 X3.843 Y-3.83 Z0.728
G1 X3.767 Y-3.751 Z0.724
G1 X3.685 Y-3.677 Z0.72
G1 X3.598 Y-3.61 Z0.716
G1 X3.507 Y-3.549 Z0.712
G1 X3.411 Y-3.495 Z0.708
G1 X3.312 Y-3.448 Z0.705
G1 X3.21 Y-3.409 Z0.701
G1 X3.104 Y-3.377 Z0.697
G1 X2.997 Y-3.353 Z0.693
G1 X2.889 Y-3.336 Z0.689
G1 X2.779 Y-3.328 Z0.685
G1 X2.669 Z0.682
G1 X2.56 Y-3.335 Z0.678
G1 X2.451 Y-3.351 Z0.674
G1 X2.344 Y-3.374 Z0.67
G1 X2.239 Y-3.405 Z0.666
G1 X2.136 Y-3.444 Z0.662
G1 X2.036 Y-3.49 Z0.659
G1 X1.94 Y-3.544 Z0.655
G1 X1.848 Y-3.604 Z0.651
G1 X1.761 Y-3.67 Z0.647
G1 X1.679 Y-3.743 Z0.643
G1 X1.602 Y-3.822 Z0.639
G1 X1.531 Y-3.906 Z0.636
G1 X1.467 Y-3.994 Z0.632
G1 X1.409 Y-4.088 Z0.628
G1 X1.358 Y-4.185 Z0.624
G1 X1.314 Y-4.286 Z0.62
G1 X1.278 Y-4.39 Z0.616
G1 X1.25 Y-4.496 Z0.613
G1 X1.229 Y-4.603 Z0.609
G1 X1.216 Y-4.712 Z0.605
G1 X1.211 Y-4.822 Z0.601
G1 X1.214 Y-4.932 Z0.597
G1 X1.225 Y-5.041 Z0.593
G1 X1.244 Y-5.149 Z0.59
G1 X1.271 Y-5.256 Z0.586
G1 X1.305 Y-5.36 Z0.582
G1 X1.347 Y-5.462 Z0.578
G1 X1.396 Y-5.56 Z0.574
G1 X1.453 Y-5.654 Z0.57
G1 X1.516 Y-5.744 Z0.567
G1 X1.585 Y-5.829 Z0.563
G1 X1.66 Y-5.909 Z0.559
G1 X1.741 Y-5.983 Z0.555
G1 X1.827 Y-6.051 Z0.551
G1 X1.918 Y-6.113 Z0.547
G1 X2.013 Y-6.168 Z0.544
G1 X2.112 Y-6.216 Z0.54
G1 X2.214 Y-6.256 Z0.536
G1 X2.319 Y-6.289 Z0.532
G1 X2.426 Y-6.314 Z0.528
G1 X2.534 Y-6.332 Z0.524
G1 X2.644 Y-6.341 Z0.521
G1 X2.754 Y-6.343 Z0.517
G1 X2.863 Y-6.336 Z0.513
G1 X2.972 Y-6.322 Z0.509
G1 X3.08 Y-6.299 Z0.505
G1 X3.185 Y-6.269 Z0.501
G1 X3.288 Y-6.232 Z0.498
G1 X3.388 Y-6.186 Z0.494
G1 X3.485 Y-6.134 Z0.49
G1 X3.577 Y-6.075 Z0.486
G1 X3.665 Y-6.009 Z0.482
G1 X3.748 Y-5.937 Z0.478
G1 X3.826 Y-5.859 Z0.475
G1 X3.897 Y-5.776 Z0.471
G1 X3.963 Y-5.688 Z0.467
G1 X4.022 Y-5.595 Z0.463
G1 X4.073 Y-5.498 Z0.459
G1 X4.118 Y-5.398 Z0.455
G1 X4.155 Y-5.295 Z0.452
G1 X4.185 Y-5.189 Z0.448
G1 X4.207 Y-5.081 Z0.444
G1 X4.221 Y-4.972 Z0.44
G1 X4.227 Y-4.863 Z0.436
G1 X4.225 Y-4.753 Z0.432
G1 X4.215 Y-4.644 Z0.428
G1 X4.197 Y-4.535 Z0.425
G1 X4.171 Y-4.428 Z0.421
G1 X4.138 Y-4.324 Z0.417
G1 X4.097 Y-4.222 Z0.413
G1 X4.049 Y-4.123 Z0.409
G1 X3.993 Y-4.028 Z0.405
G1 X3.931 Y-3.938 Z0.402
G1 X3.863 Y-3.852 Z0.398
G1 X3.788 Y-3.771 Z0.394
G1 X3.708 Y-3.696 Z0.39
G1 X3.623 Y-3.627 Z0.386
G1 X3.532 Y-3.565 Z0.382
G1 X3.438 Y-3.509 Z0.379
G1 X3.339 Y-3.46 Z0.375
G1 X3.238 Y-3.419 Z0.371
G1 X3.133 Y-3.385 Z0.367
G1 X3.027 Y-3.359 Z0.363
G1 X2.918 Y-3.34 Z0.359
G1 X2.809 Y-3.33 Z0.356
G1 X2.699 Y-3.327 Z0.352
G1 X2.59 Y-3.332 Z0.348
G1 X2.481 Y-3.346 Z0.344
G1 X2.373 Y-3.367 Z0.34
G1 X2.267 Y-3.396 Z0.336
G1 X2.163 Y-3.433 Z0.333
G1 X2.063 Y-3.477 Z0.329
G1 X1.966 Y-3.528 Z0.325
G1 X1.873 Y-3.587 Z0.321
G1 X1.784 Y-3.652 Z0.317
G1 X1.701 Y-3.723 Z0.313
G1 X1.622 Y-3.8 Z0.31
G1 X1.55 Y-3.882 Z0.306
G1 X1.484 Y-3.97 Z0.302
G1 X1.424 Y-4.062 Z0.298
G1 X1.371 Y-4.158 Z0.294
G1 X1.325 Y-4.258 Z0.29
G1 X1.287 Y-4.361 Z0.287
G1 X1.257 Y-4.467 Z0.283
G1 X1.234 Y-4.574 Z0.279
G1 X1.219 Y-4.683 Z0.275
G1 X1.211 Y-4.792 Z0.271
G1 X1.212 Y-4.902 Z0.267
G1 X1.221 Y-5.012 Z0.264
G1 X1.238 Y-5.12 Z0.26
G1 X1.263 Y-5.227 Z0.256
G1 X1.295 Y-5.332 Z0.252
G1 X1.335 Y-5.434 Z0.248
G1 X1.382 Y-5.533 Z0.244
G1 X1.437 Y-5.629 Z0.241
G1 X1.498 Y-5.72 Z0.237
G1 X1.566 Y-5.807 Z0.233
G1 X1.639 Y-5.888 Z0.229
G1 X1.719 Y-5.964 Z0.225
G1 X1.804 Y-6.034 Z0.221
G1 X1.893 Y-6.097 Z0.218
G1 X1.987 Y-6.154 Z0.214
G1 X2.085 Y-6.203 Z0.21
G1 X2.186 Y-6.246 Z0.206
G1 X2.29 Y-6.281 Z0.202
G1 X2.397 Y-6.308 Z0.198
G1 X2.505 Y-6.328 Z0.195
G1 X2.614 Y-6.339 Z0.191
G1 X2.724 Y-6.343 Z0.187
G1 X2.834 Y-6.339 Z0.183
G1 X2.943 Y-6.326 Z0.179
G1 X3.051 Y-6.306 Z0.175
G1 X3.157 Y-6.278 Z0.172
G1 X3.261 Y-6.242 Z0.168
G1 X3.362 Y-6.199 Z0.164
G1 X3.459 Y-6.149 Z0.16
G1 X3.553 Y-6.092 Z0.156
G1 X3.642 Y-6.028 Z0.152
G1 X3.726 Y-5.957 Z0.148
G1 X3.805 Y-5.881 Z0.145
G1 X3.879 Y-5.799 Z0.141
G1 X3.946 Y-5.712 Z0.137
G1 X4.006 Y-5.621 Z0.133
G1 X4.06 Y-5.525 Z0.129
G1 X4.107 Y-5.425 Z0.125
G1 X4.146 Y-5.323 Z0.122
G1 X4.178 Y-5.218 Z0.118
G1 X4.202 Y-5.111 Z0.114
G1 X4.218 Y-5.002 Z0.11
G1 X4.226 Y-4.893 Z0.106
G1 Y-4.783 Z0.102
G1 X4.218 Y-4.673 Z0.099
G1 X4.203 Y-4.564 Z0.095
G1 X4.179 Y-4.457 Z0.091
G1 X4.148 Y-4.352 Z0.087
G1 X4.109 Y-4.249 Z0.083
G1 X4.062 Y-4.15 Z0.079
G1 X4.009 Y-4.054 Z0.076
G1 X3.949 Y-3.962 Z0.072
G1 X3.882 Y-3.875 Z0.068
G1 X3.809 Y-3.793 Z0.064
G1 X3.73 Y-3.716 Z0.06
G1 X3.646 Y-3.646 Z0.056
G1 X3.557 Y-3.581 Z0.053
G1 X3.464 Y-3.524 Z0.049
G1 X3.366 Y-3.473 Z0.045
G1 X3.265 Y-3.429 Z0.041
G1 X3.162 Y-3.393 Z0.037
G1 X3.056 Y-3.365 Z0.033
G1 X2.948 Y-3.344 Z0.03
G1 X2.839 Y-3.332 Z0.026
G1 X2.729 Y-3.327 Z0.022
G1 X2.619 Y-3.33 Z0.018
G1 X2.51 Y-3.341 Z0.014
G1 X2.402 Y-3.361 Z0.01
G1 X2.295 Y-3.388 Z0.007
G1 X2.191 Y-3.422 Z0.003
G1 X2.09 Y-3.464 Z-0.001
G1 X1.992 Y-3.514 Z-0.005
G1 X1.898 Y-3.57 Z-0.009
G1 X1.808 Y-3.633 Z-0.013
G1 X1.723 Y-3.703 Z-0.016
G1 X1.643 Y-3.778 Z-0.02
G1 X1.569 Y-3.859 Z-0.024
G1 X1.501 Y-3.946 Z-0.028
G1 X1.439 Y-4.037 Z-0.032
G1 X1.385 Y-4.132 Z-0.036
G1 X1.337 Y-4.231 Z-0.039
G1 X1.297 Y-4.333 Z-0.043
G1 X1.264 Y-4.438 Z-0.047
G1 X1.239 Y-4.545 Z-0.051
G1 X1.222 Y-4.653 Z-0.055
G1 X1.213 Y-4.763 Z-0.059
G1 X1.211 Y-4.872 Z-0.062
G1 X1.218 Y-4.982 Z-0.066
G1 X1.233 Y-5.091 Z-0.07
G1 X1.255 Y-5.198 Z-0.074
G1 X1.286 Y-5.304 Z-0.078
G1 X1.324 Y-5.407 Z-0.082
G1 X1.369 Y-5.507 Z-0.085
G1 X1.421 Y-5.603 Z-0.089
G1 X1.481 Y-5.696 Z-0.093
G1 X1.547 Y-5.784 Z-0.097
G1 X1.619 Y-5.866 Z-0.101
G1 X1.697 Y-5.944 Z-0.105
G1 X1.78 Y-6.015 Z-0.108
G1 X1.868 Y-6.08 Z-0.112
G1 X1.961 Y-6.139 Z-0.116
G1 X2.058 Y-6.191 Z-0.12
G1 X2.159 Y-6.235 Z-0.124
G1 X2.262 Y-6.272 Z-0.128
G1 X2.368 Y-6.302 Z-0.132
G1 X2.475 Y-6.323 Z-0.135
G1 X2.584 Y-6.337 Z-0.139
G1 X2.694 Y-6.343 Z-0.143
G1 X2.804 Y-6.341 Z-0.147
G1 X2.913 Y-6.331 Z-0.151
G1 X3.021 Y-6.312 Z-0.155
G1 X3.128 Y-6.287 Z-0.158
G1 X3.233 Y-6.253 Z-0.162
G1 X3.335 Y-6.212 Z-0.166
G1 X3.433 Y-6.163 Z-0.17
G1 X3.528 Y-6.108 Z-0.174
G1 X3.618 Y-6.046 Z-0.178
G1 X3.704 Y-5.977 Z-0.181
G1 X3.785 Y-5.902 Z-0.185
G1 X3.859 Y-5.822 Z-0.189
G1 X3.928 Y-5.736 Z-0.193
G1 X3.991 Y-5.646 Z-0.197
G1 X4.046 Y-5.551 Z-0.201
G1 X4.095 Y-5.453 Z-0.204
G1 X4.136 Y-5.351 Z-0.208
G1 X4.17 Y-5.247 Z-0.212
G1 X4.196 Y-5.14 Z-0.216
G1 X4.214 Y-5.032 Z-0.22
G1 X4.225 Y-4.922 Z-0.224
G1 X4.227 Y-4.812 Z-0.227
G1 X4.221 Y-4.703 Z-0.231
G1 X4.208 Y-4.594 Z-0.235
G1 X4.186 Y-4.486 Z-0.239
G1 X4.157 Y-4.38 Z-0.243
G1 X4.12 Y-4.277 Z-0.247
G1 X4.076 Y-4.176 Z-0.25
G1 X4.024 Y-4.079 Z-0.254
G1 X3.966 Y-3.986 Z-0.258
G1 X3.901 Y-3.898 Z-0.262
G1 X3.829 Y-3.814 Z-0.266
G1 X3.752 Y-3.736 Z-0.27
G1 X3.669 Y-3.664 Z-0.273
G1 X3.582 Y-3.598 Z-0.277
G1 X3.489 Y-3.539 Z-0.281
G1 X3.393 Y-3.486 Z-0.285
G1 X3.293 Y-3.44 Z-0.289
G1 X3.19 Y-3.402 Z-0.293
G1 X3.085 Y-3.372 Z-0.296
G1 X2.977 Y-3.349 Z-0.3
G1 X2.868 Y-3.334 Z-0.304
G1 X2.759 Y-3.327 Z-0.308
G1 X2.649 Y-3.328 Z-0.312
G1 X2.54 Y-3.338 Z-0.316
G1 X2.431 Y-3.355 Z-0.319
G1 X2.324 Y-3.379 Z-0.323
G1 X2.219 Y-3.412 Z-0.327
G1 X2.117 Y-3.452 Z-0.331
G1 X2.018 Y-3.5 Z-0.335
G1 X1.923 Y-3.554 Z-0.339
G1 X1.832 Y-3.616 Z-0.342
G1 X1.745 Y-3.683 Z-0.346
G1 X1.664 Y-3.757 Z-0.35
G1 X1.588 Y-3.837 Z-0.354
G1 X1.519 Y-3.922 Z-0.358
G1 X1.455 Y-4.012 Z-0.362
G1 X1.399 Y-4.106 Z-0.365
G1 X1.349 Y-4.204 Z-0.369
G1 X1.307 Y-4.305 Z-0.373
G1 X1.272 Y-4.409 Z-0.377
G1 X1.245 Y-4.516 Z-0.381
G1 X1.226 Y-4.624 Z-0.385
G1 X1.214 Y-4.733 Z-0.388
G1 X1.211 Y-4.843 Z-0.392
G1 X1.215 Y-4.952 Z-0.396
G1 X1.228 Y-5.061 Z-0.4
G1 X1.248 Y-5.169 Z-0.404
G1 X1.277 Y-5.275 Z-0.408
G1 X1.312 Y-5.379 Z-0.412
G1 X1.356 Y-5.48 Z-0.415
G1 X1.406 Y-5.578 Z-0.419
G1 X1.464 Y-5.671 Z-0.423
G1 X1.528 Y-5.76 Z-0.427
G1 X1.599 Y-5.844 Z-0.431
G1 X1.675 Y-5.923 Z-0.435
G1 X1.757 Y-5.996 Z-0.438
G1 X1.844 Y-6.063 Z-0.442
G1 X1.936 Y-6.124 Z-0.446
G1 X2.032 Y-6.177 Z-0.45
G1 X2.131 Y-6.224 Z-0.454
G1 X2.234 Y-6.263 Z-0.458
G1 X2.339 Y-6.294 Z-0.461
G1 X2.446 Y-6.318 Z-0.465
G1 X2.555 Y-6.334 Z-0.469
G1 X2.664 Y-6.342 Z-0.473
G1 X2.774 Z-0.477
G1 X2.884 Y-6.334 Z-0.481
G1 X2.992 Y-6.318 Z-0.484
G1 X3.099 Y-6.294 Z-0.488
G1 X3.205 Y-6.263 Z-0.492
G1 X3.307 Y-6.224 Z-0.496
G1 X3.407 Y-6.177 Z-0.5
G1 X3.503 Y-6.124 Z-0.504
G1 X3.594 Y-6.063 Z-0.507
G1 X3.681 Y-5.996 Z-0.511
G1 X3.763 Y-5.923 Z-0.515
G1 X3.84 Y-5.844 Z-0.519
G1 X3.91 Y-5.76 Z-0.523
G1 X3.974 Y-5.671 Z-0.527
G1 X4.032 Y-5.577 Z-0.53
G1 X4.082 Y-5.48 Z-0.534
G1 X4.126 Y-5.379 Z-0.538
G1 X4.161 Y-5.275 Z-0.542
G1 X4.19 Y-5.169 Z-0.546
G1 X4.21 Y-5.061 Z-0.55
G1 X4.223 Y-4.952 Z-0.553
G1 X4.227 Y-4.842 Z-0.557
G1 X4.224 Y-4.732 Z-0.561
G1 X4.212 Y-4.623 Z-0.565
G1 X4.193 Y-4.515 Z-0.569
G1 X4.166 Y-4.409 Z-0.573
G1 X4.131 Y-4.305 Z-0.576
G1 X4.088 Y-4.203 Z-0.58
G1 X4.039 Y-4.105 Z-0.584
G1 X3.982 Y-4.011 Z-0.588
G1 X3.919 Y-3.922 Z-0.592
G1 X3.849 Y-3.837 Z-0.596
G1 X3.774 Y-3.757 Z-0.599
G1 X3.692 Y-3.683 Z-0.603
G1 X3.606 Y-3.615 Z-0.607
G1 X3.515 Y-3.554 Z-0.611
G1 X3.42 Y-3.499 Z-0.615
G1 X3.321 Y-3.452 Z-0.619
G1 X3.218 Y-3.412 Z-0.622
G1 X3.113 Y-3.379 Z-0.626
G1 X3.007 Y-3.355 Z-0.63
G1 X2.898 Y-3.338 Z-0.634
G1 X2.789 Y-3.328 Z-0.638
G1 X2.679 Y-3.327 Z-0.642
G1 X2.569 Y-3.334 Z-0.645
G1 X2.46 Y-3.349 Z-0.649
G1 X2.353 Y-3.372 Z-0.653
G1 X2.247 Y-3.402 Z-0.657
G1 X2.144 Y-3.441 Z-0.661
G1 X2.045 Y-3.486 Z-0.665
G1 X1.948 Y-3.539 Z-0.668
G1 X1.856 Y-3.598 Z-0.672
G1 X1.768 Y-3.664 Z-0.676
G1 X1.686 Y-3.737 Z-0.68
G1 X1.608 Y-3.815 Z-0.684
G1 X1.537 Y-3.898 Z-0.688
G1 X1.472 Y-3.987 Z-0.692
G1 X1.414 Y-4.08 Z-0.695
G1 X1.362 Y-4.177 Z-0.699
G1 X1.318 Y-4.277 Z-0.703
G1 X1.281 Y-4.381 Z-0.707
G1 X1.252 Y-4.486 Z-0.711
G1 X1.23 Y-4.594 Z-0.715
G1 X1.217 Y-4.703 Z-0.718
G1 X1.211 Y-4.813 Z-0.722
G1 X1.213 Y-4.923 Z-0.726
G1 X1.224 Y-5.032 Z-0.73
G1 X1.242 Y-5.14 Z-0.734
G1 X1.268 Y-5.247 Z-0.738
G1 X1.302 Y-5.351 Z-0.741
G1 X1.343 Y-5.453 Z-0.745
G1 X1.392 Y-5.552 Z-0.749
G1 X1.448 Y-5.646 Z-0.753
G1 X1.51 Y-5.737 Z-0.757
G1 X1.579 Y-5.822 Z-0.761
G1 X1.654 Y-5.903 Z-0.764
G1 X1.734 Y-5.977 Z-0.768
G1 X1.82 Y-6.046 Z-0.772
G1 X1.91 Y-6.108 Z-0.776
G1 X2.005 Y-6.164 Z-0.78
G1 X2.104 Y-6.212 Z-0.784
G1 X2.206 Y-6.253 Z-0.787
G1 X2.31 Y-6.287 Z-0.791
G1 X2.417 Y-6.313 Z-0.795
G1 X2.525 Y-6.331 Z-0.799
G1 X2.634 Y-6.341 Z-0.803
G1 X2.744 Y-6.343 Z-0.807
G1 X2.854 Y-6.337 Z-0.81
G1 X2.963 Y-6.323 Z-0.814
G1 X3.071 Y-6.302 Z-0.818
G1 X3.176 Y-6.272 Z-0.822
G1 X3.28 Y-6.235 Z-0.826
G1 X3.38 Y-6.19 Z-0.83
G1 X3.477 Y-6.139 Z-0.833
G1 X3.57 Y-6.08 Z-0.837
G1 X3.658 Y-6.015 Z-0.841
G1 X3.742 Y-5.944 Z-0.845
G1 X3.819 Y-5.866 Z-0.849
G1 X3.892 Y-5.783 Z-0.853
G1 X3.958 Y-5.695 Z-0.856
G1 X4.017 Y-5.603 Z-0.86
G1 X4.069 Y-5.507 Z-0.864
G1 X4.115 Y-5.407 Z-0.868
G1 X4.152 Y-5.304 Z-0.872
G1 X4.183 Y-5.198 Z-0.876
G1 X4.205 Y-5.09 Z-0.879
G1 X4.22 Y-4.982 Z-0.883
G1 X4.227 Y-4.872 Z-0.887
G1 X4.225 Y-4.762 Z-0.891
G1 X4.216 Y-4.653 Z-0.895
G1 X4.199 Y-4.544 Z-0.899
G1 X4.174 Y-4.437 Z-0.902
G1 X4.141 Y-4.333 Z-0.906
G1 X4.101 Y-4.23 Z-0.91
G1 X4.053 Y-4.132 Z-0.914
G1 X3.998 Y-4.036 Z-0.918
G1 X3.937 Y-3.945 Z-0.922
G1 X3.869 Y-3.859 Z-0.925
G1 X3.795 Y-3.778 Z-0.929
G1 X3.715 Y-3.703 Z-0.933
G1 X3.63 Y-3.633 Z-0.937
G1 X3.54 Y-3.57 Z-0.941
G1 X3.446 Y-3.514 Z-0.945
G1 X3.348 Y-3.464 Z-0.948
G1 X3.246 Y-3.422 Z-0.952
G1 X3.142 Y-3.387 Z-0.956
G1 X3.036 Y-3.36 Z-0.96
G1 X2.928 Y-3.341 Z-0.964
G1 X2.818 Y-3.33 Z-0.968
G1 X2.709 Y-3.327 Z-0.972
G1 X2.599 Y-3.332 Z-0.975
G1 X2.49 Y-3.344 Z-0.979
G1 X2.382 Y-3.365 Z-0.983
G1 X2.276 Y-3.393 Z-0.987
G1 X2.172 Y-3.43 Z-0.991
G1 X2.071 Y-3.473 Z-0.995
G1 X1.974 Y-3.524 Z-0.998
G1 X1.88 Y-3.581 Z-1.002
G1 X1.791 Y-3.646 Z-1.006
G1 X1.707 Y-3.716 Z-1.01
G1 X1.629 Y-3.793 Z-1.014
G1 X1.556 Y-3.875 Z-1.018
G1 X1.489 Y-3.962 Z-1.021
G1 X1.429 Y-4.054 Z-1.025
G1 X1.375 Y-4.15 Z-1.029
G1 X1.329 Y-4.25 Z-1.033
G1 X1.29 Y-4.352 Z-1.037
G1 X1.259 Y-4.458 Z-1.041
G1 X1.235 Y-4.565 Z-1.044
G1 X1.22 Y-4.674 Z-1.048
G1 X1.212 Y-4.783 Z-1.052
G1 Y-4.893 Z-1.056
G1 X1.22 Y-5.002 Z-1.06
G1 X1.236 Y-5.111 Z-1.064
G1 X1.26 Y-5.218 Z-1.067
G1 X1.292 Y-5.323 Z-1.071
G1 X1.331 Y-5.426 Z-1.075
G1 X1.378 Y-5.525 Z-1.079
G1 X1.432 Y-5.621 Z-1.083
G1 X1.492 Y-5.713 Z-1.087
G1 X1.56 Y-5.799 Z-1.09
G1 X1.633 Y-5.881 Z-1.094
G1 X1.712 Y-5.958 Z-1.098
G1 X1.796 Y-6.028 Z-1.102
G1 X1.885 Y-6.092 Z-1.106
G1 X1.979 Y-6.149 Z-1.11
G1 X2.077 Y-6.199 Z-1.113
G1 X2.178 Y-6.243 Z-1.117
G1 X2.282 Y-6.278 Z-1.121
G1 X2.388 Y-6.306 Z-1.125
G1 X2.496 Y-6.326 Z-1.129
G1 X2.605 Y-6.339 Z-1.133
G1 X2.714 Y-6.343 Z-1.136
G1 X2.824 Y-6.339 Z-1.14
G1 X2.933 Y-6.328 Z-1.144
G1 X3.042 Y-6.308 Z-1.148
G1 X3.148 Y-6.281 Z-1.152
G1 X3.252 Y-6.246 Z-1.156
G1 X3.353 Y-6.203 Z-1.159
G1 X3.451 Y-6.154 Z-1.163
G1 X3.545 Y-6.097 Z-1.167
G1 X3.635 Y-6.033 Z-1.171
G1 X3.719 Y-5.963 Z-1.175
G1 X3.799 Y-5.888 Z-1.179
G1 X3.873 Y-5.806 Z-1.182
G1 X3.94 Y-5.72 Z-1.186
G1 X4.001 Y-5.629 Z-1.19
G1 X4.056 Y-5.533 Z-1.194
G1 X4.103 Y-5.434 Z-1.198
G1 X4.143 Y-5.332 Z-1.202
G1 X4.175 Y-5.227 Z-1.205
G1 X4.2 Y-5.12 Z-1.209
G1 X4.217 Y-5.011 Z-1.213
G1 X4.226 Y-4.902 Z-1.217
G1 Y-4.792 Z-1.221
G1 X4.219 Y-4.682 Z-1.225
G1 X4.204 Y-4.574 Z-1.228
G1 X4.181 Y-4.466 Z-1.232
G1 X4.151 Y-4.361 Z-1.236
G1 X4.112 Y-4.258 Z-1.24
G1 X4.067 Y-4.158 Z-1.244
G1 X4.014 Y-4.062 Z-1.248
G1 X3.954 Y-3.97 Z-1.252
G1 X3.888 Y-3.882 Z-1.255
G1 X3.815 Y-3.799 Z-1.259
G1 X3.737 Y-3.722 Z-1.263
G1 X3.654 Y-3.651 Z-1.267
G1 X3.565 Y-3.586 Z-1.271
G1 X3.472 Y-3.528 Z-1.275
G1 X3.375 Y-3.477 Z-1.278
G1 X3.274 Y-3.433 Z-1.282
G1 X3.171 Y-3.396 Z-1.286
G1 X3.065 Y-3.367 Z-1.29
G1 X2.957 Y-3.346 Z-1.294
G1 X2.848 Y-3.332 Z-1.298
G1 X2.738 Y-3.327 Z-1.301
G1 X2.629 Y-3.33 Z-1.305
G1 X2.519 Y-3.34 Z-1.309
G1 X2.411 Y-3.359 Z-1.313
G1 X2.304 Y-3.385 Z-1.317
G1 X2.2 Y-3.419 Z-1.321
G1 X2.098 Y-3.46 Z-1.324
G1 X2 Y-3.509 Z-1.328
G1 X1.905 Y-3.565 Z-1.332
G1 X1.815 Y-3.628 Z-1.336
G1 X1.73 Y-3.697 Z-1.34
G1 X1.649 Y-3.772 Z-1.344
G1 X1.575 Y-3.852 Z-1.347
G1 X1.506 Y-3.938 Z-1.351
G1 X1.444 Y-4.029 Z-1.355
G1 X1.389 Y-4.124 Z-1.359
G1 X1.341 Y-4.222 Z-1.363
G1 X1.3 Y-4.324 Z-1.367
G1 X1.267 Y-4.429 Z-1.37
G1 X1.241 Y-4.536 Z-1.374
G1 X1.223 Y-4.644 Z-1.378
G1 X1.213 Y-4.753 Z-1.382
G1 X1.211 Y-4.863 Z-1.386
G1 X1.217 Y-4.973 Z-1.39
G1 X1.231 Y-5.082 Z-1.393
G1 X1.253 Y-5.189 Z-1.397
G1 X1.283 Y-5.295 Z-1.401
G1 X1.32 Y-5.398 Z-1.405
G1 X1.365 Y-5.499 Z-1.409
G1 X1.417 Y-5.595 Z-1.413
G1 X1.475 Y-5.688 Z-1.416
G1 X1.541 Y-5.776 Z-1.42
G1 X1.612 Y-5.86 Z-1.424
G1 X1.69 Y-5.937 Z-1.428
G1 X1.773 Y-6.009 Z-1.432
G1 X1.861 Y-6.075 Z-1.436
G1 X1.953 Y-6.134 Z-1.439
G1 X2.05 Y-6.187 Z-1.443
G1 X2.15 Y-6.232 Z-1.447
G1 X2.253 Y-6.269 Z-1.451
G1 X2.359 Y-6.299 Z-1.455
G1 X2.466 Y-6.322 Z-1.459
G1 X2.575 Y-6.336 Z-1.462
G1 X2.685 Y-6.343 Z-1.466
G1 X2.795 Y-6.341 Z-1.47
G1 X2.904 Y-6.332 Z-1.474
G1 X3.012 Y-6.314 Z-1.478
G1 X3.119 Y-6.289 Z-1.482
G1 X3.224 Y-6.256 Z-1.485
G1 X3.326 Y-6.216 Z-1.489
G1 X3.425 Y-6.168 Z-1.493
G1 X3.52 Y-6.113 Z-1.497
G1 X3.611 Y-6.051 Z-1.501
G1 X3.697 Y-5.983 Z-1.505
G1 X3.778 Y-5.909 Z-1.508
G1 X3.853 Y-5.829 Z-1.512
G1 X3.923 Y-5.744 Z-1.516
G1 X3.985 Y-5.654 Z-1.52
G1 X4.042 Y-5.559 Z-1.524
G1 X4.091 Y-5.461 Z-1.528
G1 X4.133 Y-5.36 Z-1.532
G1 X4.167 Y-5.255 Z-1.535
G1 X4.194 Y-5.149 Z-1.539
G1 X4.213 Y-5.041 Z-1.543
G1 X4.224 Y-4.932 Z-1.547
G1 X4.227 Y-4.822 Z-1.551
G1 X4.222 Y-4.712 Z-1.555
G1 X4.209 Y-4.603 Z-1.558
G1 X4.188 Y-4.495 Z-1.562
G1 X4.16 Y-4.389 Z-1.566
G1 X4.123 Y-4.286 Z-1.57
G1 X4.08 Y-4.185 Z-1.574
G1 X4.029 Y-4.088 Z-1.578
G1 X3.971 Y-3.994 Z-1.581
G1 X3.906 Y-3.905 Z-1.585
G1 X3.836 Y-3.821 Z-1.589
G1 X3.759 Y-3.743 Z-1.593
G1 X3.677 Y-3.67 Z-1.597
G1 X3.589 Y-3.603 Z-1.601
G1 X3.497 Y-3.543 Z-1.604
G1 X3.401 Y-3.49 Z-1.608
G1 X3.302 Y-3.444 Z-1.612
G1 X3.199 Y-3.405 Z-1.616
G1 X3.094 Y-3.374 Z-1.62
G1 X2.986 Y-3.351 Z-1.624
G1 X2.878 Y-3.335 Z-1.627
G1 X2.768 Y-3.328 Z-1.631
G1 X2.658 Z-1.635
G1 X2.549 Y-3.336 Z-1.639
G1 X2.44 Y-3.353 Z-1.643
G1 X2.333 Y-3.377 Z-1.647
G1 X2.228 Y-3.409 Z-1.65
G1 X2.126 Y-3.449 Z-1.654
G1 X2.026 Y-3.495 Z-1.658
G1 X1.931 Y-3.549 Z-1.662
G1 X1.839 Y-3.61 Z-1.666
G1 X1.752 Y-3.677 Z-1.67
G1 X1.671 Y-3.751 Z-1.673
G1 X1.595 Y-3.83 Z-1.677
G1 X1.524 Y-3.914 Z-1.681
G1 X1.461 Y-4.004 Z-1.685
G1 X1.403 Y-4.098 Z-1.689
G1 X1.353 Y-4.195 Z-1.693
G1 X1.31 Y-4.296 Z-1.696
G1 X1.275 Y-4.4 Z-1.7
G1 X1.247 Y-4.506 Z-1.704
G1 X1.227 Y-4.614 Z-1.708
G1 X1.215 Y-4.724 Z-1.712
G1 X1.211 Y-4.833 Z-1.716
G1 X1.215 Y-4.943 Z-1.719
G1 X1.227 Y-5.052 Z-1.723
G1 X1.246 Y-5.16 Z-1.727
G1 X1.274 Y-5.267 Z-1.731
G1 X1.309 Y-5.371 Z-1.735
G1 X1.352 Y-5.472 Z-1.739
G1 X1.402 Y-5.57 Z-1.742
G1 X1.459 Y-5.663 Z-1.746
G1 X1.522 Y-5.753 Z-1.75
G1 X1.592 Y-5.838 Z-1.754
G1 X1.668 Y-5.917 Z-1.758
G1 X1.75 Y-5.99 Z-1.762
G1 X1.836 Y-6.058 Z-1.765
G1 X1.928 Y-6.119 Z-1.769
G1 X2.023 Y-6.173 Z-1.773
G1 X2.122 Y-6.22 Z-1.777
G1 X2.225 Y-6.26 Z-1.781
G1 X2.33 Y-6.292 Z-1.785
G1 X2.437 Y-6.317 Z-1.788
G1 X2.545 Y-6.333 Z-1.792
G1 X2.655 Y-6.342 Z-1.796
G1 X2.765 Z-1.8
G1 X2.874 Y-6.335 Z-1.804
G1 X2.983 Y-6.32 Z-1.808
G1 X3.09 Y-6.297 Z-1.812
G1 X3.196 Y-6.266 Z-1.815
G1 X3.299 Y-6.227 Z-1.819
G1 X3.398 Y-6.181 Z-1.823
G1 X3.495 Y-6.128 Z-1.827
G1 X3.587 Y-6.069 Z-1.831
G1 X3.674 Y-6.002 Z-1.835
G1 X3.756 Y-5.93 Z-1.838
G1 X3.833 Y-5.851 Z-1.842
G1 X3.904 Y-5.767 Z-1.846
G1 X3.969 Y-5.679 Z-1.85
G1 X4.027 Y-5.585 Z-1.854
G1 X4.078 Y-5.488 Z-1.858
G1 X4.122 Y-5.388 Z-1.861
G1 X4.159 Y-5.284 Z-1.865
G1 X4.188 Y-5.178 Z-1.869
G1 X4.209 Y-5.07 Z-1.873
G1 X4.222 Y-4.961 Z-1.877
G1 X4.227 Y-4.852 Z-1.881
G1 X4.224 Y-4.742 Z-1.884
G1 X4.213 Y-4.633 Z-1.888
G1 X4.195 Y-4.524 Z-1.892
G1 X4.168 Y-4.418 Z-1.896
G1 X4.134 Y-4.313 Z-1.9
G1 X4.092 Y-4.212 Z-1.904
G1 X4.043 Y-4.114 Z-1.907
G1 X3.987 Y-4.019 Z-1.911
G1 X3.925 Y-3.929 Z-1.915
G1 X3.855 Y-3.844 Z-1.919
G1 X3.78 Y-3.764 Z-1.923
G1 X3.7 Y-3.689 Z-1.927
G1 X3.614 Y-3.621 Z-1.93
G1 X3.523 Y-3.559 Z-1.934
G1 X3.428 Y-3.504 Z-1.938
G1 X3.329 Y-3.456 Z-1.942
G1 X3.227 Y-3.415 Z-1.946
G1 X3.122 Y-3.382 Z-1.95
G1 X3.016 Y-3.356 Z-1.953
G1 X2.907 Y-3.339 Z-1.957
G1 X2.798 Y-3.329 Z-1.961
G1 X2.688 Y-3.327 Z-1.965
G1 X2.578 Y-3.333 Z-1.969
G1 X2.47 Y-3.348 Z-1.973
G1 X2.362 Y-3.37 Z-1.976
G1 X2.256 Y-3.4 Z-1.98
G1 X2.153 Y-3.437 Z-1.984
G1 X2.053 Y-3.482 Z-1.988
G1 X1.956 Y-3.534 Z-1.992
G1 X1.864 Y-3.593 Z-1.996
G1 X1.775 Y-3.658 Z-1.999
G1 X1.692 Y-3.73 Z-2.003
G1 X1.615 Y-3.808 Z-2.007
G1 X1.543 Y-3.891 Z-2.011
G1 X1.477 Y-3.979 Z-2.015
G1 X1.418 Y-4.072 Z-2.019
G1 X1.366 Y-4.168 Z-2.022
G1 X1.321 Y-4.269 Z-2.026
G1 X1.284 Y-4.372 Z-2.03
G1 X1.254 Y-4.477 Z-2.034
G1 X1.232 Y-4.585 Z-2.038
G1 X1.217 Y-4.694 Z-2.042
G1 X1.211 Y-4.804 Z-2.045
G1 X1.213 Y-4.913 Z-2.049
G1 X1.223 Y-5.023 Z-2.053
G1 X1.24 Y-5.131 Z-2.057
G1 X1.266 Y-5.238 Z-2.061
G1 X1.299 Y-5.343 Z-2.065
G1 X1.34 Y-5.445 Z-2.068
G1 X1.388 Y-5.543 Z-2.072
G1 X1.443 Y-5.638 Z-2.076
G1 X1.504 Y-5.729 Z-2.08
G1 X1.573 Y-5.815 Z-2.084
G1 X1.647 Y-5.896 Z-2.088
G1 X1.727 Y-5.971 Z-2.092
G1 X1.812 Y-6.04 Z-2.095
G1 X1.903 Y-6.103 Z-2.099
G1 X1.997 Y-6.159 Z-2.103
G1 X2.095 Y-6.208 Z-2.107
G1 X2.197 Y-6.25 Z-2.111
G1 X2.301 Y-6.284 Z-2.115
G1 X2.408 Y-6.311 Z-2.118
G1 X2.516 Y-6.329 Z-2.122
G1 X2.625 Y-6.34 Z-2.126
G1 X2.735 Y-6.343 Z-2.13
G1 X2.845 Y-6.338 Z-2.134
G1 X2.954 Y-6.325 Z-2.138
G1 X3.061 Y-6.304 Z-2.141
G1 X3.167 Y-6.275 Z-2.145
G1 X3.271 Y-6.238 Z-2.149
G1 X3.372 Y-6.195 Z-2.153
G1 X3.469 Y-6.143 Z-2.157
G1 X3.562 Y-6.085 Z-2.161
G1 X3.651 Y-6.021 Z-2.164
G1 X3.735 Y-5.95 Z-2.168
G1 X3.813 Y-5.873 Z-2.172
G1 X3.886 Y-5.791 Z-2.176
G1 X3.952 Y-5.703 Z-2.18
G1 X4.012 Y-5.611 Z-2.184
G1 X4.065 Y-5.515 Z-2.187
G1 X4.111 Y-5.415 Z-2.191
G1 X4.15 Y-5.312 Z-2.195
G1 X4.18 Y-5.207 Z-2.199
G1 X4.204 Y-5.1 Z-2.203
G1 X4.219 Y-4.991 Z-2.207
G1 X4.226 Y-4.881 Z-2.21
G1 Y-4.772 Z-2.214
G1 X4.217 Y-4.662 Z-2.218
G1 X4.201 Y-4.554 Z-2.222
G1 X4.176 Y-4.446 Z-2.226
G1 X4.144 Y-4.341 Z-2.23
G1 X4.104 Y-4.239 Z-2.233
G1 X4.057 Y-4.14 Z-2.237
G1 X4.003 Y-4.044 Z-2.241
G1 X3.942 Y-3.953 Z-2.245
G1 X3.875 Y-3.866 Z-2.249
G1 X3.801 Y-3.785 Z-2.253
G1 X3.722 Y-3.709 Z-2.256
G1 X3.637 Y-3.639 Z-2.26
G1 X3.548 Y-3.575 Z-2.264
G1 X3.454 Y-3.518 Z-2.268
G1 X3.356 Y-3.468 Z-2.272
G1 X3.255 Y-3.425 Z-2.276
G1 X3.151 Y-3.39 Z-2.279
G1 X3.045 Y-3.362 Z-2.283
G1 X2.937 Y-3.343 Z-2.287
G1 X2.828 Y-3.331 Z-2.291
G1 X2.718 Y-3.327 Z-2.295
G1 X2.608 Y-3.331 Z-2.299
G1 X2.499 Y-3.343 Z-2.302
G1 X2.391 Y-3.363 Z-2.306
G1 X2.285 Y-3.391 Z-2.31
G1 X2.181 Y-3.426 Z-2.314
G1 X2.08 Y-3.469 Z-2.318
G1 X1.982 Y-3.519 Z-2.322
G1 X1.888 Y-3.576 Z-2.325
G1 X1.799 Y-3.64 Z-2.329
G1 X1.714 Y-3.71 Z-2.333
G1 X1.635 Y-3.786 Z-2.337
G1 X1.562 Y-3.868 Z-2.341
G1 X1.494 Y-3.955 Z-2.345
G1 X1.434 Y-4.046 Z-2.348
G1 X1.38 Y-4.142 Z-2.352
G1 X1.333 Y-4.241 Z-2.356
G1 X1.293 Y-4.344 Z-2.36
G1 X1.261 Y-4.449 Z-2.364
G1 X1.237 Y-4.556 Z-2.368
G1 X1.221 Y-4.664 Z-2.372
G1 X1.212 Y-4.774 Z-2.375
G1 Y-4.884 Z-2.379
G1 X1.219 Y-4.993 Z-2.383
G1 X1.235 Y-5.102 Z-2.387
G1 X1.258 Y-5.209 Z-2.391
G1 X1.289 Y-5.314 Z-2.395
G1 X1.328 Y-5.417 Z-2.398
G1 X1.374 Y-5.517 Z-2.402
G1 X1.427 Y-5.613 Z-2.406
G1 X1.487 Y-5.705 Z-2.41
G1 X1.554 Y-5.792 Z-2.414
G1 X1.626 Y-5.875 Z-2.418
G1 X1.705 Y-5.951 Z-2.421
G1 X1.789 Y-6.022 Z-2.425
G1 X1.878 Y-6.087 Z-2.429
G1 X1.971 Y-6.145 Z-2.433
G1 X2.068 Y-6.196 Z-2.437
G1 X2.169 Y-6.239 Z-2.441
G1 X2.273 Y-6.276 Z-2.444
G1 X2.379 Y-6.304 Z-2.448
G1 X2.486 Y-6.325 Z-2.452
G1 X2.595 Y-6.338 Z-2.456
G1 X2.705 Y-6.343 Z-2.46
G1 X2.815 Y-6.34 Z-2.464
G1 X2.924 Y-6.329 Z-2.467
G1 X3.032 Y-6.31 Z-2.471
G1 X3.139 Y-6.283 Z-2.475
G1 X3.243 Y-6.249 Z-2.479
G1 X3.345 Y-6.207 Z-2.483
G1 X3.443 Y-6.158 Z-2.487
G1 X3.537 Y-6.102 Z-2.49
G1 X3.627 Y-6.039 Z-2.494
G1 X3.712 Y-5.97 Z-2.498
G1 X3.792 Y-5.894 Z-2.502
G1 X3.867 Y-5.813 Z-2.506
G1 X3.935 Y-5.727 Z-2.51
G1 X3.996 Y-5.636 Z-2.513
G1 X4.051 Y-5.541 Z-2.517
G1 X4.099 Y-5.443 Z-2.521
G1 X4.14 Y-5.341 Z-2.525
G1 X4.173 Y-5.236 Z-2.529
G1 X4.198 Y-5.129 Z-2.533
G1 X4.216 Y-5.021 Z-2.536
G1 X4.225 Y-4.911 Z-2.54
G1 X4.227 Y-4.801 Z-2.544
G1 X4.22 Y-4.692 Z-2.548
G1 X4.206 Y-4.583 Z-2.552
G1 X4.184 Y-4.475 Z-2.556
G1 X4.154 Y-4.37 Z-2.559
G1 X4.116 Y-4.267 Z-2.563
G1 X4.071 Y-4.166 Z-2.567
G1 X4.019 Y-4.07 Z-2.571
G1 X3.959 Y-3.977 Z-2.575
G1 X3.894 Y-3.889 Z-2.579
G1 X3.822 Y-3.806 Z-2.582
G1 X3.744 Y-3.729 Z-2.586
G1 X3.661 Y-3.657 Z-2.59
G1 X3.573 Y-3.592 Z-2.594
G1 X3.48 Y-3.533 Z-2.598
G1 X3.383 Y-3.481 Z-2.602
G1 X3.283 Y-3.436 Z-2.605
G1 X3.18 Y-3.399 Z-2.609
G1 X3.074 Y-3.369 Z-2.613
G1 X2.966 Y-3.347 Z-2.617
G1 X2.857 Y-3.333 Z-2.621
G1 X2.748 Y-3.327 Z-2.625
G1 X2.638 Y-3.329 Z-2.628
G1 X2.528 Y-3.339 Z-2.632
G1 X2.42 Y-3.357 Z-2.636
G1 X2.313 Y-3.382 Z-2.64
G1 X2.209 Y-3.416 Z-2.644
G1 X2.107 Y-3.457 Z-2.648
G1 X2.008 Y-3.505 Z-2.652
G1 X1.913 Y-3.56 Z-2.655
G1 X1.823 Y-3.622 Z-2.659
G1 X1.737 Y-3.691 Z-2.663
G1 X1.656 Y-3.765 Z-2.667
G1 X1.581 Y-3.845 Z-2.671
G1 X1.512 Y-3.931 Z-2.675
G1 X1.449 Y-4.021 Z-2.678
G1 X1.394 Y-4.115 Z-2.682
G1 X1.345 Y-4.214 Z-2.686
G1 X1.303 Y-4.315 Z-2.69
G1 X1.269 Y-4.42 Z-2.694
G1 X1.243 Y-4.526 Z-2.698
G1 X1.224 Y-4.635 Z-2.701
G1 X1.214 Y-4.744 Z-2.705
G1 X1.211 Y-4.854 Z-2.709
G1 X1.216 Y-4.963 Z-2.713
G1 X1.23 Y-5.072 Z-2.717
G1 X1.251 Y-5.18 Z-2.721
G1 X1.28 Y-5.286 Z-2.724
G1 X1.317 Y-5.39 Z-2.728
G1 X1.361 Y-5.49 Z-2.732
G1 X1.412 Y-5.587 Z-2.736
G1 X1.47 Y-5.68 Z-2.74
G1 X1.535 Y-5.769 Z-2.744
G1 X1.606 Y-5.853 Z-2.747
G1 X1.683 Y-5.931 Z-2.751
G1 X1.766 Y-6.004 Z-2.755
G1 X1.853 Y-6.07 Z-2.759
G1 X1.945 Y-6.13 Z-2.763
G1 X2.042 Y-6.182 Z-2.767
G1 X2.141 Y-6.228 Z-2.77
G1 X2.244 Y-6.266 Z-2.774
G1 X2.35 Y-6.297 Z-2.778
G1 X2.457 Y-6.32 Z-2.782
G1 X2.566 Y-6.335 Z-2.786
G1 X2.675 Y-6.342 Z-2.79
G1 X2.785 Z-2.793
G1 X2.895 Y-6.333 Z-2.797
G1 X3.003 Y-6.316 Z-2.801
G1 X3.11 Y-6.291 Z-2.805
G1 X3.215 Y-6.259 Z-2.809
G1 X3.317 Y-6.219 Z-2.813
G1 X3.417 Y-6.172 Z-2.816
G1 X3.512 Y-6.118 Z-2.82
G1 X3.603 Y-6.057 Z-2.824
G1 X3.69 Y-5.989 Z-2.828
G1 X3.771 Y-5.915 Z-2.832
G1 X3.847 Y-5.836 Z-2.836
G1 X3.917 Y-5.751 Z-2.839
G1 X3.98 Y-5.662 Z-2.843
G1 X4.037 Y-5.568 Z-2.847
G1 X4.087 Y-5.47 Z-2.851
G1 X4.13 Y-5.368 Z-2.855
G1 X4.165 Y-5.264 Z-2.859
G1 X4.192 Y-5.158 Z-2.862
G1 X4.212 Y-5.05 Z-2.866
G1 X4.223 Y-4.941 Z-2.87
G1 X4.227 Y-4.831 Z-2.874
G1 X4.223 Y-4.721 Z-2.878
G1 X4.211 Y-4.612 Z-2.882
G1 X4.19 Y-4.504 Z-2.885
G1 X4.162 Y-4.398 Z-2.889
G1 X4.127 Y-4.294 Z-2.893
G1 X4.084 Y-4.193 Z-2.897
G1 X4.033 Y-4.096 Z-2.901
G1 X3.976 Y-4.002 Z-2.905
G1 X3.912 Y-3.913 Z-2.908
G1 X3.842 Y-3.828 Z-2.912
G1 X3.766 Y-3.749 Z-2.916
G1 X3.684 Y-3.676 Z-2.92
G1 X3.597 Y-3.609 Z-2.924
G1 X3.505 Y-3.548 Z-2.928
G1 X3.41 Y-3.494 Z-2.932
G1 X3.31 Y-3.448 Z-2.935
G1 X3.208 Y-3.408 Z-2.939
G1 X3.103 Y-3.376 Z-2.943
G1 X2.996 Y-3.352 Z-2.947
G1 X2.887 Y-3.336 Z-2.951
G1 X2.777 Y-3.328 Z-2.955
G1 X2.668 Z-2.958
G1 X2.558 Y-3.335 Z-2.962
G1 X2.449 Y-3.351 Z-2.966
G1 X2.342 Y-3.375 Z-2.97
G1 X2.237 Y-3.406 Z-2.974
G1 X2.134 Y-3.445 Z-2.978
G1 X2.035 Y-3.491 Z-2.981
G1 X1.939 Y-3.544 Z-2.985
G1 X1.847 Y-3.605 Z-2.989
G1 X1.76 Y-3.671 Z-2.993
G1 X1.677 Y-3.744 Z-2.997
G1 X1.601 Y-3.823 Z-3.001
G1 X1.53 Y-3.907 Z-3.004
G1 X1.466 Y-3.996 Z-3.008
G1 X1.408 Y-4.089 Z-3.012
G1 X1.357 Y-4.187 Z-3.016
G1 X1.314 Y-4.288 Z-3.02
G1 X1.278 Y-4.391 Z-3.024
G1 X1.249 Y-4.497 Z-3.027
G1 X1.228 Y-4.605 Z-3.031
G1 X1.216 Y-4.714 Z-3.035
G1 X1.211 Y-4.824 Z-3.039
G1 X1.214 Y-4.934 Z-3.043
G1 X1.225 Y-5.043 Z-3.047
G1 X1.244 Y-5.151 Z-3.05
G1 X1.271 Y-5.258 Z-3.054
G1 X1.306 Y-5.362 Z-3.058
G1 X1.348 Y-5.463 Z-3.062
G1 X1.397 Y-5.561 Z-3.066
G1 X1.454 Y-5.656 Z-3.07
G1 X1.517 Y-5.746 Z-3.073
G1 X1.586 Y-5.831 Z-3.077
G1 X1.662 Y-5.91 Z-3.081
G1 X1.743 Y-5.984 Z-3.085
G1 X1.829 Y-6.052 Z-3.089
G1 X1.92 Y-6.114 Z-3.093
G1 X2.015 Y-6.169 Z-3.096
G1 X2.114 Y-6.216 Z-3.1
G1 X2.216 Y-6.257 Z-3.104
G1 X2.321 Y-6.29 Z-3.108
G1 X2.428 Y-6.315 Z-3.112
G1 X2.536 Y-6.332 Z-3.116
G1 X2.646 Y-6.341 Z-3.119
G1 X2.755 Y-6.343 Z-3.123
G1 X2.865 Y-6.336 Z-3.127
G1 X2.974 Y-6.321 Z-3.131
G1 X3.081 Y-6.299 Z-3.135
G1 X3.187 Y-6.269 Z-3.139
G1 X3.29 Y-6.231 Z-3.142
G1 X3.39 Y-6.186 Z-3.146
G1 X3.487 Y-6.133 Z-3.15
G1 X3.579 Y-6.074 Z-3.154
G1 X3.667 Y-6.008 Z-3.158
G1 X3.75 Y-5.936 Z-3.162
G1 X3.827 Y-5.858 Z-3.165
G1 X3.899 Y-5.775 Z-3.169
G1 X3.964 Y-5.686 Z-3.173
G1 X4.022 Y-5.593 Z-3.177
G1 X4.074 Y-5.497 Z-3.181
G1 X4.119 Y-5.396 Z-3.185
G1 X4.156 Y-5.293 Z-3.188
G1 X4.185 Y-5.187 Z-3.192
G1 X4.207 Y-5.079 Z-3.196
G1 X4.221 Y-4.971 Z-3.2
; MOVEMENT_CUTTING
G1 X4.273 Y-4.435 F480
G1 X4.332 Y-3.9
G1 X4.397 Y-3.367
G1 X4.47 Y-2.834
G1 X4.585 Y-2.048
G1 X4.707 Y-1.263
G1 X4.834 Y-0.479
G1 X4.953 Y0.21
G1 X5.077 Y0.898
G1 X5.208 Y1.584
G1 X5.346 Y2.269
G1 X5.535 Y3.182
G1 X5.73 Y4.093
G1 X5.929 Y5.003
G1 X8.432 Y14.698
G1 X11.918 Y27.826
G1 X12.133 Y28.592
G1 X12.353 Y29.357
G1 X12.58 Y30.12
G1 X12.92 Y31.264
G1 X13.255 Y32.41
G1 X13.258 Y32.436
G1 X13.254 Y32.461
G1 X13.244 Y32.485
G1 X13.227 Y32.504
G1 X13.205 Y32.518
G1 X13.181 Y32.525
G1 X13.155 Y32.526
G1 X13.13 Y32.519
G1 X13.109 Y32.505
G1 X13.091 Y32.486
G1 X13.081 Y32.462
G1 X3.892 Y2.441
G1 X3.671 Y1.77
G1 X3.444 Y1.101
G1 X3.21 Y0.435
G1 X2.969 Y-0.229
G1 X2.722 Y-0.891
G1 X2.471 Y-1.551
G1 X2.214 Y-2.209
G1 X1.953 Y-2.866
G1 X1.804 Y-3.225
G1 X1.648 Y-3.581
G1 X1.485 Y-3.933
G1 X1.237 Y-4.461
G1 X0.996 Y-4.992
G1 X0.977 Y-5.044
G1 X0.965 Y-5.098
G1 X0.96 Y-5.154
G1 X0.963 Y-5.209
G1 X0.974 Y-5.263
G1 X0.992 Y-5.316
G1 X1.017 Y-5.366
G1 X1.048 Y-5.411
G1 X1.085 Y-5.452
G1 X1.128 Y-5.488
G1 X1.292 Y-5.612
G1 X1.452 Y-5.741
G1 X1.607 Y-5.876
G1 X1.758 Y-6.016
G1 X1.904 Y-6.161
G1 X2.044 Y-6.311
G1 X2.18 Y-6.466
G1 X2.31 Y-6.625
G1 X2.434 Y-6.789
G1 X2.553 Y-6.957
G1 X2.666 Y-7.129
G1 X2.773 Y-7.305
G1 X2.873 Y-7.484
G1 X2.966 Y-7.668
G1 X3.053 Y-7.855
G1 X3.132 Y-8.045
G1 X3.204 Y-8.238
G1 X3.268 Y-8.433
G1 X3.326 Y-8.631
G1 X3.375 Y-8.831
G1 X3.418 Y-9.033
G1 X3.452 Y-9.236
G1 X3.515 Y-9.636
G1 X3.584 Y-10.036
G1 X3.659 Y-10.435
G1 X3.74 Y-10.832
G1 X3.826 Y-11.229
G1 X3.885 Y-11.476
G1 X3.951 Y-11.721
G1 X4.023 Y-11.964
G1 X4.102 Y-12.206
G1 X4.187 Y-12.445
G1 X4.28 Y-12.682
G1 X4.378 Y-12.916
G1 X4.483 Y-13.147
G1 X4.497 Y-13.169
G1 X4.517 Y-13.187
G1 X4.541 Y-13.199
G1 X4.567 Y-13.204
G1 X4.593 Y-13.201
G1 X4.618 Y-13.192
G1 X4.64 Y-13.176
G1 X4.656 Y-13.156
G1 X4.667 Y-13.131
G1 X4.67 Y-13.105
G1 X4.667 Y-13.079
G1 X4.581 Y-12.759
G1 X4.501 Y-12.438
G1 X4.429 Y-12.115
G1 X4.363 Y-11.79
G1 X4.304 Y-11.465
G1 X4.252 Y-11.138
G1 X4.206 Y-10.81
G1 X4.167 Y-10.481
G1 X4.135 Y-10.152
G1 X4.11 Y-9.822
G1 X4.092 Y-9.491
G1 X4.081 Y-9.161
G1 X4.072 Y-8.665
G1 X4.071 Y-8.17
G1 X4.076 Y-7.674
G1 X4.087 Y-7.179
G1 X4.106 Y-6.684
G1 X4.131 Y-6.189
G1 X4.162 Y-5.695
G1 X4.201 Y-5.201
G1 X4.221 Y-4.971
; MOVEMENT_LINK_TRANSITION
G1 X4.233 Y-4.878
G1 X4.253 Y-4.786
G1 X4.279 Y-4.696
G1 X4.313 Y-4.608
G1 X4.353 Y-4.524
G1 X4.4 Y-4.443
G1 X4.453 Y-4.366
G1 X4.512 Y-4.293
G1 X4.577 Y-4.225
G1 X4.647 Y-4.162
G1 X4.722 Y-4.106
G1 X4.8 Y-4.055
G1 X4.883 Y-4.011
G1 X4.969 Y-3.973
G1 X5.057 Y-3.942
G1 X5.145 Y-3.912
G1 X5.231 Y-3.874
G1 X5.314 Y-3.831
G1 X5.393 Y-3.781
G1 X5.468 Y-3.726
G1 X5.538 Y-3.665
G1 X5.604 Y-3.598
G1 X5.664 Y-3.527
G1 X5.719 Y-3.452
G1 X5.769 Y-3.373
G1 X5.811 Y-3.29
G1 X5.848 Y-3.204
G1 X5.878 Y-3.116
G1 X5.901 Y-3.025
G1 X5.917 Y-2.933
; MOVEMENT_CUTTING
G1 X5.996 Y-2.384
G1 X6.081 Y-1.836
G1 X6.212 Y-1.038
G1 X6.349 Y-0.24
G1 X6.492 Y0.557
G1 X6.624 Y1.262
G1 X6.762 Y1.967
G1 X6.905 Y2.67
G1 X7.055 Y3.372
G1 X7.261 Y4.307
G1 X7.471 Y5.241
G1 X7.686 Y6.173
G1 X13.575 Y28.377
G1 X13.773 Y29.091
G1 X13.977 Y29.804
G1 X14.185 Y30.515
G1 X14.399 Y31.225
G1 X14.827 Y32.644
G1 X15.251 Y34.064
G1 X15.259 Y34.101
G1 X15.26 Y34.139
G1 X15.254 Y34.177
G1 X15.242 Y34.213
G1 X15.224 Y34.247
G1 X15.201 Y34.277
G1 X15.173 Y34.302
G1 X15.14 Y34.323
G1 X15.105 Y34.337
G1 X15.068 Y34.345
G1 X15.03 Y34.346
G1 X12.464 Y34.22
G1 X12.401 Y34.213
G1 X12.339 Y34.198
G1 X12.28 Y34.176
G1 X12.223 Y34.147
G1 X12.171 Y34.111
G1 X12.123 Y34.069
G1 X12.081 Y34.022
G1 X12.045 Y33.97
G1 X12.015 Y33.913
G1 X11.993 Y33.854
G1 X2.512 Y2.887
G1 X2.295 Y2.228
G1 X2.072 Y1.571
G1 X1.842 Y0.916
G1 X1.605 Y0.264
G1 X1.363 Y-0.386
G1 X1.116 Y-1.034
G1 X0.864 Y-1.68
G1 X0.608 Y-2.325
G1 X0.425 Y-2.769
G1 X0.236 Y-3.211
G1 X0.04 Y-3.65
G1 X-0.163 Y-4.086
G1 X-0.937 Y-5.721
G1 X-0.953 Y-5.764
G1 X-0.962 Y-5.81
G1 X-0.963 Y-5.856
G1 X-0.956 Y-5.901
G1 X-0.942 Y-5.946
G1 X-0.921 Y-5.987
G1 X-0.894 Y-6.024
G1 X-0.86 Y-6.056
G1 X-0.822 Y-6.082
G1 X-0.78 Y-6.101
G1 X-0.616 Y-6.164
G1 X-0.454 Y-6.234
G1 X-0.295 Y-6.31
G1 X-0.139 Y-6.392
G1 X0.013 Y-6.48
G1 X0.161 Y-6.575
G1 X0.306 Y-6.675
G1 X0.447 Y-6.781
G1 X0.583 Y-6.893
G1 X0.715 Y-7.01
G1 X0.842 Y-7.132
G1 X0.964 Y-7.259
G1 X1.08 Y-7.391
G1 X1.192 Y-7.528
G1 X1.297 Y-7.669
G1 X1.396 Y-7.815
G1 X1.489 Y-7.965
G1 X1.576 Y-8.119
G1 X1.656 Y-8.276
G1 X1.729 Y-8.437
G1 X1.795 Y-8.6
G1 X1.854 Y-8.766
G1 X1.906 Y-8.935
G1 X1.951 Y-9.105
G1 X1.988 Y-9.278
G1 X2.018 Y-9.452
G1 X2.08 Y-9.835
G1 X2.147 Y-10.218
G1 X2.222 Y-10.599
G1 X2.303 Y-10.978
G1 X2.391 Y-11.357
G1 X2.485 Y-11.733
G1 X2.586 Y-12.108
G1 X2.694 Y-12.482
G1 X2.765 Y-12.711
G1 X2.843 Y-12.938
G1 X2.928 Y-13.163
G1 X3.019 Y-13.385
G1 X3.116 Y-13.605
G1 X3.22 Y-13.821
G1 X3.329 Y-14.035
G1 X3.445 Y-14.246
G1 X3.566 Y-14.453
G1 X3.693 Y-14.656
G1 X3.826 Y-14.856
G1 X3.965 Y-15.052
G1 X4.109 Y-15.244
G1 X4.224 Y-15.387
G1 X4.345 Y-15.526
G1 X4.472 Y-15.659
G1 X4.604 Y-15.787
G1 X4.741 Y-15.909
G1 X4.883 Y-16.026
G1 X5.029 Y-16.137
G1 X5.18 Y-16.242
G1 X5.335 Y-16.341
G1 X5.494 Y-16.433
G1 X5.656 Y-16.519
G1 X5.822 Y-16.598
G1 X6.006 Y-16.677
G1 X6.193 Y-16.749
G1 X6.382 Y-16.813
G1 X6.574 Y-16.87
G1 X6.768 Y-16.919
G1 X6.963 Y-16.961
G1 X7.16 Y-16.995
G1 X7.359 Y-17.021
G1 X7.558 Y-17.04
G1 X7.757 Y-17.051
G1 X7.957 Y-17.054
G1 X8.366 Y-17.055
G1 X8.57 Y-17.052
G1 X8.774 Y-17.042
G1 X8.805 Y-17.036
G1 X8.833 Y-17.024
G1 X8.859 Y-17.006
G1 X8.879 Y-16.982
G1 X8.894 Y-16.955
G1 X8.902 Y-16.924
G1 X8.903 Y-16.893
G1 X8.897 Y-16.863
G1 X8.885 Y-16.834
G1 X8.866 Y-16.809
G1 X8.842 Y-16.789
G1 X8.659 Y-16.659
G1 X8.48 Y-16.523
G1 X8.305 Y-16.38
G1 X8.136 Y-16.232
G1 X7.973 Y-16.077
G1 X7.814 Y-15.917
G1 X7.662 Y-15.752
G1 X7.515 Y-15.581
G1 X7.375 Y-15.405
G1 X7.241 Y-15.225
G1 X7.113 Y-15.039
G1 X6.992 Y-14.85
G1 X6.878 Y-14.656
G1 X6.75 Y-14.424
G1 X6.629 Y-14.189
G1 X6.515 Y-13.95
G1 X6.407 Y-13.709
G1 X6.305 Y-13.465
G1 X6.21 Y-13.218
G1 X6.121 Y-12.968
G1 X6.039 Y-12.717
G1 X5.964 Y-12.463
G1 X5.896 Y-12.208
G1 X5.835 Y-11.95
G1 X5.768 Y-11.634
G1 X5.707 Y-11.317
G1 X5.653 Y-10.998
G1 X5.606 Y-10.678
G1 X5.566 Y-10.358
G1 X5.533 Y-10.036
G1 X5.507 Y-9.714
G1 X5.487 Y-9.392
G1 X5.475 Y-9.069
G1 X5.469 Y-8.746
G1 X5.47 Y-8.423
G1 X5.478 Y-8.099
G1 X5.505 Y-7.455
G1 X5.54 Y-6.812
G1 X5.582 Y-6.168
G1 X5.633 Y-5.526
G1 X5.691 Y-4.884
G1 X5.756 Y-4.242
G1 X5.806 Y-3.805
G1 X5.859 Y-3.369
G1 X5.917 Y-2.933
; MOVEMENT_LINK_TRANSITION
G1 X5.934 Y-2.838
G1 X5.958 Y-2.744
G1 X5.99 Y-2.653
G1 X6.029 Y-2.565
G1 X6.074 Y-2.479
G1 X6.126 Y-2.398
G1 X6.185 Y-2.321
G1 X6.249 Y-2.249
G1 X6.319 Y-2.182
G1 X6.394 Y-2.121
G1 X6.473 Y-2.065
G1 X6.557 Y-2.017
G1 X6.644 Y-1.975
G1 X6.734 Y-1.94
G1 X6.826 Y-1.912
G1 X6.919 Y-1.884
G1 X7.009 Y-1.85
G1 X7.096 Y-1.808
G1 X7.179 Y-1.761
G1 X7.259 Y-1.707
G1 X7.334 Y-1.647
G1 X7.405 Y-1.581
G1 X7.47 Y-1.51
G1 X7.53 Y-1.435
G1 X7.584 Y-1.355
G1 X7.631 Y-1.271
G1 X7.672 Y-1.184
G1 X7.707 Y-1.094
G1 X7.734 Y-1.002
G1 X7.754 Y-0.907
; MOVEMENT_CUTTING
G1 X7.852 Y-0.345
G1 X7.856 Y-0.325
G1 X7.968 Y0.287
G1 X7.971 Y0.307
G1 X8.09 Y0.933
G1 X8.094 Y0.952
G1 X8.22 Y1.592
G1 X8.223 Y1.61
G1 X8.356 Y2.265
G1 X8.36 Y2.282
G1 X8.5 Y2.951
G1 X8.504 Y2.967
G1 X8.651 Y3.651
G1 X8.654 Y3.667
G1 X8.809 Y4.365
G1 X8.813 Y4.38
G1 X8.975 Y5.092
G1 X8.978 Y5.106
G1 X9.147 Y5.834
G1 X9.158 Y5.881
G1 X9.204 Y6.063
G1 X9.256 Y6.267
G1 X9.312 Y6.488
G1 X9.373 Y6.725
G1 X9.439 Y6.98
G1 X9.509 Y7.251
G1 X9.584 Y7.54
G1 X9.664 Y7.845
G1 X9.749 Y8.168
G1 X9.838 Y8.508
G1 X9.932 Y8.865
G1 X10.031 Y9.239
G1 X10.134 Y9.631
G1 X10.243 Y10.04
G1 X10.356 Y10.466
G1 X10.474 Y10.91
G1 X10.596 Y11.371
G1 X10.724 Y11.849
G1 X10.856 Y12.344
G1 X10.993 Y12.857
G1 X11.135 Y13.387
G1 X11.281 Y13.935
G1 X11.433 Y14.5
G1 X11.587 Y15.075
G1 X11.805 Y15.904
G1 X12.017 Y16.713
G1 X12.223 Y17.493
G1 X12.421 Y18.245
G1 X12.612 Y18.97
G1 X12.795 Y19.667
G1 X12.972 Y20.335
G1 X13.141 Y20.976
G1 X13.303 Y21.589
G1 X13.458 Y22.175
G1 X13.606 Y22.732
G1 X13.747 Y23.262
G1 X13.88 Y23.764
G1 X14.007 Y24.238
G1 X14.126 Y24.684
G1 X14.238 Y25.103
G1 X14.343 Y25.494
G1 X14.44 Y25.857
G1 X14.531 Y26.193
G1 X14.615 Y26.501
G1 X14.691 Y26.782
G1 X14.761 Y27.036
G1 X14.823 Y27.263
G1 X14.878 Y27.459
G1 X15.021 Y27.979
G1 X15.167 Y28.507
G1 X15.314 Y29.034
G1 X15.461 Y29.559
G1 X15.609 Y30.083
G1 X15.758 Y30.605
G1 X15.907 Y31.126
G1 X16.057 Y31.645
G1 X16.208 Y32.163
G1 X16.359 Y32.68
G1 X16.511 Y33.194
G1 X16.663 Y33.708
G1 X16.816 Y34.22
G1 X16.97 Y34.73
G1 X17.124 Y35.239
G1 X17.279 Y35.747
G1 X17.331 Y35.917
G1 X11.011 Y35.605
G1 X10.724 Y34.677
G1 X10.293 Y33.281
G1 X9.862 Y31.886
G1 X9.432 Y30.491
G1 X9.001 Y29.096
G1 X8.572 Y27.702
G1 X8.142 Y26.307
G1 X7.713 Y24.914
G1 X7.283 Y23.52
G1 X6.855 Y22.127
G1 X6.426 Y20.734
G1 X5.998 Y19.341
G1 X5.57 Y17.949
G1 X5.143 Y16.557
G1 X4.716 Y15.165
G1 X4.289 Y13.773
G1 X3.862 Y12.382
G1 X3.436 Y10.991
G1 X3.01 Y9.601
G1 X2.584 Y8.21
G1 X2.158 Y6.82
G1 X1.733 Y5.431
G1 X1.308 Y4.041
G1 X1.295 Y3.999
G1 X1.085 Y3.348
G1 X1.078 Y3.326
G1 X0.864 Y2.683
G1 X0.857 Y2.661
G1 X0.639 Y2.025
G1 X0.632 Y2.003
G1 X0.411 Y1.375
G1 X0.403 Y1.352
G1 X0.18 Y0.732
G1 X0.171 Y0.709
G1 X-0.056 Y0.097
G1 X-0.065 Y0.073
G1 X-0.295 Y-0.531
G1 X-0.304 Y-0.555
G1 X-0.538 Y-1.152
G1 X-0.547 Y-1.176
G1 X-0.784 Y-1.765
G1 X-0.794 Y-1.789
G1 X-1.034 Y-2.37
G1 X-1.045 Y-2.395
G1 X-1.288 Y-2.969
G1 X-1.299 Y-2.994
G1 X-1.546 Y-3.559
G1 X-1.557 Y-3.585
G1 X-1.807 Y-4.143
G1 X-1.819 Y-4.169
G1 X-2.072 Y-4.719
G1 X-2.084 Y-4.745
G1 X-2.341 Y-5.287
G1 X-2.354 Y-5.314
G1 X-2.614 Y-5.848
G1 X-2.627 Y-5.875
G1 X-2.891 Y-6.402
G1 X-2.904 Y-6.429
G1 X-3.171 Y-6.948
G1 X-3.185 Y-6.976
G1 X-3.455 Y-7.487
G1 X-3.47 Y-7.515
G1 X-3.534 Y-7.632
G1 X-3.402 Y-7.566
G1 X-3.266 Y-7.507
G1 X-3.127 Y-7.455
G1 X-2.986 Y-7.411
G1 X-2.843 Y-7.374
G1 X-2.698 Y-7.345
G1 X-2.551 Y-7.323
G1 X-2.404 Y-7.309
G1 X-2.256 Y-7.304
G1 X-2.108 Y-7.306
G1 X-1.96 Y-7.316
G1 X-1.814 Y-7.333
G1 X-1.668 Y-7.359
G1 X-1.524 Y-7.392
G1 X-1.381 Y-7.433
G1 X-1.241 Y-7.481
G1 X-1.104 Y-7.537
G1 X-0.97 Y-7.6
G1 X-0.84 Y-7.67
G1 X-0.713 Y-7.747
G1 X-0.591 Y-7.83
G1 X-0.473 Y-7.92
G1 X-0.361 Y-8.015
G1 X-0.253 Y-8.117
G1 X-0.151 Y-8.224
G1 X-0.055 Y-8.337
G1 X0.035 Y-8.454
G1 X0.119 Y-8.576
G1 X0.196 Y-8.703
G1 X0.266 Y-8.833
G1 X0.329 Y-8.967
G1 X0.386 Y-9.104
G1 X0.434 Y-9.243
G1 X0.475 Y-9.386
G1 X0.509 Y-9.53
G1 X0.535 Y-9.675
G1 X0.592 Y-10.053
G1 X0.65 Y-10.402
G1 X0.713 Y-10.744
G1 X0.78 Y-11.077
G1 X0.852 Y-11.403
G1 X0.927 Y-11.721
G1 X1.007 Y-12.032
G1 X1.091 Y-12.335
G1 X1.179 Y-12.63
G1 X1.271 Y-12.917
G1 X1.367 Y-13.197
G1 X1.466 Y-13.469
G1 X1.57 Y-13.734
G1 X1.677 Y-13.991
G1 X1.787 Y-14.241
G1 X1.901 Y-14.483
G1 X2.018 Y-14.718
G1 X2.139 Y-14.947
G1 X2.263 Y-15.168
G1 X2.39 Y-15.382
G1 X2.52 Y-15.59
G1 X2.654 Y-15.791
G1 X2.791 Y-15.985
G1 X2.922 Y-16.162
G1 X3.085 Y-16.365
G1 X3.253 Y-16.559
G1 X3.422 Y-16.742
G1 X3.594 Y-16.913
G1 X3.768 Y-17.074
G1 X3.944 Y-17.225
G1 X4.123 Y-17.366
G1 X4.305 Y-17.498
G1 X4.49 Y-17.621
G1 X4.679 Y-17.736
G1 X4.871 Y-17.843
G1 X5.069 Y-17.942
G1 X5.271 Y-18.033
G1 X5.479 Y-18.117
G1 X5.693 Y-18.194
G1 X5.914 Y-18.263
G1 X6.142 Y-18.325
G1 X6.378 Y-18.379
G1 X6.622 Y-18.425
G1 X6.874 Y-18.464
G1 X7.135 Y-18.495
G1 X7.406 Y-18.517
G1 X7.685 Y-18.531
G1 X7.963 Y-18.535
G1 X8.449 Y-18.524
G1 X8.927 Y-18.49
G1 X9.41 Y-18.433
G1 X9.897 Y-18.354
G1 X10.39 Y-18.251
G1 X10.889 Y-18.123
G1 X11.395 Y-17.972
G1 X11.907 Y-17.795
G1 X12.426 Y-17.592
G1 X12.952 Y-17.363
G1 X13.485 Y-17.107
G1 X14.026 Y-16.824
G1 X14.573 Y-16.513
G1 X15.126 Y-16.175
G1 X15.686 Y-15.808
G1 X15.511 Y-15.877
G1 X15.401 Y-15.918
G1 X15.14 Y-16.01
G1 X15.02 Y-16.049
G1 X14.763 Y-16.126
G1 X14.635 Y-16.161
G1 X14.382 Y-16.225
G1 X14.244 Y-16.256
G1 X13.994 Y-16.305
G1 X13.85 Y-16.329
G1 X13.603 Y-16.365
G1 X13.526 Y-16.374
G1 X13.449 Y-16.382
G1 X13.206 Y-16.403
G1 X13.127 Y-16.409
G1 X13.048 Y-16.413
G1 X12.809 Y-16.42
G1 X12.715 Y-16.421
G1 X12.665
G1 X12.653
G1 X12.605 Y-16.42
G1 X12.58
G1 X12.533 Y-16.419
G1 X12.52
G1 X12.474 Y-16.418
G1 X12.447 Y-16.417
G1 X12.402 Y-16.416
G1 X12.387 Y-16.415
G1 X12.343 Y-16.414
G1 X12.314 Y-16.412
G1 X12.272 Y-16.41
G1 X12.255
G1 X12.213 Y-16.407
G1 X12.181 Y-16.405
G1 X12.141 Y-16.403
G1 X12.121 Y-16.402
G1 X12.082 Y-16.399
G1 X12.047 Y-16.396
G1 X12.009 Y-16.393
G1 X11.986 Y-16.391
G1 X11.95 Y-16.387
G1 X11.91 Y-16.383
G1 X11.875 Y-16.38
G1 X11.848 Y-16.377
G1 X11.814 Y-16.373
G1 X11.769 Y-16.367
G1 X11.736 Y-16.363
G1 X11.706 Y-16.358
G1 X11.674 Y-16.354
G1 X11.624 Y-16.346
G1 X11.593 Y-16.341
G1 X11.557 Y-16.335
G1 X11.528 Y-16.33
G1 X11.47 Y-16.319
G1 X11.442 Y-16.313
G1 X11.399 Y-16.305
G1 X11.372 Y-16.299
G1 X11.307 Y-16.284
G1 X11.281 Y-16.278
G1 X11.23 Y-16.265
G1 X11.206 Y-16.258
G1 X11.13 Y-16.238
G1 X11.107 Y-16.231
G1 X10.996 Y-16.202
G1 X10.867 Y-16.166
G1 X10.74 Y-16.123
G1 X10.578 Y-16.064
G1 X10.45 Y-16.014
G1 X10.325 Y-15.957
G1 X10.17 Y-15.883
G1 X10.049 Y-15.821
G1 X9.931 Y-15.754
G1 X9.783 Y-15.664
G1 X9.67 Y-15.592
G1 X9.56 Y-15.514
G1 X9.419 Y-15.409
G1 X9.318 Y-15.33
G1 X9.221 Y-15.246
G1 X9.088 Y-15.126
G1 X8.999 Y-15.042
G1 X8.913 Y-14.954
G1 X8.787 Y-14.818
G1 X8.712 Y-14.734
G1 X8.64 Y-14.646
G1 X8.521 Y-14.495
G1 X8.457 Y-14.411
G1 X8.396 Y-14.324
G1 X8.285 Y-14.158
G1 X8.232 Y-14.077
G1 X8.183 Y-13.994
G1 X8.078 Y-13.813
G1 X8.035 Y-13.736
G1 X7.995 Y-13.657
G1 X7.898 Y-13.46
G1 X7.863 Y-13.388
G1 X7.831 Y-13.315
G1 X7.741 Y-13.103
G1 X7.688 Y-12.967
G1 X7.605 Y-12.74
G1 X7.563 Y-12.616
G1 X7.487 Y-12.373
G1 X7.454 Y-12.258
G1 X7.386 Y-12
G1 X7.36 Y-11.895
G1 X7.299 Y-11.622
G1 X7.279 Y-11.525
G1 X7.225 Y-11.237
G1 X7.21 Y-11.149
G1 X7.163 Y-10.845
G1 X7.152 Y-10.764
G1 X7.112 Y-10.445
G1 X7.104 Y-10.37
G1 X7.071 Y-10.036
G1 X7.066 Y-9.967
G1 X7.04 Y-9.618
G1 X7.037 Y-9.555
G1 X7.019 Y-9.19
G1 X7.016 Y-9.132
G1 X7.006 Y-8.751
G1 X7.005 Y-8.698
G1 X7.001 Y-8.302
G1 Y-8.251
G1 X7.005 Y-7.855
G1 Y-7.807
G1 X7.016 Y-7.397
G1 X7.018 Y-7.352
G1 X7.036 Y-6.927
G1 X7.038 Y-6.886
G1 X7.063 Y-6.447
G1 X7.066 Y-6.408
G1 X7.098 Y-5.954
G1 X7.101 Y-5.918
G1 X7.14 Y-5.45
G1 X7.143 Y-5.415
G1 X7.19 Y-4.933
G1 X7.194 Y-4.901
G1 X7.248 Y-4.404
G1 X7.251 Y-4.374
G1 X7.312 Y-3.863
G1 X7.316 Y-3.834
G1 X7.384 Y-3.309
G1 X7.388 Y-3.282
G1 X7.463 Y-2.742
G1 X7.467 Y-2.717
G1 X7.55 Y-2.162
G1 X7.553 Y-2.139
G1 X7.643 Y-1.57
G1 X7.647 Y-1.547
G1 X7.744 Y-0.964
G1 X7.748 Y-0.942
G1 X7.754 Y-0.907
; MOVEMENT_LEAD_OUT
G1 X7.759 Y-0.867 Z-3.192 F180
G1 X7.758 Y-0.827 Z-3.184
G1 X7.752 Y-0.787 Z-3.176
G1 X7.743 Y-0.753 Z-3.153
G1 X7.73 Y-0.722 Z-3.13
G1 X7.715 Y-0.691 Z-3.107
G1 X7.696 Y-0.662 Z-3.056
G1 X7.673 Y-0.636 Z-3.004
G1 X7.656 Y-0.619 Z-2.883
; MOVEMENT_RAPID
G0 Z3 F300
G0 X-19.612 Y5.365 F2500
; MOVEMENT_LEAD_IN
G1 Z1.317 F180
; MOVEMENT_RAMP_HELIX
G1 X-19.635 Y5.368 Z1.198
G1 X-19.701 Y5.376 Z1.097
G1 X-19.8 Y5.383 Z1.027
G1 X-19.859 Y5.384 Z1.014
G1 X-19.918 Y5.382 Z1
G1 X-20.027 Y5.373 Z0.996
G1 X-20.136 Y5.356 Z0.992
G1 X-20.243 Y5.332 Z0.988
G1 X-20.347 Y5.299 Z0.985
G1 X-20.45 Y5.259 Z0.981
G1 X-20.549 Y5.212 Z0.977
G1 X-20.644 Y5.157 Z0.973
G1 X-20.735 Y5.096 Z0.969
G1 X-20.822 Y5.028 Z0.965
G1 X-20.903 Y4.955 Z0.962
G1 X-20.979 Y4.875 Z0.958
G1 X-21.049 Y4.79 Z0.954
G1 X-21.112 Y4.701 Z0.95
G1 X-21.169 Y4.607 Z0.946
G1 X-21.218 Y4.509 Z0.942
G1 X-21.261 Y4.407 Z0.939
G1 X-21.296 Y4.303 Z0.935
G1 X-21.323 Y4.197 Z0.931
G1 X-21.343 Y4.089 Z0.927
G1 X-21.354 Y3.98 Z0.923
G1 X-21.358 Y3.87 Z0.919
G1 X-21.354 Y3.76 Z0.916
G1 X-21.341 Y3.651 Z0.912
G1 X-21.321 Y3.543 Z0.908
G1 X-21.293 Y3.437 Z0.904
G1 X-21.257 Y3.333 Z0.9
G1 X-21.214 Y3.232 Z0.896
G1 X-21.163 Y3.135 Z0.893
G1 X-21.106 Y3.041 Z0.889
G1 X-21.042 Y2.952 Z0.885
G1 X-20.972 Y2.868 Z0.881
G1 X-20.895 Y2.789 Z0.877
G1 X-20.814 Y2.715 Z0.873
G1 X-20.727 Y2.648 Z0.87
G1 X-20.635 Y2.588 Z0.866
G1 X-20.539 Y2.534 Z0.862
G1 X-20.44 Y2.487 Z0.858
G1 X-20.337 Y2.448 Z0.854
G1 X-20.232 Y2.417 Z0.85
G1 X-20.125 Y2.393 Z0.847
G1 X-20.016 Y2.377 Z0.843
G1 X-19.907 Y2.368 Z0.839
G1 X-19.797 Z0.835
G1 X-19.687 Y2.376 Z0.831
G1 X-19.579 Y2.392 Z0.827
G1 X-19.471 Y2.416 Z0.824
G1 X-19.366 Y2.447 Z0.82
G1 X-19.264 Y2.486 Z0.816
G1 X-19.164 Y2.532 Z0.812
G1 X-19.068 Y2.586 Z0.808
G1 X-18.976 Y2.646 Z0.804
G1 X-18.889 Y2.713 Z0.801
G1 X-18.807 Y2.786 Z0.797
G1 X-18.731 Y2.865 Z0.793
G1 X-18.66 Y2.949 Z0.789
G1 X-18.596 Y3.038 Z0.785
G1 X-18.538 Y3.131 Z0.781
G1 X-18.487 Y3.229 Z0.778
G1 X-18.444 Y3.329 Z0.774
G1 X-18.408 Y3.433 Z0.77
G1 X-18.38 Y3.539 Z0.766
G1 X-18.359 Y3.647 Z0.762
G1 X-18.346 Y3.756 Z0.758
G1 X-18.342 Y3.866 Z0.755
G1 X-18.345 Y3.976 Z0.751
G1 X-18.356 Y4.085 Z0.747
G1 X-18.375 Y4.193 Z0.743
G1 X-18.403 Y4.299 Z0.739
G1 X-18.437 Y4.404 Z0.735
G1 X-18.479 Y4.505 Z0.732
G1 X-18.529 Y4.603 Z0.728
G1 X-18.585 Y4.697 Z0.724
G1 X-18.648 Y4.787 Z0.72
G1 X-18.718 Y4.872 Z0.716
G1 X-18.794 Y4.952 Z0.712
G1 X-18.875 Y5.026 Z0.708
G1 X-18.961 Y5.094 Z0.705
G1 X-19.052 Y5.155 Z0.701
G1 X-19.147 Y5.21 Z0.697
G1 X-19.246 Y5.257 Z0.693
G1 X-19.348 Y5.298 Z0.689
G1 X-19.453 Y5.33 Z0.685
G1 X-19.56 Y5.355 Z0.682
G1 X-19.669 Y5.373 Z0.678
G1 X-19.778 Y5.382 Z0.674
G1 X-19.888 Y5.383 Z0.67
G1 X-19.997 Y5.376 Z0.666
G1 X-20.106 Y5.362 Z0.662
G1 X-20.214 Y5.339 Z0.659
G1 X-20.319 Y5.309 Z0.655
G1 X-20.422 Y5.271 Z0.651
G1 X-20.522 Y5.225 Z0.647
G1 X-20.619 Y5.173 Z0.643
G1 X-20.711 Y5.113 Z0.639
G1 X-20.799 Y5.047 Z0.636
G1 X-20.882 Y4.975 Z0.632
G1 X-20.959 Y4.897 Z0.628
G1 X-21.03 Y4.814 Z0.624
G1 X-21.096 Y4.725 Z0.62
G1 X-21.154 Y4.633 Z0.616
G1 X-21.206 Y4.536 Z0.613
G1 X-21.25 Y4.435 Z0.609
G1 X-21.287 Y4.332 Z0.605
G1 X-21.317 Y4.226 Z0.601
G1 X-21.338 Y4.118 Z0.597
G1 X-21.352 Y4.009 Z0.593
G1 X-21.358 Y3.9 Z0.59
G1 X-21.355 Y3.79 Z0.586
G1 X-21.345 Y3.681 Z0.582
G1 X-21.327 Y3.572 Z0.578
G1 X-21.301 Y3.466 Z0.574
G1 X-21.268 Y3.361 Z0.57
G1 X-21.226 Y3.259 Z0.567
G1 X-21.178 Y3.161 Z0.563
G1 X-21.122 Y3.066 Z0.559
G1 X-21.06 Y2.976 Z0.555
G1 X-20.991 Y2.89 Z0.551
G1 X-20.917 Y2.809 Z0.547
G1 X-20.836 Y2.735 Z0.544
G1 X-20.751 Y2.666 Z0.54
G1 X-20.66 Y2.604 Z0.536
G1 X-20.566 Y2.548 Z0.532
G1 X-20.467 Y2.499 Z0.528
G1 X-20.365 Y2.458 Z0.524
G1 X-20.261 Y2.424 Z0.521
G1 X-20.154 Y2.398 Z0.517
G1 X-20.046 Y2.38 Z0.513
G1 X-19.936 Y2.37 Z0.509
G1 X-19.827 Y2.367 Z0.505
G1 X-19.717 Y2.373 Z0.501
G1 X-19.608 Y2.387 Z0.498
G1 X-19.5 Y2.408 Z0.494
G1 X-19.395 Y2.438 Z0.49
G1 X-19.291 Y2.475 Z0.486
G1 X-19.191 Y2.519 Z0.482
G1 X-19.094 Y2.571 Z0.478
G1 X-19.001 Y2.629 Z0.475
G1 X-18.912 Y2.694 Z0.471
G1 X-18.829 Y2.765 Z0.467
G1 X-18.751 Y2.843 Z0.463
G1 X-18.679 Y2.925 Z0.459
G1 X-18.613 Y3.013 Z0.455
G1 X-18.553 Y3.105 Z0.452
G1 X-18.5 Y3.202 Z0.448
G1 X-18.455 Y3.302 Z0.444
G1 X-18.417 Y3.405 Z0.44
G1 X-18.387 Y3.51 Z0.436
G1 X-18.364 Y3.618 Z0.432
G1 X-18.349 Y3.727 Z0.428
G1 X-18.342 Y3.836 Z0.425
G1 X-18.343 Y3.946 Z0.421
G1 X-18.352 Y4.055 Z0.417
G1 X-18.37 Y4.164 Z0.413
G1 X-18.394 Y4.271 Z0.409
G1 X-18.427 Y4.376 Z0.405
G1 X-18.467 Y4.478 Z0.402
G1 X-18.515 Y4.577 Z0.398
G1 X-18.569 Y4.672 Z0.394
G1 X-18.631 Y4.763 Z0.39
G1 X-18.699 Y4.85 Z0.386
G1 X-18.772 Y4.931 Z0.382
G1 X-18.852 Y5.006 Z0.379
G1 X-18.937 Y5.076 Z0.375
G1 X-19.027 Y5.139 Z0.371
G1 X-19.121 Y5.196 Z0.367
G1 X-19.219 Y5.245 Z0.363
G1 X-19.32 Y5.288 Z0.359
G1 X-19.424 Y5.322 Z0.356
G1 X-19.531 Y5.349 Z0.352
G1 X-19.639 Y5.369 Z0.348
G1 X-19.748 Y5.38 Z0.344
G1 X-19.858 Y5.384 Z0.34
G1 X-19.968 Y5.379 Z0.336
G1 X-20.077 Y5.366 Z0.333
G1 X-20.185 Y5.346 Z0.329
G1 X-20.291 Y5.318 Z0.325
G1 X-20.395 Y5.282 Z0.321
G1 X-20.495 Y5.238 Z0.317
G1 X-20.593 Y5.188 Z0.313
G1 X-20.686 Y5.13 Z0.31
G1 X-20.776 Y5.066 Z0.306
G1 X-20.86 Y4.995 Z0.302
G1 X-20.939 Y4.919 Z0.298
G1 X-21.012 Y4.837 Z0.294
G1 X-21.078 Y4.75 Z0.29
G1 X-21.139 Y4.658 Z0.287
G1 X-21.192 Y4.562 Z0.283
G1 X-21.239 Y4.463 Z0.279
G1 X-21.278 Y4.36 Z0.275
G1 X-21.309 Y4.255 Z0.271
G1 X-21.333 Y4.148 Z0.267
G1 X-21.349 Y4.039 Z0.264
G1 X-21.357 Y3.93 Z0.26
G1 Y3.82 Z0.256
G1 X-21.349 Y3.71 Z0.252
G1 X-21.333 Y3.602 Z0.248
G1 X-21.309 Y3.494 Z0.244
G1 X-21.277 Y3.389 Z0.241
G1 X-21.238 Y3.287 Z0.237
G1 X-21.192 Y3.187 Z0.233
G1 X-21.138 Y3.091 Z0.229
G1 X-21.078 Y3 Z0.225
G1 X-21.011 Y2.913 Z0.221
G1 X-20.937 Y2.831 Z0.218
G1 X-20.859 Y2.754 Z0.214
G1 X-20.774 Y2.684 Z0.21
G1 X-20.685 Y2.62 Z0.206
G1 X-20.592 Y2.562 Z0.202
G1 X-20.494 Y2.512 Z0.198
G1 X-20.393 Y2.469 Z0.195
G1 X-20.289 Y2.433 Z0.191
G1 X-20.183 Y2.405 Z0.187
G1 X-20.075 Y2.384 Z0.183
G1 X-19.966 Y2.372 Z0.179
G1 X-19.856 Y2.367 Z0.175
G1 X-19.747 Y2.371 Z0.172
G1 X-19.638 Y2.382 Z0.168
G1 X-19.529 Y2.402 Z0.164
G1 X-19.423 Y2.429 Z0.16
G1 X-19.319 Y2.464 Z0.156
G1 X-19.218 Y2.506 Z0.152
G1 X-19.12 Y2.556 Z0.148
G1 X-19.026 Y2.612 Z0.145
G1 X-18.936 Y2.676 Z0.141
G1 X-18.851 Y2.745 Z0.137
G1 X-18.771 Y2.821 Z0.133
G1 X-18.698 Y2.902 Z0.129
G1 X-18.63 Y2.989 Z0.125
G1 X-18.569 Y3.08 Z0.122
G1 X-18.514 Y3.175 Z0.118
G1 X-18.467 Y3.274 Z0.114
G1 X-18.427 Y3.377 Z0.11
G1 X-18.394 Y3.481 Z0.106
G1 X-18.369 Y3.588 Z0.102
G1 X-18.352 Y3.697 Z0.099
G1 X-18.343 Y3.806 Z0.095
G1 X-18.342 Y3.916 Z0.091
G1 X-18.349 Y4.026 Z0.087
G1 X-18.364 Y4.135 Z0.083
G1 X-18.387 Y4.242 Z0.079
G1 X-18.417 Y4.347 Z0.076
G1 X-18.456 Y4.45 Z0.072
G1 X-18.501 Y4.55 Z0.068
G1 X-18.554 Y4.647 Z0.064
G1 X-18.613 Y4.739 Z0.06
G1 X-18.68 Y4.827 Z0.056
G1 X-18.752 Y4.909 Z0.053
G1 X-18.83 Y4.986 Z0.049
G1 X-18.914 Y5.058 Z0.045
G1 X-19.002 Y5.123 Z0.041
G1 X-19.095 Y5.181 Z0.037
G1 X-19.192 Y5.233 Z0.033
G1 X-19.293 Y5.277 Z0.03
G1 X-19.396 Y5.314 Z0.026
G1 X-19.502 Y5.343 Z0.022
G1 X-19.61 Y5.364 Z0.018
G1 X-19.719 Y5.378 Z0.014
G1 X-19.828 Y5.383 Z0.01
G1 X-19.938 Y5.381 Z0.007
G1 X-20.047 Y5.371 Z0.003
G1 X-20.156 Y5.352 Z-0.001
G1 X-20.262 Y5.326 Z-0.005
G1 X-20.367 Y5.292 Z-0.009
G1 X-20.468 Y5.251 Z-0.013
G1 X-20.567 Y5.202 Z-0.016
G1 X-20.662 Y5.146 Z-0.02
G1 X-20.752 Y5.084 Z-0.024
G1 X-20.837 Y5.015 Z-0.028
G1 X-20.918 Y4.94 Z-0.032
G1 X-20.992 Y4.86 Z-0.036
G1 X-21.061 Y4.774 Z-0.039
G1 X-21.123 Y4.684 Z-0.043
G1 X-21.179 Y4.589 Z-0.047
G1 X-21.227 Y4.49 Z-0.051
G1 X-21.268 Y4.388 Z-0.055
G1 X-21.302 Y4.284 Z-0.059
G1 X-21.327 Y4.177 Z-0.062
G1 X-21.345 Y4.069 Z-0.066
G1 X-21.356 Y3.959 Z-0.07
G1 X-21.358 Y3.85 Z-0.074
G1 X-21.352 Y3.74 Z-0.078
G1 X-21.338 Y3.631 Z-0.082
G1 X-21.316 Y3.523 Z-0.085
G1 X-21.287 Y3.418 Z-0.089
G1 X-21.25 Y3.314 Z-0.093
G1 X-21.205 Y3.214 Z-0.097
G1 X-21.153 Y3.117 Z-0.101
G1 X-21.095 Y3.024 Z-0.105
G1 X-21.029 Y2.936 Z-0.108
G1 X-20.958 Y2.852 Z-0.112
G1 X-20.881 Y2.775 Z-0.116
G1 X-20.798 Y2.702 Z-0.12
G1 X-20.71 Y2.637 Z-0.124
G1 X-20.617 Y2.577 Z-0.128
G1 X-20.521 Y2.525 Z-0.132
G1 X-20.421 Y2.48 Z-0.135
G1 X-20.318 Y2.442 Z-0.139
G1 X-20.212 Y2.411 Z-0.143
G1 X-20.105 Y2.389 Z-0.147
G1 X-19.996 Y2.374 Z-0.151
G1 X-19.886 Y2.368 Z-0.155
G1 X-19.776 Y2.369 Z-0.158
G1 X-19.667 Y2.378 Z-0.162
G1 X-19.559 Y2.396 Z-0.166
G1 X-19.452 Y2.421 Z-0.17
G1 X-19.347 Y2.454 Z-0.174
G1 X-19.245 Y2.494 Z-0.178
G1 X-19.146 Y2.542 Z-0.181
G1 X-19.051 Y2.596 Z-0.185
G1 X-18.96 Y2.658 Z-0.189
G1 X-18.873 Y2.726 Z-0.193
G1 X-18.792 Y2.8 Z-0.197
G1 X-18.717 Y2.88 Z-0.201
G1 X-18.648 Y2.965 Z-0.204
G1 X-18.584 Y3.055 Z-0.208
G1 X-18.528 Y3.149 Z-0.212
G1 X-18.479 Y3.247 Z-0.216
G1 X-18.437 Y3.349 Z-0.22
G1 X-18.402 Y3.453 Z-0.224
G1 X-18.375 Y3.559 Z-0.227
G1 X-18.356 Y3.667 Z-0.231
G1 X-18.345 Y3.777 Z-0.235
G1 X-18.342 Y3.886 Z-0.239
G1 X-18.347 Y3.996 Z-0.243
G1 X-18.359 Y4.105 Z-0.247
G1 X-18.38 Y4.213 Z-0.25
G1 X-18.408 Y4.319 Z-0.254
G1 X-18.445 Y4.423 Z-0.258
G1 X-18.488 Y4.524 Z-0.262
G1 X-18.539 Y4.621 Z-0.266
G1 X-18.597 Y4.714 Z-0.27
G1 X-18.661 Y4.803 Z-0.273
G1 X-18.732 Y4.887 Z-0.277
G1 X-18.808 Y4.966 Z-0.281
G1 X-18.89 Y5.039 Z-0.285
G1 X-18.978 Y5.106 Z-0.289
G1 X-19.069 Y5.166 Z-0.293
G1 X-19.165 Y5.219 Z-0.296
G1 X-19.265 Y5.266 Z-0.3
G1 X-19.368 Y5.304 Z-0.304
G1 X-19.473 Y5.336 Z-0.308
G1 X-19.58 Y5.359 Z-0.312
G1 X-19.689 Y5.375 Z-0.316
G1 X-19.798 Y5.383 Z-0.319
G1 X-19.908 Y5.382 Z-0.323
G1 X-20.018 Y5.374 Z-0.327
G1 X-20.126 Y5.358 Z-0.331
G1 X-20.234 Y5.334 Z-0.335
G1 X-20.339 Y5.302 Z-0.339
G1 X-20.441 Y5.263 Z-0.342
G1 X-20.541 Y5.216 Z-0.346
G1 X-20.636 Y5.162 Z-0.35
G1 X-20.728 Y5.102 Z-0.354
G1 X-20.815 Y5.034 Z-0.358
G1 X-20.896 Y4.961 Z-0.362
G1 X-20.973 Y4.882 Z-0.365
G1 X-21.043 Y4.798 Z-0.369
G1 X-21.107 Y4.709 Z-0.373
G1 X-21.164 Y4.615 Z-0.377
G1 X-21.215 Y4.517 Z-0.381
G1 X-21.258 Y4.416 Z-0.385
G1 X-21.293 Y4.312 Z-0.388
G1 X-21.321 Y4.206 Z-0.392
G1 X-21.341 Y4.098 Z-0.396
G1 X-21.354 Y3.989 Z-0.4
G1 X-21.358 Y3.879 Z-0.404
G1 X-21.354 Y3.77 Z-0.408
G1 X-21.343 Y3.66 Z-0.412
G1 X-21.323 Y3.552 Z-0.415
G1 X-21.295 Y3.446 Z-0.419
G1 X-21.26 Y3.342 Z-0.423
G1 X-21.218 Y3.241 Z-0.427
G1 X-21.168 Y3.143 Z-0.431
G1 X-21.111 Y3.049 Z-0.435
G1 X-21.048 Y2.959 Z-0.438
G1 X-20.978 Y2.875 Z-0.442
G1 X-20.902 Y2.795 Z-0.446
G1 X-20.821 Y2.721 Z-0.45
G1 X-20.734 Y2.654 Z-0.454
G1 X-20.643 Y2.593 Z-0.458
G1 X-20.547 Y2.538 Z-0.461
G1 X-20.448 Y2.491 Z-0.465
G1 X-20.346 Y2.451 Z-0.469
G1 X-20.241 Y2.419 Z-0.473
G1 X-20.134 Y2.394 Z-0.477
G1 X-20.026 Y2.378 Z-0.481
G1 X-19.916 Y2.369 Z-0.484
G1 X-19.806 Y2.368 Z-0.488
G1 X-19.697 Y2.375 Z-0.492
G1 X-19.588 Y2.39 Z-0.496
G1 X-19.481 Y2.413 Z-0.5
G1 X-19.375 Y2.444 Z-0.504
G1 X-19.272 Y2.482 Z-0.507
G1 X-19.172 Y2.528 Z-0.511
G1 X-19.076 Y2.581 Z-0.515
G1 X-18.984 Y2.641 Z-0.519
G1 X-18.896 Y2.707 Z-0.523
G1 X-18.814 Y2.779 Z-0.527
G1 X-18.737 Y2.858 Z-0.53
G1 X-18.666 Y2.941 Z-0.534
G1 X-18.601 Y3.03 Z-0.538
G1 X-18.543 Y3.123 Z-0.542
G1 X-18.491 Y3.22 Z-0.546
G1 X-18.447 Y3.321 Z-0.55
G1 X-18.411 Y3.424 Z-0.553
G1 X-18.382 Y3.53 Z-0.557
G1 X-18.36 Y3.638 Z-0.561
G1 X-18.347 Y3.747 Z-0.565
G1 X-18.342 Y3.857 Z-0.569
G1 X-18.344 Y3.966 Z-0.573
G1 X-18.355 Y4.076 Z-0.576
G1 X-18.374 Y4.184 Z-0.58
G1 X-18.4 Y4.291 Z-0.584
G1 X-18.434 Y4.395 Z-0.588
G1 X-18.476 Y4.497 Z-0.592
G1 X-18.524 Y4.595 Z-0.596
G1 X-18.58 Y4.689 Z-0.599
G1 X-18.643 Y4.78 Z-0.603
G1 X-18.712 Y4.865 Z-0.607
G1 X-18.787 Y4.945 Z-0.611
G1 X-18.868 Y5.02 Z-0.615
G1 X-18.953 Y5.088 Z-0.619
G1 X-19.044 Y5.15 Z-0.622
G1 X-19.139 Y5.206 Z-0.626
G1 X-19.238 Y5.254 Z-0.63
G1 X-19.34 Y5.295 Z-0.634
G1 X-19.444 Y5.328 Z-0.638
G1 X-19.551 Y5.354 Z-0.642
G1 X-19.659 Y5.371 Z-0.645
G1 X-19.769 Y5.381 Z-0.649
G1 X-19.878 Y5.383 Z-0.653
G1 X-19.988 Y5.377 Z-0.657
G1 X-20.097 Y5.363 Z-0.661
G1 X-20.205 Y5.341 Z-0.665
G1 X-20.31 Y5.312 Z-0.668
G1 X-20.414 Y5.274 Z-0.672
G1 X-20.514 Y5.229 Z-0.676
G1 X-20.611 Y5.178 Z-0.68
G1 X-20.703 Y5.119 Z-0.684
G1 X-20.792 Y5.053 Z-0.688
G1 X-20.875 Y4.982 Z-0.692
G1 X-20.953 Y4.904 Z-0.695
G1 X-21.025 Y4.821 Z-0.699
G1 X-21.09 Y4.733 Z-0.703
G1 X-21.149 Y4.641 Z-0.707
G1 X-21.202 Y4.544 Z-0.711
G1 X-21.247 Y4.444 Z-0.715
G1 X-21.284 Y4.341 Z-0.718
G1 X-21.314 Y4.235 Z-0.722
G1 X-21.337 Y4.128 Z-0.726
G1 X-21.351 Y4.019 Z-0.73
G1 X-21.358 Y3.909 Z-0.734
G1 X-21.356 Y3.799 Z-0.738
G1 X-21.346 Y3.69 Z-0.741
G1 X-21.329 Y3.581 Z-0.745
G1 X-21.304 Y3.475 Z-0.749
G1 X-21.271 Y3.37 Z-0.753
G1 X-21.23 Y3.268 Z-0.757
G1 X-21.182 Y3.169 Z-0.761
G1 X-21.127 Y3.074 Z-0.764
G1 X-21.066 Y2.983 Z-0.768
G1 X-20.997 Y2.897 Z-0.772
G1 X-20.923 Y2.816 Z-0.776
G1 X-20.843 Y2.741 Z-0.78
G1 X-20.758 Y2.671 Z-0.784
G1 X-20.668 Y2.609 Z-0.787
G1 X-20.574 Y2.552 Z-0.791
G1 X-20.476 Y2.503 Z-0.795
G1 X-20.374 Y2.461 Z-0.799
G1 X-20.27 Y2.427 Z-0.803
G1 X-20.163 Y2.4 Z-0.807
G1 X-20.055 Y2.381 Z-0.81
G1 X-19.946 Y2.37 Z-0.814
G1 X-19.836 Y2.367 Z-0.818
G1 X-19.726 Y2.372 Z-0.822
G1 X-19.617 Y2.385 Z-0.826
G1 X-19.509 Y2.406 Z-0.83
G1 X-19.403 Y2.435 Z-0.833
G1 X-19.3 Y2.471 Z-0.837
G1 X-19.199 Y2.515 Z-0.841
G1 X-19.102 Y2.566 Z-0.845
G1 X-19.008 Y2.624 Z-0.849
G1 X-18.92 Y2.688 Z-0.853
G1 X-18.836 Y2.759 Z-0.856
G1 X-18.757 Y2.836 Z-0.86
G1 X-18.684 Y2.918 Z-0.864
G1 X-18.618 Y3.005 Z-0.868
G1 X-18.558 Y3.097 Z-0.872
G1 X-18.505 Y3.193 Z-0.876
G1 X-18.459 Y3.293 Z-0.879
G1 X-18.42 Y3.396 Z-0.883
G1 X-18.389 Y3.501 Z-0.887
G1 X-18.365 Y3.609 Z-0.891
G1 X-18.35 Y3.717 Z-0.895
G1 X-18.342 Y3.827 Z-0.899
G1 X-18.343 Y3.937 Z-0.902
G1 X-18.351 Y4.046 Z-0.906
G1 X-18.368 Y4.155 Z-0.91
G1 X-18.392 Y4.262 Z-0.914
G1 X-18.424 Y4.367 Z-0.918
G1 X-18.464 Y4.469 Z-0.922
G1 X-18.51 Y4.569 Z-0.925
G1 X-18.564 Y4.664 Z-0.929
G1 X-18.625 Y4.756 Z-0.933
G1 X-18.693 Y4.842 Z-0.937
G1 X-18.766 Y4.924 Z-0.941
G1 X-18.845 Y5 Z-0.945
G1 X-18.93 Y5.07 Z-0.948
G1 X-19.019 Y5.134 Z-0.952
G1 X-19.113 Y5.191 Z-0.956
G1 X-19.211 Y5.241 Z-0.96
G1 X-19.312 Y5.284 Z-0.964
G1 X-19.416 Y5.32 Z-0.968
G1 X-19.522 Y5.347 Z-0.972
G1 X-19.63 Y5.367 Z-0.975
G1 X-19.739 Y5.379 Z-0.979
G1 X-19.849 Y5.384 Z-0.983
G1 X-19.958 Y5.38 Z-0.987
G1 X-20.068 Y5.368 Z-0.991
G1 X-20.176 Y5.348 Z-0.995
G1 X-20.282 Y5.32 Z-0.998
G1 X-20.386 Y5.285 Z-1.002
G1 X-20.487 Y5.242 Z-1.006
G1 X-20.585 Y5.192 Z-1.01
G1 X-20.679 Y5.135 Z-1.014
G1 X-20.768 Y5.072 Z-1.018
G1 X-20.853 Y5.002 Z-1.021
G1 X-20.932 Y4.926 Z-1.025
G1 X-21.006 Y4.844 Z-1.029
G1 X-21.073 Y4.757 Z-1.033
G1 X-21.134 Y4.666 Z-1.037
G1 X-21.188 Y4.571 Z-1.041
G1 X-21.235 Y4.471 Z-1.044
G1 X-21.275 Y4.369 Z-1.048
G1 X-21.307 Y4.264 Z-1.052
G1 X-21.331 Y4.157 Z-1.056
G1 X-21.348 Y4.048 Z-1.06
G1 X-21.357 Y3.939 Z-1.064
G1 Y3.829 Z-1.067
G1 X-21.35 Y3.72 Z-1.071
G1 X-21.335 Y3.611 Z-1.075
G1 X-21.311 Y3.503 Z-1.079
G1 X-21.28 Y3.398 Z-1.083
G1 X-21.242 Y3.295 Z-1.087
G1 X-21.196 Y3.195 Z-1.09
G1 X-21.143 Y3.099 Z-1.094
G1 X-21.083 Y3.007 Z-1.098
G1 X-21.017 Y2.92 Z-1.102
G1 X-20.944 Y2.837 Z-1.106
G1 X-20.866 Y2.761 Z-1.11
G1 X-20.782 Y2.69 Z-1.113
G1 X-20.693 Y2.625 Z-1.117
G1 X-20.6 Y2.567 Z-1.121
G1 X-20.503 Y2.516 Z-1.125
G1 X-20.402 Y2.472 Z-1.129
G1 X-20.298 Y2.436 Z-1.133
G1 X-20.192 Y2.407 Z-1.136
G1 X-20.085 Y2.386 Z-1.14
G1 X-19.975 Y2.373 Z-1.144
G1 X-19.866 Y2.367 Z-1.148
G1 X-19.756 Y2.37 Z-1.152
G1 X-19.647 Y2.381 Z-1.156
G1 X-19.539 Y2.4 Z-1.159
G1 X-19.432 Y2.426 Z-1.163
G1 X-19.328 Y2.461 Z-1.167
G1 X-19.226 Y2.502 Z-1.171
G1 X-19.128 Y2.551 Z-1.175
G1 X-19.033 Y2.607 Z-1.179
G1 X-18.943 Y2.67 Z-1.182
G1 X-18.858 Y2.739 Z-1.186
G1 X-18.778 Y2.814 Z-1.19
G1 X-18.704 Y2.895 Z-1.194
G1 X-18.635 Y2.981 Z-1.198
G1 X-18.573 Y3.072 Z-1.202
G1 X-18.518 Y3.167 Z-1.205
G1 X-18.47 Y3.266 Z-1.209
G1 X-18.43 Y3.368 Z-1.213
G1 X-18.396 Y3.472 Z-1.217
G1 X-18.371 Y3.579 Z-1.221
G1 X-18.353 Y3.688 Z-1.225
G1 X-18.344 Y3.797 Z-1.228
G1 X-18.342 Y3.907 Z-1.232
G1 X-18.348 Y4.017 Z-1.236
G1 X-18.363 Y4.125 Z-1.24
G1 X-18.385 Y4.233 Z-1.244
G1 X-18.415 Y4.339 Z-1.248
G1 X-18.452 Y4.442 Z-1.252
G1 X-18.497 Y4.542 Z-1.255
G1 X-18.549 Y4.639 Z-1.259
G1 X-18.608 Y4.731 Z-1.263
G1 X-18.674 Y4.819 Z-1.267
G1 X-18.745 Y4.903 Z-1.271
G1 X-18.823 Y4.98 Z-1.275
G1 X-18.906 Y5.052 Z-1.278
G1 X-18.994 Y5.117 Z-1.282
G1 X-19.087 Y5.176 Z-1.286
G1 X-19.184 Y5.228 Z-1.29
G1 X-19.284 Y5.273 Z-1.294
G1 X-19.387 Y5.311 Z-1.298
G1 X-19.493 Y5.341 Z-1.301
G1 X-19.6 Y5.363 Z-1.305
G1 X-19.709 Y5.377 Z-1.309
G1 X-19.819 Y5.383 Z-1.313
G1 X-19.929 Y5.381 Z-1.317
G1 X-20.038 Y5.372 Z-1.321
G1 X-20.146 Y5.354 Z-1.324
G1 X-20.253 Y5.329 Z-1.328
G1 X-20.358 Y5.295 Z-1.332
G1 X-20.46 Y5.255 Z-1.336
G1 X-20.559 Y5.207 Z-1.34
G1 X-20.654 Y5.151 Z-1.344
G1 X-20.744 Y5.09 Z-1.347
G1 X-20.83 Y5.021 Z-1.351
G1 X-20.911 Y4.947 Z-1.355
G1 X-20.986 Y4.867 Z-1.359
G1 X-21.055 Y4.781 Z-1.363
G1 X-21.118 Y4.691 Z-1.367
G1 X-21.174 Y4.597 Z-1.37
G1 X-21.223 Y4.499 Z-1.374
G1 X-21.265 Y4.397 Z-1.378
G1 X-21.299 Y4.293 Z-1.382
G1 X-21.326 Y4.186 Z-1.386
G1 X-21.344 Y4.078 Z-1.39
G1 X-21.355 Y3.969 Z-1.393
G1 X-21.358 Y3.859 Z-1.397
G1 X-21.353 Y3.749 Z-1.401
G1 X-21.339 Y3.64 Z-1.405
G1 X-21.318 Y3.532 Z-1.409
G1 X-21.29 Y3.426 Z-1.413
G1 X-21.253 Y3.323 Z-1.416
G1 X-21.209 Y3.222 Z-1.42
G1 X-21.158 Y3.125 Z-1.424
G1 X-21.1 Y3.032 Z-1.428
G1 X-21.035 Y2.943 Z-1.432
G1 X-20.964 Y2.859 Z-1.436
G1 X-20.887 Y2.781 Z-1.439
G1 X-20.805 Y2.708 Z-1.443
G1 X-20.717 Y2.642 Z-1.447
G1 X-20.625 Y2.582 Z-1.451
G1 X-20.529 Y2.529 Z-1.455
G1 X-20.429 Y2.483 Z-1.459
G1 X-20.327 Y2.445 Z-1.462
G1 X-20.221 Y2.414 Z-1.466
G1 X-20.114 Y2.391 Z-1.47
G1 X-20.005 Y2.375 Z-1.474
G1 X-19.896 Y2.368 Z-1.478
G1 X-19.786 Y2.369 Z-1.482
G1 X-19.676 Y2.377 Z-1.485
G1 X-19.568 Y2.394 Z-1.489
G1 X-19.461 Y2.418 Z-1.493
G1 X-19.356 Y2.451 Z-1.497
G1 X-19.253 Y2.49 Z-1.501
G1 X-19.154 Y2.537 Z-1.505
G1 X-19.059 Y2.592 Z-1.508
G1 X-18.967 Y2.652 Z-1.512
G1 X-18.881 Y2.72 Z-1.516
G1 X-18.799 Y2.794 Z-1.52
G1 X-18.723 Y2.873 Z-1.524
G1 X-18.653 Y2.957 Z-1.528
G1 X-18.59 Y3.047 Z-1.532
G1 X-18.533 Y3.141 Z-1.535
G1 X-18.483 Y3.239 Z-1.539
G1 X-18.44 Y3.34 Z-1.543
G1 X-18.405 Y3.444 Z-1.547
G1 X-18.377 Y3.55 Z-1.551
G1 X-18.357 Y3.658 Z-1.555
G1 X-18.346 Y3.767 Z-1.558
G1 X-18.342 Y3.877 Z-1.562
G1 X-18.346 Y3.987 Z-1.566
G1 X-18.358 Y4.096 Z-1.57
G1 X-18.378 Y4.204 Z-1.574
G1 X-18.406 Y4.31 Z-1.578
G1 X-18.441 Y4.414 Z-1.581
G1 X-18.484 Y4.515 Z-1.585
G1 X-18.534 Y4.613 Z-1.589
G1 X-18.591 Y4.707 Z-1.593
G1 X-18.655 Y4.796 Z-1.597
G1 X-18.725 Y4.88 Z-1.601
G1 X-18.802 Y4.96 Z-1.604
G1 X-18.883 Y5.033 Z-1.608
G1 X-18.97 Y5.1 Z-1.612
G1 X-19.061 Y5.161 Z-1.616
G1 X-19.157 Y5.215 Z-1.62
G1 X-19.256 Y5.262 Z-1.624
G1 X-19.359 Y5.301 Z-1.627
G1 X-19.464 Y5.333 Z-1.631
G1 X-19.571 Y5.358 Z-1.635
G1 X-19.68 Y5.374 Z-1.639
G1 X-19.789 Y5.382 Z-1.643
G1 X-19.899 Y5.383 Z-1.647
G1 X-20.008 Y5.375 Z-1.65
G1 X-20.117 Y5.36 Z-1.654
G1 X-20.224 Y5.336 Z-1.658
G1 X-20.33 Y5.305 Z-1.662
G1 X-20.433 Y5.266 Z-1.666
G1 X-20.532 Y5.22 Z-1.67
G1 X-20.628 Y5.167 Z-1.673
G1 X-20.72 Y5.107 Z-1.677
G1 X-20.808 Y5.04 Z-1.681
G1 X-20.89 Y4.968 Z-1.685
G1 X-20.966 Y4.889 Z-1.689
G1 X-21.037 Y4.805 Z-1.693
G1 X-21.102 Y4.716 Z-1.696
G1 X-21.16 Y4.623 Z-1.7
G1 X-21.211 Y4.526 Z-1.704
G1 X-21.254 Y4.425 Z-1.708
G1 X-21.291 Y4.321 Z-1.712
G1 X-21.319 Y4.215 Z-1.716
G1 X-21.34 Y4.107 Z-1.719
G1 X-21.353 Y3.998 Z-1.723
G1 X-21.358 Y3.889 Z-1.727
G1 X-21.355 Y3.779 Z-1.731
G1 X-21.344 Y3.67 Z-1.735
G1 X-21.325 Y3.561 Z-1.739
G1 X-21.298 Y3.455 Z-1.742
G1 X-21.264 Y3.351 Z-1.746
G1 X-21.222 Y3.249 Z-1.75
G1 X-21.173 Y3.151 Z-1.754
G1 X-21.116 Y3.057 Z-1.758
G1 X-21.053 Y2.967 Z-1.762
G1 X-20.984 Y2.882 Z-1.765
G1 X-20.909 Y2.802 Z-1.769
G1 X-20.828 Y2.727 Z-1.773
G1 X-20.742 Y2.659 Z-1.777
G1 X-20.651 Y2.598 Z-1.781
G1 X-20.556 Y2.543 Z-1.785
G1 X-20.457 Y2.495 Z-1.788
G1 X-20.355 Y2.454 Z-1.792
G1 X-20.25 Y2.421 Z-1.796
G1 X-20.143 Y2.396 Z-1.8
G1 X-20.035 Y2.379 Z-1.804
G1 X-19.925 Y2.369 Z-1.808
G1 X-19.816 Y2.368 Z-1.812
G1 X-19.706 Y2.374 Z-1.815
G1 X-19.597 Y2.389 Z-1.819
G1 X-19.49 Y2.411 Z-1.823
G1 X-19.384 Y2.441 Z-1.827
G1 X-19.281 Y2.479 Z-1.831
G1 X-19.181 Y2.524 Z-1.835
G1 X-19.084 Y2.576 Z-1.838
G1 X-18.992 Y2.635 Z-1.842
G1 X-18.904 Y2.701 Z-1.846
G1 X-18.821 Y2.773 Z-1.85
G1 X-18.743 Y2.851 Z-1.854
G1 X-18.672 Y2.934 Z-1.858
G1 X-18.606 Y3.022 Z-1.861
G1 X-18.547 Y3.115 Z-1.865
G1 X-18.496 Y3.212 Z-1.869
G1 X-18.451 Y3.312 Z-1.873
G1 X-18.414 Y3.415 Z-1.877
G1 X-18.384 Y3.521 Z-1.881
G1 X-18.362 Y3.629 Z-1.884
G1 X-18.348 Y3.738 Z-1.888
G1 X-18.342 Y3.847 Z-1.892
G1 X-18.344 Y3.957 Z-1.896
G1 X-18.354 Y4.066 Z-1.9
G1 X-18.372 Y4.175 Z-1.904
G1 X-18.397 Y4.282 Z-1.907
G1 X-18.431 Y4.386 Z-1.911
G1 X-18.472 Y4.488 Z-1.915
G1 X-18.52 Y4.587 Z-1.919
G1 X-18.575 Y4.682 Z-1.923
G1 X-18.637 Y4.772 Z-1.927
G1 X-18.706 Y4.858 Z-1.93
G1 X-18.78 Y4.939 Z-1.934
G1 X-18.861 Y5.014 Z-1.938
G1 X-18.946 Y5.083 Z-1.942
G1 X-19.036 Y5.145 Z-1.946
G1 X-19.131 Y5.201 Z-1.95
G1 X-19.229 Y5.25 Z-1.953
G1 X-19.331 Y5.291 Z-1.957
G1 X-19.435 Y5.325 Z-1.961
G1 X-19.542 Y5.352 Z-1.965
G1 X-19.65 Y5.37 Z-1.969
G1 X-19.759 Y5.381 Z-1.973
G1 X-19.869 Y5.383 Z-1.976
G1 X-19.979 Y5.378 Z-1.98
G1 X-20.088 Y5.365 Z-1.984
G1 X-20.196 Y5.343 Z-1.988
G1 X-20.301 Y5.314 Z-1.992
G1 X-20.405 Y5.278 Z-1.996
G1 X-20.506 Y5.234 Z-1.999
G1 X-20.603 Y5.182 Z-2.003
G1 X-20.696 Y5.124 Z-2.007
G1 X-20.784 Y5.059 Z-2.011
G1 X-20.868 Y4.988 Z-2.015
G1 X-20.946 Y4.911 Z-2.019
G1 X-21.019 Y4.828 Z-2.022
G1 X-21.085 Y4.741 Z-2.026
G1 X-21.145 Y4.649 Z-2.03
G1 X-21.197 Y4.552 Z-2.034
G1 X-21.243 Y4.453 Z-2.038
G1 X-21.281 Y4.35 Z-2.042
G1 X-21.312 Y4.244 Z-2.045
G1 X-21.335 Y4.137 Z-2.049
G1 X-21.35 Y4.028 Z-2.053
G1 X-21.357 Y3.918 Z-2.057
G1 X-21.356 Y3.809 Z-2.061
G1 X-21.348 Y3.699 Z-2.065
G1 X-21.331 Y3.591 Z-2.068
G1 X-21.306 Y3.484 Z-2.072
G1 X-21.274 Y3.379 Z-2.076
G1 X-21.234 Y3.276 Z-2.08
G1 X-21.187 Y3.177 Z-2.084
G1 X-21.132 Y3.082 Z-2.088
G1 X-21.071 Y2.991 Z-2.092
G1 X-21.003 Y2.904 Z-2.095
G1 X-20.93 Y2.823 Z-2.099
G1 X-20.85 Y2.747 Z-2.103
G1 X-20.766 Y2.677 Z-2.107
G1 X-20.676 Y2.614 Z-2.111
G1 X-20.582 Y2.557 Z-2.115
G1 X-20.484 Y2.507 Z-2.118
G1 X-20.383 Y2.465 Z-2.122
G1 X-20.279 Y2.43 Z-2.126
G1 X-20.172 Y2.402 Z-2.13
G1 X-20.064 Y2.383 Z-2.134
G1 X-19.955 Y2.371 Z-2.138
G1 X-19.845 Y2.367 Z-2.141
G1 X-19.736 Y2.372 Z-2.145
G1 X-19.626 Y2.384 Z-2.149
G1 X-19.519 Y2.404 Z-2.153
G1 X-19.412 Y2.432 Z-2.157
G1 X-19.308 Y2.468 Z-2.161
G1 X-19.207 Y2.511 Z-2.164
G1 X-19.11 Y2.561 Z-2.168
G1 X-19.016 Y2.619 Z-2.172
G1 X-18.927 Y2.683 Z-2.176
G1 X-18.843 Y2.753 Z-2.18
G1 X-18.764 Y2.829 Z-2.184
G1 X-18.69 Y2.911 Z-2.187
G1 X-18.623 Y2.998 Z-2.191
G1 X-18.563 Y3.089 Z-2.195
G1 X-18.509 Y3.185 Z-2.199
G1 X-18.462 Y3.285 Z-2.203
G1 X-18.423 Y3.387 Z-2.207
G1 X-18.391 Y3.492 Z-2.21
G1 X-18.367 Y3.599 Z-2.214
G1 X-18.351 Y3.708 Z-2.218
G1 X-18.343 Y3.818 Z-2.222
G1 Y3.927 Z-2.226
G1 X-18.35 Y4.037 Z-2.23
G1 X-18.366 Y4.146 Z-2.233
G1 X-18.39 Y4.253 Z-2.237
G1 X-18.421 Y4.358 Z-2.241
G1 X-18.46 Y4.461 Z-2.245
G1 X-18.506 Y4.56 Z-2.249
G1 X-18.56 Y4.656 Z-2.253
G1 X-18.62 Y4.748 Z-2.256
G1 X-18.687 Y4.835 Z-2.26
G1 X-18.76 Y4.917 Z-2.264
G1 X-18.838 Y4.994 Z-2.268
G1 X-18.922 Y5.065 Z-2.272
G1 X-19.011 Y5.129 Z-2.276
G1 X-19.105 Y5.187 Z-2.279
G1 X-19.202 Y5.237 Z-2.283
G1 X-19.303 Y5.281 Z-2.287
G1 X-19.407 Y5.317 Z-2.291
G1 X-19.513 Y5.345 Z-2.295
G1 X-19.621 Y5.366 Z-2.299
G1 X-19.73 Y5.379 Z-2.302
G1 X-19.839 Y5.384 Z-2.306
G1 X-19.949 Y5.38 Z-2.31
G1 X-20.058 Y5.369 Z-2.314
G1 X-20.167 Y5.35 Z-2.318
G1 X-20.273 Y5.323 Z-2.322
G1 X-20.377 Y5.288 Z-2.325
G1 X-20.479 Y5.246 Z-2.329
G1 X-20.577 Y5.197 Z-2.333
G1 X-20.671 Y5.14 Z-2.337
G1 X-20.761 Y5.077 Z-2.341
G1 X-20.846 Y5.008 Z-2.345
G1 X-20.926 Y4.932 Z-2.348
G1 X-21 Y4.851 Z-2.352
G1 X-21.068 Y4.765 Z-2.356
G1 X-21.129 Y4.674 Z-2.36
G1 X-21.184 Y4.579 Z-2.364
G1 X-21.231 Y4.48 Z-2.368
G1 X-21.272 Y4.378 Z-2.372
G1 X-21.305 Y4.273 Z-2.375
G1 X-21.33 Y4.166 Z-2.379
G1 X-21.347 Y4.058 Z-2.383
G1 X-21.356 Y3.948 Z-2.387
G1 X-21.357 Y3.838 Z-2.391
G1 X-21.351 Y3.729 Z-2.395
G1 X-21.336 Y3.62 Z-2.398
G1 X-21.314 Y3.512 Z-2.402
G1 X-21.283 Y3.407 Z-2.406
G1 X-21.245 Y3.304 Z-2.41
G1 X-21.2 Y3.204 Z-2.414
G1 X-21.148 Y3.107 Z-2.418
G1 X-21.088 Y3.015 Z-2.421
G1 X-21.022 Y2.927 Z-2.425
G1 X-20.95 Y2.844 Z-2.429
G1 X-20.872 Y2.767 Z-2.433
G1 X-20.789 Y2.695 Z-2.437
G1 X-20.701 Y2.63 Z-2.441
G1 X-20.608 Y2.572 Z-2.444
G1 X-20.511 Y2.52 Z-2.448
G1 X-20.411 Y2.475 Z-2.452
G1 X-20.307 Y2.438 Z-2.456
G1 X-20.201 Y2.409 Z-2.46
G1 X-20.094 Y2.387 Z-2.464
G1 X-19.985 Y2.373 Z-2.467
G1 X-19.875 Y2.368 Z-2.471
G1 X-19.765 Y2.37 Z-2.475
G1 X-19.656 Y2.38 Z-2.479
G1 X-19.548 Y2.398 Z-2.483
G1 X-19.441 Y2.424 Z-2.487
G1 X-19.336 Y2.457 Z-2.49
G1 X-19.235 Y2.498 Z-2.494
G1 X-19.136 Y2.547 Z-2.498
G1 X-19.041 Y2.602 Z-2.502
G1 X-18.951 Y2.665 Z-2.506
G1 X-18.865 Y2.733 Z-2.51
G1 X-18.785 Y2.808 Z-2.513
G1 X-18.71 Y2.888 Z-2.517
G1 X-18.641 Y2.974 Z-2.521
G1 X-18.578 Y3.064 Z-2.525
G1 X-18.523 Y3.159 Z-2.529
G1 X-18.474 Y3.257 Z-2.533
G1 X-18.433 Y3.359 Z-2.536
G1 X-18.399 Y3.464 Z-2.54
G1 X-18.373 Y3.57 Z-2.544
G1 X-18.355 Y3.678 Z-2.548
G1 X-18.344 Y3.788 Z-2.552
G1 X-18.342 Y3.898 Z-2.556
G1 X-18.347 Y4.007 Z-2.559
G1 X-18.361 Y4.116 Z-2.563
G1 X-18.382 Y4.224 Z-2.567
G1 X-18.412 Y4.33 Z-2.571
G1 X-18.449 Y4.433 Z-2.575
G1 X-18.493 Y4.534 Z-2.579
G1 X-18.544 Y4.631 Z-2.582
G1 X-18.603 Y4.724 Z-2.586
G1 X-18.668 Y4.812 Z-2.59
G1 X-18.739 Y4.896 Z-2.594
G1 X-18.816 Y4.974 Z-2.598
G1 X-18.899 Y5.046 Z-2.602
G1 X-18.987 Y5.112 Z-2.605
G1 X-19.079 Y5.172 Z-2.609
G1 X-19.175 Y5.224 Z-2.613
G1 X-19.275 Y5.27 Z-2.617
G1 X-19.378 Y5.308 Z-2.621
G1 X-19.484 Y5.338 Z-2.625
G1 X-19.591 Y5.361 Z-2.628
G1 X-19.7 Y5.376 Z-2.632
G1 X-19.81 Y5.383 Z-2.636
G1 X-19.919 Y5.382 Z-2.64
G1 X-20.029 Y5.373 Z-2.644
G1 X-20.137 Y5.356 Z-2.648
G1 X-20.244 Y5.331 Z-2.652
G1 X-20.349 Y5.298 Z-2.655
G1 X-20.451 Y5.258 Z-2.659
G1 X-20.55 Y5.211 Z-2.663
G1 X-20.646 Y5.156 Z-2.667
G1 X-20.737 Y5.095 Z-2.671
G1 X-20.823 Y5.027 Z-2.675
G1 X-20.904 Y4.953 Z-2.678
G1 X-20.98 Y4.874 Z-2.682
G1 X-21.05 Y4.789 Z-2.686
G1 X-21.113 Y4.699 Z-2.69
G1 X-21.17 Y4.605 Z-2.694
G1 X-21.219 Y4.507 Z-2.698
G1 X-21.262 Y4.406 Z-2.701
G1 X-21.296 Y4.302 Z-2.705
G1 X-21.324 Y4.195 Z-2.709
G1 X-21.343 Y4.087 Z-2.713
G1 X-21.354 Y3.978 Z-2.717
G1 X-21.358 Y3.868 Z-2.721
G1 X-21.353 Y3.758 Z-2.724
G1 X-21.341 Y3.649 Z-2.728
G1 X-21.32 Y3.541 Z-2.732
G1 X-21.292 Y3.435 Z-2.736
G1 X-21.256 Y3.332 Z-2.74
G1 X-21.213 Y3.231 Z-2.744
G1 X-21.163 Y3.133 Z-2.747
G1 X-21.105 Y3.04 Z-2.751
G1 X-21.041 Y2.95 Z-2.755
G1 X-20.97 Y2.866 Z-2.759
G1 X-20.894 Y2.787 Z-2.763
G1 X-20.812 Y2.714 Z-2.767
G1 X-20.725 Y2.647 Z-2.77
G1 X-20.633 Y2.587 Z-2.774
G1 X-20.538 Y2.533 Z-2.778
G1 X-20.438 Y2.487 Z-2.782
G1 X-20.335 Y2.448 Z-2.786
G1 X-20.23 Y2.416 Z-2.79
G1 X-20.123 Y2.392 Z-2.793
G1 X-20.014 Y2.376 Z-2.797
G1 X-19.905 Y2.368 Z-2.801
G1 X-19.795 Z-2.805
G1 X-19.686 Y2.376 Z-2.809
G1 X-19.577 Y2.392 Z-2.813
G1 X-19.47 Y2.416 Z-2.816
G1 X-19.365 Y2.448 Z-2.82
G1 X-19.262 Y2.487 Z-2.824
G1 X-19.162 Y2.533 Z-2.828
G1 X-19.067 Y2.587 Z-2.832
G1 X-18.975 Y2.647 Z-2.836
G1 X-18.888 Y2.714 Z-2.839
G1 X-18.806 Y2.787 Z-2.843
G1 X-18.729 Y2.866 Z-2.847
G1 X-18.659 Y2.95 Z-2.851
G1 X-18.595 Y3.039 Z-2.855
G1 X-18.537 Y3.133 Z-2.859
G1 X-18.487 Y3.23 Z-2.862
G1 X-18.443 Y3.331 Z-2.866
G1 X-18.407 Y3.435 Z-2.87
G1 X-18.379 Y3.541 Z-2.874
G1 X-18.359 Y3.649 Z-2.878
G1 X-18.346 Y3.758 Z-2.882
G1 X-18.342 Y3.868 Z-2.885
G1 X-18.345 Y3.978 Z-2.889
G1 X-18.357 Y4.087 Z-2.893
G1 X-18.376 Y4.195 Z-2.897
G1 X-18.403 Y4.301 Z-2.901
G1 X-18.438 Y4.405 Z-2.905
G1 X-18.48 Y4.507 Z-2.908
G1 X-18.53 Y4.605 Z-2.912
G1 X-18.586 Y4.699 Z-2.916
G1 X-18.65 Y4.789 Z-2.92
G1 X-18.719 Y4.874 Z-2.924
G1 X-18.795 Y4.953 Z-2.928
G1 X-18.876 Y5.027 Z-2.932
G1 X-18.962 Y5.095 Z-2.935
G1 X-19.054 Y5.156 Z-2.939
G1 X-19.149 Y5.211 Z-2.943
G1 X-19.248 Y5.258 Z-2.947
G1 X-19.35 Y5.298 Z-2.951
G1 X-19.455 Y5.331 Z-2.955
G1 X-19.562 Y5.356 Z-2.958
G1 X-19.67 Y5.373 Z-2.962
G1 X-19.78 Y5.382 Z-2.966
G1 X-19.89 Y5.383 Z-2.97
G1 X-19.999 Y5.376 Z-2.974
G1 X-20.108 Y5.361 Z-2.978
G1 X-20.215 Y5.339 Z-2.981
G1 X-20.321 Y5.308 Z-2.985
G1 X-20.424 Y5.27 Z-2.989
G1 X-20.524 Y5.225 Z-2.993
G1 X-20.62 Y5.172 Z-2.997
G1 X-20.713 Y5.112 Z-3.001
G1 X-20.8 Y5.046 Z-3.004
G1 X-20.883 Y4.974 Z-3.008
G1 X-20.96 Y4.896 Z-3.012
G1 X-21.032 Y4.812 Z-3.016
G1 X-21.097 Y4.724 Z-3.02
G1 X-21.155 Y4.631 Z-3.024
G1 X-21.207 Y4.534 Z-3.027
G1 X-21.251 Y4.434 Z-3.031
G1 X-21.288 Y4.33 Z-3.035
G1 X-21.317 Y4.224 Z-3.039
G1 X-21.339 Y4.117 Z-3.043
G1 X-21.352 Y4.008 Z-3.047
G1 X-21.358 Y3.898 Z-3.05
G1 X-21.355 Y3.788 Z-3.054
G1 X-21.345 Y3.679 Z-3.058
G1 X-21.327 Y3.571 Z-3.062
G1 X-21.301 Y3.464 Z-3.066
G1 X-21.267 Y3.359 Z-3.07
G1 X-21.226 Y3.258 Z-3.073
G1 X-21.177 Y3.159 Z-3.077
G1 X-21.121 Y3.065 Z-3.081
G1 X-21.059 Y2.974 Z-3.085
G1 X-20.99 Y2.889 Z-3.089
G1 X-20.915 Y2.808 Z-3.093
G1 X-20.835 Y2.733 Z-3.096
G1 X-20.749 Y2.665 Z-3.1
G1 X-20.659 Y2.603 Z-3.104
G1 X-20.564 Y2.547 Z-3.108
G1 X-20.465 Y2.499 Z-3.112
G1 X-20.364 Y2.458 Z-3.116
G1 X-20.259 Y2.424 Z-3.119
G1 X-20.152 Y2.398 Z-3.123
G1 X-20.044 Y2.38 Z-3.127
G1 X-19.935 Y2.37 Z-3.131
G1 X-19.825 Y2.368 Z-3.135
G1 X-19.715 Y2.373 Z-3.139
G1 X-19.606 Y2.387 Z-3.142
G1 X-19.499 Y2.409 Z-3.146
G1 X-19.393 Y2.438 Z-3.15
G1 X-19.289 Y2.475 Z-3.154
G1 X-19.189 Y2.52 Z-3.158
G1 X-19.092 Y2.571 Z-3.162
G1 X-18.999 Y2.63 Z-3.165
G1 X-18.911 Y2.695 Z-3.169
G1 X-18.828 Y2.767 Z-3.173
G1 X-18.75 Y2.844 Z-3.177
G1 X-18.677 Y2.927 Z-3.181
G1 X-18.611 Y3.015 Z-3.185
G1 X-18.552 Y3.107 Z-3.188
G1 X-18.5 Y3.203 Z-3.192
G1 X-18.454 Y3.303 Z-3.196
G1 X-18.416 Y3.407 Z-3.2
; MOVEMENT_CUTTING
G1 X-15.879 Y11.163 F480
G1 X-15.656 Y11.931
G1 X-15.439 Y12.701
G1 X-15.228 Y13.472
G1 X-15.023 Y14.246
G1 X-14.824 Y15.021
G1 X-14.631 Y15.797
G1 X-14.445 Y16.575
G1 X-14.321 Y17.121
G1 X-14.203 Y17.669
G1 X-14.093 Y18.219
G1 X-13.99 Y18.77
G1 X-13.895 Y19.322
G1 X-13.807 Y19.875
G1 X-13.726 Y20.43
G1 X-13.653 Y20.985
G1 X-13.587 Y21.542
G1 X-13.528 Y22.099
G1 X-13.485 Y22.572
G1 X-13.446 Y23.046
G1 X-13.412 Y23.52
G1 X-13.383 Y23.994
G1 X-13.37 Y24.311
G1 X-13.364 Y24.628
G1 X-13.365 Y24.945
G1 X-13.374 Y25.262
G1 X-13.39 Y25.579
G1 X-13.414 Y25.895
G1 X-13.42 Y25.921
G1 X-13.432 Y25.945
G1 X-13.451 Y25.965
G1 X-13.473 Y25.979
G1 X-13.499 Y25.987
G1 X-13.526 Y25.988
G1 X-13.552 Y25.981
G1 X-13.576 Y25.968
G1 X-13.595 Y25.95
G1 X-13.609 Y25.927
G1 X-13.617 Y25.901
G1 X-13.7 Y25.362
G1 X-13.79 Y24.824
G1 X-13.886 Y24.287
G1 X-13.99 Y23.751
G1 X-14.099 Y23.216
G1 X-14.244 Y22.55
G1 X-14.395 Y21.885
G1 X-14.552 Y21.222
G1 X-14.716 Y20.56
G1 X-16.51 Y14.376
G1 X-18.91 Y7.116
G1 X-19.179 Y6.377
G1 X-19.443 Y5.636
G1 X-19.702 Y4.893
G1 X-19.893 Y4.335
G1 X-20.079 Y3.775
G1 X-20.261 Y3.214
G1 X-20.439 Y2.652
G1 X-20.647 Y1.973
G1 X-20.846 Y1.292
G1 X-21.039 Y0.609
G1 X-21.223 Y-0.076
G1 X-21.4 Y-0.764
G1 X-21.569 Y-1.453
G1 X-21.731 Y-2.144
G1 X-21.838 Y-2.629
G1 X-21.936 Y-3.117
G1 X-22.028 Y-3.605
G1 X-22.111 Y-4.095
G1 X-22.186 Y-4.587
G1 X-22.254 Y-5.079
G1 X-22.314 Y-5.573
G1 X-22.366 Y-6.067
G1 X-22.41 Y-6.562
G1 X-22.446 Y-7.058
G1 X-22.467 Y-7.444
G1 X-22.481 Y-7.829
G1 X-22.489 Y-8.215
G1 X-22.488 Y-8.601
G1 X-22.481 Y-8.987
G1 X-22.467 Y-9.372
G1 X-22.445 Y-9.758
G1 X-22.424 Y-10.027
G1 X-22.396 Y-10.297
G1 X-22.363 Y-10.565
G1 X-22.322 Y-10.833
G1 X-22.275 Y-11.099
G1 X-22.222 Y-11.364
G1 X-22.162 Y-11.628
G1 X-22.096 Y-11.891
G1 X-22.024 Y-12.152
G1 X-21.945 Y-12.41
G1 X-21.853 Y-12.69
G1 X-21.753 Y-12.967
G1 X-21.647 Y-13.241
G1 X-21.588 Y-13.377
G1 X-21.523 Y-13.509
G1 X-21.45 Y-13.638
G1 X-21.372 Y-13.763
G1 X-21.287 Y-13.884
G1 X-21.197 Y-14.001
G1 X-21.176 Y-14.02
G1 X-21.152 Y-14.034
G1 X-21.125 Y-14.04
G1 X-21.097
G1 X-21.07 Y-14.033
G1 X-21.045 Y-14.019
G1 X-21.025 Y-13.999
G1 X-21.011 Y-13.976
G1 X-21.003 Y-13.949
G1 X-21.002 Y-13.921
G1 X-21.008 Y-13.893
G1 X-21.109 Y-13.603
G1 X-21.203 Y-13.31
G1 X-21.29 Y-13.015
G1 X-21.369 Y-12.718
G1 X-21.44 Y-12.419
G1 X-21.503 Y-12.118
G1 X-21.559 Y-11.816
G1 X-21.607 Y-11.512
G1 X-21.647 Y-11.207
G1 X-21.68 Y-10.901
G1 X-21.704 Y-10.595
G1 X-21.721 Y-10.288
G1 X-21.729 Y-9.98
G1 X-21.73 Y-9.673
G1 X-21.723 Y-9.365
G1 X-21.708 Y-9.058
G1 X-21.685 Y-8.751
G1 X-21.654 Y-8.445
G1 X-21.616 Y-8.14
G1 X-21.569 Y-7.836
G1 X-21.515 Y-7.534
G1 X-21.391 Y-6.908
G1 X-21.26 Y-6.283
G1 X-21.123 Y-5.66
G1 X-20.978 Y-5.038
G1 X-20.827 Y-4.418
G1 X-20.669 Y-3.799
G1 X-20.505 Y-3.182
G1 X-20.333 Y-2.568
G1 X-20.155 Y-1.955
G1 X-19.97 Y-1.344
G1 X-18.416 Y3.407
; MOVEMENT_LINK_TRANSITION
G1 X-18.384 Y3.493
G1 X-18.346 Y3.576
G1 X-18.301 Y3.657
G1 X-18.249 Y3.733
G1 X-18.192 Y3.805
G1 X-18.13 Y3.873
G1 X-18.062 Y3.935
G1 X-17.989 Y3.992
G1 X-17.913 Y4.043
G1 X-17.833 Y4.088
G1 X-17.749 Y4.127
G1 X-17.662 Y4.158
G1 X-17.574 Y4.183
G1 X-17.484 Y4.201
G1 X-17.392 Y4.212
G1 X-17.301 Y4.223
G1 X-17.21 Y4.241
G1 X-17.122 Y4.266
G1 X-17.035 Y4.297
G1 X-16.952 Y4.336
G1 X-16.871 Y4.381
G1 X-16.795 Y4.432
G1 X-16.722 Y4.489
G1 X-16.655 Y4.551
G1 X-16.592 Y4.619
G1 X-16.535 Y4.691
G1 X-16.484 Y4.767
G1 X-16.439 Y4.848
G1 X-16.4 Y4.931
G1 X-16.368 Y5.017
; MOVEMENT_CUTTING
G1 X-14.489 Y10.752
G1 X-14.261 Y11.537
G1 X-14.039 Y12.324
G1 X-13.824 Y13.113
G1 X-13.616 Y13.904
G1 X-13.415 Y14.697
G1 X-13.221 Y15.491
G1 X-13.066 Y16.162
G1 X-12.918 Y16.834
G1 X-12.777 Y17.507
G1 X-12.643 Y18.182
G1 X-12.516 Y18.858
G1 X-12.395 Y19.535
G1 X-12.281 Y20.214
G1 X-12.174 Y20.893
G1 X-12.119 Y21.283
G1 X-12.07 Y21.674
G1 X-12.029 Y22.066
G1 X-11.995 Y22.459
G1 X-11.968 Y22.852
G1 X-11.948 Y23.246
G1 X-11.935 Y23.64
G1 X-11.93 Y24.034
G1 X-11.932 Y24.428
G1 X-11.941 Y24.822
G1 X-11.957 Y25.216
G1 X-11.981 Y25.609
G1 X-12.012 Y26.002
G1 X-12.05 Y26.394
G1 X-12.087 Y26.707
G1 X-12.131 Y27.018
G1 X-12.183 Y27.329
G1 X-12.242 Y27.638
G1 X-12.308 Y27.946
G1 X-12.382 Y28.252
G1 X-12.462 Y28.556
G1 X-12.551 Y28.858
G1 X-12.646 Y29.158
G1 X-12.748 Y29.456
G1 X-12.857 Y29.751
G1 X-12.974 Y30.044
G1 X-13.074 Y30.276
G1 X-13.181 Y30.506
G1 X-13.294 Y30.732
G1 X-13.415 Y30.954
G1 X-13.542 Y31.173
G1 X-13.676 Y31.388
G1 X-13.817 Y31.599
G1 X-13.963 Y31.805
G1 X-14.116 Y32.007
G1 X-14.275 Y32.204
G1 X-14.44 Y32.396
G1 X-14.611 Y32.583
G1 X-14.787 Y32.764
G1 X-14.969 Y32.941
G1 X-15.156 Y33.111
G1 X-15.18 Y33.128
G1 X-15.207 Y33.139
G1 X-15.237 Y33.143
G1 X-15.266 Y33.14
G1 X-15.294 Y33.13
G1 X-15.318 Y33.114
G1 X-15.339 Y33.092
G1 X-15.353 Y33.067
G1 X-15.362 Y33.038
G1 X-15.363 Y33.009
G1 X-15.357 Y32.98
G1 X-15.269 Y32.69
G1 X-15.188 Y32.399
G1 X-15.113 Y32.105
G1 X-15.045 Y31.81
G1 X-14.985 Y31.513
G1 X-14.931 Y31.215
G1 X-14.885 Y30.916
G1 X-14.846 Y30.616
G1 X-14.814 Y30.315
G1 X-14.789 Y30.013
G1 X-14.771 Y29.711
G1 X-14.76 Y29.408
G1 X-14.757 Y29.105
G1 X-14.761 Y28.802
G1 X-14.772 Y28.5
G1 X-14.79 Y28.198
G1 X-14.816 Y27.896
G1 X-14.868 Y27.387
G1 X-14.927 Y26.879
G1 X-14.994 Y26.371
G1 X-15.067 Y25.865
G1 X-15.147 Y25.359
G1 X-15.234 Y24.855
G1 X-15.328 Y24.352
G1 X-15.428 Y23.851
G1 X-15.536 Y23.35
G1 X-15.65 Y22.851
G1 X-15.844 Y22.043
G1 X-16.044 Y21.237
G1 X-16.25 Y20.432
G1 X-16.409 Y19.829
G1 X-16.573 Y19.228
G1 X-16.743 Y18.628
G1 X-16.918 Y18.03
G1 X-19.522 Y9.744
G1 X-19.809 Y8.906
G1 X-20.104 Y8.071
G1 X-20.405 Y7.239
G1 X-20.633 Y6.615
G1 X-20.856 Y5.989
G1 X-21.075 Y5.362
G1 X-21.288 Y4.733
G1 X-21.522 Y4.024
G1 X-21.749 Y3.312
G1 X-21.969 Y2.598
G1 X-22.181 Y1.882
G1 X-22.386 Y1.163
G1 X-22.584 Y0.443
G1 X-22.775 Y-0.28
G1 X-22.902 Y-0.787
G1 X-23.023 Y-1.296
G1 X-23.137 Y-1.807
G1 X-23.244 Y-2.319
G1 X-23.345 Y-2.832
G1 X-23.439 Y-3.347
G1 X-23.526 Y-3.863
G1 X-23.606 Y-4.38
G1 X-23.68 Y-4.898
G1 X-23.747 Y-5.417
G1 X-23.797 Y-5.863
G1 X-23.84 Y-6.31
G1 X-23.876 Y-6.757
G1 X-23.903 Y-7.205
G1 X-23.923 Y-7.654
G1 X-23.936 Y-8.103
G1 X-23.941 Y-8.551
G1 X-23.938 Y-9
G1 X-23.928 Y-9.449
G1 X-23.915 Y-9.739
G1 X-23.896 Y-10.028
G1 X-23.87 Y-10.316
G1 X-23.836 Y-10.604
G1 X-23.796 Y-10.891
G1 X-23.75 Y-11.176
G1 X-23.696 Y-11.461
G1 X-23.635 Y-11.744
G1 X-23.568 Y-12.026
G1 X-23.495 Y-12.306
G1 X-23.414 Y-12.584
G1 X-23.327 Y-12.861
G1 X-23.233 Y-13.135
G1 X-23.133 Y-13.407
G1 X-23.062 Y-13.583
G1 X-22.985 Y-13.756
G1 X-22.901 Y-13.926
G1 X-22.811 Y-14.094
G1 X-22.715 Y-14.257
G1 X-22.612 Y-14.417
G1 X-22.504 Y-14.574
G1 X-22.391 Y-14.726
G1 X-22.271 Y-14.873
G1 X-22.147 Y-15.017
G1 X-22.017 Y-15.155
G1 X-21.882 Y-15.289
G1 X-21.715 Y-15.443
G1 X-21.544 Y-15.592
G1 X-21.368 Y-15.735
G1 X-21.188 Y-15.873
G1 X-21.003 Y-16.005
G1 X-20.815 Y-16.132
G1 X-20.623 Y-16.252
G1 X-20.426 Y-16.366
G1 X-20.227 Y-16.474
G1 X-20.024 Y-16.576
G1 X-19.839 Y-16.662
G1 X-19.651 Y-16.741
G1 X-19.46 Y-16.814
G1 X-19.266 Y-16.88
G1 X-19.071 Y-16.939
G1 X-18.874 Y-16.991
G1 X-18.675 Y-17.037
G1 X-18.474 Y-17.076
G1 X-18.272 Y-17.107
G1 X-18.069 Y-17.131
G1 X-17.866 Y-17.147
G1 X-17.661 Y-17.156
G1 X-17.457
G1 X-17.253 Y-17.149
G1 X-17.049 Y-17.135
G1 X-16.846 Y-17.112
G1 X-16.816 Y-17.105
G1 X-16.789 Y-17.091
G1 X-16.765 Y-17.071
G1 X-16.746 Y-17.047
G1 X-16.734 Y-17.018
G1 X-16.728 Y-16.988
G1 X-16.729 Y-16.957
G1 X-16.737 Y-16.928
G1 X-16.751 Y-16.9
G1 X-16.771 Y-16.877
G1 X-16.796 Y-16.859
G1 X-16.984 Y-16.748
G1 X-17.168 Y-16.63
G1 X-17.347 Y-16.506
G1 X-17.522 Y-16.375
G1 X-17.692 Y-16.239
G1 X-17.857 Y-16.097
G1 X-18.017 Y-15.949
G1 X-18.172 Y-15.795
G1 X-18.322 Y-15.636
G1 X-18.465 Y-15.472
G1 X-18.603 Y-15.303
G1 X-18.735 Y-15.129
G1 X-18.86 Y-14.951
G1 X-18.98 Y-14.768
G1 X-19.092 Y-14.581
G1 X-19.215 Y-14.363
G1 X-19.33 Y-14.141
G1 X-19.439 Y-13.915
G1 X-19.542 Y-13.687
G1 X-19.637 Y-13.456
G1 X-19.726 Y-13.221
G1 X-19.807 Y-12.985
G1 X-19.882 Y-12.746
G1 X-19.949 Y-12.504
G1 X-20.009 Y-12.261
G1 X-20.062 Y-12.017
G1 X-20.107 Y-11.77
G1 X-20.145 Y-11.523
G1 X-20.184 Y-11.218
G1 X-20.215 Y-10.912
G1 X-20.239 Y-10.606
G1 X-20.256 Y-10.299
G1 X-20.265 Y-9.991
G1 X-20.267 Y-9.684
G1 X-20.262 Y-9.376
G1 X-20.249 Y-9.069
G1 X-20.229 Y-8.762
G1 X-20.202 Y-8.456
G1 X-20.168 Y-8.151
G1 X-20.126 Y-7.846
G1 X-20.077 Y-7.543
G1 X-20.021 Y-7.24
G1 X-19.957 Y-6.939
G1 X-19.811 Y-6.3
G1 X-19.659 Y-5.663
G1 X-19.501 Y-5.027
G1 X-19.336 Y-4.392
G1 X-19.165 Y-3.76
G1 X-18.988 Y-3.128
G1 X-18.804 Y-2.499
G1 X-18.629 Y-1.918
G1 X-18.45 Y-1.339
G1 X-16.368 Y5.017
; MOVEMENT_LINK_TRANSITION
G1 X-16.334 Y5.109
G1 X-16.292 Y5.198
G1 X-16.244 Y5.283
G1 X-16.19 Y5.364
G1 X-16.129 Y5.441
G1 X-16.062 Y5.512
G1 X-15.99 Y5.578
G1 X-15.913 Y5.638
G1 X-15.831 Y5.692
G1 X-15.746 Y5.74
G1 X-15.657 Y5.78
G1 X-15.565 Y5.813
G1 X-15.47 Y5.839
G1 X-15.374 Y5.858
G1 X-15.277 Y5.868
G1 X-15.18 Y5.88
G1 X-15.084 Y5.898
G1 X-14.99 Y5.925
G1 X-14.898 Y5.958
G1 X-14.809 Y5.999
G1 X-14.724 Y6.046
G1 X-14.642 Y6.1
G1 X-14.565 Y6.16
G1 X-14.493 Y6.226
G1 X-14.427 Y6.297
G1 X-14.366 Y6.374
G1 X-14.311 Y6.455
G1 X-14.263 Y6.539
G1 X-14.221 Y6.628
G1 X-14.187 Y6.719
; MOVEMENT_CUTTING
G1 X-13.858 Y7.705
G1 X-13.579 Y8.588
G1 X-13.308 Y9.466
G1 X-13.05 Y10.327
G1 X-12.804 Y11.172
G1 X-12.571 Y12.001
G1 X-12.35 Y12.812
G1 X-12.141 Y13.607
G1 X-11.945 Y14.385
G1 X-11.761 Y15.147
G1 X-11.59 Y15.891
G1 X-11.43 Y16.618
G1 X-11.283 Y17.328
G1 X-11.148 Y18.021
G1 X-11.025 Y18.697
G1 X-10.915 Y19.355
G1 X-10.816 Y19.996
G1 X-10.73 Y20.619
G1 X-10.655 Y21.224
G1 X-10.592 Y21.811
G1 X-10.541 Y22.379
G1 X-10.502 Y22.93
G1 X-10.474 Y23.461
G1 X-10.458 Y23.974
G1 X-10.452 Y24.477
G1 X-10.453 Y24.711
G1 X-10.457 Y24.95
G1 X-10.464 Y25.187
G1 X-10.473 Y25.421
G1 X-10.485 Y25.652
G1 X-10.499 Y25.881
G1 X-10.516 Y26.107
G1 X-10.536 Y26.331
G1 X-10.558 Y26.552
G1 X-10.583 Y26.771
G1 X-10.61 Y26.987
G1 X-10.639 Y27.201
G1 X-10.671 Y27.412
G1 X-10.706 Y27.621
G1 X-10.743 Y27.827
G1 X-10.782 Y28.031
G1 X-10.824 Y28.232
G1 X-10.868 Y28.431
G1 X-10.914 Y28.628
G1 X-10.963 Y28.822
G1 X-11.014 Y29.014
G1 X-11.068 Y29.203
G1 X-11.123 Y29.39
G1 X-11.188 Y29.595
G1 X-11.199 Y29.631
G1 X-11.258 Y29.83
G1 X-11.314 Y30.003
G1 X-11.371 Y30.173
G1 X-11.431 Y30.341
G1 X-11.493 Y30.505
G1 X-11.557 Y30.667
G1 X-11.624 Y30.825
G1 X-11.692 Y30.981
G1 X-11.763 Y31.134
G1 X-11.836 Y31.284
G1 X-11.912 Y31.431
G1 X-11.989 Y31.576
G1 X-12.069 Y31.719
G1 X-12.151 Y31.859
G1 X-12.235 Y31.996
G1 X-12.321 Y32.132
G1 X-12.41 Y32.264
G1 X-12.501 Y32.395
G1 X-12.594 Y32.523
G1 X-12.69 Y32.65
G1 X-12.788 Y32.774
G1 X-12.888 Y32.896
G1 X-12.991 Y33.016
G1 X-13.088 Y33.125
G1 X-13.242 Y33.288
G1 X-13.41 Y33.461
G1 X-13.577 Y33.628
G1 X-13.744 Y33.79
G1 X-13.91 Y33.947
G1 X-14.076 Y34.099
G1 X-14.241 Y34.245
G1 X-14.406 Y34.386
G1 X-14.569 Y34.522
G1 X-14.733 Y34.653
G1 X-14.895 Y34.778
G1 X-15.057 Y34.899
G1 X-15.218 Y35.015
G1 X-15.378 Y35.125
G1 X-15.537 Y35.231
G1 X-15.696 Y35.332
G1 X-15.854 Y35.429
G1 X-16.011 Y35.52
G1 X-16.168 Y35.607
G1 X-16.323 Y35.69
G1 X-16.478 Y35.768
G1 X-16.632 Y35.842
G1 X-16.786 Y35.911
G1 X-16.967 Y35.988
G1 X-17.024 Y36.014
G1 X-17.203 Y36.095
G1 X-17.361 Y36.163
G1 X-17.519 Y36.228
G1 X-17.677 Y36.29
G1 X-17.835 Y36.348
G1 X-17.994 Y36.404
G1 X-18.153 Y36.456
G1 X-18.312 Y36.505
G1 X-18.472 Y36.552
G1 X-18.633 Y36.595
G1 X-18.794 Y36.635
G1 X-18.956 Y36.672
G1 X-19.119 Y36.707
G1 X-19.282 Y36.738
G1 X-19.447 Y36.766
G1 X-19.612 Y36.792
G1 X-19.778 Y36.814
G1 X-19.945 Y36.834
G1 X-20.113 Y36.85
G1 X-20.282 Y36.864
G1 X-20.452 Y36.874
G1 X-20.624 Y36.882
G1 X-20.796 Y36.886
G1 X-20.956 Y36.888
G1 X-21.189 Y36.883
G1 X-21.119 Y36.861
G1 X-21.052 Y36.839
G1 X-20.991 Y36.818
G1 X-20.923 Y36.794
G1 X-20.862 Y36.772
G1 X-20.793 Y36.745
G1 X-20.738 Y36.724
G1 X-20.668 Y36.696
G1 X-20.613 Y36.672
G1 X-20.542 Y36.642
G1 X-20.493 Y36.62
G1 X-20.421 Y36.587
G1 X-20.371 Y36.564
G1 X-20.299 Y36.529
G1 X-20.254 Y36.508
G1 X-20.181 Y36.471
G1 X-20.136 Y36.448
G1 X-20.062 Y36.409
G1 X-20.022 Y36.388
G1 X-19.946 Y36.347
G1 X-19.906 Y36.324
G1 X-19.83 Y36.281
G1 X-19.793 Y36.26
G1 X-19.717 Y36.215
G1 X-19.68 Y36.193
G1 X-19.602 Y36.146
G1 X-19.585 Y36.136
G1 X-19.518 Y36.099
G1 X-19.435 Y36.052
G1 X-19.357 Y36.007
G1 X-19.276 Y35.957
G1 X-19.196 Y35.907
G1 X-19.117 Y35.856
G1 X-19.041 Y35.804
G1 X-18.964 Y35.75
G1 X-18.886 Y35.694
G1 X-18.811 Y35.637
G1 X-18.738 Y35.58
G1 X-18.665 Y35.521
G1 X-18.591 Y35.459
G1 X-18.52 Y35.398
G1 X-18.451 Y35.336
G1 X-18.382 Y35.272
G1 X-18.312 Y35.205
G1 X-18.246 Y35.139
G1 X-18.182 Y35.073
G1 X-18.117 Y35.004
G1 X-18.053 Y34.933
G1 X-17.99 Y34.862
G1 X-17.932 Y34.793
G1 X-17.871 Y34.72
G1 X-17.813 Y34.646
G1 X-17.755 Y34.571
G1 X-17.702 Y34.499
G1 X-17.646 Y34.421
G1 X-17.594 Y34.346
G1 X-17.54 Y34.266
G1 X-17.493 Y34.194
G1 X-17.442 Y34.111
G1 X-17.396 Y34.035
G1 X-17.346 Y33.95
G1 X-17.306 Y33.878
G1 X-17.258 Y33.791
G1 X-17.219 Y33.715
G1 X-17.173 Y33.625
G1 X-17.139 Y33.555
G1 X-17.096 Y33.462
G1 X-17.062 Y33.388
G1 X-17.021 Y33.294
G1 X-16.992 Y33.225
G1 X-16.953 Y33.128
G1 X-16.925 Y33.056
G1 X-16.888 Y32.957
G1 X-16.853 Y32.862
G1 X-16.831 Y32.801
G1 X-16.797 Y32.703
G1 X-16.779 Y32.647
G1 X-16.746 Y32.546
G1 X-16.729 Y32.489
G1 X-16.698 Y32.386
G1 X-16.683 Y32.334
G1 X-16.654 Y32.228
G1 X-16.639 Y32.174
G1 X-16.612 Y32.066
G1 X-16.6 Y32.017
G1 X-16.573 Y31.906
G1 X-16.562 Y31.856
G1 X-16.537 Y31.742
G1 X-16.528 Y31.697
G1 X-16.505 Y31.58
G1 X-16.496 Y31.533
G1 X-16.474 Y31.414
G1 X-16.467 Y31.372
G1 X-16.446 Y31.25
G1 X-16.439 Y31.207
G1 X-16.421 Y31.082
G1 X-16.415 Y31.043
G1 X-16.398 Y30.916
G1 X-16.393 Y30.875
G1 X-16.377 Y30.745
G1 X-16.373 Y30.709
G1 X-16.359 Y30.576
G1 X-16.355 Y30.538
G1 X-16.342 Y30.403
G1 X-16.339 Y30.37
G1 X-16.328 Y30.232
G1 X-16.325 Y30.196
G1 X-16.315 Y30.055
G1 X-16.313 Y30.024
G1 X-16.305 Y29.881
G1 X-16.303 Y29.848
G1 X-16.297 Y29.701
G1 X-16.296 Y29.673
G1 X-16.29 Y29.524
G1 X-16.289 Y29.493
G1 X-16.286 Y29.341
G1 X-16.285 Y29.315
G1 X-16.283 Y29.16
G1 Y29.131
G1 X-16.282 Y28.974
G1 Y28.944
G1 X-16.283 Y28.791
G1 Y28.752
G1 X-16.287 Y28.596
G1 Y28.562
G1 X-16.293 Y28.403
G1 X-16.294 Y28.367
G1 X-16.302 Y28.206
G1 X-16.303 Y28.174
G1 X-16.313 Y28.009
G1 X-16.315 Y27.976
G1 X-16.326 Y27.808
G1 X-16.328 Y27.779
G1 X-16.342 Y27.609
G1 X-16.345 Y27.577
G1 X-16.36 Y27.404
G1 X-16.363 Y27.377
G1 X-16.381 Y27.2
G1 X-16.384 Y27.171
G1 X-16.404 Y26.991
G1 X-16.407 Y26.967
G1 X-16.429 Y26.784
G1 X-16.432 Y26.757
G1 X-16.456 Y26.571
G1 X-16.459 Y26.548
G1 X-16.486 Y26.359
G1 X-16.489 Y26.334
G1 X-16.518 Y26.142
G1 X-16.521 Y26.121
G1 X-16.551 Y25.926
G1 X-16.555 Y25.903
G1 X-16.588 Y25.705
G1 X-16.591 Y25.685
G1 X-16.626 Y25.484
G1 X-16.63 Y25.462
G1 X-16.666 Y25.259
G1 X-16.67 Y25.24
G1 X-16.709 Y25.033
G1 X-16.713 Y25.013
G1 X-16.754 Y24.803
G1 X-16.757 Y24.785
G1 X-16.8 Y24.573
G1 X-16.804 Y24.553
G1 X-16.849 Y24.338
G1 X-16.853 Y24.321
G1 X-16.9 Y24.103
G1 X-16.904 Y24.084
G1 X-16.953 Y23.863
G1 X-16.96 Y23.834
G1 X-17.01 Y23.62
G1 X-17.06 Y23.406
G1 X-17.11 Y23.196
G1 X-17.159 Y22.99
G1 X-17.207 Y22.787
G1 X-17.255 Y22.587
G1 X-17.303 Y22.391
G1 X-17.349 Y22.198
G1 X-17.396 Y22.009
G1 X-17.441 Y21.823
G1 X-17.486 Y21.641
G1 X-17.531 Y21.462
G1 X-17.575 Y21.287
G1 X-17.618 Y21.115
G1 X-17.661 Y20.946
G1 X-17.704 Y20.781
G1 X-17.745 Y20.619
G1 X-17.787 Y20.461
G1 X-17.828 Y20.306
G1 X-17.868 Y20.154
G1 X-17.908 Y20.005
G1 X-17.947 Y19.86
G1 X-17.986 Y19.718
G1 X-18.024 Y19.58
G1 X-18.037 Y19.534
G1 X-18.144 Y19.17
G1 X-18.251 Y18.81
G1 X-18.356 Y18.456
G1 X-18.459 Y18.108
G1 X-18.561 Y17.767
G1 X-18.662 Y17.431
G1 X-18.761 Y17.102
G1 X-18.859 Y16.779
G1 X-18.955 Y16.462
G1 X-19.05 Y16.151
G1 X-19.143 Y15.847
G1 X-19.235 Y15.548
G1 X-19.325 Y15.257
G1 X-19.414 Y14.97
G1 X-19.502 Y14.691
G1 X-19.588 Y14.417
G1 X-19.672 Y14.15
G1 X-19.756 Y13.887
G1 X-19.837 Y13.633
G1 X-19.918 Y13.382
G1 X-19.997 Y13.14
G1 X-20.074 Y12.902
G1 X-20.15 Y12.671
G1 X-20.217 Y12.469
G1 X-20.274 Y12.286
G1 X-20.341 Y12.075
G1 X-20.407 Y11.864
G1 X-20.474 Y11.655
G1 X-20.541 Y11.447
G1 X-20.607 Y11.241
G1 X-20.674 Y11.036
G1 X-20.741 Y10.832
G1 X-20.807 Y10.63
G1 X-20.874 Y10.43
G1 X-20.941 Y10.23
G1 X-21.008 Y10.033
G1 X-21.075 Y9.836
G1 X-21.142 Y9.641
G1 X-21.209 Y9.448
G1 X-21.276 Y9.256
G1 X-21.343 Y9.065
G1 X-21.41 Y8.876
G1 X-21.478 Y8.688
G1 X-21.545 Y8.501
G1 X-21.612 Y8.316
G1 X-21.68 Y8.132
G1 X-21.747 Y7.95
G1 X-21.81 Y7.783
G1 X-21.946 Y7.407
G1 X-22.082 Y7.027
G1 X-22.214 Y6.653
G1 X-22.343 Y6.284
G1 X-22.469 Y5.921
G1 X-22.591 Y5.563
G1 X-22.71 Y5.21
G1 X-22.826 Y4.863
G1 X-22.939 Y4.522
G1 X-23.048 Y4.186
G1 X-23.153 Y3.855
G1 X-23.255 Y3.53
G1 X-23.354 Y3.21
G1 X-23.45 Y2.896
G1 X-23.542 Y2.587
G1 X-23.631 Y2.284
G1 X-23.716 Y1.987
G1 X-23.798 Y1.696
G1 X-23.876 Y1.41
G1 X-23.952 Y1.129
G1 X-24.024 Y0.855
G1 X-24.092 Y0.586
G1 X-24.157 Y0.324
G1 X-24.222 Y0.056
G1 X-24.225 Y0.043
G1 X-24.328 Y-0.377
G1 X-24.425 Y-0.781
G1 X-24.516 Y-1.181
G1 X-24.604 Y-1.575
G1 X-24.687 Y-1.964
G1 X-24.765 Y-2.349
G1 X-24.839 Y-2.728
G1 X-24.909 Y-3.102
G1 X-24.974 Y-3.47
G1 X-25.035 Y-3.834
G1 X-25.092 Y-4.192
G1 X-25.144 Y-4.545
G1 X-25.192 Y-4.893
G1 X-25.236 Y-5.235
G1 X-25.275 Y-5.572
G1 X-25.31 Y-5.904
G1 X-25.341 Y-6.231
G1 X-25.367 Y-6.552
G1 X-25.39 Y-6.867
G1 X-25.408 Y-7.177
G1 X-25.422 Y-7.482
G1 X-25.432 Y-7.781
G1 X-25.438 Y-8.075
G1 X-25.44 Y-8.363
G1 X-25.438 Y-8.662
G1 X-25.432 Y-8.957
G1 X-25.422 Y-9.247
G1 X-25.408 Y-9.533
G1 X-25.391 Y-9.815
G1 X-25.369 Y-10.092
G1 X-25.344 Y-10.365
G1 X-25.315 Y-10.633
G1 X-25.282 Y-10.897
G1 X-25.245 Y-11.157
G1 X-25.205 Y-11.412
G1 X-25.162 Y-11.663
G1 X-25.114 Y-11.91
G1 X-25.064 Y-12.152
G1 X-25.009 Y-12.39
G1 X-24.951 Y-12.624
G1 X-24.89 Y-12.854
G1 X-24.826 Y-13.08
G1 X-24.758 Y-13.301
G1 X-24.687 Y-13.519
G1 X-24.612 Y-13.732
G1 X-24.535 Y-13.942
G1 X-24.454 Y-14.148
G1 X-24.377 Y-14.331
G1 X-24.302 Y-14.494
G1 X-24.22 Y-14.662
G1 X-24.133 Y-14.826
G1 X-24.042 Y-14.987
G1 X-23.947 Y-15.145
G1 X-23.848 Y-15.299
G1 X-23.744 Y-15.45
G1 X-23.636 Y-15.599
G1 X-23.523 Y-15.745
G1 X-23.405 Y-15.889
G1 X-23.283 Y-16.03
G1 X-23.155 Y-16.169
G1 X-23.022 Y-16.306
G1 X-22.884 Y-16.44
G1 X-22.74 Y-16.573
G1 X-22.591 Y-16.704
G1 X-22.436 Y-16.832
G1 X-22.274 Y-16.959
G1 X-22.107 Y-17.084
G1 X-21.933 Y-17.206
G1 X-21.752 Y-17.327
G1 X-21.565 Y-17.446
G1 X-21.372 Y-17.562
G1 X-21.182 Y-17.67
G1 X-21.122 Y-17.702
G1 X-21.031 Y-17.75
G1 X-20.941 Y-17.796
G1 X-20.852 Y-17.841
G1 X-20.763 Y-17.885
G1 X-20.676 Y-17.927
G1 X-20.59 Y-17.968
G1 X-20.505 Y-18.008
G1 X-20.421 Y-18.047
G1 X-20.338 Y-18.085
G1 X-20.256 Y-18.121
G1 X-20.174 Y-18.156
G1 X-20.094 Y-18.19
G1 X-20.015 Y-18.223
G1 X-19.938 Y-18.254
G1 X-19.861 Y-18.285
G1 X-19.785 Y-18.314
G1 X-19.71 Y-18.342
G1 X-19.637 Y-18.369
G1 X-19.564 Y-18.394
G1 X-19.493 Y-18.419
G1 X-19.423 Y-18.442
G1 X-19.384 Y-18.455
G1 X-19.351 Y-18.462
G1 X-19.284 Y-18.476
G1 X-19.217 Y-18.488
G1 X-19.148 Y-18.501
G1 X-19.078 Y-18.513
G1 X-19.007 Y-18.524
G1 X-18.934 Y-18.535
G1 X-18.86 Y-18.545
G1 X-18.785 Y-18.554
G1 X-18.709 Y-18.563
G1 X-18.631 Y-18.572
G1 X-18.552 Y-18.58
G1 X-18.472 Y-18.587
G1 X-18.391 Y-18.593
G1 X-18.308 Y-18.599
G1 X-18.224 Y-18.604
G1 X-18.139 Y-18.609
G1 X-18.052 Y-18.613
G1 X-17.964 Y-18.616
G1 X-17.875 Y-18.619
G1 X-17.785 Y-18.62
G1 X-17.693 Y-18.621
G1 X-17.62 Y-18.622
G1 X-17.351 Y-18.617
G1 X-17.099 Y-18.603
G1 X-16.844 Y-18.579
G1 X-16.587 Y-18.546
G1 X-16.326 Y-18.502
G1 X-16.061 Y-18.449
G1 X-15.792 Y-18.385
G1 X-15.519 Y-18.31
G1 X-15.242 Y-18.225
G1 X-14.961 Y-18.128
G1 X-14.675 Y-18.019
G1 X-14.384 Y-17.899
G1 X-14.09 Y-17.767
G1 X-13.79 Y-17.622
G1 X-13.486 Y-17.465
G1 X-13.178 Y-17.295
G1 X-12.866 Y-17.113
G1 X-12.549 Y-16.917
G1 X-12.228 Y-16.708
G1 X-11.904 Y-16.486
G1 X-11.575 Y-16.251
G1 X-11.53 Y-16.216
G1 X-11.629 Y-16.244
G1 X-11.727 Y-16.269
G1 X-11.826 Y-16.29
G1 X-12.046 Y-16.333
G1 X-12.15 Y-16.352
G1 X-12.255 Y-16.366
G1 X-12.474 Y-16.393
G1 X-12.583 Y-16.403
G1 X-12.693 Y-16.41
G1 X-12.91 Y-16.419
G1 X-12.996 Y-16.421
G1 X-13.082 Y-16.42
G1 X-13.105
G1 X-13.188 Y-16.417
G1 X-13.213 Y-16.415
G1 X-13.301 Y-16.409
G1 X-13.328 Y-16.407
G1 X-13.383 Y-16.402
G1 X-13.413 Y-16.399
G1 X-13.477 Y-16.392
G1 X-13.509 Y-16.388
G1 X-13.548 Y-16.382
G1 X-13.583 Y-16.377
G1 X-13.631 Y-16.37
G1 X-13.668 Y-16.364
G1 X-13.696 Y-16.36
G1 X-13.736 Y-16.353
G1 X-13.774 Y-16.346
G1 X-13.816 Y-16.339
G1 X-13.837 Y-16.335
G1 X-13.881 Y-16.326
G1 X-13.912 Y-16.32
G1 X-13.959 Y-16.311
G1 X-13.975 Y-16.307
G1 X-14.024 Y-16.297
G1 X-14.05 Y-16.292
G1 X-14.101 Y-16.28
G1 X-14.114 Y-16.277
G1 X-14.168 Y-16.265
G1 X-14.19 Y-16.26
G1 X-14.246 Y-16.247
G1 X-14.257 Y-16.245
G1 X-14.315 Y-16.231
G1 X-14.333 Y-16.227
G1 X-14.395 Y-16.212
G1 X-14.467 Y-16.194
G1 X-14.483 Y-16.19
G1 X-14.549 Y-16.173
G1 X-14.624 Y-16.154
G1 X-14.638 Y-16.15
G1 X-14.709 Y-16.132
G1 X-14.788 Y-16.111
G1 X-14.8 Y-16.108
G1 X-14.876 Y-16.087
G1 X-14.959 Y-16.065
G1 X-15.078 Y-16.03
G1 X-15.149 Y-16.007
G1 X-15.232 Y-15.979
G1 X-15.302 Y-15.955
G1 X-15.395 Y-15.92
G1 X-15.463 Y-15.893
G1 X-15.547 Y-15.858
G1 X-15.614 Y-15.829
G1 X-15.707 Y-15.787
G1 X-15.772 Y-15.756
G1 X-15.856 Y-15.714
G1 X-15.92 Y-15.681
G1 X-16.012 Y-15.631
G1 X-16.074 Y-15.596
G1 X-16.156 Y-15.548
G1 X-16.217 Y-15.51
G1 X-16.306 Y-15.453
G1 X-16.365 Y-15.413
G1 X-16.444 Y-15.359
G1 X-16.502 Y-15.318
G1 X-16.587 Y-15.254
G1 X-16.643 Y-15.21
G1 X-16.717 Y-15.15
G1 X-16.772 Y-15.105
G1 X-16.852 Y-15.035
G1 X-16.905 Y-14.987
G1 X-16.974 Y-14.923
G1 X-17.026 Y-14.874
G1 X-17.099 Y-14.8
G1 X-17.149 Y-14.748
G1 X-17.212 Y-14.681
G1 X-17.261 Y-14.627
G1 X-17.327 Y-14.551
G1 X-17.374 Y-14.494
G1 X-17.43 Y-14.426
G1 X-17.476 Y-14.367
G1 X-17.535 Y-14.29
G1 X-17.579 Y-14.229
G1 X-17.628 Y-14.16
G1 X-17.671 Y-14.097
G1 X-17.722 Y-14.019
G1 X-17.763 Y-13.955
G1 X-17.806 Y-13.886
G1 X-17.846 Y-13.819
G1 X-17.89 Y-13.742
G1 X-17.928 Y-13.674
G1 X-17.964 Y-13.606
G1 X-18.001 Y-13.535
G1 X-18.038 Y-13.46
G1 X-18.074 Y-13.387
G1 X-18.104 Y-13.322
G1 X-18.138 Y-13.247
G1 X-18.169 Y-13.175
G1 X-18.201 Y-13.097
G1 X-18.226 Y-13.035
G1 X-18.257 Y-12.955
G1 X-18.283 Y-12.886
G1 X-18.312 Y-12.805
G1 X-18.333 Y-12.745
G1 X-18.361 Y-12.662
G1 X-18.382 Y-12.596
G1 X-18.408 Y-12.51
G1 X-18.424 Y-12.454
G1 X-18.449 Y-12.366
G1 X-18.466 Y-12.304
G1 X-18.489 Y-12.214
G1 X-18.502 Y-12.161
G1 X-18.524 Y-12.069
G1 X-18.537 Y-12.011
G1 X-18.558 Y-11.917
G1 X-18.568 Y-11.867
G1 X-18.587 Y-11.771
G1 X-18.597 Y-11.716
G1 X-18.614 Y-11.618
G1 X-18.622 Y-11.571
G1 X-18.637 Y-11.471
G1 X-18.645 Y-11.42
G1 X-18.659 Y-11.317
G1 X-18.665 Y-11.274
G1 X-18.678 Y-11.169
G1 X-18.683 Y-11.121
G1 X-18.694 Y-11.014
G1 X-18.698 Y-10.974
G1 X-18.708 Y-10.865
G1 X-18.712 Y-10.82
G1 X-18.72 Y-10.709
G1 X-18.723 Y-10.671
G1 X-18.729 Y-10.559
G1 X-18.732 Y-10.517
G1 X-18.737 Y-10.402
G1 X-18.738 Y-10.366
G1 X-18.742 Y-10.249
G1 X-18.743 Y-10.21
G1 X-18.745 Y-10.091
G1 X-18.746 Y-10.058
G1 Y-9.937
G1 Y-9.894
G1 X-18.745 Y-9.756
G1 X-18.744 Y-9.709
G1 X-18.741 Y-9.568
G1 X-18.739 Y-9.523
G1 X-18.733 Y-9.378
G1 X-18.731 Y-9.336
G1 X-18.723 Y-9.188
G1 X-18.72 Y-9.147
G1 X-18.709 Y-8.997
G1 X-18.706 Y-8.958
G1 X-18.693 Y-8.804
G1 X-18.689 Y-8.767
G1 X-18.674 Y-8.61
G1 X-18.67 Y-8.574
G1 X-18.652 Y-8.415
G1 X-18.648 Y-8.38
G1 X-18.627 Y-8.218
G1 X-18.623 Y-8.185
G1 X-18.6 Y-8.019
G1 X-18.596 Y-7.987
G1 X-18.57 Y-7.819
G1 X-18.566 Y-7.788
G1 X-18.538 Y-7.617
G1 X-18.533 Y-7.588
G1 X-18.503 Y-7.413
