;Fusion 360 CAM 2.0.7421
; Posts processor: DIYCNC_Marlin20.cps
; Gcode generated: Sun Feb  9 08:51:43 2020 GMT
; Document: Untitled
; Setup: 2D Pocket1
; 
; Ranges table:
; X: Min=-4.83 Max=4.137 Size=8.967
; Y: Min=-4.83 Max=4.137 Size=8.967
; Z: Min=-3 Max=5 Size=8
; 
; Tools table:
; T1 D=3.175 CR=0 TAPER=22.5deg - ZMIN=-3 - chamfer mill 

; *** START begin ***
G90
G21
M84 S0
G92 X0 Y0 Z5
; *** START end ***

; *** SECTION begin ***
;2D Contour2 - Milling - Tool: 1 -  chamfer mill
; X Min: -4.83 - X Max: 4.83
; Y Min: -4.83 - Y Max: 4.83
; Z Min: -3 - Z Max: 5
; COMMAND_START_SPINDLE
; COMMAND_SPINDLE_CLOCKWISE
;M0 Turn ON 24000RPM
; COMMAND_COOLANT_ON
;M117  2D Contour2
; MOVEMENT_PLUNGE
G1 X-4.489 Y1.783 Z5 F180
G1 Z2.5
; MOVEMENT_RAMP
G1 X-4.413 Y1.964 Z2.493
G1 X-4.329 Y2.142 Z2.486
G1 X-4.238 Y2.316 Z2.479
G1 X-4.141 Y2.487 Z2.473
G1 X-4.036 Y2.653 Z2.466
G1 X-3.925 Y2.815 Z2.459
G1 X-3.807 Y2.972 Z2.452
G1 X-3.684 Y3.124 Z2.445
G1 X-3.553 Y3.271 Z2.438
G1 X-3.418 Y3.413 Z2.431
G1 X-3.276 Y3.549 Z2.425
G1 X-3.129 Y3.679 Z2.418
G1 X-2.977 Y3.804 Z2.411
G1 X-2.82 Y3.921 Z2.404
G1 X-2.658 Y4.033 Z2.397
G1 X-2.492 Y4.138 Z2.39
G1 X-2.322 Y4.235 Z2.383
G1 X-2.148 Y4.326 Z2.377
G1 X-1.97 Y4.41 Z2.37
G1 X-1.789 Y4.486 Z2.363
G1 X-1.605 Y4.555 Z2.356
G1 X-1.419 Y4.617 Z2.349
G1 X-1.23 Y4.671 Z2.342
G1 X-1.039 Y4.717 Z2.335
G1 X-0.846 Y4.755 Z2.329
G1 X-0.653 Y4.786 Z2.322
G1 X-0.457 Y4.808 Z2.315
G1 X-0.262 Y4.823 Z2.308
G1 X-0.065 Y4.83 Z2.301
G1 X0.131 Y4.828 Z2.294
G1 X0.327 Y4.819 Z2.287
G1 X0.523 Y4.802 Z2.281
G1 X0.718 Y4.776 Z2.274
G1 X0.911 Y4.743 Z2.267
G1 X1.103 Y4.702 Z2.26
G1 X1.293 Y4.654 Z2.253
G1 X1.481 Y4.597 Z2.246
G1 X1.667 Y4.533 Z2.239
G1 X1.85 Y4.462 Z2.233
G1 X2.03 Y4.383 Z2.226
G1 X2.206 Y4.297 Z2.219
G1 X2.379 Y4.203 Z2.212
G1 X2.548 Y4.103 Z2.205
G1 X2.713 Y3.996 Z2.198
G1 X2.873 Y3.883 Z2.191
G1 X3.028 Y3.763 Z2.185
G1 X3.179 Y3.637 Z2.178
G1 X3.324 Y3.504 Z2.171
G1 X3.464 Y3.366 Z2.164
G1 X3.598 Y3.223 Z2.157
G1 X3.726 Y3.074 Z2.15
G1 X3.848 Y2.92 Z2.143
G1 X3.963 Y2.761 Z2.137
G1 X4.072 Y2.598 Z2.13
G1 X4.174 Y2.43 Z2.123
G1 X4.27 Y2.258 Z2.116
G1 X4.358 Y2.083 Z2.109
G1 X4.439 Y1.904 Z2.102
G1 X4.513 Y1.722 Z2.095
G1 X4.579 Y1.537 Z2.089
G1 X4.638 Y1.35 Z2.082
G1 X4.689 Y1.16 Z2.075
G1 X4.732 Y0.969 Z2.068
G1 X4.767 Y0.776 Z2.061
G1 X4.795 Y0.581 Z2.054
G1 X4.815 Y0.386 Z2.047
G1 X4.826 Y0.19 Z2.041
G1 X4.83 Y-0.007 Z2.034
G1 X4.826 Y-0.203 Z2.027
G1 X4.813 Y-0.399 Z2.02
G1 X4.793 Y-0.594 Z2.013
G1 X4.765 Y-0.789 Z2.006
G1 X4.729 Y-0.982 Z1.999
G1 X4.685 Y-1.173 Z1.993
G1 X4.634 Y-1.363 Z1.986
G1 X4.575 Y-1.55 Z1.979
G1 X4.508 Y-1.734 Z1.972
G1 X4.434 Y-1.916 Z1.965
G1 X4.352 Y-2.095 Z1.958
G1 X4.263 Y-2.27 Z1.951
G1 X4.167 Y-2.441 Z1.945
G1 X4.065 Y-2.609 Z1.938
G1 X3.955 Y-2.772 Z1.931
G1 X3.839 Y-2.93 Z1.924
G1 X3.717 Y-3.084 Z1.917
G1 X3.589 Y-3.233 Z1.91
G1 X3.454 Y-3.376 Z1.903
G1 X3.314 Y-3.513 Z1.897
G1 X3.169 Y-3.645 Z1.89
G1 X3.018 Y-3.771 Z1.883
G1 X2.862 Y-3.891 Z1.876
G1 X2.702 Y-4.004 Z1.869
G1 X2.537 Y-4.11 Z1.862
G1 X2.368 Y-4.21 Z1.855
G1 X2.194 Y-4.303 Z1.849
G1 X2.018 Y-4.388 Z1.842
G1 X1.838 Y-4.467 Z1.835
G1 X1.655 Y-4.538 Z1.828
G1 X1.469 Y-4.601 Z1.821
G1 X1.281 Y-4.657 Z1.814
G1 X1.09 Y-4.705 Z1.807
G1 X0.898 Y-4.746 Z1.8
G1 X0.704 Y-4.778 Z1.794
G1 X0.51 Y-4.803 Z1.787
G1 X0.314 Y-4.82 Z1.78
G1 X0.118 Y-4.829 Z1.773
G1 X-0.079 Z1.766
G1 X-0.275 Y-4.822 Z1.759
G1 X-0.471 Y-4.807 Z1.752
G1 X-0.666 Y-4.784 Z1.746
G1 X-0.86 Y-4.753 Z1.739
G1 X-1.052 Y-4.714 Z1.732
G1 X-1.243 Y-4.667 Z1.725
G1 X-1.432 Y-4.613 Z1.718
G1 X-1.618 Y-4.551 Z1.711
G1 X-1.801 Y-4.481 Z1.704
G1 X-1.982 Y-4.405 Z1.698
G1 X-2.16 Y-4.32 Z1.691
G1 X-2.333 Y-4.229 Z1.684
G1 X-2.503 Y-4.131 Z1.677
G1 X-2.669 Y-4.025 Z1.67
G1 X-2.831 Y-3.914 Z1.663
G1 X-2.987 Y-3.795 Z1.656
G1 X-3.139 Y-3.671 Z1.65
G1 X-3.286 Y-3.54 Z1.643
G1 X-3.427 Y-3.404 Z1.636
G1 X-3.562 Y-3.262 Z1.629
G1 X-3.692 Y-3.114 Z1.622
G1 X-3.816 Y-2.961 Z1.615
G1 X-3.933 Y-2.804 Z1.608
G1 X-4.044 Y-2.642 Z1.602
G1 X-4.148 Y-2.475 Z1.595
G1 X-4.245 Y-2.304 Z1.588
G1 X-4.335 Y-2.13 Z1.581
G1 X-4.418 Y-1.952 Z1.574
G1 X-4.494 Y-1.771 Z1.567
G1 X-4.562 Y-1.587 Z1.56
G1 X-4.623 Y-1.4 Z1.554
G1 X-4.676 Y-1.211 Z1.547
G1 X-4.721 Y-1.02 Z1.54
G1 X-4.759 Y-0.827 Z1.533
G1 X-4.788 Y-0.633 Z1.526
G1 X-4.81 Y-0.438 Z1.519
G1 X-4.824 Y-0.242 Z1.512
G1 X-4.83 Y-0.046 Z1.506
G1 X-4.828 Y0.151 Z1.499
G1 X-4.818 Y0.347 Z1.492
G1 X-4.799 Y0.542 Z1.485
G1 X-4.773 Y0.737 Z1.478
G1 X-4.74 Y0.93 Z1.471
G1 X-4.698 Y1.122 Z1.464
G1 X-4.648 Y1.312 Z1.458
G1 X-4.591 Y1.5 Z1.451
G1 X-4.526 Y1.685 Z1.444
G1 X-4.454 Y1.868 Z1.437
G1 X-4.375 Y2.048 Z1.43
G1 X-4.288 Y2.224 Z1.423
G1 X-4.194 Y2.396 Z1.416
G1 X-4.093 Y2.565 Z1.41
G1 X-3.985 Y2.729 Z1.403
G1 X-3.871 Y2.889 Z1.396
G1 X-3.75 Y3.044 Z1.389
G1 X-3.624 Y3.194 Z1.382
G1 X-3.491 Y3.338 Z1.375
G1 X-3.352 Y3.477 Z1.368
G1 X-3.208 Y3.611 Z1.362
G1 X-3.059 Y3.738 Z1.355
G1 X-2.904 Y3.859 Z1.348
G1 X-2.745 Y3.974 Z1.341
G1 X-2.581 Y4.082 Z1.334
G1 X-2.413 Y4.184 Z1.327
G1 X-2.241 Y4.279 Z1.32
G1 X-2.065 Y4.366 Z1.314
G1 X-1.886 Y4.447 Z1.307
G1 X-1.704 Y4.52 Z1.3
G1 X-1.519 Y4.585 Z1.293
G1 X-1.331 Y4.643 Z1.286
G1 X-1.141 Y4.693 Z1.279
G1 X-0.949 Y4.736 Z1.272
G1 X-0.756 Y4.77 Z1.266
G1 X-0.562 Y4.797 Z1.259
G1 X-0.366 Y4.816 Z1.252
G1 X-0.17 Y4.827 Z1.245
G1 X0.026 Y4.83 Z1.238
G1 X0.223 Y4.825 Z1.231
G1 X0.419 Y4.812 Z1.224
G1 X0.614 Y4.791 Z1.218
G1 X0.808 Y4.762 Z1.211
G1 X1.001 Y4.725 Z1.204
G1 X1.192 Y4.681 Z1.197
G1 X1.381 Y4.628 Z1.19
G1 X1.568 Y4.568 Z1.183
G1 X1.753 Y4.501 Z1.176
G1 X1.934 Y4.426 Z1.17
G1 X2.113 Y4.343 Z1.163
G1 X2.287 Y4.254 Z1.156
G1 X2.458 Y4.158 Z1.149
G1 X2.625 Y4.054 Z1.142
G1 X2.788 Y3.944 Z1.135
G1 X2.946 Y3.828 Z1.128
G1 X3.099 Y3.705 Z1.122
G1 X3.247 Y3.576 Z1.115
G1 X3.39 Y3.441 Z1.108
G1 X3.527 Y3.3 Z1.101
G1 X3.658 Y3.154 Z1.094
G1 X3.783 Y3.003 Z1.087
G1 X3.902 Y2.846 Z1.08
G1 X4.015 Y2.685 Z1.074
G1 X4.121 Y2.52 Z1.067
G1 X4.22 Y2.35 Z1.06
G1 X4.312 Y2.177 Z1.053
G1 X4.397 Y2 Z1.046
G1 X4.474 Y1.82 Z1.039
G1 X4.544 Y1.636 Z1.032
G1 X4.607 Y1.45 Z1.026
G1 X4.662 Y1.262 Z1.019
G1 X4.71 Y1.071 Z1.012
G1 X4.749 Y0.879 Z1.005
G1 X4.781 Y0.685 Z0.998
G1 X4.805 Y0.49 Z0.991
G1 X4.821 Y0.294 Z0.984
G1 X4.829 Y0.098 Z0.978
G1 Y-0.098 Z0.971
G1 X4.821 Y-0.294 Z0.964
G1 X4.805 Y-0.49 Z0.957
G1 X4.781 Y-0.685 Z0.95
G1 X4.749 Y-0.879 Z0.943
G1 X4.71 Y-1.071 Z0.936
G1 X4.662 Y-1.262 Z0.93
G1 X4.607 Y-1.45 Z0.923
G1 X4.544 Y-1.636 Z0.916
G1 X4.474 Y-1.82 Z0.909
G1 X4.396 Y-2 Z0.902
G1 X4.312 Y-2.177 Z0.895
G1 X4.219 Y-2.351 Z0.888
G1 X4.12 Y-2.52 Z0.882
G1 X4.015 Y-2.686 Z0.875
G1 X3.902 Y-2.846 Z0.868
G1 X3.783 Y-3.003 Z0.861
G1 X3.658 Y-3.154 Z0.854
G1 X3.527 Y-3.3 Z0.847
G1 X3.39 Y-3.441 Z0.84
G1 X3.247 Y-3.576 Z0.834
G1 X3.099 Y-3.705 Z0.827
G1 X2.946 Y-3.828 Z0.82
G1 X2.788 Y-3.944 Z0.813
G1 X2.625 Y-4.054 Z0.806
G1 X2.458 Y-4.158 Z0.799
G1 X2.287 Y-4.254 Z0.792
G1 X2.112 Y-4.344 Z0.786
G1 X1.934 Y-4.426 Z0.779
G1 X1.753 Y-4.501 Z0.772
G1 X1.568 Y-4.568 Z0.765
G1 X1.381 Y-4.628 Z0.758
G1 X1.192 Y-4.681 Z0.751
G1 X1.001 Y-4.725 Z0.744
G1 X0.808 Y-4.762 Z0.738
G1 X0.614 Y-4.791 Z0.731
G1 X0.418 Y-4.812 Z0.724
G1 X0.222 Y-4.825 Z0.717
G1 X0.026 Y-4.83 Z0.71
G1 X-0.17 Y-4.827 Z0.703
G1 X-0.366 Y-4.816 Z0.696
G1 X-0.562 Y-4.797 Z0.69
G1 X-0.756 Y-4.77 Z0.683
G1 X-0.95 Y-4.736 Z0.676
G1 X-1.141 Y-4.693 Z0.669
G1 X-1.331 Y-4.643 Z0.662
G1 X-1.519 Y-4.585 Z0.655
G1 X-1.704 Y-4.519 Z0.648
G1 X-1.886 Y-4.446 Z0.642
G1 X-2.065 Y-4.366 Z0.635
G1 X-2.241 Y-4.279 Z0.628
G1 X-2.413 Y-4.184 Z0.621
G1 X-2.581 Y-4.082 Z0.614
G1 X-2.745 Y-3.974 Z0.607
G1 X-2.904 Y-3.859 Z0.6
G1 X-3.059 Y-3.738 Z0.594
G1 X-3.208 Y-3.611 Z0.587
G1 X-3.352 Y-3.477 Z0.58
G1 X-3.491 Y-3.338 Z0.573
G1 X-3.624 Y-3.193 Z0.566
G1 X-3.75 Y-3.043 Z0.559
G1 X-3.871 Y-2.888 Z0.552
G1 X-3.985 Y-2.729 Z0.546
G1 X-4.093 Y-2.565 Z0.539
G1 X-4.194 Y-2.396 Z0.532
G1 X-4.288 Y-2.224 Z0.525
G1 X-4.375 Y-2.047 Z0.518
G1 X-4.454 Y-1.868 Z0.511
G1 X-4.526 Y-1.685 Z0.504
G1 X-4.591 Y-1.5 Z0.498
G1 X-4.648 Y-1.312 Z0.491
G1 X-4.698 Y-1.122 Z0.484
G1 X-4.74 Y-0.93 Z0.477
G1 X-4.773 Y-0.737 Z0.47
G1 X-4.799 Y-0.542 Z0.463
G1 X-4.818 Y-0.347 Z0.456
G1 X-4.828 Y-0.15 Z0.45
G1 X-4.83 Y0.046 Z0.443
G1 X-4.824 Y0.242 Z0.436
G1 X-4.81 Y0.438 Z0.429
G1 X-4.788 Y0.633 Z0.422
G1 X-4.759 Y0.827 Z0.415
G1 X-4.721 Y1.02 Z0.408
G1 X-4.676 Y1.211 Z0.401
G1 X-4.623 Y1.4 Z0.395
G1 X-4.562 Y1.587 Z0.388
G1 X-4.494 Y1.771 Z0.381
G1 X-4.418 Y1.952 Z0.374
G1 X-4.335 Y2.13 Z0.367
G1 X-4.245 Y2.305 Z0.36
G1 X-4.148 Y2.475 Z0.353
G1 X-4.043 Y2.642 Z0.347
G1 X-3.933 Y2.804 Z0.34
G1 X-3.816 Y2.962 Z0.333
G1 X-3.692 Y3.114 Z0.326
G1 X-3.562 Y3.262 Z0.319
G1 X-3.427 Y3.404 Z0.312
G1 X-3.286 Y3.54 Z0.305
G1 X-3.139 Y3.671 Z0.299
G1 X-2.987 Y3.795 Z0.292
G1 X-2.83 Y3.914 Z0.285
G1 X-2.669 Y4.026 Z0.278
G1 X-2.503 Y4.131 Z0.271
G1 X-2.333 Y4.229 Z0.264
G1 X-2.159 Y4.32 Z0.257
G1 X-1.982 Y4.405 Z0.251
G1 X-1.801 Y4.482 Z0.244
G1 X-1.618 Y4.551 Z0.237
G1 X-1.431 Y4.613 Z0.23
G1 X-1.243 Y4.667 Z0.223
G1 X-1.052 Y4.714 Z0.216
G1 X-0.859 Y4.753 Z0.209
G1 X-0.666 Y4.784 Z0.203
G1 X-0.471 Y4.807 Z0.196
G1 X-0.275 Y4.822 Z0.189
G1 X-0.078 Y4.829 Z0.182
G1 X0.118 Z0.175
G1 X0.314 Y4.82 Z0.168
G1 X0.51 Y4.803 Z0.161
G1 X0.705 Y4.778 Z0.155
G1 X0.898 Y4.746 Z0.148
G1 X1.09 Y4.705 Z0.141
G1 X1.281 Y4.657 Z0.134
G1 X1.469 Y4.601 Z0.127
G1 X1.655 Y4.538 Z0.12
G1 X1.838 Y4.467 Z0.113
G1 X2.018 Y4.388 Z0.107
G1 X2.195 Y4.303 Z0.1
G1 X2.368 Y4.21 Z0.093
G1 X2.537 Y4.11 Z0.086
G1 X2.702 Y4.004 Z0.079
G1 X2.862 Y3.891 Z0.072
G1 X3.018 Y3.771 Z0.065
G1 X3.169 Y3.645 Z0.059
G1 X3.314 Y3.513 Z0.052
G1 X3.454 Y3.376 Z0.045
G1 X3.589 Y3.233 Z0.038
G1 X3.717 Y3.084 Z0.031
G1 X3.84 Y2.93 Z0.024
G1 X3.955 Y2.772 Z0.017
G1 X4.065 Y2.609 Z0.011
G1 X4.168 Y2.441 Z0.004
G1 X4.263 Y2.27 Z-0.003
G1 X4.352 Y2.095 Z-0.01
G1 X4.434 Y1.916 Z-0.017
G1 X4.508 Y1.734 Z-0.024
G1 X4.575 Y1.55 Z-0.031
G1 X4.634 Y1.362 Z-0.037
G1 X4.685 Y1.173 Z-0.044
G1 X4.729 Y0.982 Z-0.051
G1 X4.765 Y0.788 Z-0.058
G1 X4.793 Y0.594 Z-0.065
G1 X4.814 Y0.399 Z-0.072
G1 X4.826 Y0.203 Z-0.079
G1 X4.83 Y0.006 Z-0.085
G1 X4.826 Y-0.19 Z-0.092
G1 X4.815 Y-0.386 Z-0.099
G1 X4.795 Y-0.581 Z-0.106
G1 X4.767 Y-0.776 Z-0.113
G1 X4.732 Y-0.969 Z-0.12
G1 X4.689 Y-1.16 Z-0.127
G1 X4.638 Y-1.35 Z-0.133
G1 X4.579 Y-1.537 Z-0.14
G1 X4.513 Y-1.722 Z-0.147
G1 X4.439 Y-1.904 Z-0.154
G1 X4.358 Y-2.083 Z-0.161
G1 X4.269 Y-2.258 Z-0.168
G1 X4.174 Y-2.43 Z-0.175
G1 X4.072 Y-2.598 Z-0.181
G1 X3.963 Y-2.761 Z-0.188
G1 X3.847 Y-2.92 Z-0.195
G1 X3.726 Y-3.074 Z-0.202
G1 X3.598 Y-3.223 Z-0.209
G1 X3.464 Y-3.366 Z-0.216
G1 X3.324 Y-3.504 Z-0.223
G1 X3.179 Y-3.637 Z-0.229
G1 X3.028 Y-3.763 Z-0.236
G1 X2.873 Y-3.883 Z-0.243
G1 X2.713 Y-3.996 Z-0.25
G1 X2.548 Y-4.103 Z-0.257
G1 X2.379 Y-4.204 Z-0.264
G1 X2.206 Y-4.297 Z-0.271
G1 X2.03 Y-4.383 Z-0.277
G1 X1.85 Y-4.462 Z-0.284
G1 X1.667 Y-4.533 Z-0.291
G1 X1.481 Y-4.597 Z-0.298
G1 X1.293 Y-4.654 Z-0.305
G1 X1.103 Y-4.702 Z-0.312
G1 X0.911 Y-4.743 Z-0.319
G1 X0.717 Y-4.776 Z-0.325
G1 X0.523 Y-4.802 Z-0.332
G1 X0.327 Y-4.819 Z-0.339
G1 X0.131 Y-4.828 Z-0.346
G1 X-0.066 Y-4.83 Z-0.353
G1 X-0.262 Y-4.823 Z-0.36
G1 X-0.458 Y-4.808 Z-0.367
G1 X-0.653 Y-4.786 Z-0.373
G1 X-0.847 Y-4.755 Z-0.38
G1 X-1.039 Y-4.717 Z-0.387
G1 X-1.23 Y-4.671 Z-0.394
G1 X-1.419 Y-4.617 Z-0.401
G1 X-1.605 Y-4.555 Z-0.408
G1 X-1.789 Y-4.486 Z-0.415
G1 X-1.97 Y-4.41 Z-0.421
G1 X-2.148 Y-4.326 Z-0.428
G1 X-2.322 Y-4.235 Z-0.435
G1 X-2.492 Y-4.137 Z-0.442
G1 X-2.658 Y-4.033 Z-0.449
G1 X-2.82 Y-3.921 Z-0.456
G1 X-2.977 Y-3.803 Z-0.463
G1 X-3.129 Y-3.679 Z-0.469
G1 X-3.276 Y-3.549 Z-0.476
G1 X-3.418 Y-3.413 Z-0.483
G1 X-3.554 Y-3.271 Z-0.49
G1 X-3.684 Y-3.124 Z-0.497
G1 X-3.808 Y-2.972 Z-0.504
G1 X-3.925 Y-2.815 Z-0.511
G1 X-4.036 Y-2.653 Z-0.517
G1 X-4.141 Y-2.486 Z-0.524
G1 X-4.238 Y-2.316 Z-0.531
G1 X-4.329 Y-2.142 Z-0.538
G1 X-4.413 Y-1.964 Z-0.545
G1 X-4.489 Y-1.783 Z-0.552
G1 X-4.558 Y-1.599 Z-0.559
G1 X-4.619 Y-1.413 Z-0.565
G1 X-4.672 Y-1.224 Z-0.572
G1 X-4.718 Y-1.033 Z-0.579
G1 X-4.756 Y-0.84 Z-0.586
G1 X-4.787 Y-0.646 Z-0.593
G1 X-4.809 Y-0.451 Z-0.6
G1 X-4.823 Y-0.255 Z-0.607
G1 X-4.83 Y-0.059 Z-0.613
G1 X-4.828 Y0.137 Z-0.62
G1 X-4.818 Y0.334 Z-0.627
G1 X-4.801 Y0.529 Z-0.634
G1 X-4.775 Y0.724 Z-0.641
G1 X-4.742 Y0.917 Z-0.648
G1 X-4.701 Y1.109 Z-0.655
G1 X-4.652 Y1.3 Z-0.661
G1 X-4.595 Y1.488 Z-0.668
G1 X-4.531 Y1.673 Z-0.675
G1 X-4.459 Y1.856 Z-0.682
G1 X-4.38 Y2.036 Z-0.689
G1 X-4.294 Y2.212 Z-0.696
G1 X-4.2 Y2.385 Z-0.703
G1 X-4.1 Y2.554 Z-0.709
G1 X-3.993 Y2.718 Z-0.716
G1 X-3.879 Y2.878 Z-0.723
G1 X-3.759 Y3.033 Z-0.73
G1 X-3.632 Y3.184 Z-0.737
G1 X-3.5 Y3.329 Z-0.744
G1 X-3.362 Y3.468 Z-0.751
G1 X-3.218 Y3.602 Z-0.757
G1 X-3.069 Y3.73 Z-0.764
G1 X-2.915 Y3.851 Z-0.771
G1 X-2.756 Y3.967 Z-0.778
G1 X-2.592 Y4.075 Z-0.785
G1 X-2.424 Y4.177 Z-0.792
G1 X-2.253 Y4.273 Z-0.799
G1 X-2.077 Y4.361 Z-0.805
G1 X-1.898 Y4.441 Z-0.812
G1 X-1.716 Y4.515 Z-0.819
G1 X-1.531 Y4.581 Z-0.826
G1 X-1.344 Y4.639 Z-0.833
G1 X-1.154 Y4.69 Z-0.84
G1 X-0.962 Y4.733 Z-0.847
G1 X-0.769 Y4.768 Z-0.853
G1 X-0.575 Y4.796 Z-0.86
G1 X-0.379 Y4.815 Z-0.867
G1 X-0.183 Y4.827 Z-0.874
G1 X0.013 Y4.83 Z-0.881
G1 X0.209 Y4.825 Z-0.888
G1 X0.405 Y4.813 Z-0.895
G1 X0.601 Y4.792 Z-0.901
G1 X0.795 Y4.764 Z-0.908
G1 X0.988 Y4.728 Z-0.915
G1 X1.179 Y4.684 Z-0.922
G1 X1.369 Y4.632 Z-0.929
G1 X1.556 Y4.573 Z-0.936
G1 X1.741 Y4.505 Z-0.943
G1 X1.922 Y4.431 Z-0.95
G1 X2.101 Y4.349 Z-0.956
G1 X2.276 Y4.26 Z-0.963
G1 X2.447 Y4.164 Z-0.97
G1 X2.614 Y4.061 Z-0.977
G1 X2.777 Y3.952 Z-0.984
G1 X2.936 Y3.836 Z-0.991
G1 X3.089 Y3.713 Z-0.998
G1 X3.237 Y3.584 Z-1.004
G1 X3.38 Y3.45 Z-1.011
G1 X3.518 Y3.31 Z-1.018
G1 X3.65 Y3.164 Z-1.025
G1 X3.775 Y3.013 Z-1.032
G1 X3.894 Y2.857 Z-1.039
G1 X4.007 Y2.696 Z-1.046
G1 X4.114 Y2.531 Z-1.052
G1 X4.213 Y2.362 Z-1.059
G1 X4.306 Y2.189 Z-1.066
G1 X4.391 Y2.012 Z-1.073
G1 X4.469 Y1.832 Z-1.08
G1 X4.54 Y1.649 Z-1.087
G1 X4.603 Y1.463 Z-1.094
G1 X4.659 Y1.274 Z-1.1
G1 X4.707 Y1.084 Z-1.107
G1 X4.747 Y0.892 Z-1.114
G1 X4.779 Y0.698 Z-1.121
G1 X4.804 Y0.503 Z-1.128
G1 X4.82 Y0.307 Z-1.135
G1 X4.829 Y0.111 Z-1.142
G1 Y-0.085 Z-1.148
G1 X4.822 Y-0.281 Z-1.155
G1 X4.806 Y-0.477 Z-1.162
G1 X4.783 Y-0.672 Z-1.169
G1 X4.752 Y-0.866 Z-1.176
G1 X4.713 Y-1.058 Z-1.183
G1 X4.666 Y-1.249 Z-1.19
G1 X4.611 Y-1.438 Z-1.196
G1 X4.549 Y-1.624 Z-1.203
G1 X4.479 Y-1.807 Z-1.21
G1 X4.402 Y-1.988 Z-1.217
G1 X4.317 Y-2.165 Z-1.224
G1 X4.226 Y-2.339 Z-1.231
G1 X4.127 Y-2.509 Z-1.238
G1 X4.022 Y-2.675 Z-1.244
G1 X3.91 Y-2.836 Z-1.251
G1 X3.791 Y-2.992 Z-1.258
G1 X3.667 Y-3.144 Z-1.265
G1 X3.536 Y-3.291 Z-1.272
G1 X3.399 Y-3.432 Z-1.279
G1 X3.257 Y-3.567 Z-1.286
G1 X3.109 Y-3.696 Z-1.292
G1 X2.956 Y-3.82 Z-1.299
G1 X2.799 Y-3.937 Z-1.306
G1 X2.636 Y-4.047 Z-1.313
G1 X2.47 Y-4.151 Z-1.32
G1 X2.299 Y-4.248 Z-1.327
G1 X2.124 Y-4.338 Z-1.334
G1 X1.946 Y-4.421 Z-1.34
G1 X1.765 Y-4.496 Z-1.347
G1 X1.581 Y-4.564 Z-1.354
G1 X1.394 Y-4.625 Z-1.361
G1 X1.205 Y-4.677 Z-1.368
G1 X1.014 Y-4.722 Z-1.375
G1 X0.821 Y-4.76 Z-1.382
G1 X0.627 Y-4.789 Z-1.388
G1 X0.431 Y-4.811 Z-1.395
G1 X0.236 Y-4.824 Z-1.402
G1 X0.039 Y-4.83 Z-1.409
G1 X-0.157 Y-4.827 Z-1.416
G1 X-0.353 Y-4.817 Z-1.423
G1 X-0.549 Y-4.799 Z-1.43
G1 X-0.743 Y-4.772 Z-1.436
G1 X-0.937 Y-4.738 Z-1.443
G1 X-1.129 Y-4.696 Z-1.45
G1 X-1.318 Y-4.647 Z-1.457
G1 X-1.506 Y-4.589 Z-1.464
G1 X-1.692 Y-4.524 Z-1.471
G1 X-1.874 Y-4.452 Z-1.478
G1 X-2.053 Y-4.372 Z-1.484
G1 X-2.229 Y-4.285 Z-1.491
G1 X-2.402 Y-4.191 Z-1.498
G1 X-2.57 Y-4.089 Z-1.505
G1 X-2.734 Y-3.982 Z-1.512
G1 X-2.894 Y-3.867 Z-1.519
G1 X-3.049 Y-3.746 Z-1.526
G1 X-3.198 Y-3.619 Z-1.532
G1 X-3.343 Y-3.486 Z-1.539
G1 X-3.482 Y-3.348 Z-1.546
G1 X-3.615 Y-3.203 Z-1.553
G1 X-3.742 Y-3.054 Z-1.56
G1 X-3.863 Y-2.899 Z-1.567
G1 X-3.978 Y-2.74 Z-1.574
G1 X-4.086 Y-2.576 Z-1.58
G1 X-4.187 Y-2.407 Z-1.587
G1 X-4.282 Y-2.235 Z-1.594
G1 X-4.369 Y-2.059 Z-1.601
G1 X-4.449 Y-1.88 Z-1.608
G1 X-4.522 Y-1.698 Z-1.615
G1 X-4.587 Y-1.512 Z-1.622
G1 X-4.645 Y-1.325 Z-1.628
G1 X-4.695 Y-1.135 Z-1.635
G1 X-4.737 Y-0.943 Z-1.642
G1 X-4.771 Y-0.75 Z-1.649
G1 X-4.798 Y-0.555 Z-1.656
G1 X-4.817 Y-0.36 Z-1.663
G1 X-4.827 Y-0.164 Z-1.67
G1 X-4.83 Y0.033 Z-1.676
G1 X-4.825 Y0.229 Z-1.683
G1 X-4.811 Y0.425 Z-1.69
G1 X-4.79 Y0.62 Z-1.697
G1 X-4.761 Y0.814 Z-1.704
G1 X-4.724 Y1.007 Z-1.711
G1 X-4.679 Y1.198 Z-1.718
G1 X-4.626 Y1.388 Z-1.724
G1 X-4.566 Y1.575 Z-1.731
G1 X-4.498 Y1.759 Z-1.738
G1 X-4.423 Y1.94 Z-1.745
G1 X-4.341 Y2.118 Z-1.752
G1 X-4.251 Y2.293 Z-1.759
G1 X-4.154 Y2.464 Z-1.766
G1 X-4.051 Y2.631 Z-1.772
G1 X-3.94 Y2.793 Z-1.779
G1 X-3.824 Y2.951 Z-1.786
G1 X-3.7 Y3.104 Z-1.793
G1 X-3.571 Y3.252 Z-1.8
G1 X-3.436 Y3.394 Z-1.807
G1 X-3.295 Y3.531 Z-1.814
G1 X-3.149 Y3.662 Z-1.82
G1 X-2.998 Y3.787 Z-1.827
G1 X-2.841 Y3.906 Z-1.834
G1 X-2.68 Y4.018 Z-1.841
G1 X-2.514 Y4.124 Z-1.848
G1 X-2.345 Y4.223 Z-1.855
G1 X-2.171 Y4.315 Z-1.862
G1 X-1.994 Y4.399 Z-1.868
G1 X-1.814 Y4.477 Z-1.875
G1 X-1.63 Y4.547 Z-1.882
G1 X-1.444 Y4.609 Z-1.889
G1 X-1.255 Y4.664 Z-1.896
G1 X-1.065 Y4.711 Z-1.903
G1 X-0.872 Y4.751 Z-1.91
G1 X-0.679 Y4.782 Z-1.916
G1 X-0.484 Y4.806 Z-1.923
G1 X-0.288 Y4.821 Z-1.93
G1 X-0.092 Y4.829 Z-1.937
G1 X0.105 Z-1.944
G1 X0.301 Y4.821 Z-1.951
G1 X0.497 Y4.804 Z-1.958
G1 X0.692 Y4.78 Z-1.964
G1 X0.885 Y4.748 Z-1.971
G1 X1.078 Y4.708 Z-1.978
G1 X1.268 Y4.661 Z-1.985
G1 X1.456 Y4.605 Z-1.992
G1 X1.642 Y4.542 Z-1.999
G1 X1.826 Y4.472 Z-2.006
G1 X2.006 Y4.394 Z-2.012
G1 X2.183 Y4.309 Z-2.019
G1 X2.356 Y4.216 Z-2.026
G1 X2.526 Y4.117 Z-2.033
G1 X2.691 Y4.011 Z-2.04
G1 X2.852 Y3.898 Z-2.047
G1 X3.008 Y3.779 Z-2.054
G1 X3.159 Y3.654 Z-2.06
G1 X3.305 Y3.522 Z-2.067
G1 X3.445 Y3.385 Z-2.074
G1 X3.58 Y3.242 Z-2.081
G1 X3.709 Y3.094 Z-2.088
G1 X3.832 Y2.941 Z-2.095
G1 X3.948 Y2.783 Z-2.102
G1 X4.058 Y2.62 Z-2.108
G1 X4.161 Y2.453 Z-2.115
G1 X4.257 Y2.282 Z-2.122
G1 X4.346 Y2.107 Z-2.129
G1 X4.428 Y1.928 Z-2.136
G1 X4.503 Y1.747 Z-2.143
G1 X4.57 Y1.562 Z-2.15
G1 X4.63 Y1.375 Z-2.156
G1 X4.682 Y1.186 Z-2.163
G1 X4.727 Y0.994 Z-2.17
G1 X4.763 Y0.801 Z-2.177
G1 X4.792 Y0.607 Z-2.184
G1 X4.812 Y0.412 Z-2.191
G1 X4.825 Y0.216 Z-2.198
G1 X4.83 Y0.02 Z-2.204
G1 X4.827 Y-0.177 Z-2.211
G1 X4.816 Y-0.373 Z-2.218
G1 X4.796 Y-0.568 Z-2.225
G1 X4.769 Y-0.763 Z-2.232
G1 X4.734 Y-0.956 Z-2.239
G1 X4.692 Y-1.148 Z-2.246
G1 X4.641 Y-1.337 Z-2.252
G1 X4.583 Y-1.525 Z-2.259
G1 X4.517 Y-1.71 Z-2.266
G1 X4.444 Y-1.892 Z-2.273
G1 X4.363 Y-2.071 Z-2.28
G1 X4.276 Y-2.247 Z-2.287
G1 X4.181 Y-2.419 Z-2.294
G1 X4.079 Y-2.587 Z-2.3
G1 X3.97 Y-2.75 Z-2.307
G1 X3.855 Y-2.91 Z-2.314
G1 X3.734 Y-3.064 Z-2.321
G1 X3.606 Y-3.213 Z-2.328
G1 X3.473 Y-3.357 Z-2.335
G1 X3.333 Y-3.495 Z-2.342
G1 X3.189 Y-3.628 Z-2.349
G1 X3.038 Y-3.755 Z-2.355
G1 X2.883 Y-3.875 Z-2.362
G1 X2.723 Y-3.989 Z-2.369
G1 X2.559 Y-4.096 Z-2.376
G1 X2.39 Y-4.197 Z-2.383
G1 X2.218 Y-4.291 Z-2.39
G1 X2.042 Y-4.377 Z-2.397
G1 X1.862 Y-4.457 Z-2.403
G1 X1.679 Y-4.529 Z-2.41
G1 X1.494 Y-4.593 Z-2.417
G1 X1.306 Y-4.65 Z-2.424
G1 X1.116 Y-4.699 Z-2.431
G1 X0.924 Y-4.741 Z-2.438
G1 X0.73 Y-4.774 Z-2.445
G1 X0.536 Y-4.8 Z-2.451
G1 X0.34 Y-4.818 Z-2.458
G1 X0.144 Y-4.828 Z-2.465
G1 X-0.052 Y-4.83 Z-2.472
G1 X-0.249 Y-4.824 Z-2.479
G1 X-0.445 Y-4.81 Z-2.486
G1 X-0.64 Y-4.787 Z-2.493
G1 X-0.834 Y-4.758 Z-2.499
G1 X-1.026 Y-4.72 Z-2.506
G1 X-1.217 Y-4.674 Z-2.513
G1 X-1.406 Y-4.621 Z-2.52
G1 X-1.593 Y-4.56 Z-2.527
G1 X-1.777 Y-4.491 Z-2.534
G1 X-1.958 Y-4.415 Z-2.541
G1 X-2.136 Y-4.332 Z-2.547
G1 X-2.31 Y-4.242 Z-2.554
G1 X-2.481 Y-4.144 Z-2.561
G1 X-2.647 Y-4.04 Z-2.568
G1 X-2.809 Y-3.929 Z-2.575
G1 X-2.967 Y-3.812 Z-2.582
G1 X-3.119 Y-3.688 Z-2.589
G1 X-3.266 Y-3.558 Z-2.595
G1 X-3.408 Y-3.422 Z-2.602
G1 X-3.545 Y-3.281 Z-2.609
G1 X-3.675 Y-3.134 Z-2.616
G1 X-3.799 Y-2.982 Z-2.623
G1 X-3.918 Y-2.825 Z-2.63
G1 X-4.029 Y-2.664 Z-2.637
G1 X-4.134 Y-2.498 Z-2.643
G1 X-4.232 Y-2.328 Z-2.65
G1 X-4.323 Y-2.154 Z-2.657
G1 X-4.407 Y-1.976 Z-2.664
G1 X-4.484 Y-1.795 Z-2.671
G1 X-4.553 Y-1.612 Z-2.678
G1 X-4.615 Y-1.425 Z-2.685
G1 X-4.669 Y-1.236 Z-2.691
G1 X-4.715 Y-1.046 Z-2.698
G1 X-4.754 Y-0.853 Z-2.705
G1 X-4.785 Y-0.659 Z-2.712
G1 X-4.808 Y-0.464 Z-2.719
G1 X-4.823 Y-0.268 Z-2.726
G1 X-4.829 Y-0.072 Z-2.733
G1 X-4.828 Y0.124 Z-2.739
G1 X-4.819 Y0.321 Z-2.746
G1 X-4.802 Y0.516 Z-2.753
G1 X-4.777 Y0.711 Z-2.76
G1 X-4.745 Y0.905 Z-2.767
G1 X-4.704 Y1.097 Z-2.774
G1 X-4.655 Y1.287 Z-2.781
G1 X-4.599 Y1.475 Z-2.787
G1 X-4.535 Y1.661 Z-2.794
G1 X-4.464 Y1.844 Z-2.801
G1 X-4.386 Y2.024 Z-2.808
G1 X-4.3 Y2.2 Z-2.815
G1 X-4.207 Y2.373 Z-2.822
G1 X-4.107 Y2.542 Z-2.829
G1 X-4 Y2.707 Z-2.835
G1 X-3.887 Y2.868 Z-2.842
G1 X-3.767 Y3.023 Z-2.849
G1 X-3.641 Y3.174 Z-2.856
G1 X-3.509 Y3.319 Z-2.863
G1 X-3.371 Y3.459 Z-2.87
G1 X-3.228 Y3.593 Z-2.877
G1 X-3.079 Y3.721 Z-2.883
G1 X-2.925 Y3.843 Z-2.89
G1 X-2.766 Y3.959 Z-2.897
G1 X-2.603 Y4.068 Z-2.904
G1 X-2.436 Y4.171 Z-2.911
G1 X-2.264 Y4.266 Z-2.918
G1 X-2.089 Y4.355 Z-2.925
G1 X-1.91 Y4.436 Z-2.931
G1 X-1.728 Y4.51 Z-2.938
G1 X-1.544 Y4.577 Z-2.945
G1 X-1.356 Y4.636 Z-2.952
G1 X-1.167 Y4.687 Z-2.959
G1 X-0.975 Y4.731 Z-2.966
G1 X-0.782 Y4.766 Z-2.973
G1 X-0.588 Y4.794 Z-2.979
G1 X-0.392 Y4.814 Z-2.986
G1 X-0.196 Y4.826 Z-2.993
G1 X0 Y4.83 Z-3
; MOVEMENT_FINISH_CUTTING
G1 X0.194 Y4.826 F480
G1 X0.389 Y4.814
G1 X0.582 Y4.795
G1 X0.775 Y4.767
G1 X0.966 Y4.732
G1 X1.156 Y4.69
G1 X1.344 Y4.639
G1 X1.53 Y4.581
G1 X1.713 Y4.516
G1 X1.893 Y4.444
G1 X2.071 Y4.364
G1 X2.245 Y4.277
G1 X2.415 Y4.183
G1 X2.581 Y4.082
G1 X2.744 Y3.975
G1 X2.902 Y3.861
G1 X3.055 Y3.741
G1 X3.203 Y3.615
G1 X3.346 Y3.483
G1 X3.483 Y3.346
G1 X3.615 Y3.203
G1 X3.741 Y3.055
G1 X3.861 Y2.902
G1 X3.975 Y2.744
G1 X4.082 Y2.581
G1 X4.183 Y2.415
G1 X4.277 Y2.245
G1 X4.364 Y2.071
G1 X4.444 Y1.893
G1 X4.516 Y1.713
G1 X4.581 Y1.53
G1 X4.639 Y1.344
G1 X4.69 Y1.156
G1 X4.732 Y0.966
G1 X4.767 Y0.775
G1 X4.795 Y0.582
G1 X4.814 Y0.389
G1 X4.826 Y0.194
G1 X4.83 Y0
G1 X4.826 Y-0.194
G1 X4.814 Y-0.389
G1 X4.795 Y-0.582
G1 X4.767 Y-0.775
G1 X4.732 Y-0.966
G1 X4.69 Y-1.156
G1 X4.639 Y-1.344
G1 X4.581 Y-1.53
G1 X4.516 Y-1.713
G1 X4.444 Y-1.893
G1 X4.364 Y-2.071
G1 X4.277 Y-2.245
G1 X4.183 Y-2.415
G1 X4.082 Y-2.581
G1 X3.975 Y-2.744
G1 X3.861 Y-2.902
G1 X3.741 Y-3.055
G1 X3.615 Y-3.203
G1 X3.483 Y-3.346
G1 X3.346 Y-3.483
G1 X3.203 Y-3.615
G1 X3.055 Y-3.741
G1 X2.902 Y-3.861
G1 X2.744 Y-3.975
G1 X2.581 Y-4.082
G1 X2.415 Y-4.183
G1 X2.245 Y-4.277
G1 X2.071 Y-4.364
G1 X1.893 Y-4.444
G1 X1.713 Y-4.516
G1 X1.53 Y-4.581
G1 X1.344 Y-4.639
G1 X1.156 Y-4.69
G1 X0.966 Y-4.732
G1 X0.775 Y-4.767
G1 X0.582 Y-4.795
G1 X0.389 Y-4.814
G1 X0.194 Y-4.826
G1 X0 Y-4.83
G1 X-0.194 Y-4.826
G1 X-0.389 Y-4.814
G1 X-0.582 Y-4.795
G1 X-0.775 Y-4.767
G1 X-0.966 Y-4.732
G1 X-1.156 Y-4.69
G1 X-1.344 Y-4.639
G1 X-1.53 Y-4.581
G1 X-1.713 Y-4.516
G1 X-1.893 Y-4.444
G1 X-2.071 Y-4.364
G1 X-2.245 Y-4.277
G1 X-2.415 Y-4.183
G1 X-2.581 Y-4.082
G1 X-2.744 Y-3.975
G1 X-2.902 Y-3.861
G1 X-3.055 Y-3.741
G1 X-3.203 Y-3.615
G1 X-3.346 Y-3.483
G1 X-3.483 Y-3.346
G1 X-3.615 Y-3.203
G1 X-3.741 Y-3.055
G1 X-3.861 Y-2.902
G1 X-3.975 Y-2.744
G1 X-4.082 Y-2.581
G1 X-4.183 Y-2.415
G1 X-4.277 Y-2.245
G1 X-4.364 Y-2.071
G1 X-4.444 Y-1.893
G1 X-4.516 Y-1.713
G1 X-4.581 Y-1.53
G1 X-4.639 Y-1.344
G1 X-4.69 Y-1.156
G1 X-4.732 Y-0.966
G1 X-4.767 Y-0.775
G1 X-4.795 Y-0.582
G1 X-4.814 Y-0.389
G1 X-4.826 Y-0.194
G1 X-4.83 Y0
G1 X-4.826 Y0.194
G1 X-4.814 Y0.389
G1 X-4.795 Y0.582
G1 X-4.767 Y0.775
G1 X-4.732 Y0.966
G1 X-4.69 Y1.156
G1 X-4.639 Y1.344
G1 X-4.581 Y1.53
G1 X-4.516 Y1.713
G1 X-4.444 Y1.893
G1 X-4.364 Y2.071
G1 X-4.277 Y2.245
G1 X-4.183 Y2.415
G1 X-4.082 Y2.581
G1 X-3.975 Y2.744
G1 X-3.861 Y2.902
G1 X-3.741 Y3.055
G1 X-3.615 Y3.203
G1 X-3.483 Y3.346
G1 X-3.346 Y3.483
G1 X-3.203 Y3.615
G1 X-3.055 Y3.741
G1 X-2.902 Y3.861
G1 X-2.744 Y3.975
G1 X-2.581 Y4.082
G1 X-2.415 Y4.183
G1 X-2.245 Y4.277
G1 X-2.071 Y4.364
G1 X-1.893 Y4.444
G1 X-1.713 Y4.516
G1 X-1.53 Y4.581
G1 X-1.344 Y4.639
G1 X-1.156 Y4.69
G1 X-0.966 Y4.732
G1 X-0.775 Y4.767
G1 X-0.582 Y4.795
G1 X-0.389 Y4.814
G1 X-0.194 Y4.826
G1 X0 Y4.83
; MOVEMENT_RAPID
G0 Z5 F300
; *** SECTION end ***

; *** SECTION begin ***
;2D Contour2 - Milling - Tool: 1 -  chamfer mill
; X Min: -4.137 - X Max: 4.137
; Y Min: -4.137 - Y Max: 4.137
; Z Min: -2.5 - Z Max: 5
; COMMAND_START_SPINDLE
; COMMAND_SPINDLE_CLOCKWISE
; COMMAND_COOLANT_ON
M117  2D Contour2
; MOVEMENT_LEAD_IN
G1 X3.323 Y-1.659 Z5 F180
G1 Z2.817
; MOVEMENT_RAMP_HELIX
G1 X3.326 Y-1.682 Z2.698
G1 X3.331 Y-1.748 Z2.597
G1 X3.332 Y-1.847 Z2.527
G1 X3.326 Y-1.965 Z2.5
G1 X3.312 Y-2.074 Z2.496
G1 X3.29 Y-2.181 Z2.492
G1 X3.26 Y-2.287 Z2.488
G1 X3.222 Y-2.39 Z2.485
G1 X3.178 Y-2.49 Z2.481
G1 X3.126 Y-2.587 Z2.477
G1 X3.067 Y-2.68 Z2.473
G1 X3.001 Y-2.768 Z2.469
G1 X2.929 Y-2.851 Z2.465
G1 X2.852 Y-2.928 Z2.462
G1 X2.769 Y-3 Z2.458
G1 X2.681 Y-3.066 Z2.454
G1 X2.588 Y-3.125 Z2.45
G1 X2.492 Y-3.177 Z2.446
G1 X2.391 Y-3.222 Z2.442
G1 X2.288 Y-3.259 Z2.439
G1 X2.183 Y-3.289 Z2.435
G1 X2.075 Y-3.312 Z2.431
G1 X1.966 Y-3.326 Z2.427
G1 X1.857 Y-3.332 Z2.423
G1 X1.747 Y-3.331 Z2.419
G1 X1.638 Y-3.321 Z2.416
G1 X1.529 Y-3.303 Z2.412
G1 X1.422 Y-3.278 Z2.408
G1 X1.318 Y-3.245 Z2.404
G1 X1.216 Y-3.204 Z2.4
G1 X1.117 Y-3.156 Z2.396
G1 X1.022 Y-3.101 Z2.393
G1 X0.931 Y-3.04 Z2.389
G1 X0.845 Y-2.971 Z2.385
G1 X0.764 Y-2.897 Z2.381
G1 X0.689 Y-2.817 Z2.377
G1 X0.62 Y-2.732 Z2.373
G1 X0.557 Y-2.642 Z2.37
G1 X0.501 Y-2.548 Z2.366
G1 X0.452 Y-2.449 Z2.362
G1 X0.41 Y-2.348 Z2.358
G1 X0.376 Y-2.244 Z2.354
G1 X0.349 Y-2.137 Z2.35
G1 X0.33 Y-2.029 Z2.347
G1 X0.319 Y-1.92 Z2.343
G1 X0.316 Y-1.81 Z2.339
G1 X0.321 Y-1.7 Z2.335
G1 X0.334 Y-1.591 Z2.331
G1 X0.355 Y-1.484 Z2.327
G1 X0.384 Y-1.378 Z2.324
G1 X0.42 Y-1.274 Z2.32
G1 X0.464 Y-1.173 Z2.316
G1 X0.515 Y-1.076 Z2.312
G1 X0.573 Y-0.983 Z2.308
G1 X0.637 Y-0.894 Z2.304
G1 X0.708 Y-0.81 Z2.301
G1 X0.785 Y-0.732 Z2.297
G1 X0.867 Y-0.659 Z2.293
G1 X0.955 Y-0.592 Z2.289
G1 X1.047 Y-0.532 Z2.285
G1 X1.143 Y-0.479 Z2.281
G1 X1.242 Y-0.433 Z2.278
G1 X1.345 Y-0.395 Z2.274
G1 X1.45 Y-0.363 Z2.27
G1 X1.558 Y-0.34 Z2.266
G1 X1.666 Y-0.325 Z2.262
G1 X1.776 Y-0.317 Z2.258
G1 X1.885 Y-0.318 Z2.255
G1 X1.995 Y-0.326 Z2.251
G1 X2.103 Y-0.342 Z2.247
G1 X2.211 Y-0.367 Z2.243
G1 X2.316 Y-0.399 Z2.239
G1 X2.418 Y-0.438 Z2.235
G1 X2.517 Y-0.485 Z2.232
G1 X2.613 Y-0.539 Z2.228
G1 X2.704 Y-0.6 Z2.224
G1 X2.791 Y-0.667 Z2.22
G1 X2.873 Y-0.74 Z2.216
G1 X2.949 Y-0.819 Z2.212
G1 X3.019 Y-0.904 Z2.209
G1 X3.083 Y-0.993 Z2.205
G1 X3.14 Y-1.087 Z2.201
G1 X3.19 Y-1.185 Z2.197
G1 X3.233 Y-1.286 Z2.193
G1 X3.268 Y-1.389 Z2.189
G1 X3.296 Y-1.496 Z2.186
G1 X3.316 Y-1.604 Z2.182
G1 X3.328 Y-1.713 Z2.178
G1 X3.333 Y-1.822 Z2.174
G1 X3.329 Y-1.932 Z2.17
G1 X3.317 Y-2.041 Z2.166
G1 X3.297 Y-2.149 Z2.163
G1 X3.27 Y-2.255 Z2.159
G1 X3.234 Y-2.359 Z2.155
G1 X3.192 Y-2.461 Z2.151
G1 X3.142 Y-2.558 Z2.147
G1 X3.085 Y-2.652 Z2.143
G1 X3.021 Y-2.742 Z2.14
G1 X2.952 Y-2.826 Z2.136
G1 X2.876 Y-2.906 Z2.132
G1 X2.794 Y-2.979 Z2.128
G1 X2.708 Y-3.047 Z2.124
G1 X2.616 Y-3.108 Z2.12
G1 X2.521 Y-3.162 Z2.117
G1 X2.422 Y-3.209 Z2.113
G1 X2.319 Y-3.249 Z2.109
G1 X2.215 Y-3.281 Z2.105
G1 X2.108 Y-3.306 Z2.101
G1 X1.999 Y-3.322 Z2.097
G1 X1.89 Y-3.331 Z2.094
G1 X1.78 Y-3.332 Z2.09
G1 X1.67 Y-3.325 Z2.086
G1 X1.562 Y-3.309 Z2.082
G1 X1.454 Y-3.286 Z2.078
G1 X1.349 Y-3.256 Z2.074
G1 X1.246 Y-3.217 Z2.071
G1 X1.146 Y-3.171 Z2.067
G1 X1.05 Y-3.119 Z2.063
G1 X0.958 Y-3.059 Z2.059
G1 X0.87 Y-2.992 Z2.055
G1 X0.788 Y-2.92 Z2.051
G1 X0.711 Y-2.842 Z2.048
G1 X0.64 Y-2.758 Z2.044
G1 X0.575 Y-2.669 Z2.04
G1 X0.517 Y-2.576 Z2.036
G1 X0.466 Y-2.479 Z2.032
G1 X0.422 Y-2.379 Z2.028
G1 X0.385 Y-2.275 Z2.025
G1 X0.356 Y-2.169 Z2.021
G1 X0.335 Y-2.062 Z2.017
G1 X0.322 Y-1.953 Z2.013
G1 X0.316 Y-1.843 Z2.009
G1 X0.319 Y-1.733 Z2.005
G1 X0.33 Y-1.624 Z2.002
G1 X0.348 Y-1.516 Z1.998
G1 X0.375 Y-1.409 Z1.994
G1 X0.409 Y-1.305 Z1.99
G1 X0.45 Y-1.203 Z1.986
G1 X0.499 Y-1.105 Z1.982
G1 X0.555 Y-1.01 Z1.979
G1 X0.617 Y-0.92 Z1.975
G1 X0.686 Y-0.835 Z1.971
G1 X0.761 Y-0.755 Z1.967
G1 X0.842 Y-0.68 Z1.963
G1 X0.928 Y-0.612 Z1.959
G1 X1.019 Y-0.55 Z1.956
G1 X1.113 Y-0.494 Z1.952
G1 X1.212 Y-0.446 Z1.948
G1 X1.314 Y-0.405 Z1.944
G1 X1.418 Y-0.372 Z1.94
G1 X1.525 Y-0.346 Z1.936
G1 X1.634 Y-0.328 Z1.933
G1 X1.743 Y-0.319 Z1.929
G1 X1.853 Y-0.317 Z1.925
G1 X1.962 Y-0.323 Z1.921
G1 X2.071 Y-0.337 Z1.917
G1 X2.179 Y-0.358 Z1.913
G1 X2.284 Y-0.388 Z1.91
G1 X2.388 Y-0.425 Z1.906
G1 X2.488 Y-0.47 Z1.902
G1 X2.585 Y-0.522 Z1.898
G1 X2.677 Y-0.581 Z1.894
G1 X2.766 Y-0.646 Z1.89
G1 X2.849 Y-0.718 Z1.887
G1 X2.927 Y-0.795 Z1.883
G1 X2.999 Y-0.878 Z1.879
G1 X3.064 Y-0.966 Z1.875
G1 X3.123 Y-1.058 Z1.871
G1 X3.176 Y-1.155 Z1.867
G1 X3.221 Y-1.255 Z1.863
G1 X3.259 Y-1.358 Z1.86
G1 X3.289 Y-1.464 Z1.856
G1 X3.311 Y-1.571 Z1.852
G1 X3.326 Y-1.68 Z1.848
G1 X3.332 Y-1.789 Z1.844
G1 X3.331 Y-1.899 Z1.84
G1 X3.321 Y-2.009 Z1.837
G1 X3.304 Y-2.117 Z1.833
G1 X3.279 Y-2.224 Z1.829
G1 X3.246 Y-2.329 Z1.825
G1 X3.205 Y-2.431 Z1.821
G1 X3.158 Y-2.529 Z1.817
G1 X3.103 Y-2.625 Z1.814
G1 X3.041 Y-2.715 Z1.81
G1 X2.973 Y-2.802 Z1.806
G1 X2.899 Y-2.883 Z1.802
G1 X2.819 Y-2.958 Z1.798
G1 X2.734 Y-3.027 Z1.794
G1 X2.644 Y-3.09 Z1.791
G1 X2.55 Y-3.147 Z1.787
G1 X2.452 Y-3.196 Z1.783
G1 X2.35 Y-3.238 Z1.779
G1 X2.246 Y-3.272 Z1.775
G1 X2.14 Y-3.299 Z1.771
G1 X2.032 Y-3.318 Z1.768
G1 X1.922 Y-3.329 Z1.764
G1 X1.813 Y-3.333 Z1.76
G1 X1.703 Y-3.328 Z1.756
G1 X1.594 Y-3.315 Z1.752
G1 X1.486 Y-3.294 Z1.748
G1 X1.38 Y-3.266 Z1.745
G1 X1.277 Y-3.23 Z1.741
G1 X1.176 Y-3.186 Z1.737
G1 X1.078 Y-3.135 Z1.733
G1 X0.985 Y-3.077 Z1.729
G1 X0.896 Y-3.013 Z1.725
G1 X0.812 Y-2.942 Z1.722
G1 X0.734 Y-2.866 Z1.718
G1 X0.661 Y-2.784 Z1.714
G1 X0.594 Y-2.696 Z1.71
G1 X0.534 Y-2.605 Z1.706
G1 X0.48 Y-2.509 Z1.702
G1 X0.434 Y-2.409 Z1.699
G1 X0.395 Y-2.306 Z1.695
G1 X0.364 Y-2.201 Z1.691
G1 X0.341 Y-2.094 Z1.687
G1 X0.325 Y-1.985 Z1.683
G1 X0.317 Y-1.876 Z1.679
G1 Y-1.766 Z1.676
G1 X0.326 Y-1.657 Z1.672
G1 X0.342 Y-1.548 Z1.668
G1 X0.366 Y-1.441 Z1.664
G1 X0.398 Y-1.336 Z1.66
G1 X0.437 Y-1.233 Z1.656
G1 X0.484 Y-1.134 Z1.653
G1 X0.537 Y-1.038 Z1.649
G1 X0.598 Y-0.947 Z1.645
G1 X0.665 Y-0.86 Z1.641
G1 X0.738 Y-0.778 Z1.637
G1 X0.817 Y-0.702 Z1.633
G1 X0.902 Y-0.632 Z1.63
G1 X0.991 Y-0.568 Z1.626
G1 X1.085 Y-0.51 Z1.622
G1 X1.182 Y-0.46 Z1.618
G1 X1.283 Y-0.417 Z1.614
G1 X1.387 Y-0.381 Z1.61
G1 X1.493 Y-0.353 Z1.607
G1 X1.601 Y-0.333 Z1.603
G1 X1.71 Y-0.321 Z1.599
G1 X1.82 Y-0.316 Z1.595
G1 X1.929 Y-0.32 Z1.591
G1 X2.039 Y-0.332 Z1.587
G1 X2.147 Y-0.351 Z1.584
G1 X2.253 Y-0.378 Z1.58
G1 X2.357 Y-0.413 Z1.576
G1 X2.458 Y-0.456 Z1.572
G1 X2.556 Y-0.506 Z1.568
G1 X2.65 Y-0.562 Z1.564
G1 X2.74 Y-0.626 Z1.561
G1 X2.824 Y-0.696 Z1.557
G1 X2.904 Y-0.771 Z1.553
G1 X2.978 Y-0.853 Z1.549
G1 X3.045 Y-0.939 Z1.545
G1 X3.106 Y-1.03 Z1.541
G1 X3.161 Y-1.126 Z1.538
G1 X3.208 Y-1.225 Z1.534
G1 X3.248 Y-1.327 Z1.53
G1 X3.281 Y-1.432 Z1.526
G1 X3.305 Y-1.539 Z1.522
G1 X3.322 Y-1.647 Z1.518
G1 X3.331 Y-1.757 Z1.515
G1 X3.332 Y-1.866 Z1.511
G1 X3.325 Y-1.976 Z1.507
G1 X3.31 Y-2.085 Z1.503
G1 X3.287 Y-2.192 Z1.499
G1 X3.256 Y-2.297 Z1.495
G1 X3.218 Y-2.4 Z1.492
G1 X3.173 Y-2.5 Z1.488
G1 X3.12 Y-2.597 Z1.484
G1 X3.06 Y-2.689 Z1.48
G1 X2.994 Y-2.776 Z1.476
G1 X2.922 Y-2.859 Z1.472
G1 X2.844 Y-2.936 Z1.469
G1 X2.76 Y-3.007 Z1.465
G1 X2.672 Y-3.072 Z1.461
G1 X2.579 Y-3.13 Z1.457
G1 X2.482 Y-3.182 Z1.453
G1 X2.381 Y-3.226 Z1.449
G1 X2.278 Y-3.263 Z1.446
G1 X2.172 Y-3.292 Z1.442
G1 X2.064 Y-3.313 Z1.438
G1 X1.955 Y-3.327 Z1.434
G1 X1.846 Y-3.332 Z1.43
G1 X1.736 Y-3.33 Z1.426
G1 X1.627 Y-3.32 Z1.423
G1 X1.518 Y-3.301 Z1.419
G1 X1.412 Y-3.275 Z1.415
G1 X1.307 Y-3.241 Z1.411
G1 X1.206 Y-3.2 Z1.407
G1 X1.107 Y-3.151 Z1.403
G1 X1.013 Y-3.095 Z1.4
G1 X0.922 Y-3.033 Z1.396
G1 X0.837 Y-2.964 Z1.392
G1 X0.756 Y-2.889 Z1.388
G1 X0.682 Y-2.809 Z1.384
G1 X0.613 Y-2.723 Z1.38
G1 X0.551 Y-2.633 Z1.377
G1 X0.496 Y-2.538 Z1.373
G1 X0.447 Y-2.439 Z1.369
G1 X0.406 Y-2.337 Z1.365
G1 X0.373 Y-2.233 Z1.361
G1 X0.347 Y-2.126 Z1.357
G1 X0.329 Y-2.018 Z1.354
G1 X0.319 Y-1.909 Z1.35
G1 X0.317 Y-1.799 Z1.346
G1 X0.322 Y-1.689 Z1.342
G1 X0.336 Y-1.58 Z1.338
G1 X0.358 Y-1.473 Z1.334
G1 X0.387 Y-1.367 Z1.331
G1 X0.424 Y-1.264 Z1.327
G1 X0.469 Y-1.163 Z1.323
G1 X0.521 Y-1.066 Z1.319
G1 X0.579 Y-0.974 Z1.315
G1 X0.644 Y-0.885 Z1.311
G1 X0.716 Y-0.802 Z1.308
G1 X0.793 Y-0.724 Z1.304
G1 X0.876 Y-0.652 Z1.3
G1 X0.964 Y-0.586 Z1.296
G1 X1.056 Y-0.527 Z1.292
G1 X1.153 Y-0.474 Z1.288
G1 X1.252 Y-0.429 Z1.285
G1 X1.356 Y-0.391 Z1.281
G1 X1.461 Y-0.361 Z1.277
G1 X1.568 Y-0.338 Z1.273
G1 X1.677 Y-0.323 Z1.269
G1 X1.787 Y-0.317 Z1.265
G1 X1.897 Y-0.318 Z1.262
G1 X2.006 Y-0.327 Z1.258
G1 X2.114 Y-0.344 Z1.254
G1 X2.221 Y-0.369 Z1.25
G1 X2.326 Y-0.402 Z1.246
G1 X2.428 Y-0.442 Z1.242
G1 X2.527 Y-0.49 Z1.238
G1 X2.622 Y-0.545 Z1.235
G1 X2.713 Y-0.606 Z1.231
G1 X2.8 Y-0.674 Z1.227
G1 X2.881 Y-0.748 Z1.223
G1 X2.956 Y-0.828 Z1.219
G1 X3.026 Y-0.913 Z1.215
G1 X3.089 Y-1.002 Z1.212
G1 X3.145 Y-1.097 Z1.208
G1 X3.195 Y-1.195 Z1.204
G1 X3.237 Y-1.296 Z1.2
G1 X3.272 Y-1.4 Z1.196
G1 X3.299 Y-1.506 Z1.192
G1 X3.318 Y-1.615 Z1.189
G1 X3.329 Y-1.724 Z1.185
G1 X3.333 Y-1.834 Z1.181
G1 X3.328 Y-1.943 Z1.177
G1 X3.315 Y-2.052 Z1.173
G1 X3.295 Y-2.16 Z1.169
G1 X3.266 Y-2.266 Z1.166
G1 X3.23 Y-2.37 Z1.162
G1 X3.187 Y-2.471 Z1.158
G1 X3.136 Y-2.568 Z1.154
G1 X3.079 Y-2.662 Z1.15
G1 X3.015 Y-2.751 Z1.146
G1 X2.944 Y-2.835 Z1.143
G1 X2.868 Y-2.914 Z1.139
G1 X2.786 Y-2.987 Z1.135
G1 X2.699 Y-3.053 Z1.131
G1 X2.607 Y-3.114 Z1.127
G1 X2.511 Y-3.167 Z1.123
G1 X2.412 Y-3.214 Z1.12
G1 X2.309 Y-3.253 Z1.116
G1 X2.204 Y-3.284 Z1.112
G1 X2.097 Y-3.308 Z1.108
G1 X1.988 Y-3.324 Z1.104
G1 X1.878 Y-3.332 Z1.1
G1 X1.769 Z1.097
G1 X1.659 Y-3.323 Z1.093
G1 X1.551 Y-3.307 Z1.089
G1 X1.443 Y-3.284 Z1.085
G1 X1.338 Y-3.252 Z1.081
G1 X1.236 Y-3.213 Z1.077
G1 X1.136 Y-3.166 Z1.074
G1 X1.041 Y-3.113 Z1.07
G1 X0.949 Y-3.052 Z1.066
G1 X0.862 Y-2.985 Z1.062
G1 X0.78 Y-2.912 Z1.058
G1 X0.704 Y-2.833 Z1.054
G1 X0.633 Y-2.749 Z1.051
G1 X0.569 Y-2.66 Z1.047
G1 X0.512 Y-2.567 Z1.043
G1 X0.461 Y-2.469 Z1.039
G1 X0.418 Y-2.368 Z1.035
G1 X0.382 Y-2.265 Z1.031
G1 X0.354 Y-2.158 Z1.028
G1 X0.333 Y-2.051 Z1.024
G1 X0.321 Y-1.941 Z1.02
G1 X0.316 Y-1.832 Z1.016
G1 X0.32 Y-1.722 Z1.012
G1 X0.331 Y-1.613 Z1.008
G1 X0.351 Y-1.505 Z1.005
G1 X0.378 Y-1.398 Z1.001
G1 X0.413 Y-1.294 Z0.997
G1 X0.455 Y-1.193 Z0.993
G1 X0.504 Y-1.095 Z0.989
G1 X0.561 Y-1.001 Z0.985
G1 X0.624 Y-0.911 Z0.982
G1 X0.694 Y-0.826 Z0.978
G1 X0.769 Y-0.747 Z0.974
G1 X0.851 Y-0.673 Z0.97
G1 X0.937 Y-0.605 Z0.966
G1 X1.028 Y-0.544 Z0.962
G1 X1.123 Y-0.489 Z0.959
G1 X1.222 Y-0.442 Z0.955
G1 X1.324 Y-0.402 Z0.951
G1 X1.429 Y-0.369 Z0.947
G1 X1.536 Y-0.344 Z0.943
G1 X1.645 Y-0.327 Z0.939
G1 X1.754 Y-0.318 Z0.936
G1 X1.864 Y-0.317 Z0.932
G1 X1.973 Y-0.324 Z0.928
G1 X2.082 Y-0.338 Z0.924
G1 X2.189 Y-0.361 Z0.92
G1 X2.295 Y-0.392 Z0.916
G1 X2.398 Y-0.43 Z0.913
G1 X2.498 Y-0.475 Z0.909
G1 X2.594 Y-0.528 Z0.905
G1 X2.687 Y-0.587 Z0.901
G1 X2.774 Y-0.653 Z0.897
G1 X2.857 Y-0.725 Z0.893
G1 X2.934 Y-0.803 Z0.89
G1 X3.006 Y-0.887 Z0.886
G1 X3.071 Y-0.975 Z0.882
G1 X3.129 Y-1.068 Z0.878
G1 X3.181 Y-1.165 Z0.874
G1 X3.225 Y-1.265 Z0.87
G1 X3.262 Y-1.369 Z0.867
G1 X3.291 Y-1.474 Z0.863
G1 X3.313 Y-1.582 Z0.859
G1 X3.327 Y-1.691 Z0.855
G1 X3.332 Y-1.801 Z0.851
G1 X3.33 Y-1.91 Z0.847
G1 X3.32 Y-2.02 Z0.844
G1 X3.302 Y-2.128 Z0.84
G1 X3.276 Y-2.235 Z0.836
G1 X3.242 Y-2.339 Z0.832
G1 X3.201 Y-2.441 Z0.828
G1 X3.152 Y-2.539 Z0.824
G1 X3.097 Y-2.634 Z0.821
G1 X3.035 Y-2.724 Z0.817
G1 X2.966 Y-2.81 Z0.813
G1 X2.891 Y-2.89 Z0.809
G1 X2.811 Y-2.965 Z0.805
G1 X2.725 Y-3.034 Z0.801
G1 X2.635 Y-3.096 Z0.798
G1 X2.54 Y-3.152 Z0.794
G1 X2.442 Y-3.2 Z0.79
G1 X2.34 Y-3.242 Z0.786
G1 X2.236 Y-3.275 Z0.782
G1 X2.129 Y-3.302 Z0.778
G1 X2.021 Y-3.32 Z0.775
G1 X1.911 Y-3.33 Z0.771
G1 X1.802 Y-3.332 Z0.767
G1 X1.692 Y-3.327 Z0.763
G1 X1.583 Y-3.313 Z0.759
G1 X1.475 Y-3.292 Z0.755
G1 X1.37 Y-3.262 Z0.752
G1 X1.266 Y-3.225 Z0.748
G1 X1.166 Y-3.181 Z0.744
G1 X1.069 Y-3.13 Z0.74
G1 X0.976 Y-3.071 Z0.736
G1 X0.887 Y-3.006 Z0.732
G1 X0.804 Y-2.935 Z0.729
G1 X0.726 Y-2.858 Z0.725
G1 X0.654 Y-2.775 Z0.721
G1 X0.588 Y-2.687 Z0.717
G1 X0.528 Y-2.595 Z0.713
G1 X0.475 Y-2.499 Z0.709
G1 X0.43 Y-2.399 Z0.706
G1 X0.392 Y-2.296 Z0.702
G1 X0.361 Y-2.19 Z0.698
G1 X0.339 Y-2.083 Z0.694
G1 X0.324 Y-1.974 Z0.69
G1 X0.317 Y-1.865 Z0.686
G1 X0.318 Y-1.755 Z0.683
G1 X0.327 Y-1.646 Z0.679
G1 X0.344 Y-1.537 Z0.675
G1 X0.369 Y-1.43 Z0.671
G1 X0.401 Y-1.325 Z0.667
G1 X0.441 Y-1.223 Z0.663
G1 X0.489 Y-1.124 Z0.66
G1 X0.543 Y-1.029 Z0.656
G1 X0.605 Y-0.938 Z0.652
G1 X0.672 Y-0.851 Z0.648
G1 X0.746 Y-0.77 Z0.644
G1 X0.826 Y-0.694 Z0.64
G1 X0.911 Y-0.625 Z0.637
G1 X1 Y-0.561 Z0.633
G1 X1.094 Y-0.505 Z0.629
G1 X1.192 Y-0.455 Z0.625
G1 X1.293 Y-0.413 Z0.621
G1 X1.398 Y-0.378 Z0.617
G1 X1.504 Y-0.351 Z0.613
G1 X1.612 Y-0.331 Z0.61
G1 X1.721 Y-0.32 Z0.606
G1 X1.831 Y-0.316 Z0.602
G1 X1.941 Y-0.321 Z0.598
G1 X2.05 Y-0.333 Z0.594
G1 X2.157 Y-0.354 Z0.59
G1 X2.264 Y-0.382 Z0.587
G1 X2.367 Y-0.417 Z0.583
G1 X2.468 Y-0.461 Z0.579
G1 X2.566 Y-0.511 Z0.575
G1 X2.659 Y-0.569 Z0.571
G1 X2.749 Y-0.633 Z0.567
G1 X2.833 Y-0.703 Z0.564
G1 X2.912 Y-0.779 Z0.56
G1 X2.985 Y-0.861 Z0.556
G1 X3.052 Y-0.948 Z0.552
G1 X3.112 Y-1.04 Z0.548
G1 X3.166 Y-1.135 Z0.544
G1 X3.213 Y-1.235 Z0.541
G1 X3.252 Y-1.337 Z0.537
G1 X3.283 Y-1.443 Z0.533
G1 X3.307 Y-1.55 Z0.529
G1 X3.323 Y-1.658 Z0.525
G1 X3.331 Y-1.768 Z0.521
G1 X3.332 Y-1.878 Z0.518
G1 X3.324 Y-1.987 Z0.514
G1 X3.308 Y-2.096 Z0.51
G1 X3.284 Y-2.203 Z0.506
G1 X3.253 Y-2.308 Z0.502
G1 X3.214 Y-2.411 Z0.498
G1 X3.168 Y-2.51 Z0.495
G1 X3.114 Y-2.606 Z0.491
G1 X3.054 Y-2.698 Z0.487
G1 X2.987 Y-2.785 Z0.483
G1 X2.914 Y-2.867 Z0.479
G1 X2.835 Y-2.943 Z0.475
G1 X2.751 Y-3.014 Z0.472
G1 X2.662 Y-3.078 Z0.468
G1 X2.569 Y-3.136 Z0.464
G1 X2.472 Y-3.187 Z0.46
G1 X2.371 Y-3.23 Z0.456
G1 X2.267 Y-3.266 Z0.452
G1 X2.161 Y-3.295 Z0.449
G1 X2.053 Y-3.315 Z0.445
G1 X1.944 Y-3.328 Z0.441
G1 X1.834 Y-3.333 Z0.437
G1 X1.725 Y-3.329 Z0.433
G1 X1.616 Y-3.318 Z0.429
G1 X1.507 Y-3.299 Z0.426
G1 X1.401 Y-3.272 Z0.422
G1 X1.297 Y-3.237 Z0.418
G1 X1.195 Y-3.195 Z0.414
G1 X1.097 Y-3.146 Z0.41
G1 X1.003 Y-3.089 Z0.406
G1 X0.913 Y-3.026 Z0.403
G1 X0.828 Y-2.957 Z0.399
G1 X0.749 Y-2.881 Z0.395
G1 X0.675 Y-2.8 Z0.391
G1 X0.607 Y-2.714 Z0.387
G1 X0.545 Y-2.623 Z0.383
G1 X0.49 Y-2.528 Z0.38
G1 X0.443 Y-2.429 Z0.376
G1 X0.403 Y-2.327 Z0.372
G1 X0.37 Y-2.222 Z0.368
G1 X0.345 Y-2.115 Z0.364
G1 X0.327 Y-2.007 Z0.36
G1 X0.318 Y-1.898 Z0.357
G1 X0.317 Y-1.788 Z0.353
G1 X0.323 Y-1.678 Z0.349
G1 X0.338 Y-1.569 Z0.345
G1 X0.361 Y-1.462 Z0.341
G1 X0.391 Y-1.356 Z0.337
G1 X0.429 Y-1.253 Z0.334
G1 X0.474 Y-1.153 Z0.33
G1 X0.526 Y-1.057 Z0.326
G1 X0.585 Y-0.964 Z0.322
G1 X0.651 Y-0.877 Z0.318
G1 X0.723 Y-0.794 Z0.314
G1 X0.801 Y-0.716 Z0.311
G1 X0.885 Y-0.645 Z0.307
G1 X0.973 Y-0.58 Z0.303
G1 X1.066 Y-0.521 Z0.299
G1 X1.162 Y-0.469 Z0.295
G1 X1.263 Y-0.425 Z0.291
G1 X1.366 Y-0.388 Z0.288
G1 X1.472 Y-0.358 Z0.284
G1 X1.579 Y-0.336 Z0.28
G1 X1.688 Y-0.322 Z0.276
G1 X1.798 Y-0.317 Z0.272
G1 X1.908 Y-0.319 Z0.268
G1 X2.017 Y-0.329 Z0.265
G1 X2.125 Y-0.347 Z0.261
G1 X2.232 Y-0.372 Z0.257
G1 X2.337 Y-0.406 Z0.253
G1 X2.438 Y-0.447 Z0.249
G1 X2.537 Y-0.495 Z0.245
G1 X2.632 Y-0.551 Z0.242
G1 X2.722 Y-0.613 Z0.238
G1 X2.808 Y-0.681 Z0.234
G1 X2.889 Y-0.756 Z0.23
G1 X2.964 Y-0.836 Z0.226
G1 X3.032 Y-0.922 Z0.222
G1 X3.095 Y-1.012 Z0.219
G1 X3.151 Y-1.106 Z0.215
G1 X3.199 Y-1.205 Z0.211
G1 X3.241 Y-1.306 Z0.207
G1 X3.275 Y-1.411 Z0.203
G1 X3.301 Y-1.517 Z0.199
G1 X3.319 Y-1.626 Z0.196
G1 X3.33 Y-1.735 Z0.192
G1 X3.332 Y-1.845 Z0.188
G1 X3.327 Y-1.954 Z0.184
G1 X3.314 Y-2.063 Z0.18
G1 X3.292 Y-2.171 Z0.176
G1 X3.263 Y-2.277 Z0.173
G1 X3.226 Y-2.38 Z0.169
G1 X3.182 Y-2.481 Z0.165
G1 X3.131 Y-2.578 Z0.161
G1 X3.073 Y-2.671 Z0.157
G1 X3.008 Y-2.759 Z0.153
G1 X2.937 Y-2.843 Z0.15
G1 X2.86 Y-2.921 Z0.146
G1 X2.777 Y-2.994 Z0.142
G1 X2.69 Y-3.06 Z0.138
G1 X2.597 Y-3.119 Z0.134
G1 X2.501 Y-3.172 Z0.13
G1 X2.401 Y-3.218 Z0.127
G1 X2.298 Y-3.256 Z0.123
G1 X2.193 Y-3.287 Z0.119
G1 X2.086 Y-3.31 Z0.115
G1 X1.977 Y-3.325 Z0.111
G1 X1.867 Y-3.332 Z0.107
G1 X1.758 Y-3.331 Z0.104
G1 X1.648 Y-3.322 Z0.1
G1 X1.54 Y-3.305 Z0.096
G1 X1.433 Y-3.281 Z0.092
G1 X1.328 Y-3.248 Z0.088
G1 X1.226 Y-3.209 Z0.084
G1 X1.126 Y-3.161 Z0.081
G1 X1.031 Y-3.107 Z0.077
G1 X0.94 Y-3.046 Z0.073
G1 X0.853 Y-2.978 Z0.069
G1 X0.772 Y-2.905 Z0.065
G1 X0.696 Y-2.825 Z0.061
G1 X0.626 Y-2.74 Z0.058
G1 X0.563 Y-2.651 Z0.054
G1 X0.506 Y-2.557 Z0.05
G1 X0.456 Y-2.459 Z0.046
G1 X0.414 Y-2.358 Z0.042
G1 X0.379 Y-2.254 Z0.038
G1 X0.351 Y-2.148 Z0.035
G1 X0.332 Y-2.04 Z0.031
G1 X0.32 Y-1.93 Z0.027
G1 X0.316 Y-1.821 Z0.023
G1 X0.321 Y-1.711 Z0.019
G1 X0.333 Y-1.602 Z0.015
G1 X0.353 Y-1.494 Z0.012
G1 X0.381 Y-1.388 Z0.008
G1 X0.416 Y-1.284 Z0.004
G1 X0.46 Y-1.183 Z0
G1 X0.51 Y-1.085 Z-0.004
G1 X0.567 Y-0.992 Z-0.008
G1 X0.631 Y-0.902 Z-0.012
G1 X0.701 Y-0.818 Z-0.015
G1 X0.777 Y-0.739 Z-0.019
G1 X0.859 Y-0.666 Z-0.023
G1 X0.946 Y-0.599 Z-0.027
G1 X1.037 Y-0.538 Z-0.031
G1 X1.133 Y-0.484 Z-0.035
G1 X1.232 Y-0.437 Z-0.038
G1 X1.335 Y-0.398 Z-0.042
G1 X1.44 Y-0.366 Z-0.046
G1 X1.547 Y-0.342 Z-0.05
G1 X1.656 Y-0.326 Z-0.054
G1 X1.765 Y-0.317 Z-0.058
G1 X1.875 Z-0.061
G1 X1.984 Y-0.325 Z-0.065
G1 X2.093 Y-0.34 Z-0.069
G1 X2.2 Y-0.364 Z-0.073
G1 X2.306 Y-0.395 Z-0.077
G1 X2.408 Y-0.434 Z-0.081
G1 X2.508 Y-0.48 Z-0.084
G1 X2.604 Y-0.533 Z-0.088
G1 X2.696 Y-0.593 Z-0.092
G1 X2.783 Y-0.66 Z-0.096
G1 X2.865 Y-0.733 Z-0.1
G1 X2.942 Y-0.811 Z-0.104
G1 X3.012 Y-0.895 Z-0.107
G1 X3.077 Y-0.984 Z-0.111
G1 X3.135 Y-1.078 Z-0.115
G1 X3.186 Y-1.175 Z-0.119
G1 X3.229 Y-1.276 Z-0.123
G1 X3.265 Y-1.379 Z-0.127
G1 X3.294 Y-1.485 Z-0.13
G1 X3.315 Y-1.593 Z-0.134
G1 X3.328 Y-1.702 Z-0.138
G1 X3.332 Y-1.812 Z-0.142
G1 X3.329 Y-1.921 Z-0.146
G1 X3.318 Y-2.031 Z-0.15
G1 X3.299 Y-2.139 Z-0.153
G1 X3.273 Y-2.245 Z-0.157
G1 X3.238 Y-2.35 Z-0.161
G1 X3.196 Y-2.451 Z-0.165
G1 X3.147 Y-2.549 Z-0.169
G1 X3.091 Y-2.643 Z-0.173
G1 X3.028 Y-2.733 Z-0.176
G1 X2.959 Y-2.818 Z-0.18
G1 X2.883 Y-2.898 Z-0.184
G1 X2.802 Y-2.973 Z-0.188
G1 X2.716 Y-3.041 Z-0.192
G1 X2.625 Y-3.102 Z-0.196
G1 X2.53 Y-3.157 Z-0.199
G1 X2.432 Y-3.205 Z-0.203
G1 X2.329 Y-3.245 Z-0.207
G1 X2.225 Y-3.278 Z-0.211
G1 X2.118 Y-3.304 Z-0.215
G1 X2.01 Y-3.321 Z-0.219
G1 X1.9 Y-3.331 Z-0.222
G1 X1.79 Y-3.332 Z-0.226
G1 X1.681 Y-3.326 Z-0.23
G1 X1.572 Y-3.311 Z-0.234
G1 X1.465 Y-3.289 Z-0.238
G1 X1.359 Y-3.259 Z-0.242
G1 X1.256 Y-3.221 Z-0.245
G1 X1.156 Y-3.176 Z-0.249
G1 X1.059 Y-3.124 Z-0.253
G1 X0.967 Y-3.065 Z-0.257
G1 X0.879 Y-2.999 Z-0.261
G1 X0.796 Y-2.927 Z-0.265
G1 X0.718 Y-2.85 Z-0.268
G1 X0.647 Y-2.766 Z-0.272
G1 X0.581 Y-2.678 Z-0.276
G1 X0.522 Y-2.585 Z-0.28
G1 X0.471 Y-2.489 Z-0.284
G1 X0.426 Y-2.389 Z-0.288
G1 X0.388 Y-2.285 Z-0.291
G1 X0.359 Y-2.18 Z-0.295
G1 X0.337 Y-2.072 Z-0.299
G1 X0.323 Y-1.963 Z-0.303
G1 X0.317 Y-1.854 Z-0.307
G1 X0.318 Y-1.744 Z-0.311
G1 X0.328 Y-1.634 Z-0.314
G1 X0.346 Y-1.526 Z-0.318
G1 X0.372 Y-1.419 Z-0.322
G1 X0.405 Y-1.315 Z-0.326
G1 X0.446 Y-1.213 Z-0.33
G1 X0.494 Y-1.114 Z-0.334
G1 X0.549 Y-1.019 Z-0.337
G1 X0.611 Y-0.929 Z-0.341
G1 X0.679 Y-0.843 Z-0.345
G1 X0.754 Y-0.762 Z-0.349
G1 X0.834 Y-0.687 Z-0.353
G1 X0.919 Y-0.618 Z-0.357
G1 X1.01 Y-0.555 Z-0.36
G1 X1.104 Y-0.499 Z-0.364
G1 X1.202 Y-0.451 Z-0.368
G1 X1.304 Y-0.409 Z-0.372
G1 X1.408 Y-0.375 Z-0.376
G1 X1.515 Y-0.348 Z-0.38
G1 X1.623 Y-0.33 Z-0.383
G1 X1.732 Y-0.319 Z-0.387
G1 X1.842 Y-0.316 Z-0.391
G1 X1.952 Y-0.322 Z-0.395
G1 X2.061 Y-0.335 Z-0.399
G1 X2.168 Y-0.356 Z-0.403
G1 X2.274 Y-0.385 Z-0.406
G1 X2.378 Y-0.421 Z-0.41
G1 X2.478 Y-0.465 Z-0.414
G1 X2.575 Y-0.517 Z-0.418
G1 X2.669 Y-0.575 Z-0.422
G1 X2.757 Y-0.639 Z-0.426
G1 X2.841 Y-0.71 Z-0.429
G1 X2.919 Y-0.787 Z-0.433
G1 X2.992 Y-0.87 Z-0.437
G1 X3.058 Y-0.957 Z-0.441
G1 X3.118 Y-1.049 Z-0.445
G1 X3.171 Y-1.145 Z-0.449
G1 X3.217 Y-1.245 Z-0.452
G1 X3.255 Y-1.348 Z-0.456
G1 X3.286 Y-1.453 Z-0.46
G1 X3.309 Y-1.561 Z-0.464
G1 X3.325 Y-1.669 Z-0.468
G1 X3.332 Y-1.779 Z-0.472
G1 X3.331 Y-1.889 Z-0.475
G1 X3.323 Y-1.998 Z-0.479
G1 X3.306 Y-2.107 Z-0.483
G1 X3.281 Y-2.214 Z-0.487
G1 X3.249 Y-2.319 Z-0.491
G1 X3.21 Y-2.421 Z-0.495
G1 X3.163 Y-2.52 Z-0.498
G1 X3.108 Y-2.616 Z-0.502
G1 X3.047 Y-2.707 Z-0.506
G1 X2.98 Y-2.793 Z-0.51
G1 X2.906 Y-2.875 Z-0.514
G1 X2.827 Y-2.951 Z-0.518
G1 X2.743 Y-3.021 Z-0.521
G1 X2.653 Y-3.084 Z-0.525
G1 X2.559 Y-3.141 Z-0.529
G1 X2.461 Y-3.191 Z-0.533
G1 X2.36 Y-3.234 Z-0.537
G1 X2.256 Y-3.269 Z-0.541
G1 X2.15 Y-3.297 Z-0.544
G1 X2.042 Y-3.317 Z-0.548
G1 X1.933 Y-3.329 Z-0.552
G1 X1.823 Y-3.333 Z-0.556
G1 X1.714 Y-3.328 Z-0.56
G1 X1.605 Y-3.316 Z-0.564
G1 X1.497 Y-3.296 Z-0.567
G1 X1.39 Y-3.269 Z-0.571
G1 X1.286 Y-3.233 Z-0.575
G1 X1.185 Y-3.19 Z-0.579
G1 X1.088 Y-3.14 Z-0.583
G1 X0.994 Y-3.083 Z-0.587
G1 X0.905 Y-3.02 Z-0.59
G1 X0.82 Y-2.949 Z-0.594
G1 X0.741 Y-2.873 Z-0.598
G1 X0.667 Y-2.792 Z-0.602
G1 X0.6 Y-2.705 Z-0.606
G1 X0.539 Y-2.614 Z-0.61
G1 X0.485 Y-2.518 Z-0.613
G1 X0.438 Y-2.419 Z-0.617
G1 X0.399 Y-2.316 Z-0.621
G1 X0.367 Y-2.211 Z-0.625
G1 X0.343 Y-2.104 Z-0.629
G1 X0.326 Y-1.996 Z-0.633
G1 X0.318 Y-1.886 Z-0.637
G1 X0.317 Y-1.777 Z-0.64
G1 X0.325 Y-1.667 Z-0.644
G1 X0.34 Y-1.558 Z-0.648
G1 X0.363 Y-1.451 Z-0.652
G1 X0.394 Y-1.346 Z-0.656
G1 X0.433 Y-1.243 Z-0.66
G1 X0.479 Y-1.143 Z-0.663
G1 X0.532 Y-1.047 Z-0.667
G1 X0.592 Y-0.955 Z-0.671
G1 X0.658 Y-0.868 Z-0.675
G1 X0.731 Y-0.786 Z-0.679
G1 X0.809 Y-0.709 Z-0.683
G1 X0.893 Y-0.638 Z-0.686
G1 X0.982 Y-0.573 Z-0.69
G1 X1.075 Y-0.516 Z-0.694
G1 X1.172 Y-0.464 Z-0.698
G1 X1.273 Y-0.421 Z-0.702
G1 X1.377 Y-0.384 Z-0.706
G1 X1.483 Y-0.356 Z-0.709
G1 X1.59 Y-0.335 Z-0.713
G1 X1.699 Y-0.321 Z-0.717
G1 X1.809 Y-0.316 Z-0.721
G1 X1.919 Y-0.319 Z-0.725
G1 X2.028 Y-0.33 Z-0.729
G1 X2.136 Y-0.349 Z-0.732
G1 X2.243 Y-0.375 Z-0.736
G1 X2.347 Y-0.41 Z-0.74
G1 X2.449 Y-0.451 Z-0.744
G1 X2.547 Y-0.501 Z-0.748
G1 X2.641 Y-0.557 Z-0.752
G1 X2.731 Y-0.619 Z-0.755
G1 X2.816 Y-0.689 Z-0.759
G1 X2.896 Y-0.764 Z-0.763
G1 X2.971 Y-0.844 Z-0.767
G1 X3.039 Y-0.93 Z-0.771
G1 X3.101 Y-1.021 Z-0.775
G1 X3.156 Y-1.116 Z-0.778
G1 X3.204 Y-1.215 Z-0.782
G1 X3.245 Y-1.317 Z-0.786
G1 X3.278 Y-1.421 Z-0.79
G1 X3.303 Y-1.528 Z-0.794
G1 X3.321 Y-1.637 Z-0.798
G1 X3.331 Y-1.746 Z-0.801
G1 X3.332 Y-1.856 Z-0.805
G1 X3.326 Y-1.965 Z-0.809
G1 X3.312 Y-2.074 Z-0.813
G1 X3.29 Y-2.182 Z-0.817
G1 X3.26 Y-2.287 Z-0.821
G1 X3.222 Y-2.391 Z-0.824
G1 X3.177 Y-2.491 Z-0.828
G1 X3.125 Y-2.587 Z-0.832
G1 X3.066 Y-2.68 Z-0.836
G1 X3.001 Y-2.768 Z-0.84
G1 X2.929 Y-2.851 Z-0.844
G1 X2.851 Y-2.929 Z-0.847
G1 X2.768 Y-3.001 Z-0.851
G1 X2.68 Y-3.066 Z-0.855
G1 X2.588 Y-3.125 Z-0.859
G1 X2.491 Y-3.177 Z-0.863
G1 X2.391 Y-3.222 Z-0.867
G1 X2.288 Y-3.26 Z-0.87
G1 X2.182 Y-3.29 Z-0.874
G1 X2.075 Y-3.312 Z-0.878
G1 X1.966 Y-3.326 Z-0.882
G1 X1.856 Y-3.332 Z-0.886
G1 X1.746 Y-3.331 Z-0.89
G1 X1.637 Y-3.321 Z-0.893
G1 X1.529 Y-3.303 Z-0.897
G1 X1.422 Y-3.278 Z-0.901
G1 X1.317 Y-3.245 Z-0.905
G1 X1.215 Y-3.204 Z-0.909
G1 X1.117 Y-3.156 Z-0.913
G1 X1.022 Y-3.101 Z-0.916
G1 X0.931 Y-3.039 Z-0.92
G1 X0.845 Y-2.971 Z-0.924
G1 X0.764 Y-2.897 Z-0.928
G1 X0.689 Y-2.817 Z-0.932
G1 X0.62 Y-2.732 Z-0.936
G1 X0.557 Y-2.642 Z-0.939
G1 X0.501 Y-2.547 Z-0.943
G1 X0.452 Y-2.449 Z-0.947
G1 X0.41 Y-2.347 Z-0.951
G1 X0.376 Y-2.243 Z-0.955
G1 X0.349 Y-2.137 Z-0.959
G1 X0.33 Y-2.029 Z-0.962
G1 X0.319 Y-1.919 Z-0.966
G1 X0.316 Y-1.81 Z-0.97
G1 X0.321 Y-1.7 Z-0.974
G1 X0.334 Y-1.591 Z-0.978
G1 X0.355 Y-1.483 Z-0.982
G1 X0.384 Y-1.377 Z-0.985
G1 X0.42 Y-1.274 Z-0.989
G1 X0.464 Y-1.173 Z-0.993
G1 X0.515 Y-1.076 Z-0.997
G1 X0.573 Y-0.982 Z-1.001
G1 X0.638 Y-0.894 Z-1.005
G1 X0.709 Y-0.81 Z-1.008
G1 X0.785 Y-0.731 Z-1.012
G1 X0.868 Y-0.659 Z-1.016
G1 X0.955 Y-0.592 Z-1.02
G1 X1.047 Y-0.532 Z-1.024
G1 X1.143 Y-0.479 Z-1.028
G1 X1.243 Y-0.433 Z-1.031
G1 X1.345 Y-0.394 Z-1.035
G1 X1.451 Y-0.363 Z-1.039
G1 X1.558 Y-0.34 Z-1.043
G1 X1.667 Y-0.325 Z-1.047
G1 X1.776 Y-0.317 Z-1.051
G1 X1.886 Y-0.318 Z-1.054
G1 X1.995 Y-0.326 Z-1.058
G1 X2.104 Y-0.342 Z-1.062
G1 X2.211 Y-0.367 Z-1.066
G1 X2.316 Y-0.399 Z-1.07
G1 X2.418 Y-0.438 Z-1.074
G1 X2.518 Y-0.485 Z-1.077
G1 X2.613 Y-0.539 Z-1.081
G1 X2.705 Y-0.6 Z-1.085
G1 X2.791 Y-0.667 Z-1.089
G1 X2.873 Y-0.741 Z-1.093
G1 X2.949 Y-0.82 Z-1.097
G1 X3.019 Y-0.904 Z-1.1
G1 X3.083 Y-0.994 Z-1.104
G1 X3.14 Y-1.087 Z-1.108
G1 X3.19 Y-1.185 Z-1.112
G1 X3.233 Y-1.286 Z-1.116
G1 X3.269 Y-1.39 Z-1.12
G1 X3.296 Y-1.496 Z-1.123
G1 X3.316 Y-1.604 Z-1.127
G1 X3.328 Y-1.713 Z-1.131
G1 X3.333 Y-1.823 Z-1.135
G1 X3.329 Y-1.933 Z-1.139
G1 X3.317 Y-2.042 Z-1.143
G1 X3.297 Y-2.15 Z-1.146
G1 X3.269 Y-2.256 Z-1.15
G1 X3.234 Y-2.36 Z-1.154
G1 X3.192 Y-2.461 Z-1.158
G1 X3.142 Y-2.559 Z-1.162
G1 X3.085 Y-2.653 Z-1.166
G1 X3.021 Y-2.742 Z-1.169
G1 X2.951 Y-2.827 Z-1.173
G1 X2.875 Y-2.906 Z-1.177
G1 X2.794 Y-2.98 Z-1.181
G1 X2.707 Y-3.047 Z-1.185
G1 X2.616 Y-3.108 Z-1.189
G1 X2.52 Y-3.162 Z-1.192
G1 X2.421 Y-3.209 Z-1.196
G1 X2.319 Y-3.249 Z-1.2
G1 X2.214 Y-3.281 Z-1.204
G1 X2.107 Y-3.306 Z-1.208
G1 X1.999 Y-3.322 Z-1.212
G1 X1.889 Y-3.331 Z-1.215
G1 X1.779 Y-3.332 Z-1.219
G1 X1.67 Y-3.325 Z-1.223
G1 X1.561 Y-3.309 Z-1.227
G1 X1.454 Y-3.286 Z-1.231
G1 X1.348 Y-3.255 Z-1.235
G1 X1.246 Y-3.217 Z-1.238
G1 X1.146 Y-3.171 Z-1.242
G1 X1.05 Y-3.118 Z-1.246
G1 X0.958 Y-3.059 Z-1.25
G1 X0.87 Y-2.992 Z-1.254
G1 X0.788 Y-2.92 Z-1.258
G1 X0.711 Y-2.841 Z-1.262
G1 X0.64 Y-2.758 Z-1.265
G1 X0.575 Y-2.669 Z-1.269
G1 X0.517 Y-2.576 Z-1.273
G1 X0.466 Y-2.479 Z-1.277
G1 X0.422 Y-2.378 Z-1.281
G1 X0.385 Y-2.275 Z-1.285
G1 X0.356 Y-2.169 Z-1.288
G1 X0.335 Y-2.061 Z-1.292
G1 X0.322 Y-1.952 Z-1.296
G1 X0.316 Y-1.842 Z-1.3
G1 X0.319 Y-1.733 Z-1.304
G1 X0.33 Y-1.623 Z-1.308
G1 X0.348 Y-1.515 Z-1.311
G1 X0.375 Y-1.409 Z-1.315
G1 X0.409 Y-1.304 Z-1.319
G1 X0.45 Y-1.203 Z-1.323
G1 X0.499 Y-1.104 Z-1.327
G1 X0.555 Y-1.01 Z-1.331
G1 X0.618 Y-0.92 Z-1.334
G1 X0.687 Y-0.834 Z-1.338
G1 X0.762 Y-0.754 Z-1.342
G1 X0.842 Y-0.68 Z-1.346
G1 X0.928 Y-0.611 Z-1.35
G1 X1.019 Y-0.549 Z-1.354
G1 X1.114 Y-0.494 Z-1.357
G1 X1.212 Y-0.446 Z-1.361
G1 X1.314 Y-0.405 Z-1.365
G1 X1.419 Y-0.372 Z-1.369
G1 X1.526 Y-0.346 Z-1.373
G1 X1.634 Y-0.328 Z-1.377
G1 X1.743 Y-0.318 Z-1.38
G1 X1.853 Y-0.317 Z-1.384
G1 X1.963 Y-0.323 Z-1.388
G1 X2.072 Y-0.337 Z-1.392
G1 X2.179 Y-0.359 Z-1.396
G1 X2.285 Y-0.388 Z-1.4
G1 X2.388 Y-0.426 Z-1.403
G1 X2.488 Y-0.47 Z-1.407
G1 X2.585 Y-0.522 Z-1.411
G1 X2.678 Y-0.581 Z-1.415
G1 X2.766 Y-0.646 Z-1.419
G1 X2.849 Y-0.718 Z-1.423
G1 X2.927 Y-0.795 Z-1.426
G1 X2.999 Y-0.878 Z-1.43
G1 X3.065 Y-0.966 Z-1.434
G1 X3.124 Y-1.059 Z-1.438
G1 X3.176 Y-1.155 Z-1.442
G1 X3.221 Y-1.255 Z-1.446
G1 X3.259 Y-1.359 Z-1.449
G1 X3.289 Y-1.464 Z-1.453
G1 X3.311 Y-1.572 Z-1.457
G1 X3.326 Y-1.68 Z-1.461
G1 X3.332 Y-1.79 Z-1.465
G1 X3.331 Y-1.9 Z-1.469
G1 X3.321 Y-2.009 Z-1.472
G1 X3.304 Y-2.117 Z-1.476
G1 X3.279 Y-2.224 Z-1.48
G1 X3.246 Y-2.329 Z-1.484
G1 X3.205 Y-2.431 Z-1.488
G1 X3.157 Y-2.53 Z-1.492
G1 X3.103 Y-2.625 Z-1.495
G1 X3.041 Y-2.716 Z-1.499
G1 X2.973 Y-2.802 Z-1.503
G1 X2.899 Y-2.883 Z-1.507
G1 X2.819 Y-2.958 Z-1.511
G1 X2.734 Y-3.028 Z-1.515
G1 X2.644 Y-3.091 Z-1.518
G1 X2.55 Y-3.147 Z-1.522
G1 X2.451 Y-3.196 Z-1.526
G1 X2.35 Y-3.238 Z-1.53
G1 X2.246 Y-3.273 Z-1.534
G1 X2.139 Y-3.299 Z-1.538
G1 X2.031 Y-3.318 Z-1.541
G1 X1.922 Y-3.329 Z-1.545
G1 X1.812 Y-3.333 Z-1.549
G1 X1.703 Y-3.328 Z-1.553
G1 X1.594 Y-3.315 Z-1.557
G1 X1.486 Y-3.294 Z-1.561
G1 X1.38 Y-3.265 Z-1.564
G1 X1.276 Y-3.229 Z-1.568
G1 X1.175 Y-3.186 Z-1.572
G1 X1.078 Y-3.135 Z-1.576
G1 X0.985 Y-3.077 Z-1.58
G1 X0.896 Y-3.013 Z-1.584
G1 X0.812 Y-2.942 Z-1.587
G1 X0.733 Y-2.865 Z-1.591
G1 X0.66 Y-2.783 Z-1.595
G1 X0.594 Y-2.696 Z-1.599
G1 X0.534 Y-2.604 Z-1.603
G1 X0.48 Y-2.508 Z-1.607
G1 X0.434 Y-2.409 Z-1.61
G1 X0.395 Y-2.306 Z-1.614
G1 X0.364 Y-2.201 Z-1.618
G1 X0.34 Y-2.093 Z-1.622
G1 X0.325 Y-1.985 Z-1.626
G1 X0.317 Y-1.875 Z-1.63
G1 Y-1.766 Z-1.633
G1 X0.326 Y-1.656 Z-1.637
G1 X0.342 Y-1.548 Z-1.641
G1 X0.366 Y-1.44 Z-1.645
G1 X0.398 Y-1.335 Z-1.649
G1 X0.437 Y-1.233 Z-1.653
G1 X0.484 Y-1.134 Z-1.656
G1 X0.538 Y-1.038 Z-1.66
G1 X0.598 Y-0.946 Z-1.664
G1 X0.665 Y-0.859 Z-1.668
G1 X0.739 Y-0.778 Z-1.672
G1 X0.818 Y-0.701 Z-1.676
G1 X0.902 Y-0.631 Z-1.679
G1 X0.991 Y-0.567 Z-1.683
G1 X1.085 Y-0.51 Z-1.687
G1 X1.183 Y-0.46 Z-1.691
G1 X1.284 Y-0.417 Z-1.695
G1 X1.387 Y-0.381 Z-1.699
G1 X1.494 Y-0.353 Z-1.702
G1 X1.601 Y-0.333 Z-1.706
G1 X1.711 Y-0.321 Z-1.71
G1 X1.82 Y-0.316 Z-1.714
G1 X1.93 Y-0.32 Z-1.718
G1 X2.039 Y-0.332 Z-1.722
G1 X2.147 Y-0.351 Z-1.725
G1 X2.253 Y-0.379 Z-1.729
G1 X2.357 Y-0.414 Z-1.733
G1 X2.459 Y-0.456 Z-1.737
G1 X2.556 Y-0.506 Z-1.741
G1 X2.65 Y-0.563 Z-1.745
G1 X2.74 Y-0.626 Z-1.748
G1 X2.825 Y-0.696 Z-1.752
G1 X2.904 Y-0.772 Z-1.756
G1 X2.978 Y-0.853 Z-1.76
G1 X3.046 Y-0.939 Z-1.764
G1 X3.107 Y-1.031 Z-1.768
G1 X3.161 Y-1.126 Z-1.771
G1 X3.208 Y-1.225 Z-1.775
G1 X3.248 Y-1.327 Z-1.779
G1 X3.281 Y-1.432 Z-1.783
G1 X3.305 Y-1.539 Z-1.787
G1 X3.322 Y-1.648 Z-1.791
G1 X3.331 Y-1.757 Z-1.794
G1 X3.332 Y-1.867 Z-1.798
G1 X3.325 Y-1.976 Z-1.802
G1 X3.31 Y-2.085 Z-1.806
G1 X3.287 Y-2.193 Z-1.81
G1 X3.256 Y-2.298 Z-1.814
G1 X3.218 Y-2.401 Z-1.817
G1 X3.172 Y-2.501 Z-1.821
G1 X3.12 Y-2.597 Z-1.825
G1 X3.06 Y-2.689 Z-1.829
G1 X2.994 Y-2.777 Z-1.833
G1 X2.921 Y-2.859 Z-1.837
G1 X2.843 Y-2.936 Z-1.84
G1 X2.76 Y-3.007 Z-1.844
G1 X2.671 Y-3.072 Z-1.848
G1 X2.578 Y-3.131 Z-1.852
G1 X2.481 Y-3.182 Z-1.856
G1 X2.381 Y-3.226 Z-1.86
G1 X2.277 Y-3.263 Z-1.863
G1 X2.171 Y-3.292 Z-1.867
G1 X2.064 Y-3.313 Z-1.871
G1 X1.955 Y-3.327 Z-1.875
G1 X1.845 Y-3.332 Z-1.879
G1 X1.735 Y-3.33 Z-1.883
G1 X1.626 Y-3.319 Z-1.887
G1 X1.518 Y-3.301 Z-1.89
G1 X1.411 Y-3.275 Z-1.894
G1 X1.307 Y-3.241 Z-1.898
G1 X1.205 Y-3.2 Z-1.902
G1 X1.107 Y-3.151 Z-1.906
G1 X1.012 Y-3.095 Z-1.91
G1 X0.922 Y-3.033 Z-1.913
G1 X0.836 Y-2.964 Z-1.917
G1 X0.756 Y-2.889 Z-1.921
G1 X0.682 Y-2.808 Z-1.925
G1 X0.613 Y-2.723 Z-1.929
G1 X0.551 Y-2.632 Z-1.933
G1 X0.495 Y-2.537 Z-1.936
G1 X0.447 Y-2.439 Z-1.94
G1 X0.406 Y-2.337 Z-1.944
G1 X0.373 Y-2.232 Z-1.948
G1 X0.347 Y-2.126 Z-1.952
G1 X0.329 Y-2.017 Z-1.956
G1 X0.319 Y-1.908 Z-1.959
G1 X0.317 Y-1.798 Z-1.963
G1 X0.322 Y-1.689 Z-1.967
G1 X0.336 Y-1.58 Z-1.971
G1 X0.358 Y-1.472 Z-1.975
G1 X0.387 Y-1.367 Z-1.979
G1 X0.425 Y-1.263 Z-1.982
G1 X0.469 Y-1.163 Z-1.986
G1 X0.521 Y-1.066 Z-1.99
G1 X0.579 Y-0.973 Z-1.994
G1 X0.645 Y-0.885 Z-1.998
G1 X0.716 Y-0.802 Z-2.002
G1 X0.793 Y-0.724 Z-2.005
G1 X0.876 Y-0.652 Z-2.009
G1 X0.964 Y-0.586 Z-2.013
G1 X1.056 Y-0.526 Z-2.017
G1 X1.153 Y-0.474 Z-2.021
G1 X1.253 Y-0.429 Z-2.025
G1 X1.356 Y-0.391 Z-2.028
G1 X1.461 Y-0.361 Z-2.032
G1 X1.569 Y-0.338 Z-2.036
G1 X1.678 Y-0.323 Z-2.04
G1 X1.787 Y-0.317 Z-2.044
G1 X1.897 Y-0.318 Z-2.048
G1 X2.006 Y-0.327 Z-2.051
G1 X2.115 Y-0.345 Z-2.055
G1 X2.222 Y-0.37 Z-2.059
G1 X2.327 Y-0.402 Z-2.063
G1 X2.429 Y-0.443 Z-2.067
G1 X2.528 Y-0.49 Z-2.071
G1 X2.623 Y-0.545 Z-2.074
G1 X2.714 Y-0.606 Z-2.078
G1 X2.8 Y-0.674 Z-2.082
G1 X2.881 Y-0.748 Z-2.086
G1 X2.957 Y-0.828 Z-2.09
G1 X3.026 Y-0.913 Z-2.094
G1 X3.089 Y-1.003 Z-2.097
G1 X3.146 Y-1.097 Z-2.101
G1 X3.195 Y-1.195 Z-2.105
G1 X3.237 Y-1.296 Z-2.109
G1 X3.272 Y-1.401 Z-2.113
G1 X3.299 Y-1.507 Z-2.117
G1 X3.318 Y-1.615 Z-2.12
G1 X3.329 Y-1.724 Z-2.124
G1 X3.333 Y-1.834 Z-2.128
G1 X3.328 Y-1.944 Z-2.132
G1 X3.315 Y-2.053 Z-2.136
G1 X3.295 Y-2.161 Z-2.14
G1 X3.266 Y-2.267 Z-2.143
G1 X3.23 Y-2.37 Z-2.147
G1 X3.187 Y-2.471 Z-2.151
G1 X3.136 Y-2.569 Z-2.155
G1 X3.079 Y-2.662 Z-2.159
G1 X3.014 Y-2.751 Z-2.163
G1 X2.944 Y-2.835 Z-2.166
G1 X2.867 Y-2.914 Z-2.17
G1 X2.785 Y-2.987 Z-2.174
G1 X2.698 Y-3.054 Z-2.178
G1 X2.606 Y-3.114 Z-2.182
G1 X2.511 Y-3.167 Z-2.186
G1 X2.411 Y-3.214 Z-2.189
G1 X2.308 Y-3.253 Z-2.193
G1 X2.203 Y-3.284 Z-2.197
G1 X2.096 Y-3.308 Z-2.201
G1 X1.987 Y-3.324 Z-2.205
G1 X1.878 Y-3.332 Z-2.209
G1 X1.768 Z-2.212
G1 X1.659 Y-3.323 Z-2.216
G1 X1.55 Y-3.307 Z-2.22
G1 X1.443 Y-3.284 Z-2.224
G1 X1.338 Y-3.252 Z-2.228
G1 X1.235 Y-3.213 Z-2.232
G1 X1.136 Y-3.166 Z-2.235
G1 X1.04 Y-3.113 Z-2.239
G1 X0.948 Y-3.052 Z-2.243
G1 X0.861 Y-2.985 Z-2.247
G1 X0.78 Y-2.912 Z-2.251
G1 X0.703 Y-2.833 Z-2.255
G1 X0.633 Y-2.749 Z-2.258
G1 X0.569 Y-2.66 Z-2.262
G1 X0.511 Y-2.566 Z-2.266
G1 X0.461 Y-2.469 Z-2.27
G1 X0.418 Y-2.368 Z-2.274
G1 X0.382 Y-2.264 Z-2.278
G1 X0.354 Y-2.158 Z-2.281
G1 X0.333 Y-2.05 Z-2.285
G1 X0.321 Y-1.941 Z-2.289
G1 X0.316 Y-1.831 Z-2.293
G1 X0.32 Y-1.722 Z-2.297
G1 X0.331 Y-1.612 Z-2.301
G1 X0.351 Y-1.504 Z-2.304
G1 X0.378 Y-1.398 Z-2.308
G1 X0.413 Y-1.294 Z-2.312
G1 X0.455 Y-1.193 Z-2.316
G1 X0.505 Y-1.095 Z-2.32
G1 X0.561 Y-1.001 Z-2.324
G1 X0.624 Y-0.911 Z-2.327
G1 X0.694 Y-0.826 Z-2.331
G1 X0.77 Y-0.746 Z-2.335
G1 X0.851 Y-0.673 Z-2.339
G1 X0.937 Y-0.605 Z-2.343
G1 X1.028 Y-0.544 Z-2.347
G1 X1.124 Y-0.489 Z-2.35
G1 X1.223 Y-0.442 Z-2.354
G1 X1.325 Y-0.401 Z-2.358
G1 X1.43 Y-0.369 Z-2.362
G1 X1.537 Y-0.344 Z-2.366
G1 X1.645 Y-0.327 Z-2.37
G1 X1.754 Y-0.318 Z-2.373
G1 X1.864 Y-0.317 Z-2.377
G1 X1.974 Y-0.324 Z-2.381
G1 X2.083 Y-0.339 Z-2.385
G1 X2.19 Y-0.361 Z-2.389
G1 X2.295 Y-0.392 Z-2.393
G1 X2.398 Y-0.43 Z-2.396
G1 X2.498 Y-0.475 Z-2.4
G1 X2.595 Y-0.528 Z-2.404
G1 X2.687 Y-0.587 Z-2.408
G1 X2.775 Y-0.653 Z-2.412
G1 X2.857 Y-0.726 Z-2.416
G1 X2.935 Y-0.804 Z-2.419
G1 X3.006 Y-0.887 Z-2.423
G1 X3.071 Y-0.975 Z-2.427
G1 X3.129 Y-1.068 Z-2.431
G1 X3.181 Y-1.165 Z-2.435
G1 X3.225 Y-1.266 Z-2.439
G1 X3.262 Y-1.369 Z-2.442
G1 X3.291 Y-1.475 Z-2.446
G1 X3.313 Y-1.583 Z-2.45
G1 X3.327 Y-1.691 Z-2.454
G1 X3.332 Y-1.801 Z-2.458
G1 X3.33 Y-1.911 Z-2.462
G1 X3.32 Y-2.02 Z-2.465
G1 X3.302 Y-2.128 Z-2.469
G1 X3.276 Y-2.235 Z-2.473
G1 X3.242 Y-2.34 Z-2.477
G1 X3.201 Y-2.441 Z-2.481
G1 X3.152 Y-2.54 Z-2.485
G1 X3.097 Y-2.634 Z-2.488
G1 X3.034 Y-2.725 Z-2.492
G1 X2.966 Y-2.81 Z-2.496
G1 X2.891 Y-2.891 Z-2.5
; MOVEMENT_CUTTING
G1 X2.448 Y-3.333 F480
G1 X2.432 Y-3.347
G1 X2.414 Y-3.359
G1 X1.298 Y-3.927
G1 X1.279 Y-3.935
G1 X1.258 Y-3.94
G1 X0.022 Y-4.136
G1 X0 Y-4.137
G1 X-0.022 Y-4.136
G1 X-1.258 Y-3.94
G1 X-1.279 Y-3.935
G1 X-1.298 Y-3.927
G1 X-2.414 Y-3.359
G1 X-2.432 Y-3.347
G1 X-2.448 Y-3.333
G1 X-3.333 Y-2.448
G1 X-3.347 Y-2.432
G1 X-3.359 Y-2.414
G1 X-3.927 Y-1.298
G1 X-3.935 Y-1.279
G1 X-3.94 Y-1.258
G1 X-4.136 Y-0.022
G1 X-4.137 Y0
G1 X-4.136 Y0.022
G1 X-3.94 Y1.258
G1 X-3.935 Y1.279
G1 X-3.927 Y1.298
G1 X-3.359 Y2.414
G1 X-3.347 Y2.432
G1 X-3.333 Y2.448
G1 X-2.448 Y3.333
G1 X-2.432 Y3.347
G1 X-2.414 Y3.359
G1 X-1.298 Y3.927
G1 X-1.279 Y3.935
G1 X-1.258 Y3.94
G1 X-0.022 Y4.136
G1 X0 Y4.137
G1 X0.022 Y4.136
G1 X1.258 Y3.94
G1 X1.279 Y3.935
G1 X1.298 Y3.927
G1 X2.414 Y3.359
G1 X2.432 Y3.347
G1 X2.448 Y3.333
G1 X3.333 Y2.448
G1 X3.347 Y2.432
G1 X3.359 Y2.414
G1 X3.927 Y1.298
G1 X3.935 Y1.279
G1 X3.94 Y1.258
G1 X4.136 Y0.022
G1 X4.137 Y0
G1 X4.136 Y-0.022
G1 X3.94 Y-1.258
G1 X3.935 Y-1.279
G1 X3.927 Y-1.298
G1 X3.359 Y-2.414
G1 X3.347 Y-2.432
G1 X3.333 Y-2.448
G1 X2.891 Y-2.891
; MOVEMENT_LINK_TRANSITION
G1 X2.872 Y-2.905
G1 X2.85 Y-2.912
G1 X2.827 Y-2.914
G1 X2.805 Y-2.908
G1 X2.782 Y-2.902
G1 X2.759 Y-2.904
G1 X2.737 Y-2.911
G1 X2.718 Y-2.925
; MOVEMENT_CUTTING
G1 X2.379 Y-3.264
G1 X2.376 Y-3.267
G1 X2.373 Y-3.27
G1 X2.369 Y-3.272
G1 X1.254 Y-3.84
G1 X1.25 Y-3.842
G1 X1.246 Y-3.843
G1 X1.242 Y-3.844
G1 X0.006 Y-4.04
G1 X0.002
G1 X-0.002
G1 X-0.006
G1 X-1.242 Y-3.844
G1 X-1.246 Y-3.843
G1 X-1.25 Y-3.842
G1 X-1.254 Y-3.84
G1 X-2.369 Y-3.272
G1 X-2.373 Y-3.27
G1 X-2.376 Y-3.267
G1 X-2.379 Y-3.264
G1 X-3.264 Y-2.379
G1 X-3.267 Y-2.376
G1 X-3.27 Y-2.373
G1 X-3.272 Y-2.369
G1 X-3.84 Y-1.254
G1 X-3.842 Y-1.25
G1 X-3.843 Y-1.246
G1 X-3.844 Y-1.242
G1 X-4.04 Y-0.006
G1 Y-0.002
G1 Y0.002
G1 Y0.006
G1 X-3.844 Y1.242
G1 X-3.843 Y1.246
G1 X-3.842 Y1.25
G1 X-3.84 Y1.254
G1 X-3.272 Y2.369
G1 X-3.27 Y2.373
G1 X-3.267 Y2.376
G1 X-3.264 Y2.379
G1 X-2.379 Y3.264
G1 X-2.376 Y3.267
G1 X-2.373 Y3.27
G1 X-2.369 Y3.272
G1 X-1.254 Y3.84
G1 X-1.25 Y3.842
G1 X-1.246 Y3.843
G1 X-1.242 Y3.844
G1 X-0.006 Y4.04
G1 X-0.002
G1 X0.002
G1 X0.006
G1 X1.242 Y3.844
G1 X1.246 Y3.843
G1 X1.25 Y3.842
G1 X1.254 Y3.84
G1 X2.369 Y3.272
G1 X2.373 Y3.27
G1 X2.376 Y3.267
G1 X2.379 Y3.264
G1 X3.264 Y2.379
G1 X3.267 Y2.376
G1 X3.27 Y2.373
G1 X3.272 Y2.369
G1 X3.84 Y1.254
G1 X3.842 Y1.25
G1 X3.843 Y1.246
G1 X3.844 Y1.242
G1 X4.04 Y0.006
G1 Y0.002
G1 Y-0.002
G1 Y-0.006
G1 X3.844 Y-1.242
G1 X3.843 Y-1.246
G1 X3.842 Y-1.25
G1 X3.84 Y-1.254
G1 X3.272 Y-2.369
G1 X3.27 Y-2.373
G1 X3.267 Y-2.376
G1 X3.264 Y-2.379
G1 X2.718 Y-2.925
; MOVEMENT_LINK_TRANSITION
G1 X2.7 Y-2.939
G1 X2.678 Y-2.947
G1 X2.655 Y-2.948
G1 X2.633 Y-2.942
G1 X2.61 Y-2.937
G1 X2.587 Y-2.938
G1 X2.566 Y-2.946
G1 X2.547 Y-2.96
; MOVEMENT_CUTTING
G1 X2.317 Y-3.189
G1 X1.218 Y-3.749
G1 X0 Y-3.942
G1 X-1.218 Y-3.749
G1 X-2.317 Y-3.189
G1 X-3.189 Y-2.317
G1 X-3.749 Y-1.218
G1 X-3.942 Y0
G1 X-3.749 Y1.218
G1 X-3.189 Y2.317
G1 X-2.317 Y3.189
G1 X-1.218 Y3.749
G1 X0 Y3.942
G1 X1.218 Y3.749
G1 X2.317 Y3.189
G1 X3.189 Y2.317
G1 X3.749 Y1.218
G1 X3.942 Y0
G1 X3.749 Y-1.218
G1 X3.189 Y-2.317
G1 X2.547 Y-2.96
; MOVEMENT_LINK_TRANSITION
G1 X2.529 Y-2.973
G1 X2.507 Y-2.981
G1 X2.484 Y-2.982
G1 X2.462 Y-2.977
G1 X2.439 Y-2.971
G1 X2.416 Y-2.972
G1 X2.394 Y-2.98
G1 X2.376 Y-2.994
; MOVEMENT_CUTTING
G1 X2.26 Y-3.11
G1 X1.188 Y-3.656
G1 X0 Y-3.844
G1 X-1.188 Y-3.656
G1 X-2.26 Y-3.11
G1 X-3.11 Y-2.26
G1 X-3.656 Y-1.188
G1 X-3.844 Y0
G1 X-3.656 Y1.188
G1 X-3.11 Y2.26
G1 X-2.26 Y3.11
G1 X-1.188 Y3.656
G1 X0 Y3.844
G1 X1.188 Y3.656
G1 X2.26 Y3.11
G1 X3.11 Y2.26
G1 X3.656 Y1.188
G1 X3.844 Y0
G1 X3.656 Y-1.188
G1 X3.11 Y-2.26
G1 X2.376 Y-2.994
; MOVEMENT_LINK_TRANSITION
G1 X2.357 Y-3.008
G1 X2.336 Y-3.015
G1 X2.313 Y-3.017
G1 X2.29 Y-3.011
G1 X2.268 Y-3.005
G1 X2.245 Y-3.007
G1 X2.223 Y-3.014
G1 X2.205 Y-3.028
; MOVEMENT_CUTTING
G1 X2.202 Y-3.031
G1 X1.158 Y-3.563
G1 X0 Y-3.746
G1 X-1.158 Y-3.563
G1 X-2.202 Y-3.031
G1 X-3.031 Y-2.202
G1 X-3.563 Y-1.158
G1 X-3.746 Y0
G1 X-3.563 Y1.158
G1 X-3.031 Y2.202
G1 X-2.202 Y3.031
G1 X-1.158 Y3.563
G1 X0 Y3.746
G1 X1.158 Y3.563
G1 X2.202 Y3.031
G1 X3.031 Y2.202
G1 X3.563 Y1.158
G1 X3.746 Y0
G1 X3.563 Y-1.158
G1 X3.031 Y-2.202
G1 X2.205 Y-3.028
; MOVEMENT_LINK_TRANSITION
G1 X2.187 Y-3.042
G1 X2.166 Y-3.049
G1 X2.143 Y-3.051
G1 X2.121 Y-3.046
G1 X2.102 Y-3.035
G1 X2.078 Y-3.022
G1 X2.052 Y-3.015
G1 X2.025 Y-3.017
G1 X1.999 Y-3.025
; MOVEMENT_CUTTING
G1 X1.127 Y-3.47
G1 X0 Y-3.648
G1 X-1.127 Y-3.47
G1 X-2.144 Y-2.951
G1 X-2.951 Y-2.144
G1 X-3.47 Y-1.127
G1 X-3.648 Y0
G1 X-3.47 Y1.127
G1 X-2.951 Y2.144
G1 X-2.144 Y2.951
G1 X-1.127 Y3.47
G1 X0 Y3.648
G1 X1.127 Y3.47
G1 X2.144 Y2.951
G1 X2.951 Y2.144
G1 X3.47 Y1.127
G1 X3.648 Y0
G1 X3.47 Y-1.127
G1 X2.951 Y-2.144
G1 X2.144 Y-2.951
G1 X1.999 Y-3.025
; MOVEMENT_LINK_TRANSITION
G1 X1.977 Y-3.033
G1 X1.954
G1 X1.932 Y-3.027
G1 X1.912 Y-3.015
G1 X1.893 Y-3.003
G1 X1.87 Y-2.997
G1 X1.847 Y-2.998
G1 X1.825 Y-3.005
; MOVEMENT_CUTTING
G1 X1.097 Y-3.376
G1 X0 Y-3.55
G1 X-1.097 Y-3.376
G1 X-2.087 Y-2.872
G1 X-2.872 Y-2.087
G1 X-3.376 Y-1.097
G1 X-3.55 Y0
G1 X-3.376 Y1.097
G1 X-2.872 Y2.087
G1 X-2.087 Y2.872
G1 X-1.097 Y3.376
G1 X0 Y3.55
G1 X1.097 Y3.376
G1 X2.087 Y2.872
G1 X2.872 Y2.087
G1 X3.376 Y1.097
G1 X3.55 Y0
G1 X3.376 Y-1.097
G1 X2.872 Y-2.087
G1 X2.087 Y-2.872
G1 X1.825 Y-3.005
; MOVEMENT_LINK_TRANSITION
G1 X1.803 Y-3.012
G1 X1.78 Y-3.013
G1 X1.758 Y-3.007
G1 X1.739 Y-2.995
G1 X1.719 Y-2.983
G1 X1.697 Y-2.977
G1 X1.674
G1 X1.652 Y-2.985
; MOVEMENT_CUTTING
G1 X1.067 Y-3.283
G1 X0 Y-3.452
G1 X-1.067 Y-3.283
G1 X-2.029 Y-2.793
G1 X-2.793 Y-2.029
G1 X-3.283 Y-1.067
G1 X-3.452 Y0
G1 X-3.283 Y1.067
G1 X-2.793 Y2.029
G1 X-2.029 Y2.793
G1 X-1.067 Y3.283
G1 X0 Y3.452
G1 X1.067 Y3.283
G1 X2.029 Y2.793
G1 X2.793 Y2.029
G1 X3.283 Y1.067
G1 X3.452 Y0
G1 X3.283 Y-1.067
G1 X2.793 Y-2.029
G1 X2.029 Y-2.793
G1 X1.652 Y-2.985
; MOVEMENT_LINK_TRANSITION
G1 X1.63 Y-2.992
G1 X1.607 Y-2.993
G1 X1.585 Y-2.987
G1 X1.565 Y-2.975
G1 X1.546 Y-2.962
G1 X1.523 Y-2.956
G1 X1.5 Y-2.957
G1 X1.478 Y-2.964
; MOVEMENT_CUTTING
G1 X1.036 Y-3.19
G1 X0 Y-3.354
G1 X-1.036 Y-3.19
G1 X-1.971 Y-2.713
G1 X-2.713 Y-1.971
G1 X-3.19 Y-1.036
G1 X-3.354 Y0
G1 X-3.19 Y1.036
G1 X-2.713 Y1.971
G1 X-1.971 Y2.713
G1 X-1.036 Y3.19
G1 X0 Y3.354
G1 X1.036 Y3.19
G1 X1.971 Y2.713
G1 X2.713 Y1.971
G1 X3.19 Y1.036
G1 X3.354 Y0
G1 X3.19 Y-1.036
G1 X2.713 Y-1.971
G1 X1.971 Y-2.713
G1 X1.478 Y-2.964
; MOVEMENT_LINK_TRANSITION
G1 X1.456 Y-2.972
G1 X1.433
G1 X1.411 Y-2.966
G1 X1.392 Y-2.954
G1 X1.372 Y-2.942
G1 X1.35 Y-2.936
G1 X1.327 Y-2.937
G1 X1.305 Y-2.944
; MOVEMENT_CUTTING
G1 X1.006 Y-3.096
G1 X0 Y-3.256
G1 X-1.006 Y-3.096
G1 X-1.914 Y-2.634
G1 X-2.634 Y-1.914
G1 X-3.096 Y-1.006
G1 X-3.256 Y0
G1 X-3.096 Y1.006
G1 X-2.634 Y1.914
G1 X-1.914 Y2.634
G1 X-1.006 Y3.096
G1 X0 Y3.256
G1 X1.006 Y3.096
G1 X1.914 Y2.634
G1 X2.634 Y1.914
G1 X3.096 Y1.006
G1 X3.256 Y0
G1 X3.096 Y-1.006
G1 X2.634 Y-1.914
G1 X1.914 Y-2.634
G1 X1.305 Y-2.944
; MOVEMENT_LINK_TRANSITION
G1 X1.283 Y-2.951
G1 X1.26 Y-2.952
G1 X1.238 Y-2.946
G1 X1.218 Y-2.934
G1 X1.199 Y-2.922
G1 X1.176 Y-2.916
G1 X1.153
G1 X1.131 Y-2.924
; MOVEMENT_CUTTING
G1 X0.976 Y-3.003
G1 X0 Y-3.158
G1 X-0.976 Y-3.003
G1 X-1.856 Y-2.554
G1 X-2.554 Y-1.856
G1 X-3.003 Y-0.976
G1 X-3.158 Y0
G1 X-3.003 Y0.976
G1 X-2.554 Y1.856
G1 X-1.856 Y2.554
G1 X-0.976 Y3.003
G1 X0 Y3.158
G1 X0.976 Y3.003
G1 X1.856 Y2.554
G1 X2.554 Y1.856
G1 X3.003 Y0.976
G1 X3.158 Y0
G1 X3.003 Y-0.976
G1 X2.554 Y-1.856
G1 X1.856 Y-2.554
G1 X1.131 Y-2.924
; MOVEMENT_LINK_TRANSITION
G1 X1.109 Y-2.931
G1 X1.086 Y-2.932
G1 X1.064 Y-2.926
G1 X1.045 Y-2.914
G1 X1.025 Y-2.901
G1 X1.003 Y-2.895
G1 X0.98 Y-2.896
G1 X0.958 Y-2.903
; MOVEMENT_CUTTING
G1 X0.945 Y-2.91
G1 X0 Y-3.059
G1 X-0.945 Y-2.91
G1 X-1.798 Y-2.475
G1 X-2.475 Y-1.798
G1 X-2.91 Y-0.945
G1 X-3.059 Y0
G1 X-2.91 Y0.945
G1 X-2.475 Y1.798
G1 X-1.798 Y2.475
G1 X-0.945 Y2.91
G1 X0 Y3.059
G1 X0.945 Y2.91
G1 X1.798 Y2.475
G1 X2.475 Y1.798
G1 X2.91 Y0.945
G1 X3.059 Y0
G1 X2.91 Y-0.945
G1 X2.475 Y-1.798
G1 X1.798 Y-2.475
G1 X0.958 Y-2.903
; MOVEMENT_LINK_TRANSITION
G1 X0.937 Y-2.91
G1 X0.916 Y-2.911
G1 X0.895 Y-2.906
G1 X0.876 Y-2.895
G1 X0.861 Y-2.879
G1 X0.843 Y-2.86
G1 X0.821 Y-2.846
G1 X0.796 Y-2.839
G1 X0.769
; MOVEMENT_CUTTING
G1 X0 Y-2.961
G1 X-0.915 Y-2.816
G1 X-1.741 Y-2.396
G1 X-2.396 Y-1.741
G1 X-2.816 Y-0.915
G1 X-2.961 Y0
G1 X-2.816 Y0.915
G1 X-2.396 Y1.741
G1 X-1.741 Y2.396
G1 X-0.915 Y2.816
G1 X0 Y2.961
G1 X0.915 Y2.816
G1 X1.741 Y2.396
G1 X2.396 Y1.741
G1 X2.816 Y0.915
G1 X2.961 Y0
G1 X2.816 Y-0.915
G1 X2.396 Y-1.741
G1 X1.741 Y-2.396
G1 X0.915 Y-2.816
G1 X0.769 Y-2.839
; MOVEMENT_LINK_TRANSITION
G1 X0.746 Y-2.84
G1 X0.724 Y-2.833
G1 X0.705 Y-2.821
G1 X0.69 Y-2.803
G1 X0.675 Y-2.785
G1 X0.656 Y-2.773
G1 X0.634 Y-2.766
G1 X0.611
; MOVEMENT_CUTTING
G1 X0 Y-2.863
G1 X-0.885 Y-2.723
G1 X-1.683 Y-2.316
G1 X-2.316 Y-1.683
G1 X-2.723 Y-0.885
G1 X-2.863 Y0
G1 X-2.723 Y0.885
G1 X-2.316 Y1.683
G1 X-1.683 Y2.316
G1 X-0.885 Y2.723
G1 X0 Y2.863
G1 X0.885 Y2.723
G1 X1.683 Y2.316
G1 X2.316 Y1.683
G1 X2.723 Y0.885
G1 X2.863 Y0
G1 X2.723 Y-0.885
G1 X2.316 Y-1.683
G1 X1.683 Y-2.316
G1 X0.885 Y-2.723
G1 X0.611 Y-2.766
; MOVEMENT_LINK_TRANSITION
G1 X0.588 Y-2.767
G1 X0.566 Y-2.76
G1 X0.546 Y-2.748
G1 X0.531 Y-2.73
G1 X0.517 Y-2.712
G1 X0.497 Y-2.7
G1 X0.475 Y-2.693
G1 X0.452 Y-2.694
; MOVEMENT_CUTTING
G1 X0 Y-2.765
G1 X-0.854 Y-2.63
G1 X-1.625 Y-2.237
G1 X-2.237 Y-1.625
G1 X-2.63 Y-0.854
G1 X-2.765 Y0
G1 X-2.63 Y0.854
G1 X-2.237 Y1.625
G1 X-1.625 Y2.237
G1 X-0.854 Y2.63
G1 X0 Y2.765
G1 X0.854 Y2.63
G1 X1.625 Y2.237
G1 X2.237 Y1.625
G1 X2.63 Y0.854
G1 X2.765 Y0
G1 X2.63 Y-0.854
G1 X2.237 Y-1.625
G1 X1.625 Y-2.237
G1 X0.854 Y-2.63
G1 X0.452 Y-2.694
; MOVEMENT_LINK_TRANSITION
G1 X0.429
G1 X0.407 Y-2.687
G1 X0.387 Y-2.675
G1 X0.373 Y-2.657
G1 X0.358 Y-2.639
G1 X0.338 Y-2.627
G1 X0.316 Y-2.62
G1 X0.293 Y-2.621
; MOVEMENT_CUTTING
G1 X0 Y-2.667
G1 X-0.824 Y-2.536
G1 X-1.568 Y-2.158
G1 X-2.158 Y-1.568
G1 X-2.536 Y-0.824
G1 X-2.667 Y0
G1 X-2.536 Y0.824
G1 X-2.158 Y1.568
G1 X-1.568 Y2.158
G1 X-0.824 Y2.536
G1 X0 Y2.667
G1 X0.824 Y2.536
G1 X1.568 Y2.158
G1 X2.158 Y1.568
G1 X2.536 Y0.824
G1 X2.667 Y0
G1 X2.536 Y-0.824
G1 X2.158 Y-1.568
G1 X1.568 Y-2.158
G1 X0.824 Y-2.536
G1 X0.293 Y-2.621
; MOVEMENT_LINK_TRANSITION
G1 X0.27
G1 X0.248 Y-2.614
G1 X0.229 Y-2.602
G1 X0.214 Y-2.584
G1 X0.199 Y-2.566
G1 X0.18 Y-2.554
G1 X0.158 Y-2.547
G1 X0.135 Y-2.548
; MOVEMENT_CUTTING
G1 X0 Y-2.569
G1 X-0.794 Y-2.443
G1 X-1.51 Y-2.078
G1 X-2.078 Y-1.51
G1 X-2.443 Y-0.794
G1 X-2.569 Y0
G1 X-2.443 Y0.794
G1 X-2.078 Y1.51
G1 X-1.51 Y2.078
G1 X-0.794 Y2.443
G1 X0 Y2.569
G1 X0.794 Y2.443
G1 X1.51 Y2.078
G1 X2.078 Y1.51
G1 X2.443 Y0.794
G1 X2.569 Y0
G1 X2.443 Y-0.794
G1 X2.078 Y-1.51
G1 X1.51 Y-2.078
G1 X0.794 Y-2.443
G1 X0.135 Y-2.548
; MOVEMENT_LINK_TRANSITION
G1 X0.111
G1 X0.088 Y-2.542
G1 X0.068 Y-2.53
G1 X0.052 Y-2.514
G1 X0.031 Y-2.491
G1 X0.005 Y-2.476
G1 X-0.024 Y-2.467
; MOVEMENT_CUTTING
G1 X-0.764 Y-2.35
G1 X-1.452 Y-1.999
G1 X-1.999 Y-1.452
G1 X-2.35 Y-0.764
G1 X-2.471 Y0
G1 X-2.35 Y0.764
G1 X-1.999 Y1.452
G1 X-1.452 Y1.999
G1 X-0.764 Y2.35
G1 X0 Y2.471
G1 X0.764 Y2.35
G1 X1.452 Y1.999
G1 X1.999 Y1.452
G1 X2.35 Y0.764
G1 X2.471 Y0
G1 X2.35 Y-0.764
G1 X1.999 Y-1.452
G1 X1.452 Y-1.999
G1 X0.764 Y-2.35
G1 X0 Y-2.471
G1 X-0.024 Y-2.467
; MOVEMENT_LINK_TRANSITION
G1 X-0.046 Y-2.46
G1 X-0.065 Y-2.447
G1 X-0.08 Y-2.429
G1 X-0.088 Y-2.408
G1 X-0.097 Y-2.386
G1 X-0.111 Y-2.368
G1 X-0.131 Y-2.355
G1 X-0.153 Y-2.349
; MOVEMENT_CUTTING
G1 X-0.733 Y-2.257
G1 X-1.395 Y-1.92
G1 X-1.92 Y-1.395
G1 X-2.257 Y-0.733
G1 X-2.373 Y0
G1 X-2.257 Y0.733
G1 X-1.92 Y1.395
G1 X-1.395 Y1.92
G1 X-0.733 Y2.257
G1 X0 Y2.373
G1 X0.733 Y2.257
G1 X1.395 Y1.92
G1 X1.92 Y1.395
G1 X2.257 Y0.733
G1 X2.373 Y0
G1 X2.257 Y-0.733
G1 X1.92 Y-1.395
G1 X1.395 Y-1.92
G1 X0.733 Y-2.257
G1 X0 Y-2.373
G1 X-0.153 Y-2.349
; MOVEMENT_LINK_TRANSITION
G1 X-0.175 Y-2.342
G1 X-0.194 Y-2.329
G1 X-0.208 Y-2.311
G1 X-0.217 Y-2.289
G1 X-0.225 Y-2.268
G1 X-0.24 Y-2.25
G1 X-0.259 Y-2.237
G1 X-0.281 Y-2.23
; MOVEMENT_CUTTING
G1 X-0.703 Y-2.163
G1 X-1.337 Y-1.84
G1 X-1.84 Y-1.337
G1 X-2.163 Y-0.703
G1 X-2.275 Y0
G1 X-2.163 Y0.703
G1 X-1.84 Y1.337
G1 X-1.337 Y1.84
G1 X-0.703 Y2.163
G1 X0 Y2.275
G1 X0.703 Y2.163
G1 X1.337 Y1.84
G1 X1.84 Y1.337
G1 X2.163 Y0.703
G1 X2.275 Y0
G1 X2.163 Y-0.703
G1 X1.84 Y-1.337
G1 X1.337 Y-1.84
G1 X0.703 Y-2.163
G1 X0 Y-2.275
G1 X-0.281 Y-2.23
; MOVEMENT_LINK_TRANSITION
G1 X-0.303 Y-2.223
G1 X-0.322 Y-2.21
G1 X-0.337 Y-2.192
G1 X-0.345 Y-2.171
G1 X-0.354 Y-2.149
G1 X-0.368 Y-2.132
G1 X-0.387 Y-2.119
G1 X-0.409 Y-2.112
; MOVEMENT_CUTTING
G1 X-0.673 Y-2.07
G1 X-1.279 Y-1.761
G1 X-1.761 Y-1.279
G1 X-2.07 Y-0.673
G1 X-2.176 Y0
G1 X-2.07 Y0.673
G1 X-1.761 Y1.279
G1 X-1.279 Y1.761
G1 X-0.673 Y2.07
G1 X0 Y2.176
G1 X0.673 Y2.07
G1 X1.279 Y1.761
G1 X1.761 Y1.279
G1 X2.07 Y0.673
G1 X2.176 Y0
G1 X2.07 Y-0.673
G1 X1.761 Y-1.279
G1 X1.279 Y-1.761
G1 X0.673 Y-2.07
G1 X0 Y-2.176
G1 X-0.409 Y-2.112
; MOVEMENT_LINK_TRANSITION
G1 X-0.431 Y-2.105
G1 X-0.45 Y-2.092
G1 X-0.465 Y-2.074
G1 X-0.474 Y-2.052
G1 X-0.482 Y-2.031
G1 X-0.497 Y-2.013
G1 X-0.516 Y-2
G1 X-0.538 Y-1.993
; MOVEMENT_CUTTING
G1 X-0.642 Y-1.977
G1 X-1.222 Y-1.681
G1 X-1.681 Y-1.222
G1 X-1.977 Y-0.642
G1 X-2.078 Y0
G1 X-1.977 Y0.642
G1 X-1.681 Y1.222
G1 X-1.222 Y1.681
G1 X-0.642 Y1.977
G1 X0 Y2.078
G1 X0.642 Y1.977
G1 X1.222 Y1.681
G1 X1.681 Y1.222
G1 X1.977 Y0.642
G1 X2.078 Y0
G1 X1.977 Y-0.642
G1 X1.681 Y-1.222
G1 X1.222 Y-1.681
G1 X0.642 Y-1.977
G1 X0 Y-2.078
G1 X-0.538 Y-1.993
; MOVEMENT_LINK_TRANSITION
G1 X-0.561 Y-1.986
G1 X-0.581 Y-1.972
G1 X-0.596 Y-1.953
G1 X-0.605 Y-1.931
G1 X-0.612 Y-1.908
G1 X-0.625 Y-1.888
G1 X-0.641 Y-1.871
G1 X-0.661 Y-1.858
; MOVEMENT_CUTTING
G1 X-1.164 Y-1.602
G1 X-1.602 Y-1.164
G1 X-1.883 Y-0.612
G1 X-1.98 Y0
G1 X-1.883 Y0.612
G1 X-1.602 Y1.164
G1 X-1.164 Y1.602
G1 X-0.612 Y1.883
G1 X0 Y1.98
G1 X0.612 Y1.883
G1 X1.164 Y1.602
G1 X1.602 Y1.164
G1 X1.883 Y0.612
G1 X1.98 Y0
G1 X1.883 Y-0.612
G1 X1.602 Y-1.164
G1 X1.164 Y-1.602
G1 X0.612 Y-1.883
G1 X0 Y-1.98
G1 X-0.612 Y-1.883
G1 X-0.661 Y-1.858
; MOVEMENT_LINK_TRANSITION
G1 X-0.68 Y-1.845
G1 X-0.694 Y-1.827
G1 X-0.702 Y-1.805
G1 X-0.704 Y-1.782
G1 X-0.705 Y-1.759
G1 X-0.713 Y-1.738
G1 X-0.728 Y-1.719
G1 X-0.746 Y-1.706
; MOVEMENT_CUTTING
G1 X-1.106 Y-1.523
G1 X-1.523 Y-1.106
G1 X-1.79 Y-0.582
G1 X-1.882 Y0
G1 X-1.79 Y0.582
G1 X-1.523 Y1.106
G1 X-1.106 Y1.523
G1 X-0.582 Y1.79
G1 X0 Y1.882
G1 X0.582 Y1.79
G1 X1.106 Y1.523
G1 X1.523 Y1.106
G1 X1.79 Y0.582
G1 X1.882 Y0
G1 X1.79 Y-0.582
G1 X1.523 Y-1.106
G1 X1.106 Y-1.523
G1 X0.582 Y-1.79
G1 X0 Y-1.882
G1 X-0.582 Y-1.79
G1 X-0.746 Y-1.706
; MOVEMENT_LINK_TRANSITION
G1 X-0.765 Y-1.693
G1 X-0.779 Y-1.674
G1 X-0.788 Y-1.653
G1 X-0.789 Y-1.63
G1 X-0.791 Y-1.607
G1 X-0.799 Y-1.585
G1 X-0.813 Y-1.567
G1 X-0.832 Y-1.554
; MOVEMENT_CUTTING
G1 X-1.049 Y-1.443
G1 X-1.443 Y-1.049
G1 X-1.697 Y-0.551
G1 X-1.784 Y0
G1 X-1.697 Y0.551
G1 X-1.443 Y1.049
G1 X-1.049 Y1.443
G1 X-0.551 Y1.697
G1 X0 Y1.784
G1 X0.551 Y1.697
G1 X1.049 Y1.443
G1 X1.443 Y1.049
G1 X1.697 Y0.551
G1 X1.784 Y0
G1 X1.697 Y-0.551
G1 X1.443 Y-1.049
G1 X1.049 Y-1.443
G1 X0.551 Y-1.697
G1 X0 Y-1.784
G1 X-0.551 Y-1.697
G1 X-0.832 Y-1.554
; MOVEMENT_LINK_TRANSITION
G1 X-0.851 Y-1.54
G1 X-0.865 Y-1.522
G1 X-0.873 Y-1.501
G1 X-0.875 Y-1.478
G1 X-0.876 Y-1.455
G1 X-0.885 Y-1.433
G1 X-0.899 Y-1.415
G1 X-0.917 Y-1.401
; MOVEMENT_CUTTING
G1 X-0.991 Y-1.364
G1 X-1.364 Y-0.991
G1 X-1.603 Y-0.521
G1 X-1.686 Y0
G1 X-1.603 Y0.521
G1 X-1.364 Y0.991
G1 X-0.991 Y1.364
G1 X-0.521 Y1.603
G1 X0 Y1.686
G1 X0.521 Y1.603
G1 X0.991 Y1.364
G1 X1.364 Y0.991
G1 X1.603 Y0.521
G1 X1.686 Y0
G1 X1.603 Y-0.521
G1 X1.364 Y-0.991
G1 X0.991 Y-1.364
G1 X0.521 Y-1.603
G1 X0 Y-1.686
G1 X-0.521 Y-1.603
G1 X-0.917 Y-1.401
; MOVEMENT_LINK_TRANSITION
G1 X-0.938 Y-1.387
G1 X-0.952 Y-1.367
G1 X-0.96 Y-1.343
G1 Y-1.318
G1 X-0.959 Y-1.294
G1 X-0.963 Y-1.27
G1 X-0.974 Y-1.248
G1 X-0.989 Y-1.229
; MOVEMENT_CUTTING
G1 X-1.285 Y-0.933
G1 X-1.51 Y-0.491
G1 X-1.588 Y0
G1 X-1.51 Y0.491
G1 X-1.285 Y0.933
G1 X-0.933 Y1.285
G1 X-0.491 Y1.51
G1 X0 Y1.588
G1 X0.491 Y1.51
G1 X0.933 Y1.285
G1 X1.285 Y0.933
G1 X1.51 Y0.491
G1 X1.588 Y0
G1 X1.51 Y-0.491
G1 X1.285 Y-0.933
G1 X0.933 Y-1.285
G1 X0.491 Y-1.51
G1 X0 Y-1.588
G1 X-0.491 Y-1.51
G1 X-0.933 Y-1.285
G1 X-0.989 Y-1.229
; MOVEMENT_LINK_TRANSITION
G1 X-1.002 Y-1.211
G1 X-1.01 Y-1.189
G1 X-1.011 Y-1.166
G1 X-1.006 Y-1.144
G1 X-1 Y-1.121
G1 X-1.001 Y-1.098
G1 X-1.009 Y-1.077
G1 X-1.023 Y-1.058
; MOVEMENT_CUTTING
G1 X-1.205 Y-0.876
G1 X-1.417 Y-0.46
G1 X-1.49 Y0
G1 X-1.417 Y0.46
G1 X-1.205 Y0.876
G1 X-0.876 Y1.205
G1 X-0.46 Y1.417
G1 X0 Y1.49
G1 X0.46 Y1.417
G1 X0.876 Y1.205
G1 X1.205 Y0.876
G1 X1.417 Y0.46
G1 X1.49 Y0
G1 X1.417 Y-0.46
G1 X1.205 Y-0.876
G1 X0.876 Y-1.205
G1 X0.46 Y-1.417
G1 X0 Y-1.49
G1 X-0.46 Y-1.417
G1 X-0.876 Y-1.205
G1 X-1.023 Y-1.058
; MOVEMENT_LINK_TRANSITION
G1 X-1.037 Y-1.039
G1 X-1.044 Y-1.018
G1 X-1.046 Y-0.995
G1 X-1.04 Y-0.972
G1 X-1.034 Y-0.95
G1 X-1.036 Y-0.927
G1 X-1.043 Y-0.905
G1 X-1.057 Y-0.887
; MOVEMENT_CUTTING
G1 X-1.126 Y-0.818
G1 X-1.323 Y-0.43
G1 X-1.392 Y0
G1 X-1.323 Y0.43
G1 X-1.126 Y0.818
G1 X-0.818 Y1.126
G1 X-0.43 Y1.323
G1 X0 Y1.392
G1 X0.43 Y1.323
G1 X0.818 Y1.126
G1 X1.126 Y0.818
G1 X1.323 Y0.43
G1 X1.392 Y0
G1 X1.323 Y-0.43
G1 X1.126 Y-0.818
G1 X0.818 Y-1.126
G1 X0.43 Y-1.323
G1 X0 Y-1.392
G1 X-0.43 Y-1.323
G1 X-0.818 Y-1.126
G1 X-1.057 Y-0.887
; MOVEMENT_LINK_TRANSITION
G1 X-1.072 Y-0.867
G1 X-1.079 Y-0.844
G1 X-1.08 Y-0.819
G1 X-1.073 Y-0.796
G1 X-1.066 Y-0.773
G1 X-1.064 Y-0.75
G1 X-1.067 Y-0.726
G1 X-1.075 Y-0.704
; MOVEMENT_CUTTING
G1 X-1.23 Y-0.4
G1 X-1.293 Y0
G1 X-1.23 Y0.4
G1 X-1.046 Y0.76
G1 X-0.76 Y1.046
G1 X-0.4 Y1.23
G1 X0 Y1.293
G1 X0.4 Y1.23
G1 X0.76 Y1.046
G1 X1.046 Y0.76
G1 X1.23 Y0.4
G1 X1.293 Y0
G1 X1.23 Y-0.4
G1 X1.046 Y-0.76
G1 X0.76 Y-1.046
G1 X0.4 Y-1.23
G1 X0 Y-1.293
G1 X-0.4 Y-1.23
G1 X-0.76 Y-1.046
G1 X-1.046 Y-0.76
G1 X-1.075 Y-0.704
; MOVEMENT_LINK_TRANSITION
G1 X-1.083 Y-0.682
G1 Y-0.659
G1 X-1.077 Y-0.637
G1 X-1.065 Y-0.617
G1 X-1.053 Y-0.597
G1 X-1.047 Y-0.575
G1 X-1.048 Y-0.552
G1 X-1.055 Y-0.53
; MOVEMENT_CUTTING
G1 X-1.137 Y-0.369
G1 X-1.195 Y0
G1 X-1.137 Y0.369
G1 X-0.967 Y0.703
G1 X-0.703 Y0.967
G1 X-0.369 Y1.137
G1 X0 Y1.195
G1 X0.369 Y1.137
G1 X0.703 Y0.967
G1 X0.967 Y0.703
G1 X1.137 Y0.369
G1 X1.195 Y0
G1 X1.137 Y-0.369
G1 X0.967 Y-0.703
G1 X0.703 Y-0.967
G1 X0.369 Y-1.137
G1 X0 Y-1.195
G1 X-0.369 Y-1.137
G1 X-0.703 Y-0.967
G1 X-0.967 Y-0.703
G1 X-1.055 Y-0.53
; MOVEMENT_LINK_TRANSITION
G1 X-1.062 Y-0.508
G1 X-1.063 Y-0.485
G1 X-1.057 Y-0.463
G1 X-1.045 Y-0.443
G1 X-1.033 Y-0.424
G1 X-1.027 Y-0.402
G1 Y-0.379
G1 X-1.035 Y-0.357
; MOVEMENT_CUTTING
G1 X-1.044 Y-0.339
G1 X-1.097 Y0
G1 X-1.044 Y0.339
G1 X-0.888 Y0.645
G1 X-0.645 Y0.888
G1 X-0.339 Y1.044
G1 X0 Y1.097
G1 X0.339 Y1.044
G1 X0.645 Y0.888
G1 X0.888 Y0.645
G1 X1.044 Y0.339
G1 X1.097 Y0
G1 X1.044 Y-0.339
G1 X0.888 Y-0.645
G1 X0.645 Y-0.888
G1 X0.339 Y-1.044
G1 X0 Y-1.097
G1 X-0.339 Y-1.044
G1 X-0.645 Y-0.888
G1 X-0.888 Y-0.645
G1 X-1.035 Y-0.357
; MOVEMENT_LINK_TRANSITION
G1 X-1.041 Y-0.336
G1 X-1.042 Y-0.315
G1 X-1.037 Y-0.294
G1 X-1.026 Y-0.275
G1 X-1.011 Y-0.261
G1 X-0.992 Y-0.243
G1 X-0.979 Y-0.221
G1 X-0.972 Y-0.196
G1 Y-0.17
; MOVEMENT_CUTTING
G1 X-0.999 Y0
G1 X-0.95 Y0.309
G1 X-0.808 Y0.587
G1 X-0.587 Y0.808
G1 X-0.309 Y0.95
G1 X0 Y0.999
G1 X0.309 Y0.95
G1 X0.587 Y0.808
G1 X0.808 Y0.587
G1 X0.95 Y0.309
G1 X0.999 Y0
G1 X0.95 Y-0.309
G1 X0.808 Y-0.587
G1 X0.587 Y-0.808
G1 X0.309 Y-0.95
G1 X0 Y-0.999
G1 X-0.309 Y-0.95
G1 X-0.587 Y-0.808
G1 X-0.808 Y-0.587
G1 X-0.95 Y-0.309
G1 X-0.972 Y-0.17
; MOVEMENT_LINK_TRANSITION
G1 X-0.973 Y-0.147
G1 X-0.966 Y-0.124
G1 X-0.953 Y-0.105
G1 X-0.936 Y-0.09
G1 X-0.918 Y-0.075
G1 X-0.906 Y-0.056
G1 X-0.899 Y-0.034
G1 Y-0.011
; MOVEMENT_CUTTING
G1 X-0.901 Y0
G1 X-0.857 Y0.278
G1 X-0.729 Y0.53
G1 X-0.53 Y0.729
G1 X-0.278 Y0.857
G1 X0 Y0.901
G1 X0.081 Y0.897
G1 X0.16 Y0.885
G1 X0.239 Y0.867
G1 X0.315 Y0.841
G1 X0.389 Y0.809
G1 X0.46 Y0.771
G1 X0.528 Y0.726
G1 X0.591 Y0.676
G1 X0.649 Y0.62
G1 X0.702 Y0.56
G1 X0.75 Y0.495
G1 X0.792 Y0.426
G1 X0.827 Y0.353
G1 X0.856 Y0.278
G1 X0.901 Y0
G1 X0.857 Y-0.278
G1 X0.729 Y-0.53
G1 X0.53 Y-0.729
G1 X0.278 Y-0.857
G1 X0 Y-0.901
G1 X-0.278 Y-0.857
G1 X-0.53 Y-0.729
G1 X-0.729 Y-0.53
G1 X-0.857 Y-0.278
G1 X-0.899 Y-0.011
; MOVEMENT_LINK_TRANSITION
G1 X-0.9 Y0.011
G1 X-0.894 Y0.032
G1 X-0.882 Y0.051
G1 X-0.865 Y0.065
G1 X-0.846 Y0.074
G1 X-0.822 Y0.085
G1 X-0.801 Y0.103
G1 X-0.787 Y0.125
G1 X-0.779 Y0.15
; MOVEMENT_CUTTING
G1 X-0.764 Y0.248
G1 X-0.736 Y0.322
G1 X-0.7 Y0.392
G1 X-0.658 Y0.459
G1 X-0.61 Y0.521
G1 X-0.556 Y0.578
G1 X-0.497 Y0.63
G1 X-0.432 Y0.676
G1 X-0.364 Y0.715
G1 X-0.292 Y0.747
G1 X-0.217 Y0.772
G1 X-0.141 Y0.789
G1 X-0.062 Y0.799
G1 X0.016 Y0.801
G1 X0.095 Y0.796
G1 X0.173 Y0.783
G1 X0.248 Y0.762
G1 X0.322 Y0.734
G1 X0.393 Y0.699
G1 X0.459 Y0.657
G1 X0.522 Y0.609
G1 X0.579 Y0.555
G1 X0.63 Y0.495
G1 X0.676 Y0.431
G1 X0.715 Y0.362
G1 X0.747 Y0.29
G1 X0.772 Y0.216
G1 X0.79 Y0.139
G1 X0.8 Y0.061
G1 X0.802 Y-0.018
G1 X0.796 Y-0.096
G1 X0.783 Y-0.174
G1 X0.762 Y-0.25
G1 X0.737 Y-0.317
G1 X0.706 Y-0.382
G1 X0.669 Y-0.443
G1 X0.627 Y-0.501
G1 X0.58 Y-0.555
G1 X0.528 Y-0.605
G1 X0.472 Y-0.65
G1 X0.408 Y-0.692
G1 X0.34 Y-0.728
G1 X0.269 Y-0.757
G1 X0.195 Y-0.779
G1 X0.12 Y-0.794
G1 X0.044 Y-0.802
G1 X-0.033
G1 X-0.109 Y-0.795
G1 X-0.185 Y-0.781
G1 X-0.258 Y-0.76
G1 X-0.33 Y-0.732
G1 X-0.398 Y-0.697
G1 X-0.463 Y-0.656
G1 X-0.524 Y-0.609
G1 X-0.579 Y-0.556
G1 X-0.63 Y-0.498
G1 X-0.674 Y-0.436
G1 X-0.713 Y-0.369
G1 X-0.745 Y-0.3
G1 X-0.77 Y-0.227
G1 X-0.788 Y-0.153
G1 X-0.799 Y-0.077
G1 X-0.803 Y0
G1 X-0.779 Y0.15
; MOVEMENT_LINK_TRANSITION
G1 X-0.772 Y0.173
G1 X-0.758 Y0.193
G1 X-0.738 Y0.208
G1 X-0.716 Y0.217
G1 X-0.693 Y0.224
G1 X-0.673 Y0.236
G1 X-0.656 Y0.253
G1 X-0.642 Y0.273
; MOVEMENT_CUTTING
G1 X-0.61 Y0.339
G1 X-0.571 Y0.401
G1 X-0.526 Y0.459
G1 X-0.475 Y0.512
G1 X-0.419 Y0.559
G1 X-0.358 Y0.6
G1 X-0.293 Y0.635
G1 X-0.225 Y0.662
G1 X-0.155 Y0.683
G1 X-0.082 Y0.696
G1 X-0.009 Y0.701
G1 X0.065 Y0.698
G1 X0.137 Y0.688
G1 X0.209 Y0.67
G1 X0.278 Y0.645
G1 X0.344 Y0.613
G1 X0.406 Y0.574
G1 X0.464 Y0.529
G1 X0.517 Y0.478
G1 X0.564 Y0.422
G1 X0.605 Y0.361
G1 X0.64 Y0.296
G1 X0.668 Y0.228
G1 X0.688 Y0.157
G1 X0.701 Y0.085
G1 X0.706 Y0.012
G1 X0.703 Y-0.062
G1 X0.693 Y-0.135
G1 X0.675 Y-0.206
G1 X0.65 Y-0.275
G1 X0.618 Y-0.342
G1 X0.578 Y-0.405
G1 X0.532 Y-0.464
G1 X0.48 Y-0.517
G1 X0.423 Y-0.564
G1 X0.361 Y-0.606
G1 X0.295 Y-0.64
G1 X0.226 Y-0.667
G1 X0.154 Y-0.687
G1 X0.08 Y-0.699
G1 X0.006 Y-0.703
G1 X-0.068 Y-0.699
G1 X-0.142 Y-0.688
G1 X-0.214 Y-0.669
G1 X-0.283 Y-0.642
G1 X-0.35 Y-0.608
G1 X-0.412 Y-0.567
G1 X-0.469 Y-0.522
G1 X-0.522 Y-0.472
G1 X-0.568 Y-0.416
G1 X-0.609 Y-0.356
G1 X-0.643 Y-0.291
G1 X-0.67 Y-0.224
G1 X-0.689 Y-0.153
G1 X-0.701 Y-0.082
G1 X-0.705 Y-0.009
G1 X-0.701 Y0.064
G1 X-0.69 Y0.136
G1 X-0.671 Y0.206
G1 X-0.645 Y0.274
; MOVEMENT_LINK_TRANSITION
G1 X-0.631 Y0.293
G1 X-0.613 Y0.307
G1 X-0.592 Y0.317
G1 X-0.569 Y0.321
G1 X-0.54 Y0.327
G1 X-0.513 Y0.339
G1 X-0.49 Y0.358
; MOVEMENT_CUTTING
G1 X-0.447 Y0.41
G1 X-0.398 Y0.458
G1 X-0.344 Y0.499
G1 X-0.286 Y0.535
G1 X-0.224 Y0.563
G1 X-0.16 Y0.585
G1 X-0.093 Y0.599
G1 X-0.025 Y0.605
G1 X0.043 Y0.604
G1 X0.11 Y0.596
G1 X0.176 Y0.58
G1 X0.24 Y0.556
G1 X0.301 Y0.526
G1 X0.358 Y0.489
G1 X0.41 Y0.446
G1 X0.458 Y0.397
G1 X0.499 Y0.343
G1 X0.535 Y0.285
G1 X0.563 Y0.223
G1 X0.585 Y0.159
G1 X0.599 Y0.092
G1 X0.605 Y0.024
G1 X0.604 Y-0.044
G1 X0.596 Y-0.111
G1 X0.58 Y-0.177
G1 X0.556 Y-0.241
G1 X0.526 Y-0.302
G1 X0.489 Y-0.359
G1 X0.446 Y-0.411
G1 X0.397 Y-0.459
G1 X0.343 Y-0.5
G1 X0.285 Y-0.535
G1 X0.223 Y-0.564
G1 X0.159 Y-0.586
G1 X0.093 Y-0.6
G1 X0.025 Y-0.606
G1 X-0.043 Y-0.605
G1 X-0.11 Y-0.597
G1 X-0.176 Y-0.581
G1 X-0.24 Y-0.557
G1 X-0.301 Y-0.527
G1 X-0.358 Y-0.49
G1 X-0.411 Y-0.447
G1 X-0.458 Y-0.398
G1 X-0.5 Y-0.345
G1 X-0.535 Y-0.287
G1 X-0.564 Y-0.225
G1 X-0.585 Y-0.161
G1 X-0.6 Y-0.094
G1 X-0.606 Y-0.027
G1 X-0.605 Y0.041
G1 X-0.597 Y0.109
G1 X-0.581 Y0.175
G1 X-0.558 Y0.239
G1 X-0.528 Y0.299
G1 X-0.491 Y0.356
G1 X-0.49 Y0.358
; MOVEMENT_LINK_TRANSITION
G1 X-0.471 Y0.372
G1 X-0.449 Y0.38
G1 X-0.425 Y0.382
G1 X-0.402 Y0.377
G1 X-0.379 Y0.372
G1 X-0.355 Y0.374
G1 X-0.333 Y0.382
G1 X-0.314 Y0.396
; MOVEMENT_CUTTING
G1 X-0.264 Y0.431
G1 X-0.21 Y0.46
G1 X-0.153 Y0.482
G1 X-0.093 Y0.497
G1 X-0.032 Y0.505
G1 X0.029
G1 X0.09 Y0.498
G1 X0.149 Y0.484
G1 X0.207 Y0.462
G1 X0.261 Y0.434
G1 X0.312 Y0.399
G1 X0.358 Y0.359
G1 X0.399 Y0.313
G1 X0.434 Y0.263
G1 X0.463 Y0.209
G1 X0.485 Y0.152
G1 X0.5 Y0.092
G1 X0.507 Y0.031
G1 X0.508 Y-0.03
G1 X0.5 Y-0.091
G1 X0.486 Y-0.15
G1 X0.465 Y-0.208
G1 X0.436 Y-0.262
G1 X0.402 Y-0.313
G1 X0.361 Y-0.359
G1 X0.316 Y-0.4
G1 X0.264 Y-0.436
G1 X0.208 Y-0.465
G1 X0.148 Y-0.487
G1 X0.087 Y-0.502
G1 X0.024 Y-0.509
G1 X-0.039 Y-0.508
G1 X-0.102 Y-0.499
G1 X-0.163 Y-0.482
G1 X-0.222 Y-0.458
G1 X-0.277 Y-0.427
G1 X-0.327 Y-0.389
G1 X-0.373 Y-0.345
G1 X-0.413 Y-0.296
G1 X-0.446 Y-0.242
G1 X-0.473 Y-0.184
G1 X-0.492 Y-0.124
G1 X-0.503 Y-0.062
G1 X-0.507 Y0.001
G1 X-0.502 Y0.065
G1 X-0.49 Y0.127
G1 X-0.47 Y0.187
G1 X-0.443 Y0.244
G1 X-0.409 Y0.297
G1 X-0.314 Y0.396
; MOVEMENT_LINK_TRANSITION
G1 X-0.297 Y0.409
G1 X-0.277 Y0.418
G1 X-0.256 Y0.421
G1 X-0.235 Y0.418
G1 X-0.215 Y0.41
G1 X-0.184 Y0.397
G1 X-0.15 Y0.391
G1 X-0.116 Y0.392
; MOVEMENT_CUTTING
G1 X0 Y0.411
G1 X0.127 Y0.39
G1 X0.241 Y0.332
G1 X0.332 Y0.241
G1 X0.39 Y0.127
G1 X0.411 Y0
G1 X0.39 Y-0.127
G1 X0.332 Y-0.241
G1 X0.241 Y-0.332
G1 X0.127 Y-0.39
G1 X0 Y-0.411
G1 X-0.127 Y-0.39
G1 X-0.241 Y-0.332
G1 X-0.332 Y-0.241
G1 X-0.39 Y-0.127
G1 X-0.411 Y0
G1 X-0.39 Y0.127
G1 X-0.332 Y0.241
G1 X-0.241 Y0.332
G1 X-0.127 Y0.39
G1 X-0.116 Y0.392
; MOVEMENT_LINK_TRANSITION
G1 X-0.092
G1 X-0.069 Y0.386
G1 X-0.048 Y0.373
G1 X-0.032 Y0.355
G1 X-0.018 Y0.337
G1 X0.001 Y0.322
G1 X0.022 Y0.311
G1 X0.044 Y0.305
; MOVEMENT_CUTTING
G1 X0.097 Y0.297
G1 X0.184 Y0.253
G1 X0.253 Y0.184
G1 X0.297 Y0.097
G1 X0.312 Y0
G1 X0.297 Y-0.097
G1 X0.253 Y-0.184
G1 X0.184 Y-0.253
G1 X0.097 Y-0.297
G1 X0 Y-0.312
G1 X-0.097 Y-0.297
G1 X-0.184 Y-0.253
G1 X-0.253 Y-0.184
G1 X-0.297 Y-0.097
G1 X-0.312 Y0
G1 X-0.297 Y0.097
G1 X-0.253 Y0.184
G1 X-0.184 Y0.253
G1 X-0.097 Y0.297
G1 X0 Y0.312
G1 X0.044 Y0.305
; MOVEMENT_LINK_TRANSITION
G1 X0.065 Y0.299
G1 X0.083 Y0.288
G1 X0.097 Y0.273
G1 X0.107 Y0.254
G1 X0.112 Y0.234
G1 X0.12 Y0.201
G1 X0.134 Y0.171
G1 X0.155 Y0.144
; MOVEMENT_CUTTING
G1 X0.173 Y0.126
G1 X0.204 Y0.066
G1 X0.214 Y0
G1 X0.204 Y-0.066
G1 X0.173 Y-0.126
G1 X0.126 Y-0.173
G1 X0.066 Y-0.204
G1 X0 Y-0.214
G1 X-0.066 Y-0.204
G1 X-0.126 Y-0.173
G1 X-0.173 Y-0.126
G1 X-0.204 Y-0.066
G1 X-0.214 Y0
G1 X-0.204 Y0.066
G1 X-0.173 Y0.126
G1 X-0.126 Y0.173
G1 X-0.066 Y0.204
G1 X0 Y0.214
G1 X0.066 Y0.204
G1 X0.126 Y0.173
G1 X0.155 Y0.144
; MOVEMENT_LINK_TRANSITION
G1 X0.169 Y0.125
G1 X0.177 Y0.102
G1 X0.179 Y0.078
G1 X0.172 Y0.055
G1 X0.16 Y0.034
G1 X0.127 Y-0.011
G1 X0.099 Y-0.059
; MOVEMENT_CUTTING
G1 X0.094 Y-0.068
G1 X0.068 Y-0.094
G1 X0.036 Y-0.111
G1 X0 Y-0.116
G1 X-0.036 Y-0.111
G1 X-0.068 Y-0.094
G1 X-0.094 Y-0.068
G1 X-0.111 Y-0.036
G1 X-0.116 Y0
G1 X-0.111 Y0.036
G1 X-0.094 Y0.068
G1 X-0.068 Y0.094
G1 X-0.036 Y0.111
G1 X0 Y0.116
G1 X0.036 Y0.111
G1 X0.068 Y0.094
G1 X0.094 Y0.068
G1 X0.111 Y0.036
G1 X0.116 Y0
G1 X0.111 Y-0.036
G1 X0.099 Y-0.059
; MOVEMENT_LEAD_OUT
G1 X0.094 Y-0.068 F180
G1 X0.068 Y-0.094 Z-2.496
G1 X0.036 Y-0.111 Z-2.489
G1 X0 Y-0.116 Z-2.476
G1 X-0.036 Y-0.111 Z-2.459
G1 X-0.068 Y-0.094 Z-2.435
G1 X-0.094 Y-0.068 Z-2.402
G1 X-0.103 Y-0.051 Z-2.38
G1 X-0.111 Y-0.036 Z-2.357
G1 X-0.114 Y-0.015 Z-2.32
G1 X-0.116 Y0 Z-2.281
G1 X-0.114 Y0.012 Z-2.233
G1 Y0.016 Z-2.183
; MOVEMENT_RAPID
G0 Z5 F300
; *** SECTION end ***

; *** STOP begin ***
M400
; COMMAND_COOLANT_OFF
G0 X0 Y0 F2500
; COMMAND_STOP_SPINDLE
;M300 S300 P3000
;M0 Turn OFF spindle
;M117 Job end
; *** STOP end ***
