;Fusion 360 CAM 2.0.7402
; Posts processor: DIYCNC_Marlin20.cps
; Gcode generated: Sun Jan 26 06:48:54 2020 GMT
; Document: mountain v2
; Setup: Setup1
; 
; Ranges table:
; X: Min=-0.688 Max=38.697 Size=39.385
; Y: Min=-0.688 Max=38.688 Size=39.375
; Z: Min=-18.3 Max=5 Size=23.3
; 
; Tools table:
; T1 D=3.175 CR=1.587 - ZMIN=-18.3 - ball end mill 

; *** START begin ***
G90
G21
M84 S0
G92 X0 Y0 Z5
; *** START end ***

; *** SECTION begin ***
;Adaptive1 - Milling - Tool: 1 -  ball end mill
; X Min: -0.688 - X Max: 38.697
; Y Min: -0.688 - Y Max: 38.688
; Z Min: -18.3 - Z Max: 5
; COMMAND_START_SPINDLE
; COMMAND_SPINDLE_CLOCKWISE
;M0 Turn ON 20000RPM
; COMMAND_COOLANT_ON
;M117  Adaptive1
G0 Z5 F300
G0 X10.073 Y9.524 F2500
G0 Z1.003 F300
; MOVEMENT_RAMP_HELIX
G1 X10.118 Y9.558 Z1.001 F180
G1 X10.158 Y9.598 Z0.999
G1 X10.191 Y9.643 Z0.997
G1 X10.218 Y9.693 Z0.995
G1 X10.238 Y9.745 Z0.993
G1 X10.25 Y9.8 Z0.991
G1 X10.254 Y9.856 Z0.989
G1 X10.25 Y9.913 Z0.987
G1 X10.239 Y9.968 Z0.985
G1 X10.219 Y10.021 Z0.983
G1 X10.192 Y10.07 Z0.981
G1 X10.159 Y10.115 Z0.979
G1 X10.119 Y10.155 Z0.977
G1 X10.074 Y10.189 Z0.975
G1 X10.025 Y10.217 Z0.973
G1 X9.973 Y10.237 Z0.972
G1 X9.918 Y10.249 Z0.97
G1 X9.862 Y10.254 Z0.968
G1 X9.805 Y10.251 Z0.966
G1 X9.75 Y10.239 Z0.964
G1 X9.697 Y10.22 Z0.962
G1 X9.647 Y10.194 Z0.96
G1 X9.602 Y10.161 Z0.958
G1 X9.561 Y10.122 Z0.956
G1 X9.527 Y10.077 Z0.954
G1 X9.499 Y10.028 Z0.952
G1 X9.479 Y9.976 Z0.95
G1 X9.466 Y9.921 Z0.948
G1 X9.461 Y9.865 Z0.946
G1 X9.463 Y9.809 Z0.944
G1 X9.474 Y9.753 Z0.942
G1 X9.493 Y9.7 Z0.94
G1 X9.519 Y9.65 Z0.938
G1 X9.551 Y9.604 Z0.936
G1 X9.59 Y9.564 Z0.934
G1 X9.634 Y9.529 Z0.932
G1 X9.683 Y9.501 Z0.93
G1 X9.735 Y9.48 Z0.928
G1 X9.79 Y9.466 Z0.926
G1 X9.846 Y9.461 Z0.924
G1 X9.902 Y9.463 Z0.922
G1 X9.958 Y9.473 Z0.92
G1 X10.011 Y9.491 Z0.918
G1 X10.061 Y9.517 Z0.916
G1 X10.107 Y9.549 Z0.914
G1 X10.148 Y9.587 Z0.912
G1 X10.184 Y9.631 Z0.911
G1 X10.212 Y9.68 Z0.909
G1 X10.234 Y9.732 Z0.907
G1 X10.248 Y9.786 Z0.905
G1 X10.254 Y9.842 Z0.903
G1 X10.252 Y9.899 Z0.901
G1 X10.242 Y9.954 Z0.899
G1 X10.225 Y10.008 Z0.897
G1 X10.2 Y10.058 Z0.895
G1 X10.168 Y10.105 Z0.893
G1 X10.13 Y10.146 Z0.891
G1 X10.086 Y10.182 Z0.889
G1 X10.038 Y10.211 Z0.887
G1 X9.986 Y10.233 Z0.885
G1 X9.932 Y10.247 Z0.883
G1 X9.876 Y10.254 Z0.881
G1 X9.819 Y10.252 Z0.879
G1 X9.764 Y10.243 Z0.877
G1 X9.71 Y10.226 Z0.875
G1 X9.659 Y10.201 Z0.873
G1 X9.613 Y10.17 Z0.871
G1 X9.571 Y10.132 Z0.869
G1 X9.535 Y10.089 Z0.867
G1 X9.505 Y10.041 Z0.865
G1 X9.483 Y9.989 Z0.863
G1 X9.468 Y9.935 Z0.861
G1 X9.461 Y9.879 Z0.859
G1 X9.462 Y9.823 Z0.857
G1 X9.471 Y9.767 Z0.855
G1 X9.487 Y9.713 Z0.853
G1 X9.512 Y9.662 Z0.851
G1 X9.543 Y9.615 Z0.85
G1 X9.58 Y9.573 Z0.848
G1 X9.623 Y9.537 Z0.846
G1 X9.671 Y9.507 Z0.844
G1 X9.722 Y9.484 Z0.842
G1 X9.776 Y9.469 Z0.84
G1 X9.832 Y9.461 Z0.838
G1 X9.888 Y9.462 Z0.836
G1 X9.944 Y9.47 Z0.834
G1 X9.998 Y9.486 Z0.832
G1 X10.049 Y9.51 Z0.83
G1 X10.096 Y9.54 Z0.828
G1 X10.139 Y9.577 Z0.826
G1 X10.175 Y9.62 Z0.824
G1 X10.206 Y9.667 Z0.822
G1 X10.229 Y9.719 Z0.82
G1 X10.245 Y9.773 Z0.818
G1 X10.253 Y9.828 Z0.816
G1 Y9.885 Z0.814
G1 X10.245 Y9.94 Z0.812
G1 X10.23 Y9.995 Z0.81
G1 X10.207 Y10.046 Z0.808
G1 X10.176 Y10.093 Z0.806
G1 X10.14 Y10.136 Z0.804
G1 X10.097 Y10.173 Z0.802
G1 X10.05 Y10.204 Z0.8
G1 X9.999 Y10.228 Z0.798
G1 X9.945 Y10.244 Z0.796
G1 X9.89 Y10.253 Z0.794
G1 X9.833 Z0.792
G1 X9.778 Y10.246 Z0.79
G1 X9.723 Y10.231 Z0.788
G1 X9.672 Y10.208 Z0.787
G1 X9.624 Y10.178 Z0.785
G1 X9.581 Y10.142 Z0.783
G1 X9.543 Y10.1 Z0.781
G1 X9.512 Y10.053 Z0.779
G1 X9.488 Y10.002 Z0.777
G1 X9.471 Y9.949 Z0.775
G1 X9.462 Y9.893 Z0.773
G1 X9.461 Y9.837 Z0.771
G1 X9.468 Y9.781 Z0.769
G1 X9.483 Y9.727 Z0.767
G1 X9.505 Y9.675 Z0.765
G1 X9.534 Y9.627 Z0.763
G1 X9.57 Y9.583 Z0.761
G1 X9.612 Y9.545 Z0.759
G1 X9.658 Y9.514 Z0.757
G1 X9.709 Y9.489 Z0.755
G1 X9.762 Y9.472 Z0.753
G1 X9.818 Y9.462 Z0.751
G1 X9.874 Y9.461 Z0.749
G1 X9.93 Y9.467 Z0.747
G1 X9.985 Y9.481 Z0.745
G1 X10.037 Y9.503 Z0.743
G1 X10.085 Y9.532 Z0.741
G1 X10.129 Y9.568 Z0.739
G1 X10.167 Y9.609 Z0.737
G1 X10.199 Y9.655 Z0.735
G1 X10.224 Y9.706 Z0.733
G1 X10.242 Y9.759 Z0.731
G1 X10.252 Y9.814 Z0.729
G1 X10.254 Y9.871 Z0.727
G1 X10.248 Y9.927 Z0.726
G1 X10.234 Y9.981 Z0.724
G1 X10.213 Y10.033 Z0.722
G1 X10.184 Y10.082 Z0.72
G1 X10.149 Y10.126 Z0.718
G1 X10.108 Y10.165 Z0.716
G1 X10.062 Y10.197 Z0.714
G1 X10.012 Y10.223 Z0.712
G1 X9.959 Y10.241 Z0.71
G1 X9.904 Y10.251 Z0.708
G1 X9.847 Y10.254 Z0.706
G1 X9.791 Y10.249 Z0.704
G1 X9.737 Y10.235 Z0.702
G1 X9.684 Y10.214 Z0.7
G1 X9.636 Y10.186 Z0.698
G1 X9.591 Y10.152 Z0.696
G1 X9.552 Y10.111 Z0.694
G1 X9.519 Y10.065 Z0.692
G1 X9.493 Y10.015 Z0.69
G1 X9.475 Y9.962 Z0.688
G1 X9.464 Y9.907 Z0.686
G1 X9.46 Y9.851 Z0.684
G1 X9.465 Y9.795 Z0.682
G1 X9.478 Y9.74 Z0.68
G1 X9.499 Y9.687 Z0.678
G1 X9.526 Y9.638 Z0.676
G1 X9.561 Y9.594 Z0.674
G1 X9.601 Y9.554 Z0.672
G1 X9.646 Y9.521 Z0.67
G1 X9.696 Y9.495 Z0.668
G1 X9.749 Y9.475 Z0.666
G1 X9.804 Y9.464 Z0.665
G1 X9.86 Y9.46 Z0.663
G1 X9.916 Y9.465 Z0.661
G1 X9.971 Y9.477 Z0.659
G1 X10.024 Y9.497 Z0.657
G1 X10.073 Y9.524 Z0.655
G1 X10.118 Y9.558 Z0.653
G1 X10.158 Y9.598 Z0.651
G1 X10.192 Y9.643 Z0.649
G1 X10.218 Y9.693 Z0.647
G1 X10.238 Y9.745 Z0.645
G1 X10.25 Y9.8 Z0.643
G1 X10.254 Y9.857 Z0.641
G1 X10.25 Y9.913 Z0.639
G1 X10.238 Y9.968 Z0.637
G1 X10.219 Y10.021 Z0.635
G1 X10.192 Y10.07 Z0.633
G1 X10.159 Y10.115 Z0.631
G1 X10.119 Y10.155 Z0.629
G1 X10.074 Y10.19 Z0.627
G1 X10.025 Y10.217 Z0.625
G1 X9.972 Y10.237 Z0.623
G1 X9.918 Y10.249 Z0.621
G1 X9.861 Y10.254 Z0.619
G1 X9.805 Y10.251 Z0.617
G1 X9.75 Y10.239 Z0.615
G1 X9.697 Y10.22 Z0.613
G1 X9.647 Y10.194 Z0.611
G1 X9.602 Y10.161 Z0.609
G1 X9.561 Y10.122 Z0.607
G1 X9.527 Y10.077 Z0.605
G1 X9.499 Y10.028 Z0.604
G1 X9.479 Y9.976 Z0.602
G1 X9.466 Y9.921 Z0.6
G1 X9.461 Y9.865 Z0.598
G1 X9.463 Y9.809 Z0.596
G1 X9.474 Y9.753 Z0.594
G1 X9.493 Y9.7 Z0.592
G1 X9.519 Y9.65 Z0.59
G1 X9.551 Y9.604 Z0.588
G1 X9.59 Y9.564 Z0.586
G1 X9.634 Y9.529 Z0.584
G1 X9.683 Y9.501 Z0.582
G1 X9.735 Y9.48 Z0.58
G1 X9.79 Y9.466 Z0.578
G1 X9.846 Y9.461 Z0.576
G1 X9.902 Y9.463 Z0.574
G1 X9.958 Y9.473 Z0.572
G1 X10.011 Y9.491 Z0.57
G1 X10.061 Y9.517 Z0.568
G1 X10.107 Y9.549 Z0.566
G1 X10.149 Y9.588 Z0.564
G1 X10.184 Y9.631 Z0.562
G1 X10.212 Y9.68 Z0.56
G1 X10.234 Y9.732 Z0.558
G1 X10.248 Y9.787 Z0.556
G1 X10.254 Y9.843 Z0.554
G1 X10.252 Y9.899 Z0.552
G1 X10.242 Y9.954 Z0.55
G1 X10.225 Y10.008 Z0.548
G1 X10.2 Y10.058 Z0.546
G1 X10.168 Y10.105 Z0.544
G1 X10.13 Y10.146 Z0.543
G1 X10.086 Y10.182 Z0.541
G1 X10.038 Y10.211 Z0.539
G1 X9.986 Y10.233 Z0.537
G1 X9.931 Y10.247 Z0.535
G1 X9.876 Y10.254 Z0.533
G1 X9.819 Y10.252 Z0.531
G1 X9.764 Y10.243 Z0.529
G1 X9.71 Y10.226 Z0.527
G1 X9.659 Y10.201 Z0.525
G1 X9.613 Y10.17 Z0.523
G1 X9.571 Y10.132 Z0.521
G1 X9.535 Y10.089 Z0.519
G1 X9.505 Y10.041 Z0.517
G1 X9.483 Y9.989 Z0.515
G1 X9.468 Y9.935 Z0.513
G1 X9.461 Y9.879 Z0.511
G1 X9.462 Y9.823 Z0.509
G1 X9.471 Y9.767 Z0.507
G1 X9.487 Y9.713 Z0.505
G1 X9.512 Y9.662 Z0.503
G1 X9.543 Y9.615 Z0.501
G1 X9.58 Y9.573 Z0.499
G1 X9.623 Y9.537 Z0.497
G1 X9.671 Y9.507 Z0.495
G1 X9.722 Y9.484 Z0.493
G1 X9.776 Y9.469 Z0.491
G1 X9.832 Y9.461 Z0.489
G1 X9.888 Y9.462 Z0.487
G1 X9.944 Y9.47 Z0.485
G1 X9.998 Y9.486 Z0.483
G1 X10.049 Y9.51 Z0.482
G1 X10.096 Y9.54 Z0.48
G1 X10.139 Y9.577 Z0.478
G1 X10.176 Y9.62 Z0.476
G1 X10.206 Y9.667 Z0.474
G1 X10.229 Y9.719 Z0.472
G1 X10.245 Y9.773 Z0.47
G1 X10.253 Y9.828 Z0.468
G1 Y9.885 Z0.466
G1 X10.245 Y9.941 Z0.464
G1 X10.23 Y9.995 Z0.462
G1 X10.206 Y10.046 Z0.46
G1 X10.176 Y10.093 Z0.458
G1 X10.14 Y10.136 Z0.456
G1 X10.097 Y10.173 Z0.454
G1 X10.05 Y10.204 Z0.452
G1 X9.999 Y10.228 Z0.45
G1 X9.945 Y10.244 Z0.448
G1 X9.89 Y10.253 Z0.446
G1 X9.833 Z0.444
G1 X9.777 Y10.246 Z0.442
G1 X9.723 Y10.231 Z0.44
G1 X9.672 Y10.208 Z0.438
G1 X9.624 Y10.178 Z0.436
G1 X9.581 Y10.142 Z0.434
G1 X9.543 Y10.1 Z0.432
G1 X9.512 Y10.053 Z0.43
G1 X9.488 Y10.002 Z0.428
G1 X9.471 Y9.949 Z0.426
G1 X9.462 Y9.893 Z0.424
G1 X9.461 Y9.837 Z0.422
G1 X9.468 Y9.781 Z0.42
G1 X9.483 Y9.726 Z0.419
G1 X9.505 Y9.675 Z0.417
G1 X9.534 Y9.627 Z0.415
G1 X9.57 Y9.583 Z0.413
G1 X9.612 Y9.545 Z0.411
G1 X9.658 Y9.514 Z0.409
G1 X9.709 Y9.489 Z0.407
G1 X9.763 Y9.472 Z0.405
G1 X9.818 Y9.462 Z0.403
G1 X9.874 Y9.461 Z0.401
G1 X9.93 Y9.467 Z0.399
G1 X9.985 Y9.481 Z0.397
G1 X10.037 Y9.503 Z0.395
G1 X10.085 Y9.532 Z0.393
G1 X10.129 Y9.568 Z0.391
G1 X10.167 Y9.609 Z0.389
G1 X10.199 Y9.655 Z0.387
G1 X10.224 Y9.706 Z0.385
G1 X10.242 Y9.759 Z0.383
G1 X10.252 Y9.814 Z0.381
G1 X10.254 Y9.871 Z0.379
G1 X10.248 Y9.927 Z0.377
G1 X10.234 Y9.981 Z0.375
G1 X10.213 Y10.033 Z0.373
G1 X10.184 Y10.082 Z0.371
G1 X10.149 Y10.126 Z0.369
G1 X10.108 Y10.165 Z0.367
G1 X10.062 Y10.197 Z0.365
G1 X10.012 Y10.223 Z0.363
G1 X9.959 Y10.241 Z0.361
G1 X9.904 Y10.251 Z0.359
G1 X9.847 Y10.254 Z0.358
G1 X9.791 Y10.249 Z0.356
G1 X9.737 Y10.235 Z0.354
G1 X9.684 Y10.214 Z0.352
G1 X9.635 Y10.186 Z0.35
G1 X9.591 Y10.152 Z0.348
G1 X9.552 Y10.111 Z0.346
G1 X9.519 Y10.065 Z0.344
G1 X9.493 Y10.015 Z0.342
G1 X9.475 Y9.962 Z0.34
G1 X9.464 Y9.907 Z0.338
G1 X9.46 Y9.851 Z0.336
G1 X9.465 Y9.795 Z0.334
G1 X9.478 Y9.74 Z0.332
G1 X9.499 Y9.687 Z0.33
G1 X9.526 Y9.638 Z0.328
G1 X9.561 Y9.594 Z0.326
G1 X9.601 Y9.554 Z0.324
G1 X9.646 Y9.521 Z0.322
G1 X9.696 Y9.495 Z0.32
G1 X9.749 Y9.475 Z0.318
G1 X9.804 Y9.464 Z0.316
G1 X9.86 Y9.46 Z0.314
G1 X9.916 Y9.465 Z0.312
G1 X9.971 Y9.477 Z0.31
G1 X10.024 Y9.497 Z0.308
G1 X10.073 Y9.524 Z0.306
G1 X10.118 Y9.558 Z0.304
G1 X10.158 Y9.598 Z0.302
G1 X10.192 Y9.643 Z0.3
G1 X10.219 Y9.693 Z0.298
G1 X10.238 Y9.745 Z0.297
G1 X10.25 Y9.801 Z0.295
G1 X10.254 Y9.857 Z0.293
G1 X10.25 Y9.913 Z0.291
G1 X10.238 Y9.968 Z0.289
G1 X10.219 Y10.021 Z0.287
G1 X10.192 Y10.07 Z0.285
G1 X10.159 Y10.115 Z0.283
G1 X10.119 Y10.156 Z0.281
G1 X10.074 Y10.19 Z0.279
G1 X10.025 Y10.217 Z0.277
G1 X9.972 Y10.237 Z0.275
G1 X9.918 Y10.25 Z0.273
G1 X9.861 Y10.254 Z0.271
G1 X9.805 Y10.251 Z0.269
G1 X9.75 Y10.239 Z0.267
G1 X9.697 Y10.22 Z0.265
G1 X9.647 Y10.194 Z0.263
G1 X9.602 Y10.161 Z0.261
G1 X9.561 Y10.122 Z0.259
G1 X9.527 Y10.077 Z0.257
G1 X9.499 Y10.028 Z0.255
G1 X9.479 Y9.976 Z0.253
G1 X9.466 Y9.921 Z0.251
G1 X9.461 Y9.865 Z0.249
G1 X9.463 Y9.809 Z0.247
G1 X9.474 Y9.753 Z0.245
G1 X9.493 Y9.7 Z0.243
G1 X9.519 Y9.65 Z0.241
G1 X9.551 Y9.604 Z0.239
G1 X9.59 Y9.564 Z0.237
G1 X9.635 Y9.529 Z0.236
G1 X9.683 Y9.501 Z0.234
G1 X9.736 Y9.479 Z0.232
G1 X9.79 Y9.466 Z0.23
G1 X9.846 Y9.46 Z0.228
G1 X9.902 Y9.463 Z0.226
G1 X9.958 Y9.473 Z0.224
G1 X10.011 Y9.491 Z0.222
G1 X10.061 Y9.517 Z0.22
G1 X10.107 Y9.549 Z0.218
G1 X10.149 Y9.588 Z0.216
G1 X10.184 Y9.632 Z0.214
G1 X10.212 Y9.68 Z0.212
G1 X10.234 Y9.732 Z0.21
G1 X10.248 Y9.787 Z0.208
G1 X10.254 Y9.843 Z0.206
G1 X10.252 Y9.899 Z0.204
G1 X10.242 Y9.954 Z0.202
G1 X10.225 Y10.008 Z0.2
G1 X10.2 Y10.058 Z0.198
G1 X10.168 Y10.105 Z0.196
G1 X10.129 Y10.146 Z0.194
G1 X10.086 Y10.182 Z0.192
G1 X10.038 Y10.211 Z0.19
G1 X9.986 Y10.233 Z0.188
G1 X9.931 Y10.247 Z0.186
G1 X9.875 Y10.254 Z0.184
G1 X9.819 Y10.252 Z0.182
G1 X9.764 Y10.243 Z0.18
G1 X9.71 Y10.226 Z0.178
G1 X9.659 Y10.201 Z0.176
G1 X9.613 Y10.17 Z0.175
G1 X9.571 Y10.132 Z0.173
G1 X9.535 Y10.089 Z0.171
G1 X9.505 Y10.041 Z0.169
G1 X9.483 Y9.989 Z0.167
G1 X9.468 Y9.935 Z0.165
G1 X9.461 Y9.879 Z0.163
G1 X9.462 Y9.823 Z0.161
G1 X9.471 Y9.767 Z0.159
G1 X9.488 Y9.713 Z0.157
G1 X9.512 Y9.662 Z0.155
G1 X9.543 Y9.615 Z0.153
G1 X9.58 Y9.573 Z0.151
G1 X9.623 Y9.537 Z0.149
G1 X9.671 Y9.507 Z0.147
G1 X9.722 Y9.484 Z0.145
G1 X9.776 Y9.469 Z0.143
G1 X9.832 Y9.461 Z0.141
G1 X9.888 Y9.462 Z0.139
G1 X9.944 Y9.47 Z0.137
G1 X9.998 Y9.486 Z0.135
G1 X10.049 Y9.51 Z0.133
G1 X10.096 Y9.54 Z0.131
G1 X10.139 Y9.577 Z0.129
G1 X10.176 Y9.62 Z0.127
G1 X10.206 Y9.668 Z0.125
G1 X10.229 Y9.719 Z0.123
G1 X10.245 Y9.773 Z0.121
G1 X10.253 Y9.829 Z0.119
G1 Y9.885 Z0.117
G1 X10.245 Y9.941 Z0.115
G1 X10.23 Y9.995 Z0.113
G1 X10.206 Y10.046 Z0.112
G1 X10.176 Y10.094 Z0.11
G1 X10.14 Y10.136 Z0.108
G1 X10.097 Y10.173 Z0.106
G1 X10.05 Y10.204 Z0.104
G1 X9.999 Y10.228 Z0.102
G1 X9.945 Y10.244 Z0.1
G1 X9.889 Y10.253 Z0.098
G1 X9.833 Z0.096
G1 X9.777 Y10.246 Z0.094
G1 X9.723 Y10.231 Z0.092
G1 X9.672 Y10.208 Z0.09
G1 X9.624 Y10.178 Z0.088
G1 X9.581 Y10.142 Z0.086
G1 X9.543 Y10.1 Z0.084
G1 X9.512 Y10.053 Z0.082
G1 X9.488 Y10.002 Z0.08
G1 X9.471 Y9.948 Z0.078
G1 X9.462 Y9.893 Z0.076
G1 X9.461 Y9.837 Z0.074
G1 X9.468 Y9.781 Z0.072
G1 X9.483 Y9.726 Z0.07
G1 X9.505 Y9.675 Z0.068
G1 X9.534 Y9.627 Z0.066
G1 X9.57 Y9.583 Z0.064
G1 X9.612 Y9.545 Z0.062
G1 X9.658 Y9.514 Z0.06
G1 X9.709 Y9.489 Z0.058
G1 X9.763 Y9.472 Z0.056
G1 X9.818 Y9.462 Z0.054
G1 X9.874 Y9.461 Z0.052
G1 X9.93 Y9.467 Z0.051
G1 X9.985 Y9.481 Z0.049
G1 X10.037 Y9.503 Z0.047
G1 X10.085 Y9.532 Z0.045
G1 X10.129 Y9.568 Z0.043
G1 X10.167 Y9.609 Z0.041
G1 X10.199 Y9.655 Z0.039
G1 X10.224 Y9.706 Z0.037
G1 X10.242 Y9.759 Z0.035
G1 X10.252 Y9.815 Z0.033
G1 X10.254 Y9.871 Z0.031
G1 X10.248 Y9.927 Z0.029
G1 X10.234 Y9.981 Z0.027
G1 X10.213 Y10.034 Z0.025
G1 X10.184 Y10.082 Z0.023
G1 X10.149 Y10.126 Z0.021
G1 X10.108 Y10.165 Z0.019
G1 X10.062 Y10.197 Z0.017
G1 X10.012 Y10.223 Z0.015
G1 X9.959 Y10.241 Z0.013
G1 X9.903 Y10.251 Z0.011
G1 X9.847 Y10.254 Z0.009
G1 X9.791 Y10.249 Z0.007
G1 X9.736 Y10.235 Z0.005
G1 X9.684 Y10.214 Z0.003
G1 X9.635 Y10.186 Z0.001
G1 X9.591 Y10.152 Z-0.001
G1 X9.552 Y10.111 Z-0.003
G1 X9.519 Y10.065 Z-0.005
G1 X9.493 Y10.015 Z-0.007
G1 X9.475 Y9.962 Z-0.009
G1 X9.464 Y9.907 Z-0.01
G1 X9.46 Y9.851 Z-0.012
G1 X9.465 Y9.795 Z-0.014
G1 X9.478 Y9.74 Z-0.016
G1 X9.499 Y9.687 Z-0.018
G1 X9.526 Y9.638 Z-0.02
G1 X9.561 Y9.594 Z-0.022
G1 X9.601 Y9.554 Z-0.024
G1 X9.646 Y9.521 Z-0.026
G1 X9.696 Y9.495 Z-0.028
G1 X9.749 Y9.475 Z-0.03
G1 X9.804 Y9.464 Z-0.032
G1 X9.86 Y9.46 Z-0.034
G1 X9.917 Y9.465 Z-0.036
G1 X9.971 Y9.477 Z-0.038
G1 X10.024 Y9.497 Z-0.04
G1 X10.073 Y9.524 Z-0.042
G1 X10.118 Y9.558 Z-0.044
G1 X10.158 Y9.598 Z-0.046
G1 X10.192 Y9.643 Z-0.048
G1 X10.219 Y9.693 Z-0.05
G1 X10.238 Y9.746 Z-0.052
G1 X10.25 Y9.801 Z-0.054
G1 X10.254 Y9.857 Z-0.056
G1 X10.25 Y9.913 Z-0.058
G1 X10.238 Y9.968 Z-0.06
G1 X10.219 Y10.021 Z-0.062
G1 X10.192 Y10.07 Z-0.064
G1 X10.159 Y10.116 Z-0.066
G1 X10.119 Y10.156 Z-0.068
G1 X10.074 Y10.19 Z-0.07
G1 X10.025 Y10.217 Z-0.071
G1 X9.972 Y10.237 Z-0.073
G1 X9.917 Y10.25 Z-0.075
G1 X9.861 Y10.254 Z-0.077
G1 X9.805 Y10.251 Z-0.079
G1 X9.75 Y10.239 Z-0.081
G1 X9.697 Y10.22 Z-0.083
G1 X9.647 Y10.194 Z-0.085
G1 X9.602 Y10.161 Z-0.087
G1 X9.561 Y10.122 Z-0.089
G1 X9.527 Y10.077 Z-0.091
G1 X9.499 Y10.028 Z-0.093
G1 X9.479 Y9.976 Z-0.095
G1 X9.466 Y9.921 Z-0.097
G1 X9.461 Y9.865 Z-0.099
G1 X9.463 Y9.808 Z-0.101
G1 X9.474 Y9.753 Z-0.103
G1 X9.493 Y9.7 Z-0.105
G1 X9.519 Y9.65 Z-0.107
G1 X9.552 Y9.604 Z-0.109
G1 X9.59 Y9.564 Z-0.111
G1 X9.635 Y9.529 Z-0.113
G1 X9.683 Y9.5 Z-0.115
G1 X9.736 Y9.479 Z-0.117
G1 X9.79 Y9.466 Z-0.119
G1 X9.846 Y9.46 Z-0.121
G1 X9.903 Y9.463 Z-0.123
G1 X9.958 Y9.473 Z-0.125
G1 X10.011 Y9.491 Z-0.127
G1 X10.061 Y9.517 Z-0.129
G1 X10.108 Y9.549 Z-0.131
G1 X10.149 Y9.588 Z-0.132
G1 X10.184 Y9.632 Z-0.134
G1 X10.212 Y9.68 Z-0.136
G1 X10.234 Y9.732 Z-0.138
G1 X10.248 Y9.787 Z-0.14
G1 X10.254 Y9.843 Z-0.142
G1 X10.252 Y9.899 Z-0.144
G1 X10.242 Y9.954 Z-0.146
G1 X10.224 Y10.008 Z-0.148
G1 X10.199 Y10.058 Z-0.15
G1 X10.168 Y10.105 Z-0.152
G1 X10.129 Y10.146 Z-0.154
G1 X10.086 Y10.182 Z-0.156
G1 X10.038 Y10.211 Z-0.158
G1 X9.986 Y10.233 Z-0.16
G1 X9.931 Y10.247 Z-0.162
G1 X9.875 Y10.254 Z-0.164
G1 X9.819 Y10.252 Z-0.166
G1 X9.764 Y10.243 Z-0.168
G1 X9.71 Y10.226 Z-0.17
G1 X9.659 Y10.201 Z-0.172
G1 X9.613 Y10.17 Z-0.174
G1 X9.571 Y10.132 Z-0.176
G1 X9.535 Y10.089 Z-0.178
G1 X9.505 Y10.041 Z-0.18
G1 X9.483 Y9.989 Z-0.182
G1 X9.468 Y9.935 Z-0.184
G1 X9.461 Y9.879 Z-0.186
G1 X9.462 Y9.822 Z-0.188
G1 X9.471 Y9.767 Z-0.19
G1 X9.488 Y9.713 Z-0.192
G1 X9.512 Y9.662 Z-0.193
G1 X9.543 Y9.615 Z-0.195
G1 X9.58 Y9.573 Z-0.197
G1 X9.623 Y9.537 Z-0.199
G1 X9.671 Y9.507 Z-0.201
G1 X9.722 Y9.484 Z-0.203
G1 X9.776 Y9.469 Z-0.205
G1 X9.832 Y9.461 Z-0.207
G1 X9.889 Y9.462 Z-0.209
G1 X9.944 Y9.47 Z-0.211
G1 X9.998 Y9.486 Z-0.213
G1 X10.049 Y9.51 Z-0.215
G1 X10.096 Y9.541 Z-0.217
G1 X10.139 Y9.578 Z-0.219
G1 X10.176 Y9.62 Z-0.221
G1 X10.206 Y9.668 Z-0.223
G1 X10.229 Y9.719 Z-0.225
G1 X10.245 Y9.773 Z-0.227
G1 X10.253 Y9.829 Z-0.229
G1 Y9.885 Z-0.231
G1 X10.245 Y9.941 Z-0.233
G1 X10.23 Y9.995 Z-0.235
G1 X10.206 Y10.046 Z-0.237
G1 X10.176 Y10.094 Z-0.239
G1 X10.139 Y10.136 Z-0.241
G1 X10.097 Y10.173 Z-0.243
G1 X10.05 Y10.204 Z-0.245
G1 X9.999 Y10.228 Z-0.247
G1 X9.945 Y10.244 Z-0.249
G1 X9.889 Y10.253 Z-0.251
G1 X9.833 Z-0.253
G1 X9.777 Y10.246 Z-0.255
G1 X9.723 Y10.231 Z-0.256
G1 X9.672 Y10.208 Z-0.258
G1 X9.624 Y10.178 Z-0.26
G1 X9.581 Y10.142 Z-0.262
G1 X9.543 Y10.1 Z-0.264
G1 X9.512 Y10.053 Z-0.266
G1 X9.488 Y10.002 Z-0.268
G1 X9.471 Y9.948 Z-0.27
G1 X9.462 Y9.893 Z-0.272
G1 X9.461 Y9.836 Z-0.274
G1 X9.468 Y9.781 Z-0.276
G1 X9.483 Y9.726 Z-0.278
G1 X9.505 Y9.675 Z-0.28
G1 X9.534 Y9.627 Z-0.282
G1 X9.57 Y9.583 Z-0.284
G1 X9.612 Y9.545 Z-0.286
G1 X9.659 Y9.514 Z-0.288
G1 X9.709 Y9.489 Z-0.29
G1 X9.763 Y9.472 Z-0.292
G1 X9.818 Y9.462 Z-0.294
G1 X9.875 Y9.461 Z-0.296
G1 X9.93 Y9.467 Z-0.298
G1 X9.985 Y9.481 Z-0.3
G1 X10.037 Y9.503 Z-0.302
G1 X10.085 Y9.532 Z-0.304
G1 X10.129 Y9.568 Z-0.306
G1 X10.167 Y9.609 Z-0.308
G1 X10.199 Y9.655 Z-0.31
G1 X10.224 Y9.706 Z-0.312
G1 X10.242 Y9.759 Z-0.314
G1 X10.252 Y9.815 Z-0.316
G1 X10.254 Y9.871 Z-0.317
G1 X10.248 Y9.927 Z-0.319
G1 X10.234 Y9.982 Z-0.321
G1 X10.213 Y10.034 Z-0.323
G1 X10.184 Y10.082 Z-0.325
G1 X10.149 Y10.126 Z-0.327
G1 X10.108 Y10.165 Z-0.329
G1 X10.062 Y10.197 Z-0.331
G1 X10.012 Y10.223 Z-0.333
G1 X9.959 Y10.241 Z-0.335
G1 X9.903 Y10.251 Z-0.337
G1 X9.847 Y10.254 Z-0.339
G1 X9.791 Y10.249 Z-0.341
G1 X9.736 Y10.235 Z-0.343
G1 X9.684 Y10.214 Z-0.345
G1 X9.635 Y10.186 Z-0.347
G1 X9.591 Y10.151 Z-0.349
G1 X9.552 Y10.111 Z-0.351
G1 X9.519 Y10.065 Z-0.353
G1 X9.493 Y10.015 Z-0.355
G1 X9.475 Y9.962 Z-0.357
G1 X9.464 Y9.907 Z-0.359
G1 X9.461 Y9.851 Z-0.361
G1 X9.465 Y9.794 Z-0.363
G1 X9.478 Y9.74 Z-0.365
G1 X9.499 Y9.687 Z-0.367
G1 X9.526 Y9.638 Z-0.369
G1 X9.561 Y9.594 Z-0.371
G1 X9.601 Y9.554 Z-0.373
G1 X9.646 Y9.521 Z-0.375
G1 X9.696 Y9.495 Z-0.377
G1 X9.749 Y9.475 Z-0.378
G1 X9.804 Y9.464 Z-0.38
G1 X9.86 Y9.46 Z-0.382
G1 X9.917 Y9.465 Z-0.384
G1 X9.972 Y9.477 Z-0.386
G1 X10.024 Y9.497 Z-0.388
G1 X10.073 Y9.524 Z-0.39
G1 X10.118 Y9.558 Z-0.392
G1 X10.158 Y9.598 Z-0.394
G1 X10.192 Y9.643 Z-0.396
G1 X10.219 Y9.693 Z-0.398
G1 X10.238 Y9.746 Z-0.4
G1 X10.25 Y9.801 Z-0.402
G1 X10.254 Y9.857 Z-0.404
G1 X10.25 Y9.913 Z-0.406
G1 X10.238 Y9.968 Z-0.408
G1 X10.219 Y10.021 Z-0.41
G1 X10.192 Y10.07 Z-0.412
G1 X10.159 Y10.116 Z-0.414
G1 X10.119 Y10.156 Z-0.416
G1 X10.074 Y10.19 Z-0.418
G1 X10.025 Y10.217 Z-0.42
G1 X9.972 Y10.237 Z-0.422
G1 X9.917 Y10.25 Z-0.424
G1 X9.861 Y10.254 Z-0.426
G1 X9.805 Y10.251 Z-0.428
G1 X9.75 Y10.239 Z-0.43
G1 X9.697 Y10.22 Z-0.432
G1 X9.647 Y10.194 Z-0.434
G1 X9.602 Y10.161 Z-0.436
G1 X9.561 Y10.121 Z-0.438
G1 X9.527 Y10.077 Z-0.439
G1 X9.499 Y10.028 Z-0.441
G1 X9.478 Y9.975 Z-0.443
G1 X9.466 Y9.921 Z-0.445
G1 X9.461 Y9.865 Z-0.447
G1 X9.463 Y9.808 Z-0.449
G1 X9.474 Y9.753 Z-0.451
G1 X9.493 Y9.7 Z-0.453
G1 X9.519 Y9.65 Z-0.455
G1 X9.552 Y9.604 Z-0.457
G1 X9.59 Y9.563 Z-0.459
G1 X9.635 Y9.529 Z-0.461
G1 X9.683 Y9.5 Z-0.463
G1 X9.736 Y9.479 Z-0.465
G1 X9.79 Y9.466 Z-0.467
G1 X9.846 Y9.46 Z-0.469
G1 X9.903 Y9.463 Z-0.471
G1 X9.958 Y9.473 Z-0.473
G1 X10.011 Y9.491 Z-0.475
G1 X10.062 Y9.517 Z-0.477
G1 X10.108 Y9.549 Z-0.479
G1 X10.149 Y9.588 Z-0.481
G1 X10.184 Y9.632 Z-0.483
G1 X10.213 Y9.68 Z-0.485
G1 X10.234 Y9.732 Z-0.487
G1 X10.248 Y9.787 Z-0.489
G1 X10.254 Y9.843 Z-0.491
G1 X10.252 Y9.899 Z-0.493
G1 X10.242 Y9.954 Z-0.495
G1 X10.224 Y10.008 Z-0.497
G1 X10.199 Y10.058 Z-0.499
G1 X10.168 Y10.105 Z-0.5
G1 X10.129 Y10.146 Z-0.502
G1 X10.086 Y10.182 Z-0.504
G1 X10.037 Y10.211 Z-0.506
G1 X9.986 Y10.233 Z-0.508
G1 X9.931 Y10.247 Z-0.51
G1 X9.875 Y10.254 Z-0.512
G1 X9.819 Y10.252 Z-0.514
G1 X9.763 Y10.243 Z-0.516
G1 X9.71 Y10.226 Z-0.518
G1 X9.659 Y10.201 Z-0.52
G1 X9.613 Y10.17 Z-0.522
G1 X9.571 Y10.132 Z-0.524
G1 X9.535 Y10.088 Z-0.526
G1 X9.505 Y10.041 Z-0.528
G1 X9.483 Y9.989 Z-0.53
G1 X9.468 Y9.935 Z-0.532
G1 X9.461 Y9.879 Z-0.534
G1 X9.462 Y9.822 Z-0.536
G1 X9.471 Y9.767 Z-0.538
G1 X9.488 Y9.713 Z-0.54
G1 X9.512 Y9.662 Z-0.542
G1 X9.543 Y9.615 Z-0.544
G1 X9.58 Y9.573 Z-0.546
G1 X9.623 Y9.537 Z-0.548
G1 X9.671 Y9.507 Z-0.55
G1 X9.722 Y9.484 Z-0.552
G1 X9.777 Y9.469 Z-0.554
G1 X9.832 Y9.461 Z-0.556
G1 X9.889 Y9.462 Z-0.558
G1 X9.944 Y9.47 Z-0.56
G1 X9.998 Y9.486 Z-0.561
G1 X10.049 Y9.51 Z-0.563
G1 X10.097 Y9.541 Z-0.565
G1 X10.139 Y9.578 Z-0.567
G1 X10.176 Y9.62 Z-0.569
G1 X10.206 Y9.668 Z-0.571
G1 X10.229 Y9.719 Z-0.573
G1 X10.245 Y9.773 Z-0.575
G1 X10.253 Y9.829 Z-0.577
G1 Y9.885 Z-0.579
G1 X10.245 Y9.941 Z-0.581
G1 X10.23 Y9.995 Z-0.583
G1 X10.206 Y10.046 Z-0.585
G1 X10.176 Y10.094 Z-0.587
G1 X10.139 Y10.136 Z-0.589
G1 X10.097 Y10.173 Z-0.591
G1 X10.05 Y10.204 Z-0.593
G1 X9.999 Y10.228 Z-0.595
G1 X9.945 Y10.244 Z-0.597
G1 X9.889 Y10.253 Z-0.599
G1 X9.833 Z-0.601
G1 X9.777 Y10.246 Z-0.603
G1 X9.723 Y10.231 Z-0.605
G1 X9.671 Y10.208 Z-0.607
G1 X9.624 Y10.178 Z-0.609
G1 X9.581 Y10.142 Z-0.611
G1 X9.543 Y10.1 Z-0.613
G1 X9.512 Y10.053 Z-0.615
G1 X9.488 Y10.002 Z-0.617
G1 X9.471 Y9.948 Z-0.619
G1 X9.462 Y9.893 Z-0.621
G1 X9.461 Y9.836 Z-0.623
G1 X9.468 Y9.781 Z-0.624
G1 X9.483 Y9.726 Z-0.626
G1 X9.505 Y9.674 Z-0.628
G1 X9.534 Y9.626 Z-0.63
G1 X9.57 Y9.583 Z-0.632
G1 X9.612 Y9.545 Z-0.634
G1 X9.659 Y9.514 Z-0.636
G1 X9.709 Y9.489 Z-0.638
G1 X9.763 Y9.472 Z-0.64
G1 X9.818 Y9.462 Z-0.642
G1 X9.875 Y9.461 Z-0.644
G1 X9.931 Y9.467 Z-0.646
G1 X9.985 Y9.481 Z-0.648
G1 X10.037 Y9.503 Z-0.65
G1 X10.085 Y9.532 Z-0.652
G1 X10.129 Y9.568 Z-0.654
G1 X10.167 Y9.609 Z-0.656
G1 X10.199 Y9.655 Z-0.658
G1 X10.224 Y9.706 Z-0.66
G1 X10.242 Y9.759 Z-0.662
G1 X10.252 Y9.815 Z-0.664
G1 X10.254 Y9.871 Z-0.666
G1 X10.248 Y9.927 Z-0.668
G1 X10.234 Y9.982 Z-0.67
G1 X10.213 Y10.034 Z-0.672
G1 X10.184 Y10.082 Z-0.674
G1 X10.149 Y10.126 Z-0.676
G1 X10.108 Y10.165 Z-0.678
G1 X10.062 Y10.197 Z-0.68
G1 X10.012 Y10.223 Z-0.682
G1 X9.959 Y10.241 Z-0.684
G1 X9.903 Y10.251 Z-0.685
G1 X9.847 Y10.254 Z-0.687
G1 X9.791 Y10.249 Z-0.689
G1 X9.736 Y10.235 Z-0.691
G1 X9.684 Y10.214 Z-0.693
G1 X9.635 Y10.186 Z-0.695
G1 X9.591 Y10.151 Z-0.697
G1 X9.552 Y10.111 Z-0.699
G1 X9.519 Y10.065 Z-0.701
G1 X9.493 Y10.015 Z-0.703
G1 X9.475 Y9.962 Z-0.705
G1 X9.464 Y9.907 Z-0.707
G1 X9.461 Y9.85 Z-0.709
G1 X9.465 Y9.794 Z-0.711
G1 X9.478 Y9.74 Z-0.713
G1 X9.499 Y9.687 Z-0.715
G1 X9.526 Y9.638 Z-0.717
G1 X9.561 Y9.593 Z-0.719
G1 X9.601 Y9.554 Z-0.721
G1 X9.647 Y9.521 Z-0.723
G1 X9.696 Y9.494 Z-0.725
G1 X9.749 Y9.475 Z-0.727
G1 X9.804 Y9.464 Z-0.729
G1 X9.861 Y9.46 Z-0.731
G1 X9.917 Y9.465 Z-0.733
G1 X9.972 Y9.477 Z-0.735
G1 X10.024 Y9.497 Z-0.737
G1 X10.074 Y9.524 Z-0.739
G1 X10.118 Y9.558 Z-0.741
G1 X10.158 Y9.598 Z-0.743
G1 X10.192 Y9.644 Z-0.745
G1 X10.219 Y9.693 Z-0.746
G1 X10.238 Y9.746 Z-0.748
G1 X10.25 Y9.801 Z-0.75
G1 X10.254 Y9.857 Z-0.752
G1 X10.25 Y9.913 Z-0.754
G1 X10.238 Y9.968 Z-0.756
G1 X10.219 Y10.021 Z-0.758
G1 X10.192 Y10.07 Z-0.76
G1 X10.158 Y10.116 Z-0.762
G1 X10.119 Y10.156 Z-0.764
G1 X10.074 Y10.19 Z-0.766
G1 X10.025 Y10.217 Z-0.768
G1 X9.972 Y10.237 Z-0.77
G1 X9.917 Y10.25 Z-0.772
G1 X9.861 Y10.254 Z-0.774
G1 X9.805 Y10.251 Z-0.776
G1 X9.75 Y10.239 Z-0.778
G1 X9.697 Y10.22 Z-0.78
G1 X9.647 Y10.194 Z-0.782
G1 X9.602 Y10.161 Z-0.784
G1 X9.561 Y10.121 Z-0.786
G1 X9.527 Y10.077 Z-0.788
G1 X9.499 Y10.028 Z-0.79
G1 X9.478 Y9.975 Z-0.792
G1 X9.466 Y9.921 Z-0.794
G1 X9.461 Y9.865 Z-0.796
G1 X9.463 Y9.808 Z-0.798
G1 X9.474 Y9.753 Z-0.8
G1 X9.493 Y9.7 Z-0.802
G1 X9.519 Y9.65 Z-0.804
G1 X9.552 Y9.604 Z-0.806
G1 X9.591 Y9.563 Z-0.807
G1 X9.635 Y9.529 Z-0.809
G1 X9.684 Y9.5 Z-0.811
G1 X9.736 Y9.479 Z-0.813
G1 X9.79 Y9.466 Z-0.815
G1 X9.846 Y9.46 Z-0.817
G1 X9.903 Y9.463 Z-0.819
G1 X9.958 Y9.473 Z-0.821
G1 X10.011 Y9.491 Z-0.823
G1 X10.062 Y9.517 Z-0.825
G1 X10.108 Y9.549 Z-0.827
G1 X10.149 Y9.588 Z-0.829
G1 X10.184 Y9.632 Z-0.831
G1 X10.213 Y9.68 Z-0.833
G1 X10.234 Y9.732 Z-0.835
G1 X10.248 Y9.787 Z-0.837
G1 X10.254 Y9.843 Z-0.839
G1 X10.252 Y9.899 Z-0.841
G1 X10.242 Y9.955 Z-0.843
G1 X10.224 Y10.008 Z-0.845
G1 X10.199 Y10.058 Z-0.847
G1 X10.167 Y10.105 Z-0.849
G1 X10.129 Y10.146 Z-0.851
G1 X10.086 Y10.182 Z-0.853
G1 X10.037 Y10.211 Z-0.855
G1 X9.986 Y10.233 Z-0.857
G1 X9.931 Y10.247 Z-0.859
G1 X9.875 Y10.254 Z-0.861
G1 X9.819 Y10.252 Z-0.863
G1 X9.763 Y10.243 Z-0.865
G1 X9.71 Y10.226 Z-0.867
G1 X9.659 Y10.201 Z-0.868
G1 X9.612 Y10.17 Z-0.87
G1 X9.571 Y10.132 Z-0.872
G1 X9.535 Y10.088 Z-0.874
G1 X9.505 Y10.04 Z-0.876
G1 X9.483 Y9.989 Z-0.878
G1 X9.468 Y9.934 Z-0.88
G1 X9.461 Y9.879 Z-0.882
G1 X9.462 Y9.822 Z-0.884
G1 X9.471 Y9.767 Z-0.886
G1 X9.488 Y9.713 Z-0.888
G1 X9.512 Y9.662 Z-0.89
G1 X9.543 Y9.615 Z-0.892
G1 X9.58 Y9.573 Z-0.894
G1 X9.623 Y9.537 Z-0.896
G1 X9.671 Y9.507 Z-0.898
G1 X9.722 Y9.484 Z-0.9
G1 X9.777 Y9.469 Z-0.902
G1 X9.832 Y9.461 Z-0.904
G1 X9.889 Y9.462 Z-0.906
G1 X9.944 Y9.47 Z-0.908
G1 X9.998 Y9.486 Z-0.91
G1 X10.049 Y9.51 Z-0.912
G1 X10.097 Y9.541 Z-0.914
G1 X10.139 Y9.578 Z-0.916
G1 X10.176 Y9.62 Z-0.918
G1 X10.206 Y9.668 Z-0.92
G1 X10.229 Y9.719 Z-0.922
G1 X10.245 Y9.773 Z-0.924
G1 X10.253 Y9.829 Z-0.926
G1 Y9.885 Z-0.928
G1 X10.245 Y9.941 Z-0.93
G1 X10.23 Y9.995 Z-0.931
G1 X10.206 Y10.046 Z-0.933
G1 X10.176 Y10.094 Z-0.935
G1 X10.139 Y10.136 Z-0.937
G1 X10.097 Y10.174 Z-0.939
G1 X10.05 Y10.204 Z-0.941
G1 X9.999 Y10.228 Z-0.943
G1 X9.945 Y10.244 Z-0.945
G1 X9.889 Y10.253 Z-0.947
G1 X9.833 Z-0.949
G1 X9.777 Y10.246 Z-0.951
G1 X9.723 Y10.231 Z-0.953
G1 X9.671 Y10.208 Z-0.955
G1 X9.624 Y10.178 Z-0.957
G1 X9.581 Y10.142 Z-0.959
G1 X9.543 Y10.1 Z-0.961
G1 X9.512 Y10.053 Z-0.963
G1 X9.488 Y10.002 Z-0.965
G1 X9.471 Y9.948 Z-0.967
G1 X9.462 Y9.893 Z-0.969
G1 X9.461 Y9.836 Z-0.971
G1 X9.468 Y9.78 Z-0.973
G1 X9.483 Y9.726 Z-0.975
G1 X9.505 Y9.674 Z-0.977
G1 X9.534 Y9.626 Z-0.979
G1 X9.57 Y9.583 Z-0.981
G1 X9.612 Y9.545 Z-0.983
G1 X9.659 Y9.514 Z-0.985
G1 X9.709 Y9.489 Z-0.987
G1 X9.763 Y9.472 Z-0.989
G1 X9.818 Y9.462 Z-0.991
G1 X9.875 Y9.461 Z-0.992
G1 X9.931 Y9.467 Z-0.994
G1 X9.985 Y9.481 Z-0.996
G1 X10.037 Y9.503 Z-0.998
G1 X10.085 Y9.532 Z-1
G1 X10.129 Y9.568 Z-1.002
G1 X10.167 Y9.609 Z-1.004
G1 X10.199 Y9.656 Z-1.006
G1 X10.224 Y9.706 Z-1.008
G1 X10.242 Y9.759 Z-1.01
G1 X10.252 Y9.815 Z-1.012
G1 X10.254 Y9.871 Z-1.014
G1 X10.248 Y9.927 Z-1.016
G1 X10.234 Y9.982 Z-1.018
G1 X10.213 Y10.034 Z-1.02
G1 X10.184 Y10.082 Z-1.022
G1 X10.149 Y10.126 Z-1.024
G1 X10.108 Y10.165 Z-1.026
G1 X10.062 Y10.197 Z-1.028
G1 X10.012 Y10.223 Z-1.03
G1 X9.959 Y10.241 Z-1.032
G1 X9.903 Y10.251 Z-1.034
G1 X9.847 Y10.254 Z-1.036
G1 X9.791 Y10.248 Z-1.038
G1 X9.736 Y10.235 Z-1.04
G1 X9.684 Y10.214 Z-1.042
G1 X9.635 Y10.186 Z-1.044
G1 X9.591 Y10.151 Z-1.046
G1 X9.552 Y10.111 Z-1.048
G1 X9.519 Y10.065 Z-1.05
G1 X9.493 Y10.015 Z-1.052
G1 X9.474 Y9.962 Z-1.053
G1 X9.464 Y9.907 Z-1.055
G1 X9.461 Y9.85 Z-1.057
G1 X9.465 Y9.794 Z-1.059
G1 X9.478 Y9.739 Z-1.061
G1 X9.499 Y9.687 Z-1.063
G1 X9.526 Y9.638 Z-1.065
G1 X9.561 Y9.593 Z-1.067
G1 X9.601 Y9.554 Z-1.069
G1 X9.647 Y9.521 Z-1.071
G1 X9.696 Y9.494 Z-1.073
G1 X9.749 Y9.475 Z-1.075
G1 X9.804 Y9.464 Z-1.077
G1 X9.861 Y9.46 Z-1.079
G1 X9.917 Y9.465 Z-1.081
G1 X9.972 Y9.477 Z-1.083
G1 X10.024 Y9.497 Z-1.085
G1 X10.074 Y9.524 Z-1.087
G1 X10.119 Y9.558 Z-1.089
G1 X10.158 Y9.598 Z-1.091
G1 X10.192 Y9.644 Z-1.093
G1 X10.219 Y9.693 Z-1.095
G1 X10.238 Y9.746 Z-1.097
G1 X10.25 Y9.801 Z-1.099
G1 X10.254 Y9.857 Z-1.101
G1 X10.25 Y9.913 Z-1.103
G1 X10.238 Y9.968 Z-1.105
G1 X10.219 Y10.021 Z-1.107
G1 X10.192 Y10.071 Z-1.109
G1 X10.158 Y10.116 Z-1.111
G1 X10.119 Y10.156 Z-1.113
G1 X10.074 Y10.19 Z-1.114
G1 X10.025 Y10.217 Z-1.116
G1 X9.972 Y10.237 Z-1.118
G1 X9.917 Y10.25 Z-1.12
G1 X9.861 Y10.254 Z-1.122
G1 X9.805 Y10.251 Z-1.124
G1 X9.75 Y10.239 Z-1.126
G1 X9.697 Y10.22 Z-1.128
G1 X9.647 Y10.194 Z-1.13
G1 X9.601 Y10.161 Z-1.132
G1 X9.561 Y10.121 Z-1.134
G1 X9.527 Y10.077 Z-1.136
G1 X9.499 Y10.028 Z-1.138
G1 X9.478 Y9.975 Z-1.14
G1 X9.466 Y9.921 Z-1.142
G1 X9.461 Y9.864 Z-1.144
G1 X9.463 Y9.808 Z-1.146
G1 X9.474 Y9.753 Z-1.148
G1 X9.493 Y9.7 Z-1.15
G1 X9.519 Y9.65 Z-1.152
G1 X9.552 Y9.604 Z-1.154
G1 X9.591 Y9.563 Z-1.156
G1 X9.635 Y9.529 Z-1.158
G1 X9.684 Y9.5 Z-1.16
G1 X9.736 Y9.479 Z-1.162
G1 X9.791 Y9.466 Z-1.164
G1 X9.847 Y9.46 Z-1.166
G1 X9.903 Y9.463 Z-1.168
G1 X9.958 Y9.473 Z-1.17
G1 X10.011 Y9.492 Z-1.172
G1 X10.062 Y9.517 Z-1.174
G1 X10.108 Y9.549 Z-1.175
G1 X10.149 Y9.588 Z-1.177
G1 X10.184 Y9.632 Z-1.179
G1 X10.213 Y9.68 Z-1.181
G1 X10.234 Y9.732 Z-1.183
G1 X10.248 Y9.787 Z-1.185
G1 X10.254 Y9.843 Z-1.187
G1 X10.252 Y9.899 Z-1.189
G1 X10.242 Y9.955 Z-1.191
G1 X10.224 Y10.008 Z-1.193
G1 X10.199 Y10.059 Z-1.195
G1 X10.167 Y10.105 Z-1.197
G1 X10.129 Y10.146 Z-1.199
G1 X10.086 Y10.182 Z-1.201
G1 X10.037 Y10.211 Z-1.203
G1 X9.985 Y10.233 Z-1.205
G1 X9.931 Y10.247 Z-1.207
G1 X9.875 Y10.254 Z-1.209
G1 X9.819 Y10.252 Z-1.211
G1 X9.763 Y10.243 Z-1.213
G1 X9.71 Y10.226 Z-1.215
G1 X9.659 Y10.201 Z-1.217
G1 X9.612 Y10.169 Z-1.219
G1 X9.571 Y10.132 Z-1.221
G1 X9.535 Y10.088 Z-1.223
G1 X9.505 Y10.04 Z-1.225
G1 X9.483 Y9.989 Z-1.227
G1 X9.468 Y9.934 Z-1.229
G1 X9.461 Y9.878 Z-1.231
G1 X9.462 Y9.822 Z-1.233
G1 X9.471 Y9.767 Z-1.235
G1 X9.488 Y9.713 Z-1.236
G1 X9.512 Y9.662 Z-1.238
G1 X9.543 Y9.615 Z-1.24
G1 X9.58 Y9.573 Z-1.242
G1 X9.623 Y9.537 Z-1.244
G1 X9.671 Y9.507 Z-1.246
G1 X9.723 Y9.484 Z-1.248
G1 X9.777 Y9.469 Z-1.25
G1 X9.833 Y9.461 Z-1.252
G1 X9.889 Y9.462 Z-1.254
G1 X9.945 Y9.47 Z-1.256
G1 X9.998 Y9.486 Z-1.258
G1 X10.05 Y9.51 Z-1.26
G1 X10.097 Y9.541 Z-1.262
G1 X10.139 Y9.578 Z-1.264
G1 X10.176 Y9.62 Z-1.266
G1 X10.206 Y9.668 Z-1.268
G1 X10.229 Y9.719 Z-1.27
G1 X10.245 Y9.773 Z-1.272
G1 X10.253 Y9.829 Z-1.274
G1 Y9.885 Z-1.276
G1 X10.245 Y9.941 Z-1.278
G1 X10.229 Y9.995 Z-1.28
G1 X10.206 Y10.046 Z-1.282
G1 X10.176 Y10.094 Z-1.284
G1 X10.139 Y10.137 Z-1.286
G1 X10.097 Y10.174 Z-1.288
G1 X10.05 Y10.204 Z-1.29
G1 X9.999 Y10.228 Z-1.292
G1 X9.945 Y10.244 Z-1.294
G1 X9.889 Y10.253 Z-1.296
G1 X9.833 Z-1.298
G1 X9.777 Y10.246 Z-1.299
G1 X9.723 Y10.231 Z-1.301
G1 X9.671 Y10.208 Z-1.303
G1 X9.624 Y10.178 Z-1.305
G1 X9.581 Y10.142 Z-1.307
G1 X9.543 Y10.1 Z-1.309
G1 X9.512 Y10.053 Z-1.311
G1 X9.488 Y10.002 Z-1.313
G1 X9.471 Y9.948 Z-1.315
G1 X9.462 Y9.893 Z-1.317
G1 X9.461 Y9.836 Z-1.319
G1 X9.468 Y9.78 Z-1.321
G1 X9.483 Y9.726 Z-1.323
G1 X9.505 Y9.674 Z-1.325
G1 X9.535 Y9.626 Z-1.327
G1 X9.57 Y9.583 Z-1.329
G1 X9.612 Y9.545 Z-1.331
G1 X9.659 Y9.514 Z-1.333
G1 X9.709 Y9.489 Z-1.335
G1 X9.763 Y9.472 Z-1.337
G1 X9.819 Y9.462 Z-1.339
G1 X9.875 Y9.461 Z-1.341
G1 X9.931 Y9.467 Z-1.343
G1 X9.985 Y9.482 Z-1.345
G1 X10.037 Y9.503 Z-1.347
G1 X10.085 Y9.532 Z-1.349
G1 X10.129 Y9.568 Z-1.351
G1 X10.167 Y9.609 Z-1.353
G1 X10.199 Y9.656 Z-1.355
G1 X10.224 Y9.706 Z-1.357
G1 X10.242 Y9.76 Z-1.359
G1 X10.252 Y9.815 Z-1.36
G1 X10.254 Y9.871 Z-1.362
G1 X10.248 Y9.927 Z-1.364
G1 X10.234 Y9.982 Z-1.366
G1 X10.213 Y10.034 Z-1.368
G1 X10.184 Y10.082 Z-1.37
G1 X10.149 Y10.126 Z-1.372
G1 X10.108 Y10.165 Z-1.374
G1 X10.062 Y10.197 Z-1.376
G1 X10.012 Y10.223 Z-1.378
G1 X9.958 Y10.241 Z-1.38
G1 X9.903 Y10.251 Z-1.382
G1 X9.847 Y10.254 Z-1.384
G1 X9.791 Y10.248 Z-1.386
G1 X9.736 Y10.235 Z-1.388
G1 X9.684 Y10.214 Z-1.39
G1 X9.635 Y10.186 Z-1.392
G1 X9.591 Y10.151 Z-1.394
G1 X9.552 Y10.111 Z-1.396
G1 X9.519 Y10.065 Z-1.398
G1 X9.493 Y10.015 Z-1.4
G1 X9.474 Y9.962 Z-1.402
G1 X9.464 Y9.907 Z-1.404
G1 X9.461 Y9.85 Z-1.406
G1 X9.465 Y9.794 Z-1.408
G1 X9.478 Y9.739 Z-1.41
G1 X9.499 Y9.687 Z-1.412
G1 X9.527 Y9.638 Z-1.414
G1 X9.561 Y9.593 Z-1.416
G1 X9.601 Y9.554 Z-1.418
G1 X9.647 Y9.521 Z-1.42
G1 X9.696 Y9.494 Z-1.421
G1 X9.749 Y9.475 Z-1.423
G1 X9.805 Y9.464 Z-1.425
G1 X9.861 Y9.46 Z-1.427
G1 X9.917 Y9.465 Z-1.429
G1 X9.972 Y9.477 Z-1.431
G1 X10.024 Y9.497 Z-1.433
G1 X10.074 Y9.525 Z-1.435
G1 X10.119 Y9.558 Z-1.437
G1 X10.158 Y9.598 Z-1.439
G1 X10.192 Y9.644 Z-1.441
G1 X10.219 Y9.693 Z-1.443
G1 X10.238 Y9.746 Z-1.445
G1 X10.25 Y9.801 Z-1.447
G1 X10.254 Y9.857 Z-1.449
G1 X10.25 Y9.913 Z-1.451
G1 X10.238 Y9.968 Z-1.453
G1 X10.219 Y10.021 Z-1.455
G1 X10.192 Y10.071 Z-1.457
G1 X10.158 Y10.116 Z-1.459
G1 X10.119 Y10.156 Z-1.461
G1 X10.074 Y10.19 Z-1.463
G1 X10.025 Y10.217 Z-1.465
G1 X9.972 Y10.237 Z-1.467
G1 X9.917 Y10.25 Z-1.469
G1 X9.861 Y10.254 Z-1.471
G1 X9.805 Y10.251 Z-1.473
G1 X9.75 Y10.239 Z-1.475
G1 X9.697 Y10.22 Z-1.477
G1 X9.647 Y10.194 Z-1.479
G1 X9.601 Y10.161 Z-1.481
G1 X9.561 Y10.121 Z-1.482
G1 X9.527 Y10.077 Z-1.484
G1 X9.499 Y10.028 Z-1.486
G1 X9.478 Y9.975 Z-1.488
G1 X9.466 Y9.92 Z-1.49
G1 X9.461 Y9.864 Z-1.492
G1 X9.463 Y9.808 Z-1.494
G1 X9.474 Y9.753 Z-1.496
G1 X9.493 Y9.7 Z-1.498
G1 X9.519 Y9.65 Z-1.5
G1 X9.552 Y9.604 Z-1.502
G1 X9.591 Y9.563 Z-1.504
G1 X9.635 Y9.529 Z-1.506
G1 X9.684 Y9.5 Z-1.508
G1 X9.736 Y9.479 Z-1.51
G1 X9.791 Y9.466 Z-1.512
G1 X9.847 Y9.46 Z-1.514
G1 X9.903 Y9.463 Z-1.516
G1 X9.958 Y9.473 Z-1.518
G1 X10.012 Y9.492 Z-1.52
G1 X10.062 Y9.517 Z-1.522
G1 X10.108 Y9.549 Z-1.524
G1 X10.149 Y9.588 Z-1.526
G1 X10.184 Y9.632 Z-1.528
G1 X10.213 Y9.68 Z-1.53
G1 X10.234 Y9.733 Z-1.532
G1 X10.248 Y9.787 Z-1.534
G1 X10.254 Y9.843 Z-1.536
G1 X10.252 Y9.899 Z-1.538
G1 X10.242 Y9.955 Z-1.54
G1 X10.224 Y10.008 Z-1.542
G1 X10.199 Y10.059 Z-1.543
G1 X10.167 Y10.105 Z-1.545
G1 X10.129 Y10.146 Z-1.547
G1 X10.085 Y10.182 Z-1.549
G1 X10.037 Y10.211 Z-1.551
G1 X9.985 Y10.233 Z-1.553
G1 X9.931 Y10.247 Z-1.555
G1 X9.875 Y10.254 Z-1.557
G1 X9.819 Y10.252 Z-1.559
G1 X9.763 Y10.243 Z-1.561
G1 X9.71 Y10.226 Z-1.563
G1 X9.659 Y10.201 Z-1.565
G1 X9.612 Y10.169 Z-1.567
G1 X9.571 Y10.132 Z-1.569
G1 X9.535 Y10.088 Z-1.571
G1 X9.505 Y10.04 Z-1.573
G1 X9.483 Y9.989 Z-1.575
G1 X9.468 Y9.934 Z-1.577
G1 X9.461 Y9.878 Z-1.579
G1 X9.462 Y9.822 Z-1.581
G1 X9.471 Y9.767 Z-1.583
G1 X9.488 Y9.713 Z-1.585
G1 X9.512 Y9.662 Z-1.587
G1 X9.543 Y9.615 Z-1.589
G1 X9.58 Y9.573 Z-1.591
G1 X9.623 Y9.537 Z-1.593
G1 X9.671 Y9.507 Z-1.595
G1 X9.723 Y9.484 Z-1.597
G1 X9.777 Y9.469 Z-1.599
G1 X9.833 Y9.461 Z-1.601
G1 X9.889 Y9.462 Z-1.603
G1 X9.945 Y9.47 Z-1.604
G1 X9.999 Y9.486 Z-1.606
G1 X10.05 Y9.51 Z-1.608
G1 X10.097 Y9.541 Z-1.61
G1 X10.139 Y9.578 Z-1.612
G1 X10.176 Y9.62 Z-1.614
G1 X10.206 Y9.668 Z-1.616
G1 X10.229 Y9.719 Z-1.618
G1 X10.245 Y9.773 Z-1.62
G1 X10.253 Y9.829 Z-1.622
G1 Y9.885 Z-1.624
G1 X10.245 Y9.941 Z-1.626
G1 X10.229 Y9.995 Z-1.628
G1 X10.206 Y10.046 Z-1.63
G1 X10.176 Y10.094 Z-1.632
G1 X10.139 Y10.137 Z-1.634
G1 X10.097 Y10.174 Z-1.636
G1 X10.05 Y10.204 Z-1.638
G1 X9.999 Y10.228 Z-1.64
G1 X9.945 Y10.244 Z-1.642
G1 X9.889 Y10.253 Z-1.644
G1 X9.833 Z-1.646
G1 X9.777 Y10.246 Z-1.648
G1 X9.723 Y10.231 Z-1.65
G1 X9.671 Y10.208 Z-1.652
G1 X9.624 Y10.178 Z-1.654
G1 X9.58 Y10.142 Z-1.656
G1 X9.543 Y10.1 Z-1.658
G1 X9.512 Y10.053 Z-1.66
G1 X9.488 Y10.002 Z-1.662
G1 X9.471 Y9.948 Z-1.664
G1 X9.462 Y9.892 Z-1.666
G1 X9.461 Y9.836 Z-1.667
G1 X9.468 Y9.78 Z-1.669
G1 X9.483 Y9.726 Z-1.671
G1 X9.505 Y9.674 Z-1.673
G1 X9.535 Y9.626 Z-1.675
G1 X9.571 Y9.583 Z-1.677
G1 X9.612 Y9.545 Z-1.679
G1 X9.659 Y9.514 Z-1.681
G1 X9.709 Y9.489 Z-1.683
G1 X9.763 Y9.472 Z-1.685
G1 X9.819 Y9.462 Z-1.687
G1 X9.875 Y9.461 Z-1.689
G1 X9.931 Y9.467 Z-1.691
G1 X9.985 Y9.482 Z-1.693
G1 X10.037 Y9.503 Z-1.695
G1 X10.085 Y9.532 Z-1.697
G1 X10.129 Y9.568 Z-1.699
G1 X10.167 Y9.609 Z-1.701
G1 X10.199 Y9.656 Z-1.703
G1 X10.224 Y9.706 Z-1.705
G1 X10.242 Y9.76 Z-1.707
G1 X10.252 Y9.815 Z-1.709
G1 X10.254 Y9.871 Z-1.711
G1 X10.248 Y9.927 Z-1.713
G1 X10.234 Y9.982 Z-1.715
G1 X10.213 Y10.034 Z-1.717
G1 X10.184 Y10.082 Z-1.719
G1 X10.149 Y10.126 Z-1.721
G1 X10.108 Y10.165 Z-1.723
G1 X10.062 Y10.197 Z-1.725
G1 X10.012 Y10.223 Z-1.727
G1 X9.958 Y10.241 Z-1.728
G1 X9.903 Y10.251 Z-1.73
G1 X9.847 Y10.254 Z-1.732
G1 X9.791 Y10.248 Z-1.734
G1 X9.736 Y10.235 Z-1.736
G1 X9.684 Y10.214 Z-1.738
G1 X9.635 Y10.186 Z-1.74
G1 X9.591 Y10.151 Z-1.742
G1 X9.552 Y10.111 Z-1.744
G1 X9.519 Y10.065 Z-1.746
G1 X9.493 Y10.015 Z-1.748
G1 X9.474 Y9.962 Z-1.75
G1 X9.464 Y9.906 Z-1.752
G1 X9.461 Y9.85 Z-1.754
G1 X9.465 Y9.794 Z-1.756
G1 X9.478 Y9.739 Z-1.758
G1 X9.499 Y9.687 Z-1.76
G1 X9.527 Y9.638 Z-1.762
G1 X9.561 Y9.593 Z-1.764
G1 X9.601 Y9.554 Z-1.766
G1 X9.647 Y9.521 Z-1.768
G1 X9.697 Y9.494 Z-1.77
G1 X9.75 Y9.475 Z-1.772
G1 X9.805 Y9.464 Z-1.774
G1 X9.861 Y9.46 Z-1.776
G1 X9.917 Y9.465 Z-1.778
G1 X9.972 Y9.477 Z-1.78
G1 X10.025 Y9.497 Z-1.782
G1 X10.074 Y9.525 Z-1.784
G1 X10.119 Y9.559 Z-1.786
G1 X10.158 Y9.599 Z-1.788
G1 X10.192 Y9.644 Z-1.789
G1 X10.219 Y9.693 Z-1.791
G1 X10.238 Y9.746 Z-1.793
G1 X10.25 Y9.801 Z-1.795
G1 X10.254 Y9.857 Z-1.797
G1 X10.25 Y9.911
G1 X10.239 Y9.964
G1 X10.221 Y10.015
G1 X10.196 Y10.063
G1 X10.165 Y10.108
G1 X10.128 Y10.147
G1 X10.086 Y10.181
G1 X10.04 Y10.21
G1 X9.99 Y10.231
G1 X9.938 Y10.246
G1 X9.884 Y10.253
G1 X9.83
G1 X9.777 Y10.246
G1 X9.724 Y10.231
G1 X9.675 Y10.21
G1 X9.628 Y10.181
G1 X9.586 Y10.147
G1 X9.549 Y10.108
G1 X9.518 Y10.063
G1 X9.493 Y10.015
G1 X9.475 Y9.964
G1 X9.464 Y9.911
G1 X9.46 Y9.857
G1 X9.464 Y9.803
G1 X9.475 Y9.75
G1 X9.493 Y9.699
G1 X9.518 Y9.651
G1 X9.549 Y9.607
G1 X9.586 Y9.567
G1 X9.628 Y9.533
G1 X9.675 Y9.505
G1 X9.724 Y9.483
G1 X9.777 Y9.469
G1 X9.83 Y9.461
G1 X9.884
G1 X9.938 Y9.469
G1 X9.99 Y9.483
G1 X10.04 Y9.505
G1 X10.086 Y9.533
G1 X10.128 Y9.567
G1 X10.165 Y9.607
G1 X10.196 Y9.651
G1 X10.221 Y9.699
G1 X10.239 Y9.75
G1 X10.25 Y9.803
G1 X10.254 Y9.857
; MOVEMENT_CUTTING
G1 X10.292 Y10.081 F480
G1 X10.32 Y10.229
G1 X10.279 Y10.373
G1 X10.193 Y10.496
G1 X10.077 Y10.591
G1 X9.941 Y10.655
G1 X9.794 Y10.686
G1 X9.644
G1 X9.497 Y10.657
G1 X9.358 Y10.6
G1 X9.232 Y10.518
G1 X9.123 Y10.416
G1 X9.033 Y10.296
G1 X8.965 Y10.162
G1 X8.92 Y10.019
G1 X8.899 Y9.871
G1 X8.902 Y9.721
G1 X8.93 Y9.573
G1 X8.98 Y9.432
G1 X9.052 Y9.3
G1 X9.144 Y9.182
G1 X9.253 Y9.079
G1 X9.376 Y8.994
G1 X9.512 Y8.929
G1 X9.655 Y8.885
G1 X9.804 Y8.864
G1 X9.954 Y8.866
G1 X10.102 Y8.89
G1 X10.244 Y8.937
G1 X10.378 Y9.004
G1 X10.501 Y9.091
G1 X10.612 Y9.191
G1 X10.714 Y9.301
G1 X10.804 Y9.421
G1 X10.88 Y9.551
G1 X10.94 Y9.688
G1 X10.984 Y9.832
G1 X11.009 Y9.979
G1 X11.017 Y10.129
G1 X11.007 Y10.279
G1 X10.978 Y10.426
G1 X10.932 Y10.569
G1 X10.869 Y10.705
G1 X10.79 Y10.833
G1 X10.697 Y10.95
G1 X10.591 Y11.056
G1 X10.473 Y11.149
G1 X10.346 Y11.229
G1 X10.211 Y11.294
G1 X10.069 Y11.343
G1 X9.923 Y11.378
G1 X9.774 Y11.396
G1 X9.624 Y11.399
G1 X9.475 Y11.386
G1 X9.328 Y11.359
G1 X9.184 Y11.317
G1 X9.045 Y11.26
G1 X8.912 Y11.19
G1 X8.786 Y11.108
G1 X8.669 Y11.014
G1 X8.562 Y10.909
G1 X8.465 Y10.795
G1 X8.379 Y10.672
G1 X8.305 Y10.542
G1 X8.243 Y10.405
G1 X8.194 Y10.263
G1 X8.158 Y10.118
G1 X8.135 Y9.969
G1 X8.126 Y9.82
G1 X8.13 Y9.67
G1 X8.147 Y9.521
G1 X8.178 Y9.374
G1 X8.221 Y9.23
G1 X8.277 Y9.091
G1 X8.344 Y8.957
G1 X8.423 Y8.83
G1 X8.513 Y8.709
G1 X8.613 Y8.597
G1 X8.722 Y8.495
G1 X8.84 Y8.401
G1 X8.965 Y8.318
G1 X9.096 Y8.247
G1 X9.234 Y8.186
G1 X9.376 Y8.138
G1 X9.521 Y8.101
G1 X9.669 Y8.078
G1 X9.819 Y8.067
G1 X9.969 Y8.068
G1 X10.118 Y8.082
G1 X10.267 Y8.108
G1 X10.42 Y8.148
G1 X10.573 Y8.202
G1 X10.718 Y8.266
G1 X10.861 Y8.343
G1 X11.001 Y8.434
G1 X11.129 Y8.533
G1 X11.252 Y8.644
G1 X11.367 Y8.766
G1 X11.468 Y8.893
G1 X11.562 Y9.033
G1 X11.644 Y9.179
G1 X11.712 Y9.327
G1 X11.771 Y9.485
G1 X11.816 Y9.647
G1 X11.847 Y9.807
G1 X11.865 Y9.976
G1 X11.871 Y10.145
G1 X11.862 Y10.309
G1 X11.84 Y10.479
G1 X11.805 Y10.646
G1 X11.757 Y10.806
G1 X11.694 Y10.966
G1 X11.619 Y11.122
G1 X11.532 Y11.269
G1 X11.433 Y11.41
G1 X11.32 Y11.546
G1 X11.197 Y11.672
G1 X11.067 Y11.786
G1 X10.924 Y11.892
G1 X10.769 Y11.988
G1 X10.61 Y12.071
G1 X10.445 Y12.14
G1 X10.271 Y12.196
G1 X10.09 Y12.24
G1 X9.907 Y12.269
G1 X9.722 Y12.282
G1 X9.537 Y12.281
G1 X9.348 Y12.265
G1 X9.158 Y12.233
G1 X8.972 Y12.186
G1 X8.79 Y12.125
G1 X8.614 Y12.049
G1 X8.443 Y11.958
G1 X8.276 Y11.852
G1 X8.118 Y11.732
G1 X7.969 Y11.599
G1 X7.831 Y11.454
G1 X7.706 Y11.3
G1 X7.592 Y11.134
G1 X7.492 Y10.959
G1 X7.405 Y10.775
G1 X7.332 Y10.582
G1 X7.275 Y10.384
G1 X7.234 Y10.181
G1 X7.21 Y9.975
G1 X7.202 Y9.767
G1 X7.21 Y9.559
G1 X7.236 Y9.353
G1 X7.278 Y9.147
G1 X7.336 Y8.945
G1 X7.412 Y8.747
G1 X7.503 Y8.555
G1 X7.609 Y8.371
G1 X7.731 Y8.195
G1 X7.867 Y8.028
G1 X8.015 Y7.873
G1 X8.176 Y7.731
G1 X8.347 Y7.602
G1 X8.53 Y7.486
G1 X8.72 Y7.386
G1 X8.919 Y7.301
G1 X9.125 Y7.231
G1 X9.338 Y7.179
G1 X9.556 Y7.143
G1 X9.779 Y7.124
G1 X10.005 Y7.123
G1 X10.233 Y7.141
G1 X10.461 Y7.177
G1 X10.687 Y7.232
G1 X10.909 Y7.305
G1 X11.126 Y7.397
G1 X11.336 Y7.506
G1 X11.538 Y7.633
G1 X11.73 Y7.776
G1 X11.91 Y7.934
G1 X12.078 Y8.107
G1 X12.232 Y8.293
G1 X12.37 Y8.491
G1 X12.493 Y8.701
G1 X12.598 Y8.92
G1 X12.686 Y9.148
G1 X12.755 Y9.382
G1 X12.806 Y9.622
G1 X12.837 Y9.865
G1 X12.849 Y10.111
G1 X12.84 Y10.358
G1 X12.812 Y10.605
G1 X12.764 Y10.848
G1 X12.697 Y11.088
G1 X12.61 Y11.323
G1 X12.504 Y11.55
G1 X12.38 Y11.77
G1 X12.238 Y11.979
G1 X12.079 Y12.178
G1 X11.904 Y12.363
G1 X11.714 Y12.535
G1 X11.509 Y12.691
G1 X11.292 Y12.832
G1 X11.063 Y12.955
G1 X10.824 Y13.059
G1 X10.576 Y13.145
G1 X10.321 Y13.211
G1 X10.059 Y13.256
G1 X9.794 Y13.28
G1 X9.526 Y13.283
G1 X9.258 Y13.264
G1 X8.992 Y13.224
G1 X8.727 Y13.162
G1 X8.467 Y13.079
G1 X8.214 Y12.974
G1 X7.968 Y12.849
G1 X7.732 Y12.704
G1 X7.508 Y12.54
G1 X7.297 Y12.358
G1 X7.101 Y12.159
G1 X6.92 Y11.943
G1 X6.756 Y11.712
G1 X6.611 Y11.468
G1 X6.485 Y11.212
G1 X6.38 Y10.946
G1 X6.296 Y10.672
G1 X6.234 Y10.391
G1 X6.195 Y10.105
G1 X6.179 Y9.817
G1 X6.187 Y9.527
G1 X6.217 Y9.237
G1 X6.271 Y8.95
G1 X6.348 Y8.668
G1 X6.448 Y8.391
G1 X6.57 Y8.123
G1 X6.713 Y7.865
G1 X6.877 Y7.619
G1 X7.06 Y7.387
G1 X7.262 Y7.17
G1 X7.481 Y6.969
G1 X7.716 Y6.786
G1 X7.965 Y6.622
G1 X8.228 Y6.478
G1 X8.503 Y6.355
G1 X8.788 Y6.254
G1 X9.082 Y6.176
G1 X9.384 Y6.121
G1 X9.69 Y6.09
G1 X10 Y6.084
G1 X10.312 Y6.103
G1 X10.622 Y6.147
G1 X10.93 Y6.217
G1 X11.232 Y6.311
G1 X11.381 Y6.371
G1 X11.67 Y6.501
G1 X11.949 Y6.654
G1 X12.217 Y6.83
G1 X12.47 Y7.027
G1 X12.708 Y7.245
G1 X12.928 Y7.483
G1 X13.129 Y7.738
G1 X13.31 Y8.009
G1 X13.468 Y8.294
G1 X13.604 Y8.592
G1 X13.715 Y8.901
G1 X13.802 Y9.219
G1 X13.862 Y9.543
G1 X13.897 Y9.871
G1 X13.905 Y10.203
G1 X13.887 Y10.534
G1 X13.842 Y10.864
G1 X13.77 Y11.19
G1 X13.672 Y11.511
G1 X13.549 Y11.823
G1 X13.4 Y12.125
G1 X13.227 Y12.415
G1 X13.031 Y12.692
G1 X12.812 Y12.952
G1 X12.572 Y13.195
G1 X12.313 Y13.419
G1 X12.036 Y13.622
G1 X11.742 Y13.802
G1 X11.434 Y13.959
G1 X11.112 Y14.091
G1 X10.78 Y14.198
G1 X10.439 Y14.278
G1 X10.092 Y14.33
G1 X9.74 Y14.354
G1 X9.386 Y14.35
G1 X9.032 Y14.318
G1 X8.68 Y14.257
G1 X8.333 Y14.167
G1 X7.994 Y14.05
G1 X7.663 Y13.905
G1 X7.344 Y13.734
G1 X7.039 Y13.536
G1 X6.749 Y13.314
G1 X6.478 Y13.069
G1 X6.225 Y12.802
G1 X5.995 Y12.514
G1 X5.787 Y12.208
G1 X5.605 Y11.885
G1 X5.448 Y11.548
G1 X5.319 Y11.198
G1 X5.217 Y10.838
G1 X5.145 Y10.471
G1 X5.103 Y10.097
G1 X5.09 Y9.721
G1 X5.108 Y9.343
G1 X5.156 Y8.968
G1 X5.235 Y8.596
G1 X5.343 Y8.232
G1 X5.48 Y7.876
G1 X5.646 Y7.532
G1 X5.839 Y7.202
G1 X6.058 Y6.888
G1 X6.303 Y6.592
G1 X6.571 Y6.316
G1 X6.86 Y6.062
G1 X7.17 Y5.831
G1 X7.499 Y5.626
G1 X7.844 Y5.446
G1 X8.204 Y5.295
G1 X8.576 Y5.172
G1 X8.959 Y5.079
G1 X9.35 Y5.017
G1 X9.746 Y4.986
G1 X10.144 Y4.988
G1 X10.528 Y5.02
G1 X10.93 Y5.086
G1 X11.325 Y5.185
G1 X11.712 Y5.315
G1 X12.087 Y5.475
G1 X12.449 Y5.666
G1 X12.796 Y5.886
G1 X13.124 Y6.133
G1 X13.432 Y6.406
G1 X13.717 Y6.704
G1 X13.978 Y7.025
G1 X14.214 Y7.366
G1 X14.421 Y7.726
G1 X14.6 Y8.102
G1 X14.747 Y8.491
G1 X14.864 Y8.893
G1 X14.948 Y9.303
G1 X14.999 Y9.719
G1 X15.016 Y10.139
G1 X15 Y10.56
G1 X14.949 Y10.979
G1 X14.865 Y11.394
G1 X14.748 Y11.802
G1 X14.598 Y12.2
G1 X14.416 Y12.585
G1 X14.204 Y12.956
G1 X13.961 Y13.309
G1 X13.69 Y13.643
G1 X13.393 Y13.954
G1 X13.071 Y14.242
G1 X12.725 Y14.503
G1 X12.359 Y14.737
G1 X11.974 Y14.941
G1 X11.572 Y15.114
G1 X11.157 Y15.255
G1 X10.73 Y15.362
G1 X10.295 Y15.435
G1 X9.854 Y15.472
G1 X9.41 Y15.475
G1 X8.966 Y15.441
G1 X8.525 Y15.372
G1 X8.089 Y15.267
G1 X7.662 Y15.128
G1 X7.246 Y14.954
G1 X6.845 Y14.746
G1 X6.46 Y14.506
G1 X6.094 Y14.236
G1 X5.75 Y13.935
G1 X5.431 Y13.608
G1 X5.138 Y13.255
G1 X4.874 Y12.878
G1 X4.64 Y12.481
G1 X4.439 Y12.065
G1 X4.271 Y11.633
G1 X4.138 Y11.188
G1 X4.071 Y10.874
G1 X3.999 Y10.415
G1 X3.964 Y9.95
G1 X3.967 Y9.482
G1 X4.007 Y9.015
G1 X4.085 Y8.552
G1 X4.199 Y8.096
G1 X4.351 Y7.65
G1 X4.538 Y7.217
G1 X4.759 Y6.799
G1 X5.014 Y6.4
G1 X5.3 Y6.022
G1 X5.617 Y5.667
G1 X5.961 Y5.338
G1 X6.332 Y5.038
G1 X6.727 Y4.767
G1 X7.143 Y4.528
G1 X7.578 Y4.323
G1 X8.03 Y4.153
G1 X8.496 Y4.019
G1 X8.972 Y3.923
G1 X9.452 Y3.865
G1 X9.94 Y3.846
G1 X10.43 Y3.867
G1 X10.92 Y3.927
G1 X11.405 Y4.026
G1 X11.882 Y4.165
G1 X12.348 Y4.342
G1 X12.799 Y4.556
G1 X13.232 Y4.806
G1 X13.645 Y5.091
G1 X14.035 Y5.409
G1 X14.398 Y5.758
G1 X14.733 Y6.135
G1 X15.037 Y6.539
G1 X15.309 Y6.967
G1 X15.545 Y7.416
G1 X15.745 Y7.883
G1 X15.907 Y8.366
G1 X16.031 Y8.861
G1 X16.114 Y9.365
G1 X16.156 Y9.875
G1 X16.157 Y10.388
G1 X16.118 Y10.901
G1 X16.037 Y11.409
G1 X15.915 Y11.91
G1 X15.753 Y12.401
G1 X15.552 Y12.879
G1 X15.312 Y13.339
G1 X15.036 Y13.78
G1 X14.725 Y14.198
G1 X14.38 Y14.591
G1 X14.004 Y14.956
G1 X13.599 Y15.29
G1 X13.167 Y15.591
G1 X12.712 Y15.858
G1 X12.235 Y16.087
G1 X11.74 Y16.278
G1 X11.23 Y16.429
G1 X10.708 Y16.539
G1 X10.178 Y16.607
G1 X9.643 Y16.632
G1 X9.106 Y16.614
G1 X8.571 Y16.553
G1 X8.041 Y16.449
G1 X7.519 Y16.302
G1 X7.01 Y16.113
G1 X6.517 Y15.884
G1 X6.042 Y15.615
G1 X5.589 Y15.308
G1 X5.161 Y14.965
G1 X4.761 Y14.587
G1 X4.392 Y14.178
G1 X4.056 Y13.74
G1 X3.756 Y13.275
G1 X3.493 Y12.786
G1 X3.281 Y12.301
G1 X3.097 Y11.767
G1 X2.956 Y11.221
G1 X2.86 Y10.667
G1 X2.809 Y10.107
G1 X2.803 Y9.545
G1 X2.842 Y8.983
G1 X2.926 Y8.426
G1 X3.055 Y7.877
G1 X3.227 Y7.34
G1 X3.442 Y6.817
G1 X3.699 Y6.312
G1 X3.996 Y5.83
G1 X4.332 Y5.371
G1 X4.703 Y4.941
G1 X5.109 Y4.541
G1 X5.546 Y4.174
G1 X6.013 Y3.843
G1 X6.505 Y3.549
G1 X7.021 Y3.296
G1 X7.557 Y3.084
G1 X7.864 Y2.99
G1 X8.406 Y2.847
G1 X8.964 Y2.747
G1 X9.534 Y2.691
G1 X10.113 Y2.682
G1 X10.694 Y2.718
G1 X11.273 Y2.802
G1 X11.847 Y2.933
G1 X12.409 Y3.11
G1 X12.958 Y3.332
G1 X13.488 Y3.598
G1 X13.996 Y3.906
G1 X14.479 Y4.255
G1 X14.933 Y4.642
G1 X15.355 Y5.065
G1 X15.743 Y5.522
G1 X16.093 Y6.009
G1 X16.404 Y6.523
G1 X16.673 Y7.062
G1 X16.898 Y7.621
G1 X17.078 Y8.197
G1 X17.211 Y8.787
G1 X17.296 Y9.386
G1 X17.333 Y9.992
G1 X17.322 Y10.599
G1 X17.262 Y11.204
G1 X17.153 Y11.804
G1 X16.996 Y12.394
G1 X16.791 Y12.97
G1 X16.541 Y13.53
G1 X16.246 Y14.068
G1 X15.909 Y14.582
G1 X15.53 Y15.068
G1 X15.113 Y15.523
G1 X14.659 Y15.944
G1 X14.173 Y16.328
G1 X13.655 Y16.672
G1 X13.111 Y16.975
G1 X12.543 Y17.233
G1 X11.955 Y17.446
G1 X11.351 Y17.611
G1 X10.733 Y17.727
G1 X10.107 Y17.793
G1 X9.477 Y17.809
G1 X8.845 Y17.774
G1 X8.217 Y17.688
G1 X7.597 Y17.552
G1 X6.988 Y17.367
G1 X6.395 Y17.132
G1 X5.821 Y16.85
G1 X5.27 Y16.522
G1 X4.747 Y16.15
G1 X4.255 Y15.738
G1 X3.797 Y15.287
G1 X3.377 Y14.801
G1 X2.997 Y14.283
G1 X2.662 Y13.74
G1 X2.369 Y13.169
G1 X2.123 Y12.575
G1 X1.925 Y11.965
G1 X1.775 Y11.34
G1 X1.675 Y10.706
G1 X1.625 Y10.066
G1 Y9.423
G1 X1.675 Y8.783
G1 X1.776 Y8.149
G1 X1.926 Y7.525
G1 X2.124 Y6.914
G1 X2.369 Y6.32
G1 X2.66 Y5.748
G1 X2.994 Y5.199
G1 X3.37 Y4.679
G1 X3.786 Y4.189
G1 X4.238 Y3.733
G1 X4.723 Y3.313
G1 X5.24 Y2.931
G1 X5.785 Y2.591
G1 X6.335 Y2.305
G1 X6.926 Y2.055
G1 X7.534 Y1.848
G1 X8.156 Y1.688
G1 X8.936 Y1.549
G1 X9.084 Y1.527
G1 X9.233 Y1.507
G1 X9.382 Y1.491
G1 X9.531 Y1.478
G1 X9.681 Y1.468
G1 X9.831 Y1.461
G1 X9.981 Y1.457
G1 X10.131 Y1.456
G1 X10.281 Y1.458
G1 X10.431 Y1.463
G1 X10.581 Y1.471
G1 X10.73 Y1.481
G1 X10.88 Y1.494
G1 X11.029 Y1.511
G1 X11.178 Y1.53
G1 X11.326 Y1.552
G1 X11.474 Y1.576
G1 X11.622 Y1.603
G1 X11.769 Y1.633
G1 X11.915 Y1.665
G1 X12.061 Y1.701
G1 X12.206 Y1.738
G1 X12.351 Y1.778
G1 X12.494 Y1.822
G1 X12.637 Y1.867
G1 X12.779 Y1.915
G1 X12.921 Y1.965
G1 X13.061 Y2.018
G1 X13.2 Y2.074
G1 X13.338 Y2.132
G1 X13.476 Y2.192
G1 X13.612 Y2.255
G1 X13.747 Y2.32
G1 X13.881 Y2.388
G1 X14.014 Y2.458
G1 X14.145 Y2.529
G1 X14.276 Y2.604
G1 X14.404 Y2.681
G1 X14.532 Y2.76
G1 X14.658 Y2.841
G1 X14.783 Y2.924
G1 X14.906 Y3.01
G1 X15.028 Y3.097
G1 X15.148 Y3.187
G1 X15.267 Y3.279
G1 X15.384 Y3.372
G1 X15.499 Y3.468
G1 X15.613 Y3.566
G1 X15.725 Y3.666
G1 X15.835 Y3.768
G1 X15.944 Y3.871
G1 X16.05 Y3.977
G1 X16.155 Y4.084
G1 X16.258 Y4.193
G1 X16.36 Y4.304
G1 X16.459 Y4.416
G1 X16.556 Y4.531
G1 X16.651 Y4.647
G1 X16.744 Y4.764
G1 X16.836 Y4.883
G1 X16.924 Y5.004
G1 X17.011 Y5.126
G1 X17.096 Y5.25
G1 X17.179 Y5.375
G1 X17.26 Y5.501
G1 X17.338 Y5.629
G1 X17.414 Y5.758
G1 X17.488 Y5.889
G1 X17.56 Y6.02
G1 X17.63 Y6.153
G1 X17.697 Y6.288
G1 X17.761 Y6.423
G1 X17.824 Y6.559
G1 X17.885 Y6.697
G1 X17.942 Y6.835
G1 X17.997 Y6.974
G1 X18.051 Y7.115
G1 X18.102 Y7.256
G1 X18.15 Y7.398
G1 X18.195 Y7.541
G1 X18.238 Y7.684
G1 X18.28 Y7.829
G1 X18.318 Y7.974
G1 X18.354 Y8.119
G1 X18.387 Y8.266
G1 X18.418 Y8.412
G1 X18.447 Y8.56
G1 X18.473 Y8.707
G1 X18.496 Y8.856
G1 X18.517 Y9.004
G1 X18.535 Y9.153
G1 X18.551 Y9.302
G1 X18.564 Y9.452
G1 X18.575 Y9.601
G1 X18.583 Y9.751
G1 X18.588 Y9.901
G1 X18.592 Y10.051
G1 Y10.201
G1 X18.59 Y10.351
G1 X18.585 Y10.501
G1 X18.578 Y10.651
G1 X18.569 Y10.8
G1 X18.556 Y10.95
G1 X18.541 Y11.099
G1 X18.524 Y11.248
G1 X18.504 Y11.397
G1 X18.482 Y11.545
G1 X18.457 Y11.693
G1 X18.429 Y11.84
G1 X18.399 Y11.987
G1 X18.367 Y12.134
G1 X18.332 Y12.28
G1 X18.295 Y12.425
G1 X18.255 Y12.57
G1 X18.213 Y12.714
G1 X18.168 Y12.857
G1 X18.121 Y12.999
G1 X18.072 Y13.141
G1 X18.02 Y13.281
G1 X17.966 Y13.421
G1 X17.909 Y13.56
G1 X17.85 Y13.698
G1 X17.789 Y13.835
G1 X17.725 Y13.971
G1 X17.66 Y14.106
G1 X17.591 Y14.24
G1 X17.521 Y14.372
G1 X17.448 Y14.503
G1 X17.373 Y14.633
G1 X17.297 Y14.762
G1 X17.218 Y14.89
G1 X17.136 Y15.016
G1 X17.053 Y15.14
G1 X16.967 Y15.264
G1 X16.88 Y15.386
G1 X16.791 Y15.506
G1 X16.699 Y15.625
G1 X16.605 Y15.742
G1 X16.51 Y15.858
G1 X16.413 Y15.972
G1 X16.313 Y16.084
G1 X16.212 Y16.195
G1 X16.109 Y16.304
G1 X16.004 Y16.411
G1 X15.898 Y16.517
G1 X15.789 Y16.62
G1 X15.679 Y16.722
G1 X15.567 Y16.822
G1 X15.454 Y16.921
G1 X15.339 Y17.017
G1 X15.222 Y17.111
G1 X15.104 Y17.203
G1 X14.984 Y17.294
G1 X14.863 Y17.382
G1 X14.741 Y17.469
G1 X14.616 Y17.553
G1 X14.491 Y17.635
G1 X14.364 Y17.715
G1 X14.236 Y17.793
G1 X14.107 Y17.869
G1 X13.976 Y17.942
G1 X13.844 Y18.013
G1 X13.711 Y18.083
G1 X13.577 Y18.15
G1 X13.441 Y18.215
G1 X13.305 Y18.277
G1 X13.167 Y18.337
G1 X13.029 Y18.395
G1 X12.89 Y18.451
G1 X12.75 Y18.504
G1 X12.609 Y18.555
G1 X12.467 Y18.604
G1 X12.324 Y18.65
G1 X12.181 Y18.694
G1 X12.037 Y18.736
G1 X11.892 Y18.775
G1 X11.746 Y18.811
G1 X11.6 Y18.846
G1 X11.454 Y18.878
G1 X11.307 Y18.907
G1 X11.159 Y18.934
G1 X11.011 Y18.959
G1 X10.863 Y18.981
G1 X10.714 Y19.001
G1 X10.565 Y19.018
G1 X10.416 Y19.033
G1 X10.266 Y19.045
G1 X10.117 Y19.055
G1 X9.967 Y19.063
G1 X9.817 Y19.068
G1 X9.667 Y19.07
G1 X9.517
G1 X9.367 Y19.068
G1 X9.217 Y19.063
G1 X9.067 Y19.055
G1 X8.918 Y19.045
G1 X8.768 Y19.033
G1 X8.619 Y19.019
G1 X8.47 Y19.001
G1 X8.321 Y18.982
G1 X8.173 Y18.959
G1 X8.025 Y18.935
G1 X7.877 Y18.908
G1 X7.73 Y18.879
G1 X7.583 Y18.847
G1 X7.437 Y18.813
G1 X7.292 Y18.776
G1 X7.147 Y18.738
G1 X7.003 Y18.696
G1 X6.859 Y18.653
G1 X6.717 Y18.607
G1 X6.574 Y18.558
G1 X6.433 Y18.508
G1 X6.293 Y18.455
G1 X6.153 Y18.4
G1 X6.015 Y18.342
G1 X5.877 Y18.283
G1 X5.74 Y18.221
G1 X5.605 Y18.157
G1 X5.47 Y18.09
G1 X5.337 Y18.022
G1 X5.205 Y17.951
G1 X5.073 Y17.879
G1 X4.943 Y17.804
G1 X4.815 Y17.727
G1 X4.687 Y17.647
G1 X4.561 Y17.566
G1 X4.436 Y17.484
G1 X4.313 Y17.398
G1 X4.191 Y17.311
G1 X4.07 Y17.222
G1 X3.951 Y17.131
G1 X3.833 Y17.038
G1 X3.717 Y16.943
G1 X3.603 Y16.846
G1 X3.49 Y16.747
G1 X3.378 Y16.647
G1 X3.268 Y16.545
G1 X3.16 Y16.441
G1 X3.054 Y16.335
G1 X2.949 Y16.228
G1 X2.846 Y16.119
G1 X2.745 Y16.008
G1 X2.645 Y15.896
G1 X2.548 Y15.781
G1 X2.452 Y15.666
G1 X2.358 Y15.549
G1 X2.266 Y15.431
G1 X2.176 Y15.311
G1 X2.089 Y15.189
G1 X2.003 Y15.066
G1 X1.918 Y14.942
G1 X1.836 Y14.817
G1 X1.756 Y14.69
G1 X1.679 Y14.561
G1 X1.603 Y14.432
G1 X1.529 Y14.301
G1 X1.457 Y14.17
G1 X1.387 Y14.037
G1 X1.32 Y13.903
G1 X1.255 Y13.767
G1 X1.192 Y13.632
G1 X1.131 Y13.494
G1 X1.072 Y13.356
G1 X1.016 Y13.217
G1 X0.962 Y13.077
G1 X0.91 Y12.937
G1 X0.86 Y12.795
G1 X0.813 Y12.653
G1 X0.768 Y12.51
G1 X0.725 Y12.366
G1 X0.684 Y12.222
G1 X0.646 Y12.077
G1 X0.61 Y11.931
G1 X0.577 Y11.785
G1 X0.545 Y11.638
G1 X0.516 Y11.491
G1 X0.49 Y11.343
G1 X0.466 Y11.195
G1 X0.444 Y11.047
G1 X0.424 Y10.898
G1 X0.407 Y10.749
G1 X0.392 Y10.6
G1 X0.38 Y10.45
G1 X0.37 Y10.301
G1 X0.362 Y10.151
G1 X0.357 Y10.001
G1 X0.354 Y9.851
G1 Y9.701
G1 X0.356 Y9.551
G1 X0.36 Y9.401
G1 X0.366 Y9.251
G1 X0.376 Y9.101
G1 X0.387 Y8.952
G1 X0.401 Y8.803
G1 X0.417 Y8.653
G1 X0.435 Y8.505
G1 X0.456 Y8.356
G1 X0.48 Y8.208
G1 X0.506 Y8.06
G1 X0.533 Y7.913
G1 X0.563 Y7.766
G1 X0.596 Y7.619
G1 X0.631 Y7.473
G1 X0.668 Y7.328
G1 X0.708 Y7.183
G1 X0.749 Y7.039
G1 X0.793 Y6.896
G1 X0.84 Y6.753
G1 X0.888 Y6.611
G1 X0.939 Y6.47
G1 X0.992 Y6.33
G1 X1.047 Y6.19
G1 X1.105 Y6.052
G1 X1.164 Y5.914
G1 X1.226 Y5.777
G1 X1.29 Y5.642
G1 X1.356 Y5.507
G1 X1.424 Y5.374
G1 X1.495 Y5.241
G1 X1.567 Y5.11
G1 X1.641 Y4.979
G1 X1.718 Y4.85
G1 X1.796 Y4.723
G1 X1.877 Y4.596
G1 X1.959 Y4.471
G1 X2.043 Y4.346
G1 X2.13 Y4.224
G1 X2.218 Y4.103
G1 X2.358 Y3.919
G1 X2.45 Y3.802
G1 X2.545 Y3.685
G1 X2.642 Y3.571
G1 X2.741 Y3.458
G1 X2.841 Y3.346
G1 X2.943 Y3.236
G1 X3.046 Y3.128
G1 X3.152 Y3.021
G1 X3.259 Y2.916
G1 X3.368 Y2.813
G1 X3.478 Y2.711
G1 X3.59 Y2.611
G1 X3.703 Y2.513
G1 X3.818 Y2.417
G1 X3.935 Y2.322
G1 X4.052 Y2.229
G1 X4.172 Y2.138
G1 X4.293 Y2.05
G1 X4.415 Y1.963
G1 X4.539 Y1.877
G1 X4.663 Y1.794
G1 X4.79 Y1.713
G1 X4.917 Y1.634
G1 X5.046 Y1.558
G1 X5.176 Y1.482
G1 X5.307 Y1.409
G1 X5.439 Y1.339
G1 X5.573 Y1.27
G1 X5.707 Y1.204
G1 X5.842 Y1.139
G1 X5.979 Y1.076
G1 X6.116 Y1.016
G1 X6.254 Y0.958
G1 X6.394 Y0.902
G1 X6.533 Y0.848
G1 X6.674 Y0.796
G1 X6.816 Y0.747
G1 X6.958 Y0.7
G1 X7.101 Y0.655
G1 X7.245 Y0.611
G1 X7.389 Y0.57
G1 X7.534 Y0.53
G1 X7.679 Y0.492
G1 X8.302 Y0.339
G1 X8.448 Y0.301
G1 X8.594 Y0.267
G1 X8.741 Y0.237
G1 X8.888 Y0.21
G1 X9.036 Y0.187
G1 X9.185 Y0.167
G1 X9.334 Y0.15
G1 X9.483 Y0.136
G1 X9.633 Y0.134
G1 X9.783 Y0.135
G1 X9.933 Y0.137
G1 X10.083 Y0.14
G1 X10.233 Y0.146
G1 X10.383 Y0.154
G1 X10.533 Y0.164
G1 X10.682 Y0.175
G1 X10.832 Y0.189
G1 X10.981 Y0.205
G1 X11.13 Y0.223
G1 X11.278 Y0.243
G1 X11.427 Y0.265
G1 X11.575 Y0.29
G1 X11.722 Y0.316
G1 X11.87 Y0.345
G1 X12.016 Y0.376
G1 X12.163 Y0.409
G1 X12.309 Y0.444
G1 X12.454 Y0.481
G1 X12.599 Y0.521
G1 X12.743 Y0.563
G1 X12.886 Y0.606
G1 X13.029 Y0.652
G1 X13.171 Y0.7
G1 X13.312 Y0.751
G1 X13.453 Y0.803
G1 X13.593 Y0.858
G1 X13.732 Y0.914
G1 X13.87 Y0.973
G1 X14.007 Y1.034
G1 X14.143 Y1.096
G1 X14.278 Y1.161
G1 X14.412 Y1.228
G1 X14.546 Y1.297
G1 X14.678 Y1.368
G1 X14.809 Y1.441
G1 X14.939 Y1.516
G1 X15.068 Y1.593
G1 X15.195 Y1.672
G1 X15.322 Y1.753
G1 X15.447 Y1.835
G1 X15.571 Y1.92
G1 X15.693 Y2.006
G1 X15.815 Y2.094
G1 X15.934 Y2.185
G1 X16.053 Y2.276
G1 X16.17 Y2.37
G1 X16.286 Y2.465
G1 X16.4 Y2.563
G1 X16.513 Y2.661
G1 X16.624 Y2.762
G1 X16.734 Y2.864
G1 X16.842 Y2.968
G1 X16.949 Y3.073
G1 X17.054 Y3.18
G1 X17.158 Y3.289
G1 X17.259 Y3.399
G1 X17.36 Y3.511
G1 X17.458 Y3.624
G1 X17.555 Y3.739
G1 X17.65 Y3.855
G1 X17.743 Y3.972
G1 X17.834 Y4.091
G1 X17.924 Y4.212
G1 X18.012 Y4.333
G1 X18.098 Y4.456
G1 X18.182 Y4.58
G1 X18.264 Y4.706
G1 X18.345 Y4.832
G1 X18.423 Y4.96
G1 X18.5 Y5.089
G1 X18.574 Y5.219
G1 X18.647 Y5.35
G1 X18.718 Y5.483
G1 X18.786 Y5.616
G1 X18.853 Y5.75
G1 X18.918 Y5.886
G1 X18.981 Y6.022
G1 X19.041 Y6.159
G1 X19.1 Y6.297
G1 X19.156 Y6.436
G1 X19.21 Y6.576
G1 X19.263 Y6.717
G1 X19.313 Y6.858
G1 X19.361 Y7
G1 X19.407 Y7.143
G1 X19.451 Y7.286
G1 X19.492 Y7.431
G1 X19.532 Y7.575
G1 X19.569 Y7.721
G1 X19.604 Y7.866
G1 X19.637 Y8.013
G1 X19.668 Y8.159
G1 X19.697 Y8.307
G1 X19.723 Y8.454
G1 X19.747 Y8.602
G1 X19.769 Y8.751
G1 X19.789 Y8.899
G1 X19.807 Y9.048
G1 X19.822 Y9.198
G1 X19.835 Y9.347
G1 X19.846 Y9.497
G1 X19.855 Y9.646
G1 X19.861 Y9.796
G1 X19.865 Y9.946
G1 X19.867 Y10.096
G1 Y10.246
G1 X19.865 Y10.396
G1 X19.86 Y10.546
G1 X19.853 Y10.696
G1 X19.844 Y10.846
G1 X19.833 Y10.995
G1 X19.819 Y11.145
G1 X19.803 Y11.294
G1 X19.785 Y11.443
G1 X19.765 Y11.591
G1 X19.743 Y11.74
G1 X19.718 Y11.888
G1 X19.691 Y12.035
G1 X19.662 Y12.182
G1 X19.631 Y12.329
G1 X19.598 Y12.475
G1 X19.562 Y12.621
G1 X19.524 Y12.766
G1 X19.485 Y12.911
G1 X19.443 Y13.055
G1 X19.399 Y13.198
G1 X19.352 Y13.341
G1 X19.304 Y13.483
G1 X19.254 Y13.624
G1 X19.201 Y13.765
G1 X19.147 Y13.905
G1 X19.09 Y14.044
G1 X19.032 Y14.182
G1 X18.971 Y14.319
G1 X18.908 Y14.455
G1 X18.844 Y14.59
G1 X18.777 Y14.725
G1 X18.708 Y14.858
G1 X18.638 Y14.99
G1 X18.565 Y15.122
G1 X18.491 Y15.252
G1 X18.414 Y15.381
G1 X18.336 Y15.509
G1 X18.256 Y15.636
G1 X18.174 Y15.761
G1 X18.09 Y15.886
G1 X18.004 Y16.009
G1 X17.917 Y16.131
G1 X17.827 Y16.251
G1 X17.736 Y16.371
G1 X17.644 Y16.488
G1 X17.549 Y16.605
G1 X17.453 Y16.72
G1 X17.355 Y16.834
G1 X17.256 Y16.946
G1 X17.155 Y17.057
G1 X17.052 Y17.166
G1 X16.947 Y17.274
G1 X16.841 Y17.38
G1 X16.734 Y17.484
G1 X16.625 Y17.588
G1 X16.514 Y17.689
G1 X16.402 Y17.789
G1 X16.289 Y17.887
G1 X16.174 Y17.983
G1 X16.058 Y18.078
G1 X15.94 Y18.171
G1 X15.821 Y18.263
G1 X15.701 Y18.352
G1 X15.579 Y18.44
G1 X15.457 Y18.526
G1 X15.333 Y18.61
G1 X15.207 Y18.693
G1 X15.081 Y18.774
G1 X14.953 Y18.852
G1 X14.824 Y18.929
G1 X14.694 Y19.004
G1 X14.563 Y19.077
G1 X14.431 Y19.148
G1 X14.298 Y19.218
G1 X14.164 Y19.285
G1 X14.029 Y19.35
G1 X13.893 Y19.413
G1 X13.756 Y19.475
G1 X13.619 Y19.534
G1 X13.48 Y19.592
G1 X13.34 Y19.647
G1 X13.2 Y19.7
G1 X13.059 Y19.751
G1 X12.918 Y19.801
G1 X12.775 Y19.848
G1 X12.632 Y19.893
G1 X12.488 Y19.936
G1 X12.344 Y19.977
G1 X12.199 Y20.016
G1 X12.054 Y20.052
G1 X11.908 Y20.087
G1 X11.761 Y20.119
G1 X11.614 Y20.15
G1 X11.467 Y20.178
G1 X11.319 Y20.204
G1 X11.171 Y20.228
G1 X11.023 Y20.25
G1 X10.874 Y20.269
G1 X10.725 Y20.287
G1 X10.576 Y20.302
G1 X10.427 Y20.315
G1 X10.277 Y20.326
G1 X10.127 Y20.335
G1 X9.977 Y20.342
G1 X9.827 Y20.346
G1 X9.678 Y20.349
G1 X9.528
G1 X9.378 Y20.347
G1 X9.228 Y20.343
G1 X9.078 Y20.336
G1 X8.928 Y20.328
G1 X8.778 Y20.317
G1 X8.629 Y20.305
G1 X8.48 Y20.29
G1 X8.331 Y20.273
G1 X8.182 Y20.254
G1 X8.033 Y20.232
G1 X7.885 Y20.209
G1 X7.737 Y20.183
G1 X7.59 Y20.155
G1 X7.443 Y20.126
G1 X7.296 Y20.094
G1 X7.15 Y20.06
G1 X7.005 Y20.023
G1 X6.86 Y19.985
G1 X6.715 Y19.945
G1 X6.571 Y19.903
G1 X6.428 Y19.858
G1 X6.285 Y19.812
G1 X6.143 Y19.763
G1 X6.002 Y19.713
G1 X5.862 Y19.66
G1 X5.722 Y19.606
G1 X5.583 Y19.549
G1 X5.445 Y19.49
G1 X5.308 Y19.43
G1 X5.171 Y19.367
G1 X5.036 Y19.303
G1 X4.901 Y19.237
G1 X4.768 Y19.169
G1 X4.635 Y19.098
G1 X4.504 Y19.026
G1 X4.373 Y18.952
G1 X4.244 Y18.877
G1 X4.115 Y18.799
G1 X3.988 Y18.72
G1 X3.862 Y18.639
G1 X3.737 Y18.556
G1 X3.613 Y18.471
G1 X3.491 Y18.384
G1 X3.369 Y18.296
G1 X3.249 Y18.206
G1 X3.131 Y18.114
G1 X3.013 Y18.021
G1 X2.897 Y17.926
G1 X2.782 Y17.829
G1 X2.669 Y17.731
G1 X2.557 Y17.631
G1 X2.447 Y17.53
G1 X2.338 Y17.427
G1 X2.23 Y17.322
G1 X2.124 Y17.216
G1 X2.02 Y17.108
G1 X1.917 Y16.999
G1 X1.815 Y16.889
G1 X1.715 Y16.777
G1 X1.617 Y16.664
G1 X1.52 Y16.549
G1 X1.425 Y16.433
G1 X1.026 Y15.93
G1 X0.702 Y15.375
G1 X0.377 Y14.821
G1 X0.088 Y14.248
G1 X-0.038 Y13.953
G1 X-0.098 Y13.804
; MOVEMENT_LEAD_OUT
G1 X-0.108 Y13.767 F180
G1 X-0.114 Y13.73
G1 X-0.116 Y13.692
G1 X-0.113 Y13.654
G1 X-0.025 Y13.027
G1 X0.558 Y8.842
; MOVEMENT_LEAD_IN
G1 X1.032 Y5.44
G1 X1.042 Y5.391
G1 X1.061 Y5.345
G1 X1.086 Y5.302
G1 X1.117 Y5.263
G1 X1.155 Y5.23
G1 X1.197 Y5.203
G1 X1.242 Y5.184
G1 X1.291 Y5.171
G1 X1.34 Y5.166
G1 X1.39 Y5.169
G1 X1.439 Y5.18
G1 X1.485 Y5.198
G1 X1.528 Y5.223
G1 X1.566 Y5.255
G1 X1.599 Y5.292
G1 X1.626 Y5.334
G1 X1.646 Y5.38
G1 X1.659 Y5.428
G1 X1.664 Y5.478
G1 X1.661 Y5.527
G1 X1.65 Y5.574
G1 X1.633 Y5.619
G1 X1.609 Y5.661
G1 X1.579 Y5.699
G1 X1.544 Y5.732
G1 X1.504 Y5.759
G1 X1.461 Y5.78
G1 X1.415 Y5.794
G1 X1.367 Y5.8
G1 X1.319
G1 X1.272 Y5.792
G1 X1.226 Y5.777
; MOVEMENT_CUTTING
G1 X1.089 Y5.716 F480
G1 X1.022 Y5.582
G1 X0.978 Y5.438
G1 X0.953 Y5.29
G1 X0.942 Y5.141
G1 X0.944 Y4.973
G1 X0.962 Y4.78
G1 X1.001 Y4.558
G1 X1.067 Y4.304
G1 X1.167 Y4.016
G1 X1.311 Y3.687
G1 X1.508 Y3.32
G1 X1.774 Y2.91
G1 X2.116 Y2.465
G1 X2.542 Y1.994
G1 X3.009 Y1.553
G1 X3.573 Y1.101
G1 X4.626 Y0.366
G1 X5.19 Y0.059
G1 X5.336 Y-0.008
G1 X5.483 Y-0.072
; MOVEMENT_LEAD_OUT
G1 X5.505 Y-0.077 F180
G1 X5.528
G1 X6.261 Y0.021
; MOVEMENT_LINK_DIRECT
G1 X14.042 Y1.064 F480
; MOVEMENT_LEAD_IN
G1 X14.373 Y1.108 F180
G1 X14.398 Y1.115
G1 X14.42 Y1.129
G1 X14.437 Y1.148
G1 X14.448 Y1.171
G1 X14.452 Y1.197
G1 X14.448 Y1.222
G1 X14.438 Y1.246
G1 X14.421 Y1.265
G1 X14.399 Y1.28
G1 X14.375 Y1.287
G1 X14.349
G1 X14.326 Y1.281
G1 X14.305 Y1.269
G1 X14.289 Y1.252
G1 X14.277 Y1.231
G1 X14.271 Y1.208
G1 X14.272 Y1.184
G1 X14.278 Y1.161
; MOVEMENT_CUTTING
G1 X14.343 Y1.026 F480
G1 X14.478 Y0.962
G1 X14.623 Y0.921
G1 X14.771 Y0.899
G1 X14.921 Y0.891
G1 X15.09 Y0.896
G1 X15.285 Y0.918
G1 X15.509 Y0.962
G1 X15.765 Y1.033
G1 X16.057 Y1.141
G1 X16.388 Y1.294
G1 X16.762 Y1.505
G1 X17.179 Y1.786
G1 X17.635 Y2.151
G1 X18.103 Y2.591
G1 X18.536 Y3.066
G1 X18.934 Y3.569
G1 X19.3 Y4.097
G1 X19.633 Y4.646
G1 X19.933 Y5.214
G1 X20.199 Y5.798
G1 X20.431 Y6.397
G1 X20.628 Y7.008
G1 X20.79 Y7.63
G1 X20.916 Y8.259
G1 X21.006 Y8.895
G1 X21.06 Y9.535
G1 X21.077 Y10.177
G1 X21.057 Y10.819
G1 X21.001 Y11.459
G1 X20.909 Y12.094
G1 X20.781 Y12.724
G1 X20.618 Y13.345
G1 X20.42 Y13.956
G1 X20.187 Y14.554
G1 X19.922 Y15.139
G1 X19.623 Y15.707
G1 X19.293 Y16.258
G1 X18.933 Y16.79
G1 X18.725 Y17.062
G1 X18.599 Y17.193
G1 X18.446 Y17.292
G1 X18.275 Y17.353
G1 X17.839 Y17.456
G1 X17.402 Y17.555
G1 X17.256 Y17.599
G1 X16.964 Y17.712
G1 X16.819 Y17.797
G1 X16.758 Y17.834
G1 X16.581 Y17.98
G1 X16.527 Y18.03
G1 X16.364 Y18.213
G1 X16.351 Y18.233
G1 X16.239 Y18.417
G1 X16.179 Y18.563
G1 X16.148 Y18.643
G1 X16.116 Y18.716
G1 X16.039 Y18.87
G1 X15.937 Y19.041
G1 X15.801 Y19.229
G1 X15.627 Y19.436
G1 X15.402 Y19.662
G1 X15.117 Y19.905
G1 X14.758 Y20.166
G1 X14.314 Y20.436
G1 X13.773 Y20.709
G1 X13.178 Y20.951
G1 X12.567 Y21.148
G1 X11.944 Y21.305
G1 X11.313 Y21.423
G1 X10.676 Y21.504
G1 X10.035 Y21.549
G1 X9.393 Y21.557
G1 X8.752 Y21.529
G1 X8.113 Y21.465
G1 X7.478 Y21.366
G1 X6.85 Y21.232
G1 X6.23 Y21.064
G1 X5.62 Y20.862
G1 X5.023 Y20.627
G1 X4.439 Y20.359
G1 X3.871 Y20.06
G1 X3.32 Y19.73
G1 X2.788 Y19.371
G1 X2.276 Y18.983
G1 X1.787 Y18.567
G1 X1.553 Y18.346
G1 X0.87 Y17.667
G1 X0.382 Y17.135
G1 X0.188 Y16.879
G1 X0.097 Y16.747
; MOVEMENT_LEAD_OUT
G1 X0.075 Y16.704 F180
G1 X0.059 Y16.659
G1 X0.05 Y16.612
G1 X0.048 Y16.565
G1 X0.054 Y16.517
G1 X0.066 Y16.471
G1 X0.085 Y16.427
G1 X0.111 Y16.387
G1 X0.142 Y16.351
G1 X0.179 Y16.32
G1 X0.22 Y16.295
G1 X0.264 Y16.276
G1 X0.31 Y16.264
G1 X0.357 Y16.26
G1 X0.405 Y16.262
G1 X0.472 Y16.271
; MOVEMENT_LINK_DIRECT
G1 X15.668 Y18.197 F480
; MOVEMENT_LEAD_IN
G1 X15.888 Y18.225 F180
G1 X15.934 Y18.234
G1 X15.978 Y18.25
G1 X16.019 Y18.272
G1 X16.057 Y18.301
G1 X16.09 Y18.334
G1 X16.117 Y18.372
G1 X16.139 Y18.414
G1 X16.155 Y18.458
G1 X16.163 Y18.504
G1 X16.165 Y18.551
G1 X16.16 Y18.598
G1 X16.148 Y18.643
; MOVEMENT_CUTTING
G1 X16.123 Y18.709 F480
G1 X16.09 Y18.805
G1 X16.076 Y18.854
G1 X16.028 Y19.146
G1 X16.007 Y19.291
G1 X15.998 Y19.517
G1 X15.985 Y19.659
G1 X15.954 Y19.806
G1 X15.908 Y19.948
G1 X15.85 Y20.089
G1 X15.766 Y20.253
G1 X15.657 Y20.43
G1 X15.523 Y20.613
G1 X15.337 Y20.827
G1 X15.129 Y21.032
G1 X14.844 Y21.27
G1 X14.525 Y21.496
G1 X14.107 Y21.745
G1 X13.599 Y21.994
G1 X13.007 Y22.227
G1 X12.393 Y22.413
G1 X11.767 Y22.557
G1 X11.133 Y22.661
G1 X10.495 Y22.729
G1 X9.853 Y22.762
G1 X9.211
G1 X8.57 Y22.729
G1 X7.931 Y22.663
G1 X7.296 Y22.565
G1 X6.667 Y22.436
G1 X6.045 Y22.276
G1 X5.433 Y22.084
G1 X4.83 Y21.861
G1 X4.24 Y21.608
G1 X3.663 Y21.327
G1 X3.101 Y21.017
G1 X2.554 Y20.679
G1 X2.025 Y20.316
G1 X1.514 Y19.926
G1 X0.902 Y19.407
G1 X0.359 Y18.93
G1 X0.246 Y18.817
; MOVEMENT_LEAD_OUT
G1 X0.214 Y18.777 F180
G1 X0.19 Y18.733
G1 X0.172 Y18.686
G1 X0.163 Y18.637
G1 X0.161 Y18.586
G1 X0.167 Y18.536
G1 X0.181 Y18.488
G1 X0.203 Y18.443
G1 X0.231 Y18.401
G1 X0.266 Y18.365
G1 X0.306 Y18.334
G1 X0.35 Y18.31
G1 X0.397 Y18.293
G1 X0.447 Y18.284
G1 X0.497 Y18.283
G1 X0.527 Y18.285
; MOVEMENT_LINK_DIRECT
G1 X15.395 Y19.181 F480
; MOVEMENT_LEAD_IN
G1 X15.699 Y19.199 F180
G1 X15.747 Y19.205
G1 X15.793 Y19.219
G1 X15.836 Y19.239
G1 X15.876 Y19.266
G1 X15.912 Y19.299
G1 X15.942 Y19.336
G1 X15.966 Y19.378
G1 X15.984 Y19.423
G1 X15.994 Y19.469
G1 X15.998 Y19.517
; MOVEMENT_CUTTING
G1 X15.989 Y19.729 F480
G1 X15.981 Y20.166
G1 X15.994 Y20.312
G1 X16.009 Y20.392
G1 X16.025 Y20.518
G1 X16.024 Y20.668
G1 X16.006 Y20.817
G1 X15.972 Y20.963
G1 X15.926 Y21.105
G1 X15.857 Y21.271
G1 X15.772 Y21.438
G1 X15.656 Y21.626
G1 X15.51 Y21.824
G1 X15.328 Y22.033
G1 X15.098 Y22.259
G1 X14.823 Y22.489
G1 X14.483 Y22.729
G1 X14.062 Y22.979
G1 X13.592 Y23.208
G1 X13.011 Y23.436
G1 X12.397 Y23.622
G1 X11.771 Y23.765
G1 X11.137 Y23.868
G1 X10.498 Y23.937
G1 X9.857 Y23.972
G1 X9.215 Y23.975
G1 X8.573 Y23.947
G1 X7.934 Y23.89
G1 X7.298 Y23.802
G1 X6.666 Y23.684
G1 X6.041 Y23.537
G1 X5.424 Y23.361
G1 X4.815 Y23.157
G1 X4.216 Y22.925
G1 X3.628 Y22.666
G1 X3.053 Y22.381
G1 X2.49 Y22.071
G1 X1.943 Y21.735
G1 X1.677 Y21.556
G1 X0.891 Y20.999
G1 X0.572 Y20.755
G1 X0.384 Y20.604
G1 X0.322 Y20.553
; MOVEMENT_LEAD_OUT
G1 X0.288 Y20.519 F180
G1 X0.26 Y20.48
G1 X0.239 Y20.437
G1 X0.224 Y20.391
G1 X0.216 Y20.343
G1 X0.215 Y20.295
G1 X0.222 Y20.248
G1 X0.235 Y20.201
G1 X0.256 Y20.158
G1 X0.283 Y20.118
G1 X0.316 Y20.083
G1 X0.353 Y20.053
G1 X0.395 Y20.029
G1 X0.44 Y20.011
G1 X0.487 Y20.001
G1 X0.535 Y19.998
G1 X0.549
; MOVEMENT_LINK_DIRECT
G1 X15.344 Y20.139 F480
; MOVEMENT_LEAD_IN
G1 X15.702 Y20.142 F180
G1 X15.749 Y20.146
G1 X15.795 Y20.157
G1 X15.839 Y20.175
G1 X15.88 Y20.199
G1 X15.917 Y20.229
G1 X15.949 Y20.264
G1 X15.975 Y20.303
G1 X15.995 Y20.346
G1 X16.009 Y20.392
; MOVEMENT_CUTTING
G1 X16.021 Y20.457 F480
G1 X16.06 Y20.603
G1 X16.12 Y20.749
G1 X16.2 Y20.895
G1 X16.253 Y20.996
G1 X16.303 Y21.138
G1 X16.331 Y21.285
G1 X16.34 Y21.435
G1 X16.334 Y21.584
G1 X16.313 Y21.733
G1 X16.277 Y21.894
G1 X16.226 Y22.061
G1 X16.15 Y22.249
G1 X16.055 Y22.44
G1 X15.926 Y22.654
G1 X15.771 Y22.871
G1 X15.57 Y23.108
G1 X15.328 Y23.351
G1 X15.042 Y23.596
G1 X14.673 Y23.864
G1 X14.272 Y24.107
G1 X13.776 Y24.357
G1 X13.183 Y24.598
G1 X12.571 Y24.792
G1 X11.947 Y24.942
G1 X11.314 Y25.055
G1 X10.677 Y25.133
G1 X10.036 Y25.179
G1 X9.394 Y25.194
G1 X8.752 Y25.179
G1 X8.112 Y25.134
G1 X7.474 Y25.062
G1 X6.839 Y24.961
G1 X6.21 Y24.833
G1 X5.587 Y24.679
G1 X4.97 Y24.498
G1 X4.362 Y24.292
G1 X3.764 Y24.06
G1 X3.175 Y23.803
G1 X2.597 Y23.523
G1 X2.032 Y23.219
G1 X1.756 Y23.054
G1 X0.938 Y22.546
G1 X0.803 Y22.458
G1 X0.536 Y22.28
G1 X0.404 Y22.188
; MOVEMENT_LEAD_OUT
G1 X0.368 Y22.156 F180
G1 X0.338 Y22.119
G1 X0.313 Y22.077
G1 X0.295 Y22.032
G1 X0.283 Y21.986
G1 X0.279 Y21.937
G1 X0.283 Y21.889
G1 X0.293 Y21.842
G1 X0.311 Y21.797
G1 X0.335 Y21.755
G1 X0.365 Y21.718
G1 X0.401 Y21.685
G1 X0.441 Y21.658
G1 X0.485 Y21.638
G1 X0.531 Y21.624
G1 X0.579 Y21.618
G1 X0.591 Y21.617
; MOVEMENT_LINK_DIRECT
G1 X15.467 Y20.772 F480
; MOVEMENT_LEAD_IN
G1 X15.914 Y20.747 F180
G1 X15.962 Y20.748
G1 X16.009 Y20.756
G1 X16.055 Y20.772
G1 X16.098 Y20.794
G1 X16.137 Y20.822
G1 X16.171 Y20.856
G1 X16.2 Y20.895
; MOVEMENT_CUTTING
G1 X16.236 Y20.955 F480
G1 X16.291 Y21.04
G1 X16.381 Y21.159
G1 X16.406 Y21.186
G1 X16.527 Y21.31
G1 X16.604 Y21.396
G1 X16.69 Y21.519
G1 X16.755 Y21.654
G1 X16.8 Y21.797
G1 X16.829 Y21.944
G1 X16.844 Y22.093
G1 Y22.246
G1 X16.832 Y22.404
G1 X16.803 Y22.587
G1 X16.759 Y22.772
G1 X16.689 Y22.983
G1 X16.6 Y23.196
G1 X16.479 Y23.43
G1 X16.325 Y23.675
G1 X16.137 Y23.929
G1 X15.895 Y24.205
G1 X15.623 Y24.47
G1 X15.286 Y24.749
G1 X14.864 Y25.044
G1 X14.406 Y25.313
G1 X13.856 Y25.579
G1 X13.257 Y25.811
G1 X12.643 Y25.999
G1 X12.018 Y26.148
G1 X11.386 Y26.261
G1 X10.749 Y26.341
G1 X10.109 Y26.391
G1 X9.467 Y26.411
G1 X8.825 Y26.403
G1 X8.183 Y26.367
G1 X7.544 Y26.305
G1 X6.908 Y26.215
G1 X6.277 Y26.1
G1 X5.65 Y25.96
G1 X5.029 Y25.795
G1 X4.416 Y25.606
G1 X3.81 Y25.393
G1 X3.212 Y25.157
G1 X2.625 Y24.899
G1 X2.047 Y24.618
G1 X1.764 Y24.465
G1 X0.922 Y23.998
G1 X0.784 Y23.917
G1 X0.508 Y23.753
G1 X0.439 Y23.71
G1 X0.367 Y23.675
G1 X0.292 Y23.647
G1 X0.214 Y23.627
G1 X0.135 Y23.615
G1 X0.066 Y23.612
G1 X-0.169 Y23.563
G1 X-0.38 Y23.447
G1 X-0.545 Y23.272
G1 X-0.651 Y23.056
G1 X-0.688 Y22.819
; MOVEMENT_LEAD_OUT
G1 X-0.683 Y22.773 F180
G1 X-0.671 Y22.728
G1 X-0.653 Y22.685
G1 X-0.629 Y22.646
G1 X-0.599 Y22.61
G1 X-0.565 Y22.579
G1 X-0.527 Y22.554
G1 X-0.485 Y22.534
G1 X-0.44 Y22.52
G1 X-0.395 Y22.513
G1 X-0.073 Y22.489
; MOVEMENT_LINK_DIRECT
G1 X15.765 Y21.265 F480
; MOVEMENT_LEAD_IN
G1 X16.285 Y21.225 F180
G1 X16.329 Y21.224
G1 X16.373 Y21.23
G1 X16.415 Y21.242
G1 X16.456 Y21.259
G1 X16.493 Y21.282
G1 X16.527 Y21.31
; MOVEMENT_CUTTING
G1 X16.549 Y21.332 F480
G1 X16.673 Y21.43
G1 X16.745 Y21.478
G1 X16.819 Y21.524
G1 X16.899 Y21.563
G1 X16.992 Y21.615
G1 X17.112 Y21.704
G1 X17.215 Y21.814
G1 X17.299 Y21.938
G1 X17.368 Y22.071
G1 X17.422 Y22.211
G1 X17.462 Y22.356
G1 X17.489 Y22.503
G1 X17.506 Y22.672
G1 X17.51 Y22.846
G1 X17.498 Y23.044
G1 X17.468 Y23.252
G1 X17.418 Y23.476
G1 X17.341 Y23.725
G1 X17.242 Y23.973
G1 X17.106 Y24.245
G1 X16.933 Y24.534
G1 X16.729 Y24.818
G1 X16.465 Y25.13
G1 X16.144 Y25.453
G1 X15.791 Y25.755
G1 X15.356 Y26.07
G1 X14.841 Y26.384
G1 X14.267 Y26.673
G1 X13.673 Y26.917
G1 X13.064 Y27.12
G1 X12.443 Y27.286
G1 X11.814 Y27.416
G1 X11.18 Y27.514
G1 X10.541 Y27.581
G1 X9.9 Y27.62
G1 X9.258 Y27.632
G1 X8.616 Y27.618
G1 X7.975 Y27.578
G1 X7.336 Y27.512
G1 X6.7 Y27.423
G1 X6.068 Y27.309
G1 X5.441 Y27.172
G1 X4.819 Y27.012
G1 X4.203 Y26.829
G1 X3.595 Y26.624
G1 X2.994 Y26.397
G1 X2.402 Y26.148
G1 X1.82 Y25.876
G1 X0.959 Y25.444
G1 X0.817 Y25.369
G1 X0.676 Y25.293
G1 X0.535 Y25.216
G1 X0.381 Y25.169
G1 X0.222 Y25.154
G1 X0.062 Y25.172
G1 X-0.091 Y25.221
G1 X-0.231 Y25.299
G1 X-0.345 Y25.399
G1 X-0.431 Y25.508
G1 X-0.495 Y25.629
G1 X-0.543 Y25.776
G1 X-0.62 Y26.414
G1 X-0.529 Y27.049
G1 X-0.476 Y27.689
G1 X-0.445 Y28.331
G1 X-0.427 Y28.973
G1 X-0.417 Y29.615
G1 X-0.41 Y30.257
G1 X-0.407 Y30.899
G1 X-0.403 Y32.183
G1 X-0.402 Y34.752
G1 Y36.679
G1 X-0.312 Y36.987
G1 X-0.129 Y37.251
G1 X0.339 Y37.69
G1 X0.917 Y37.971
G1 X1.535 Y38.144
G1 X2.169 Y38.248
G1 X2.808 Y38.311
G1 X3.449 Y38.348
G1 X4.091 Y38.37
G1 X4.733 Y38.383
G1 X5.375 Y38.391
G1 X6.017 Y38.395
G1 X6.659 Y38.398
G1 X7.944 Y38.4
G1 X12.439 Y38.401
G1 X15.65
G1 X36.521 Y38.4
G1 X36.681 Y38.397
G1 X36.838 Y38.361
G1 X37.13 Y38.227
G1 X37.267 Y38.143
G1 X37.502 Y37.924
G1 X37.852 Y37.386
G1 X38.071 Y36.783
G1 X38.205 Y36.154
G1 X38.286 Y35.517
G1 X38.334 Y34.877
G1 X38.362 Y34.235
G1 X38.379 Y33.593
G1 X38.389 Y32.951
G1 X38.395 Y32.309
G1 X38.398 Y31.667
G1 X38.402 Y30.383
G1 X38.404 Y27.172
G1 X38.409 Y9.833
G1 X38.411 Y1.484
G1 X38.408 Y1.324
G1 X38.373 Y1.167
G1 X38.24 Y0.875
G1 X38.156 Y0.738
G1 X37.937 Y0.503
G1 X37.4 Y0.151
G1 X36.797 Y-0.069
G1 X36.169 Y-0.204
G1 X35.532 Y-0.284
G1 X34.892 Y-0.332
G1 X34.25 Y-0.361
G1 X33.608 Y-0.378
G1 X32.966 Y-0.388
G1 X32.324 Y-0.393
G1 X31.682 Y-0.397
G1 X30.397 Y-0.4
G1 X27.186 Y-0.402
G1 X18.677
G1 X18.52 Y-0.369
G1 X17.93 Y-0.116
G1 X17.783 Y-0.052
G1 X17.685 Y-0.017
G1 X17.244 Y0.121
G1 X16.61 Y0.219
G1 X15.968 Y0.247
G1 X15.326 Y0.255
G1 X14.523 Y0.257
; MOVEMENT_LEAD_OUT
G1 X14.468 Y0.251 F180
G1 X14.413 Y0.237
G1 X14.361 Y0.217
G1 X14.312 Y0.189
G1 X14.268 Y0.155
G1 X14.228 Y0.115
G1 X14.195 Y0.07
G1 X14.168 Y0.021
G1 X14.148 Y-0.031
G1 X14.135 Y-0.086
G1 X14.13 Y-0.142
G1 X14.133 Y-0.198
G1 X14.143 Y-0.253
G1 X14.161 Y-0.306
; MOVEMENT_LINK_DIRECT
G1 X14.185 Y-0.356 F480
G1 X14.217 Y-0.402
G1 X14.254 Y-0.443
G1 X14.296 Y-0.479
G1 X14.343 Y-0.509
G1 X14.394 Y-0.532
G1 X14.447 Y-0.548
G1 X14.502 Y-0.556
G1 X14.558 Y-0.557
G1 X14.613 Y-0.551
G1 X14.667 Y-0.537
G1 X14.718 Y-0.515
G1 X14.766 Y-0.487
G1 X14.81 Y-0.453
G1 X14.848 Y-0.413
G1 X14.881 Y-0.368
G1 X14.908 Y-0.319
G1 X14.927 Y-0.267
G1 X14.94 Y-0.213
G1 X14.944 Y-0.158
G1 X14.942 Y-0.102
G1 X14.931 Y-0.048
G1 X14.914 Y0.005
G1 X14.893 Y0.049
G1 X14.866 Y0.089
G1 X14.836 Y0.127
G1 X14.801 Y0.16
G1 X14.762 Y0.189
G1 X14.72 Y0.214
G1 X-0.098 Y7.647
G1 X-0.125 Y7.659
; MOVEMENT_LEAD_IN
G1 X-0.178 Y7.677 F180
G1 X-0.233 Y7.687
G1 X-0.289 Y7.69
G1 X-0.345 Y7.685
G1 X-0.399 Y7.672
G1 X-0.452 Y7.652
G1 X-0.501 Y7.625
G1 X-0.546 Y7.592
G1 X-0.586 Y7.553
G1 X-0.62 Y7.508
G1 X-0.648 Y7.459
G1 X-0.668 Y7.407
G1 X-0.682 Y7.353
G1 X-0.688 Y7.297
; MOVEMENT_CUTTING
G1 Y0.346 F480
G1 X-0.686 Y0.054
G1 X-0.68 Y-0.091
G1 X-0.672 Y-0.139
G1 X-0.644 Y-0.237
G1 X-0.612 Y-0.31
G1 X-0.568 Y-0.383
G1 X-0.527 Y-0.44
G1 X-0.437 Y-0.529
G1 X-0.381 Y-0.571
G1 X-0.308 Y-0.613
G1 X-0.235 Y-0.645
G1 X-0.129 Y-0.674
G1 X-0.089 Y-0.68
G1 X0.056 Y-0.686
G1 X0.494 Y-0.688
G1 X0.785
G1 X0.825 Y-0.685
G1 X0.727 Y-0.051
G1 X0.616 Y0.582
G1 X0.591 Y1.223
G1 X0.584 Y2.106
G1 X0.583 Y2.989
; MOVEMENT_LEAD_OUT
G1 X0.577 Y3.038 F180
G1 X0.564 Y3.085
G1 X0.544 Y3.13
G1 X0.518 Y3.171
G1 X0.485 Y3.208
G1 X0.447 Y3.239
G1 X0.405 Y3.264
G1 X0.359 Y3.282
G1 X0.311 Y3.292
G1 X0.262 Y3.296
G1 X0.213 Y3.291
G1 X0.166 Y3.279
G1 X0.12 Y3.261
G1 X0.079 Y3.235
G1 X0.041 Y3.203
G1 X0.009 Y3.166
; MOVEMENT_LINK_DIRECT
G1 X-0.017 Y3.123 F480
G1 X-0.036 Y3.077
G1 X-0.048 Y3.028
G1 X-0.052 Y2.978
G1 X-0.048 Y2.928
G1 X0.428 Y-0.077
; MOVEMENT_LEAD_IN
G1 X0.483 Y-0.42 F180
G1 X0.494 Y-0.467
G1 X0.512 Y-0.512
G1 X0.537 Y-0.554
G1 X0.568 Y-0.591
G1 X0.605 Y-0.623
G1 X0.646 Y-0.65
G1 X0.69 Y-0.669
G1 X0.737 Y-0.682
G1 X0.785 Y-0.688
; MOVEMENT_CUTTING
G1 X3.161 F480
; MOVEMENT_LEAD_OUT
G1 X3.702 Y-0.529 F180
G1 X3.844 Y-0.358
; MOVEMENT_LINK_DIRECT
G1 X4.066 Y-0.091 F480
G1 X12.868 Y19.291
G1 X12.929 Y19.409
G1 X12.996 Y19.523
G1 X13.069 Y19.633
G1 X13.148 Y19.739
G1 X13.232 Y19.841
G1 X13.322 Y19.939
G1 X13.416 Y20.031
G1 X13.516 Y20.119
G1 X13.619 Y20.201
G1 X13.727 Y20.277
G1 X13.839 Y20.348
G1 X13.955 Y20.412
G1 X14.073 Y20.471
G1 X14.195 Y20.523
G1 X16.166 Y21.281
; MOVEMENT_LEAD_IN
G1 X16.899 Y21.563 F180
; MOVEMENT_CUTTING
G1 X16.964 Y21.595 F480
G1 X17.11 Y21.648
G1 X17.256 Y21.682
G1 X17.336 Y21.693
G1 X17.428 Y21.71
G1 X17.569 Y21.762
G1 X17.697 Y21.84
G1 X17.812 Y21.936
G1 X17.913 Y22.047
G1 X18.001 Y22.168
G1 X18.076 Y22.298
G1 X18.14 Y22.434
G1 X18.195 Y22.582
G1 X18.241 Y22.749
G1 X18.276 Y22.927
G1 X18.299 Y23.129
G1 X18.306 Y23.343
G1 X18.295 Y23.575
G1 X18.261 Y23.834
G1 X18.205 Y24.097
G1 X18.121 Y24.38
G1 X18 Y24.691
G1 X17.85 Y25.002
G1 X17.656 Y25.332
G1 X17.413 Y25.68
G1 X17.116 Y26.04
G1 X16.782 Y26.383
G1 X16.371 Y26.743
G1 X15.882 Y27.106
G1 X15.337 Y27.446
G1 X14.768 Y27.743
G1 X14.179 Y27.999
G1 X13.575 Y28.218
G1 X12.959 Y28.4
G1 X12.334 Y28.548
G1 X11.703 Y28.665
G1 X11.067 Y28.753
G1 X10.427 Y28.813
G1 X9.786 Y28.847
G1 X9.144 Y28.855
G1 X8.502 Y28.839
G1 X7.861 Y28.799
G1 X7.222 Y28.735
G1 X6.586 Y28.648
G1 X5.953 Y28.539
G1 X5.324 Y28.408
G1 X4.7 Y28.256
G1 X4.082 Y28.081
G1 X3.471 Y27.885
G1 X2.866 Y27.668
G1 X2.27 Y27.43
G1 X1.673 Y27.194
G1 X1.382 Y27.059
G1 X1.02 Y26.885
G1 X0.876 Y26.814
G1 X0.721 Y26.773
G1 X0.56 Y26.765
G1 X0.402 Y26.789
G1 X0.251 Y26.844
G1 X0.114 Y26.929
G1 X-0.002 Y27.039
G1 X-0.094 Y27.171
G1 X-0.158 Y27.318
G1 X-0.19 Y27.476
G1 X-0.191 Y27.636
G1 X-0.159 Y27.793
G1 X-0.096 Y27.941
G1 X0.114 Y28.244
G1 X0.216 Y28.421
G1 X0.324 Y28.647
G1 X0.437 Y28.944
G1 X0.555 Y29.347
G1 X0.676 Y29.934
G1 X0.755 Y30.572
G1 X0.801 Y31.212
G1 X0.829 Y31.854
G1 X0.845 Y32.496
G1 X0.854 Y33.138
G1 X0.86 Y33.78
G1 X0.863 Y34.422
G1 X0.868 Y35.707
G1 X0.869 Y35.867
G1 X0.903 Y36.024
G1 X0.968 Y36.171
G1 X1.154 Y36.433
G1 X1.415 Y36.62
G1 X1.999 Y36.887
G1 X2.631 Y37.001
G1 X3.27 Y37.059
G1 X3.912 Y37.09
G1 X4.554 Y37.107
G1 X5.196 Y37.117
G1 X5.838 Y37.123
G1 X6.48 Y37.127
G1 X7.765 Y37.13
G1 X10.975 Y37.131
G1 X18.04
G1 X35.7 Y37.13
G1 X35.86 Y37.129
G1 X36.019 Y37.106
G1 X36.17 Y37.051
G1 X36.307 Y36.967
G1 X36.541 Y36.748
G1 X36.85 Y36.185
G1 X36.983 Y35.556
G1 X37.048 Y34.918
G1 X37.084 Y34.276
G1 X37.105 Y33.635
G1 X37.116 Y32.992
G1 X37.123 Y32.35
G1 X37.128 Y31.708
G1 X37.132 Y30.424
G1 X37.134 Y27.855
G1 X37.14 Y5.379
G1 X37.141 Y2.168
G1 X37.123 Y2.008
G1 X37.074 Y1.855
G1 X36.994 Y1.716
G1 X36.783 Y1.474
G1 X36.224 Y1.159
G1 X35.596 Y1.022
G1 X34.957 Y0.955
G1 X34.316 Y0.918
G1 X33.674 Y0.897
G1 X33.032 Y0.885
G1 X32.39 Y0.878
G1 X31.748 Y0.874
G1 X30.464 Y0.87
G1 X27.895 Y0.869
G1 X19.546 Y0.868
G1 X19.226 Y0.888
G1 X19.069 Y0.921
G1 X18.991 Y0.94
G1 X18.681 Y1.023
G1 X18.526 Y1.067
G1 X18.452 Y1.097
G1 X18.381 Y1.135
G1 X18.314 Y1.179
G1 X18.252 Y1.23
G1 X18.195 Y1.287
G1 X18.145 Y1.349
G1 X18.057 Y1.484
G1 X17.998 Y1.633
G1 X17.97 Y1.791
G1 X17.974 Y1.952
G1 X18.011 Y2.108
G1 X18.078 Y2.254
G1 X18.174 Y2.383
G1 X18.293 Y2.49
G1 X18.432 Y2.571
G1 X18.508 Y2.597
G1 X18.771 Y2.658
G1 X18.914 Y2.703
G1 X19.075 Y2.769
G1 X19.243 Y2.855
G1 X19.434 Y2.973
G1 X19.656 Y3.135
G1 X19.884 Y3.332
G1 X20.151 Y3.603
G1 X20.43 Y3.935
G1 X20.73 Y4.358
G1 X21.048 Y4.891
G1 X21.331 Y5.468
G1 X21.573 Y6.062
G1 X21.778 Y6.671
G1 X21.948 Y7.291
G1 X22.083 Y7.918
G1 X22.184 Y8.552
G1 X22.251 Y9.191
G1 X22.284 Y9.832
G1 Y10.475
G1 X22.251 Y11.116
G1 X22.185 Y11.755
G1 X22.087 Y12.389
G1 X21.956 Y13.018
G1 X21.794 Y13.64
G1 X21.601 Y14.252
G1 X21.377 Y14.854
G1 X21.121 Y15.443
G1 X20.835 Y16.018
G1 X20.52 Y16.578
G1 X20.44 Y16.706
G1 X20.31 Y16.862
G1 X20.145 Y16.98
G1 X19.955 Y17.053
G1 X19.754 Y17.075
G1 X19.734
G1 X19.297 Y17.129
G1 X18.859 Y17.219
G1 X18.568 Y17.285
G1 X18.275 Y17.353
; MOVEMENT_LEAD_OUT
G1 X17.499 Y17.476 F180
; MOVEMENT_LINK_DIRECT
G1 X16.527 Y17.63 F480
G1 X16.444 Y17.649
G1 X16.364 Y17.674
G1 X16.285 Y17.707
G1 X16.21 Y17.746
G1 X16.139 Y17.792
G1 X16.072 Y17.843
G1 X16.009 Y17.901
G1 X15.951 Y17.963
G1 X15.899 Y18.03
G1 X15.853 Y18.101
G1 X15.814 Y18.176
G1 X15.781 Y18.254
G1 X15.754 Y18.335
G1 X15.735 Y18.417
G1 X15.507 Y20.13
G1 X15.798 Y20.672
G1 X16.634 Y21.369
; MOVEMENT_LEAD_IN
G1 X16.819 Y21.524 F180
G1 X17.336 Y21.693
; MOVEMENT_CUTTING
G1 X17.402 Y21.702 F480
G1 X17.693 Y21.714
G1 X17.839 Y21.712
G1 X17.935 Y21.711
G1 X18.083 Y21.734
G1 X18.224 Y21.784
G1 X18.357 Y21.855
G1 X18.479 Y21.941
G1 X18.591 Y22.041
G1 X18.693 Y22.151
G1 X18.784 Y22.271
G1 X18.868 Y22.402
G1 X18.948 Y22.551
G1 X19.023 Y22.723
G1 X19.085 Y22.906
G1 X19.138 Y23.113
G1 X19.178 Y23.343
G1 X19.199 Y23.583
G1 X19.202 Y23.854
G1 X19.181 Y24.147
G1 X19.135 Y24.445
G1 X19.058 Y24.772
G1 X18.943 Y25.128
G1 X18.794 Y25.487
G1 X18.603 Y25.86
G1 X18.362 Y26.25
G1 X18.061 Y26.66
G1 X17.703 Y27.073
G1 X17.299 Y27.47
G1 X16.813 Y27.876
G1 X16.289 Y28.247
G1 X15.738 Y28.578
G1 X15.167 Y28.872
G1 X14.579 Y29.129
G1 X13.977 Y29.352
G1 X13.363 Y29.542
G1 X12.741 Y29.701
G1 X12.112 Y29.831
G1 X11.478 Y29.932
G1 X10.84 Y30.006
G1 X10.2 Y30.055
G1 X9.558 Y30.079
G1 X8.916 Y30.08
G1 X8.274 Y30.057
G1 X7.633 Y30.013
G1 X6.995 Y29.946
G1 X6.358 Y29.858
G1 X5.726 Y29.75
G1 X5.097 Y29.62
G1 X4.472 Y29.47
G1 X3.853 Y29.299
G1 X3.24 Y29.109
G1 X2.626 Y28.919
G1 X2.326 Y28.806
G1 X1.726 Y28.578
G1 X1.651 Y28.547
; MOVEMENT_LEAD_OUT
G1 X1.608 Y28.523 F180
G1 X1.569 Y28.492
G1 X1.535 Y28.456
G1 X1.507 Y28.415
G1 X1.486 Y28.37
G1 X1.472 Y28.323
G1 X1.466 Y28.274
G1 X1.467 Y28.224
G1 X1.476 Y28.175
G1 X1.493 Y28.129
G1 X1.517 Y28.085
G1 X1.547 Y28.046
G1 X1.583 Y28.012
G1 X1.624 Y27.983
G1 X1.668 Y27.962
G1 X1.706 Y27.947
; MOVEMENT_LINK_DIRECT
G1 X17.104 Y21.987 F480
; MOVEMENT_LEAD_IN
G1 X17.766 Y21.731 F180
G1 X17.802 Y21.719
G1 X17.839 Y21.712
; MOVEMENT_CUTTING
G1 X18.13 Y21.684 F480
G1 X18.276 Y21.666
G1 X18.422 Y21.64
G1 X18.522 Y21.626
G1 X18.672 Y21.632
G1 X18.819 Y21.662
G1 X18.96 Y21.713
G1 X19.094 Y21.78
G1 X19.22 Y21.861
G1 X19.338 Y21.954
G1 X19.448 Y22.056
G1 X19.559 Y22.178
G1 X19.667 Y22.318
G1 X19.768 Y22.474
G1 X19.867 Y22.657
G1 X19.955 Y22.856
G1 X20.032 Y23.077
G1 X20.098 Y23.328
G1 X20.145 Y23.596
G1 X20.172 Y23.884
G1 X20.177 Y24.206
G1 X20.154 Y24.554
G1 X20.102 Y24.907
G1 X20.014 Y25.289
G1 X19.884 Y25.699
G1 X19.706 Y26.135
G1 X19.489 Y26.565
G1 X19.216 Y27.013
G1 X18.882 Y27.473
G1 X18.478 Y27.944
G1 X18.022 Y28.397
G1 X17.533 Y28.813
G1 X17.015 Y29.192
G1 X16.473 Y29.537
G1 X15.91 Y29.846
G1 X15.329 Y30.121
G1 X14.735 Y30.364
G1 X14.129 Y30.577
G1 X13.514 Y30.76
G1 X12.89 Y30.915
G1 X12.261 Y31.043
G1 X11.627 Y31.144
G1 X10.989 Y31.221
G1 X10.349 Y31.275
G1 X9.708 Y31.305
G1 X9.066 Y31.312
G1 X8.424 Y31.298
G1 X7.783 Y31.262
G1 X7.143 Y31.205
G1 X6.506 Y31.127
G1 X5.871 Y31.029
G1 X5.239 Y30.912
G1 X4.612 Y30.775
G1 X3.989 Y30.619
G1 X2.751 Y30.279
G1 X2.598 Y30.23
G1 X2.37 Y30.153
G1 X2.218 Y30.101
G1 X2.059 Y30.08
G1 X1.898 Y30.091
G1 X1.744 Y30.135
G1 X1.601 Y30.209
G1 X1.477 Y30.31
G1 X1.375 Y30.434
G1 X1.3 Y30.576
G1 X1.255 Y30.73
G1 X1.242 Y30.89
G1 X1.262 Y31.049
G1 X1.467 Y31.658
G1 X1.575 Y31.877
G1 X1.687 Y32.161
G1 X1.805 Y32.545
G1 X1.926 Y33.097
G1 X2.013 Y33.733
G1 X2.064 Y34.373
G1 X2.117 Y35.013
G1 X2.183 Y35.159
G1 X2.278 Y35.289
G1 X2.396 Y35.397
G1 X2.672 Y35.562
G1 X3.287 Y35.745
G1 X3.927 Y35.806
G1 X4.568 Y35.832
G1 X5.21 Y35.845
G1 X5.853 Y35.852
G1 X6.495 Y35.856
G1 X7.779 Y35.86
G1 X10.348 Y35.861
G1 X21.265
G1 X34.912
G1 X35.072 Y35.858
G1 X35.229 Y35.823
G1 X35.375 Y35.757
G1 X35.506 Y35.664
G1 X35.614 Y35.546
G1 X35.697 Y35.408
G1 X35.804 Y35.105
G1 X35.83 Y33.821
G1 X35.843 Y33.179
G1 X35.851 Y32.537
G1 X35.856 Y31.895
G1 X35.859 Y31.253
G1 X35.862 Y29.968
G1 X35.865 Y26.115
G1 X35.871 Y2.996
G1 X35.825 Y2.843
G1 X35.749 Y2.701
G1 X35.646 Y2.578
G1 X35.521 Y2.478
G1 X35.235 Y2.332
G1 X34.601 Y2.228
G1 X33.96 Y2.185
G1 X33.318 Y2.164
G1 X32.676 Y2.153
G1 X32.034 Y2.147
G1 X31.392 Y2.143
G1 X30.107 Y2.14
G1 X26.897 Y2.138
G1 X20.314
G1 X20.154 Y2.14
G1 X20.073 Y2.142
; MOVEMENT_LEAD_OUT
G1 X19.588 Y2.282 F180
G1 X19.452 Y2.317
G1 X19.319 Y2.36
; MOVEMENT_LINK_DIRECT
G1 X19.192 Y2.409 F480
G1 X19.067 Y2.465
G1 X18.946 Y2.528
G1 X18.828 Y2.597
G1 X18.714 Y2.673
G1 X18.605 Y2.754
G1 X18.5 Y2.842
G1 X18.4 Y2.935
G1 X18.306 Y3.033
G1 X18.216 Y3.136
G1 X18.133 Y3.244
G1 X18.056 Y3.357
G1 X17.984 Y3.473
G1 X17.92 Y3.593
G1 X17.862 Y3.717
G1 X17.811 Y3.844
G1 X12.86 Y18.126
G1 X12.7 Y19.437
G1 X12.749 Y20.749
G1 X12.775 Y20.895
G1 X12.786 Y21.031
G1 X12.804 Y21.167
G1 X12.829 Y21.302
G1 X12.862 Y21.435
G1 X12.902 Y21.566
G1 X12.949 Y21.695
G1 X13.004 Y21.821
G1 X13.065 Y21.944
G1 X13.132 Y22.063
G1 X13.207 Y22.178
G1 X13.287 Y22.289
G1 X13.373 Y22.396
G1 X13.465 Y22.498
G1 X13.466 Y22.499
G1 X13.563 Y22.595
G1 X13.665 Y22.685
G1 X13.772 Y22.77
G1 X13.884 Y22.849
G1 X13.999 Y22.921
G1 X14.119 Y22.988
G1 X14.241 Y23.047
G1 X14.367 Y23.1
G1 X14.496 Y23.146
G1 X14.627 Y23.185
G1 X14.759 Y23.217
G1 X14.894 Y23.241
G1 X15.029 Y23.258
G1 X15.165 Y23.267
G1 X15.302 Y23.269
G1 X15.438 Y23.264
G1 X15.574 Y23.251
G1 X15.709 Y23.231
G1 X15.843 Y23.204
G1 X15.975 Y23.169
G1 X16.104 Y23.127
G1 X16.232 Y23.078
G1 X16.356 Y23.022
G1 X16.478 Y22.96
G1 X16.595 Y22.891
G1 X16.709 Y22.815
G1 X16.819 Y22.734
G1 X17.749 Y22.024
; MOVEMENT_LEAD_IN
G1 X18.13 Y21.734 F180
G1 X18.422 Y21.64
; MOVEMENT_CUTTING
G1 X18.568 Y21.613 F480
G1 X18.713 Y21.584
G1 X18.859 Y21.544
G1 X19.005 Y21.5
G1 X19.049 Y21.488
G1 X19.086 Y21.478
G1 X19.23 Y21.47
G1 X19.38 Y21.473
G1 X19.528 Y21.496
G1 X19.672 Y21.538
G1 X19.81 Y21.596
G1 X19.943 Y21.666
G1 X20.069 Y21.748
G1 X20.2 Y21.849
G1 X20.328 Y21.965
G1 X20.457 Y22.103
G1 X20.587 Y22.267
G1 X20.706 Y22.445
G1 X20.822 Y22.652
G1 X20.932 Y22.889
G1 X21.024 Y23.141
G1 X21.103 Y23.427
G1 X21.165 Y23.747
G1 X21.202 Y24.084
G1 X21.212 Y24.443
G1 X21.192 Y24.84
G1 X21.135 Y25.273
G1 X21.038 Y25.723
G1 X20.902 Y26.176
G1 X20.713 Y26.659
G1 X20.467 Y27.165
G1 X20.157 Y27.691
G1 X19.787 Y28.216
G1 X19.377 Y28.71
G1 X18.931 Y29.173
G1 X18.454 Y29.602
G1 X17.948 Y29.998
G1 X17.419 Y30.363
G1 X16.87 Y30.695
G1 X16.303 Y30.997
G1 X15.721 Y31.269
G1 X15.127 Y31.512
G1 X14.522 Y31.727
G1 X13.908 Y31.915
G1 X13.287 Y32.077
G1 X12.659 Y32.214
G1 X12.027 Y32.326
G1 X11.39 Y32.413
G1 X10.752 Y32.478
G1 X10.111 Y32.521
G1 X9.469 Y32.542
G1 X8.827
G1 X8.185 Y32.521
G1 X7.544 Y32.48
G1 X6.905 Y32.42
G1 X6.267 Y32.34
G1 X5.633 Y32.242
G1 X5.002 Y32.124
G1 X4.374 Y31.989
G1 X3.746 Y31.855
G1 X3.202 Y31.713
G1 X2.97 Y31.65
; MOVEMENT_LEAD_OUT
G1 X2.924 Y31.632 F180
G1 X2.883 Y31.607
G1 X2.845 Y31.576
G1 X2.813 Y31.54
G1 X2.786 Y31.499
G1 X2.766 Y31.455
G1 X2.754 Y31.408
G1 X2.748 Y31.36
G1 X2.75 Y31.311
G1 X2.759 Y31.263
G1 X2.776 Y31.217
G1 X2.799 Y31.175
G1 X2.828 Y31.136
G1 X2.863 Y31.102
G1 X2.903 Y31.074
G1 X2.951 Y31.046
; MOVEMENT_LINK_DIRECT
G1 X18.407 Y21.871 F480
; MOVEMENT_LEAD_IN
G1 X19.021 Y21.507 F180
G1 X19.053 Y21.49
G1 X19.086 Y21.478
; MOVEMENT_CUTTING
G1 X19.151 Y21.471 F480
G1 X19.297 Y21.461
G1 X19.588 Y21.433
G1 X19.734 Y21.414
G1 X19.88 Y21.382
G1 X19.924 Y21.369
G1 X20.022 Y21.346
G1 X20.171 Y21.34
G1 X20.321 Y21.355
G1 X20.467 Y21.388
G1 X20.609 Y21.436
G1 X20.746 Y21.498
G1 X20.878 Y21.571
G1 X21.018 Y21.665
G1 X21.163 Y21.779
G1 X21.304 Y21.91
G1 X21.452 Y22.071
G1 X21.591 Y22.25
G1 X21.728 Y22.46
G1 X21.862 Y22.705
G1 X21.979 Y22.966
G1 X22.084 Y23.261
G1 X22.173 Y23.598
G1 X22.239 Y23.964
G1 X22.278 Y24.351
G1 X22.286 Y24.781
G1 X22.257 Y25.245
G1 X22.186 Y25.743
G1 X22.071 Y26.247
G1 X21.907 Y26.774
G1 X21.68 Y27.335
G1 X21.393 Y27.91
G1 X21.062 Y28.46
G1 X20.691 Y28.984
G1 X20.285 Y29.481
G1 X19.846 Y29.95
G1 X19.378 Y30.39
G1 X18.883 Y30.8
G1 X18.366 Y31.18
G1 X17.829 Y31.532
G1 X17.274 Y31.855
G1 X16.704 Y32.151
G1 X16.121 Y32.42
G1 X15.526 Y32.663
G1 X14.845 Y32.904
G1 X14.232 Y33.093
G1 X13.611 Y33.258
G1 X12.984 Y33.399
G1 X12.353 Y33.517
G1 X11.718 Y33.612
G1 X11.08 Y33.685
G1 X10.44 Y33.737
G1 X9.799 Y33.768
G1 X9.156 Y33.779
G1 X8.514 Y33.77
G1 X7.873 Y33.742
G1 X7.232 Y33.694
G1 X6.593 Y33.629
G1 X5.957 Y33.545
G1 X5.323 Y33.443
G1 X4.059 Y33.213
G1 X3.824 Y33.161
G1 X3.589 Y33.107
G1 X3.433 Y33.07
G1 X3.273 Y33.065
G1 X3.114 Y33.092
G1 X2.965 Y33.151
G1 X2.83 Y33.238
G1 X2.716 Y33.351
G1 X2.627 Y33.484
G1 X2.566 Y33.633
G1 X2.537 Y33.791
G1 X2.54 Y33.951
G1 X2.575 Y34.108
G1 X2.641 Y34.254
G1 X2.735 Y34.384
G1 X2.853 Y34.493
G1 X2.991 Y34.575
G1 X3.143 Y34.628
G1 X3.779 Y34.714
G1 X4.412 Y34.606
G1 X5.054 Y34.584
G1 X5.696 Y34.583
G1 X6.98 Y34.588
G1 X8.265 Y34.59
G1 X12.118 Y34.591
G1 X23.035
G1 X34.113
G1 X34.27 Y34.558
G1 X34.418 Y34.495
G1 X34.549 Y34.403
G1 X34.66 Y34.287
G1 X34.745 Y34.151
G1 X34.801 Y34
G1 X34.85 Y33.683
G1 X34.738 Y33.05
G1 X34.675 Y32.411
G1 X34.64 Y31.77
G1 X34.62 Y31.128
G1 X34.609 Y30.486
G1 X34.602 Y29.844
G1 X34.599 Y29.202
G1 X34.596 Y27.917
G1 X34.595 Y24.706
G1 X34.601 Y3.996
G1 X34.568 Y3.839
G1 X34.505 Y3.691
G1 X34.413 Y3.559
G1 X34.297 Y3.449
G1 X34.161 Y3.364
G1 X34.01 Y3.308
G1 X33.376 Y3.21
G1 X32.739 Y3.296
G1 X32.099 Y3.345
G1 X31.457 Y3.372
G1 X30.815 Y3.388
G1 X30.173 Y3.397
G1 X29.531 Y3.402
G1 X28.889 Y3.405
G1 X27.605 Y3.407
G1 X26.962 Y3.408
G1 X21.745
; MOVEMENT_LEAD_OUT
G1 X21.301 Y3.552 F180
G1 X21.096 Y3.796
; MOVEMENT_LINK_DIRECT
G1 X20.9 Y4.029 F480
G1 X13.143 Y17.251
G1 X13.029 Y17.525
G1 X12.984 Y17.636
G1 X12.945 Y17.749
G1 X12.911 Y17.864
G1 X12.883 Y17.98
G1 X12.705 Y19.291
G1 X12.744 Y20.749
G1 X13.029 Y21.923
G1 X13.801 Y23.226
G1 X14.578 Y23.955
G1 X14.681 Y24.051
G1 X14.79 Y24.141
G1 X14.904 Y24.225
G1 X15.022 Y24.302
G1 X15.144 Y24.373
G1 X15.27 Y24.436
G1 X15.399 Y24.492
G1 X15.532 Y24.541
G1 X15.667 Y24.583
G1 X15.804 Y24.616
G1 X15.943 Y24.642
G1 X16.083 Y24.66
G1 X16.223 Y24.67
G1 X16.364 Y24.672
G1 X16.505 Y24.666
G1 X16.646 Y24.653
G1 X16.785 Y24.631
G1 X16.923 Y24.601
G1 X17.059 Y24.564
G1 X17.193 Y24.519
G1 X17.324 Y24.467
G1 X17.452 Y24.407
G1 X17.576 Y24.34
G1 X17.697 Y24.266
G1 X17.813 Y24.186
G1 X17.924 Y24.099
G1 X18.03 Y24.006
G1 X18.131 Y23.907
G1 X18.226 Y23.803
G1 X18.315 Y23.693
G1 X18.398 Y23.579
G1 X18.474 Y23.46
G1 X18.543 Y23.337
G1 X18.605 Y23.211
G1 X18.66 Y23.081
G1 X18.919 Y22.352
G1 X18.959 Y22.248
G1 X19.007 Y22.148
G1 X19.062 Y22.051
G1 X19.123 Y21.958
G1 X19.19 Y21.869
G1 X19.264 Y21.786
; MOVEMENT_LEAD_IN
G1 X19.321 Y21.729 F180
G1 X19.38 Y21.675
G1 X19.442 Y21.624
G1 X19.924 Y21.369
; MOVEMENT_CUTTING
G1 X20.025 Y21.34 F480
G1 X20.171 Y21.285
G1 X20.317 Y21.226
G1 X20.384 Y21.186
G1 X20.479 Y21.135
G1 X20.62 Y21.083
G1 X20.768 Y21.056
G1 X20.918 Y21.05
G1 X21.067 Y21.062
G1 X21.215 Y21.089
G1 X21.359 Y21.131
G1 X21.503 Y21.186
G1 X21.652 Y21.258
G1 X21.814 Y21.351
G1 X21.972 Y21.461
G1 X22.14 Y21.598
G1 X22.306 Y21.758
G1 X22.469 Y21.943
G1 X22.636 Y22.165
G1 X22.791 Y22.412
G1 X22.936 Y22.689
G1 X23.073 Y23.009
G1 X23.192 Y23.368
G1 X23.285 Y23.744
G1 X23.354 Y24.168
G1 X23.392 Y24.64
G1 X23.393 Y25.149
G1 X23.35 Y25.681
G1 X23.263 Y26.224
G1 X23.119 Y26.81
G1 X22.916 Y27.42
G1 X22.667 Y28.012
G1 X22.374 Y28.583
G1 X22.044 Y29.134
G1 X21.678 Y29.662
G1 X21.28 Y30.166
G1 X20.851 Y30.644
G1 X20.394 Y31.095
G1 X20.153 Y31.307
G1 X20.031 Y31.411
G1 X18.972 Y32.272
G1 X18.438 Y32.629
G1 X18.3 Y32.711
G1 X17.673 Y33.069
G1 X17.099 Y33.359
G1 X16.514 Y33.623
G1 X16.365 Y33.682
; MOVEMENT_LEAD_OUT
G1 X16.319 Y33.695 F180
G1 X16.271 Y33.7
G1 X16.224 Y33.699
G1 X16.177 Y33.69
G1 X16.132 Y33.674
G1 X16.089 Y33.652
G1 X16.051 Y33.624
G1 X16.017 Y33.59
G1 X15.989 Y33.551
G1 X15.967 Y33.509
G1 X15.951 Y33.464
G1 X15.942 Y33.417
G1 X15.941 Y33.369
G1 X15.947 Y33.322
G1 X15.959 Y33.275
G1 X15.982 Y33.212
; MOVEMENT_LINK_DIRECT
G1 X20.062 Y21.89 F480
; MOVEMENT_LEAD_IN
G1 X20.259 Y21.344 F180
G1 X20.275 Y21.307
G1 X20.297 Y21.272
G1 X20.322 Y21.239
G1 X20.352 Y21.211
G1 X20.384 Y21.186
; MOVEMENT_CUTTING
G1 X20.463 Y21.139 F480
G1 X20.601 Y21.04
G1 X20.754 Y20.909
G1 X20.769 Y20.895
G1 X20.79 Y20.87
G1 X20.853 Y20.806
G1 X20.976 Y20.72
G1 X21.113 Y20.658
G1 X21.257 Y20.617
G1 X21.405 Y20.594
G1 X21.555 Y20.587
G1 X21.705 Y20.595
G1 X21.856 Y20.617
G1 X22.009 Y20.652
G1 X22.179 Y20.705
G1 X22.353 Y20.775
G1 X22.534 Y20.865
G1 X22.728 Y20.983
G1 X22.916 Y21.119
G1 X23.112 Y21.285
G1 X23.314 Y21.487
G1 X23.504 Y21.71
G1 X23.693 Y21.972
G1 X23.877 Y22.276
G1 X24.048 Y22.617
G1 X24.195 Y22.981
G1 X24.326 Y23.398
G1 X24.432 Y23.867
G1 X24.506 Y24.38
G1 X24.54 Y24.915
G1 X24.53 Y25.474
G1 X24.471 Y26.08
G1 X24.357 Y26.712
G1 X24.194 Y27.333
G1 X23.986 Y27.941
G1 X23.738 Y28.533
G1 X23.452 Y29.108
G1 X23.13 Y29.664
G1 X22.776 Y30.199
G1 X22.39 Y30.713
G1 X21.976 Y31.203
G1 X21.866 Y31.32
G1 X20.973 Y32.244
G1 X20.489 Y32.665
G1 X20.365 Y32.768
G1 X19.867 Y33.174
G1 X19.605 Y33.359
G1 X19.472 Y33.448
G1 X19.404 Y33.492
; MOVEMENT_LEAD_OUT
G1 X19.362 Y33.513 F180
G1 X19.316 Y33.528
G1 X19.269 Y33.536
G1 X19.221
G1 X19.174 Y33.53
G1 X19.128 Y33.516
G1 X19.085 Y33.496
G1 X19.045 Y33.469
G1 X19.01 Y33.437
G1 X18.98 Y33.4
G1 X18.956 Y33.359
G1 X18.938 Y33.315
G1 X18.927 Y33.268
G1 X18.924 Y33.221
G1 X18.927 Y33.173
G1 X18.937 Y33.105
; MOVEMENT_LINK_DIRECT
G1 X20.632 Y21.633 F480
; MOVEMENT_LEAD_IN
G1 X20.722 Y21.025 F180
G1 X20.731 Y20.983
G1 X20.746 Y20.943
G1 X20.766 Y20.905
G1 X20.79 Y20.87
; MOVEMENT_CUTTING
G1 X20.9 Y20.745 F480
G1 X20.988 Y20.603
G1 X21.02 Y20.533
G1 X21.062 Y20.449
G1 X21.151 Y20.328
G1 X21.262 Y20.227
G1 X21.388 Y20.145
G1 X21.523 Y20.081
G1 X21.665 Y20.033
G1 X21.811 Y20
G1 X21.96 Y19.98
G1 X22.115 Y19.973
G1 X22.283 Y19.979
G1 X22.456 Y20
G1 X22.648 Y20.038
G1 X22.846 Y20.095
G1 X23.053 Y20.172
G1 X23.276 Y20.276
G1 X23.499 Y20.403
G1 X23.725 Y20.558
G1 X23.963 Y20.75
G1 X24.201 Y20.976
G1 X24.427 Y21.228
G1 X24.652 Y21.524
G1 X24.872 Y21.867
G1 X25.078 Y22.254
G1 X25.257 Y22.666
G1 X25.418 Y23.136
G1 X25.55 Y23.656
G1 X25.646 Y24.22
G1 X25.7 Y24.829
G1 X25.705 Y25.471
G1 X25.658 Y26.111
G1 X25.562 Y26.746
G1 X25.421 Y27.373
G1 X25.238 Y27.988
G1 X25.017 Y28.591
G1 X24.76 Y29.18
G1 X24.47 Y29.753
G1 X24.148 Y30.309
G1 X23.797 Y30.846
G1 X23.418 Y31.364
G1 X23.01 Y31.86
G1 X22.603 Y32.357
G1 X22.385 Y32.593
G1 X22.274 Y32.709
G1 X21.763 Y33.219
G1 X21.582 Y33.379
; MOVEMENT_LEAD_OUT
G1 X21.543 Y33.406 F180
G1 X21.5 Y33.427
G1 X21.455 Y33.442
G1 X21.408 Y33.449
G1 X21.361
G1 X21.314 Y33.443
G1 X21.268 Y33.429
G1 X21.225 Y33.409
G1 X21.185 Y33.382
G1 X21.15 Y33.35
G1 X21.12 Y33.313
G1 X21.096 Y33.272
G1 X21.079 Y33.228
G1 X21.068 Y33.182
G1 X21.064 Y33.134
G1 Y33.063
; MOVEMENT_LINK_DIRECT
G1 X21 Y21.315 F480
; MOVEMENT_LEAD_IN
G1 X20.996 Y20.654 F180
G1 X20.999 Y20.613
G1 X21.007 Y20.572
G1 X21.02 Y20.533
; MOVEMENT_CUTTING
G1 X21.046 Y20.475 F480
G1 X21.053 Y20.457
G1 X21.103 Y20.312
G1 X21.141 Y20.166
G1 X21.147 Y20.122
G1 X21.163 Y20.033
G1 X21.215 Y19.892
G1 X21.295 Y19.765
G1 X21.394 Y19.652
G1 X21.507 Y19.554
G1 X21.631 Y19.47
G1 X21.764 Y19.4
G1 X21.902 Y19.342
G1 X22.045 Y19.297
G1 X22.206 Y19.26
G1 X22.375 Y19.236
G1 X22.562 Y19.224
G1 X22.767 Y19.227
G1 X22.977 Y19.247
G1 X23.204 Y19.288
G1 X23.45 Y19.353
G1 X23.697 Y19.439
G1 X23.957 Y19.555
G1 X24.231 Y19.704
G1 X24.509 Y19.886
G1 X24.78 Y20.095
G1 X25.059 Y20.35
G1 X25.341 Y20.651
G1 X25.615 Y20.997
G1 X25.867 Y21.373
G1 X26.104 Y21.797
G1 X26.325 Y22.278
G1 X26.521 Y22.815
G1 X26.684 Y23.406
G1 X26.804 Y24.037
G1 X26.875 Y24.675
G1 X26.895 Y25.317
G1 X26.868 Y25.959
G1 X26.797 Y26.597
G1 X26.684 Y27.229
G1 X26.532 Y27.853
G1 X26.345 Y28.467
G1 X26.123 Y29.07
G1 X25.869 Y29.66
G1 X25.585 Y30.236
G1 X25.272 Y30.796
G1 X24.93 Y31.34
G1 X24.561 Y31.866
G1 X24.193 Y32.392
G1 X23.994 Y32.645
G1 X23.892 Y32.768
G1 X23.481 Y33.261
G1 X23.426 Y33.32
; MOVEMENT_LEAD_OUT
G1 X23.387 Y33.352 F180
G1 X23.344 Y33.378
G1 X23.298 Y33.397
G1 X23.249 Y33.408
G1 X23.199 Y33.412
G1 X23.149 Y33.407
G1 X23.1 Y33.395
G1 X23.054 Y33.375
G1 X23.011 Y33.348
G1 X22.974 Y33.314
G1 X22.942 Y33.276
G1 X22.916 Y33.232
G1 X22.898 Y33.185
G1 X22.888 Y33.136
G1 X22.877 Y33.056
; MOVEMENT_LINK_DIRECT
G1 X21.243 Y20.901 F480
; MOVEMENT_LEAD_IN
G1 X21.148 Y20.195 F180
G1 X21.146 Y20.158
G1 X21.147 Y20.122
; MOVEMENT_CUTTING
G1 X21.161 Y20.02 F480
G1 X21.165 Y19.874
G1 X21.162 Y19.783
G1 X21.16 Y19.765
G1 X21.099 Y19.503
G1 X21.073 Y19.355
G1 X21.078 Y19.28
G1 X21.102 Y19.132
G1 X21.195 Y19.015
G1 X21.3 Y18.908
G1 X21.413 Y18.81
G1 X21.537 Y18.72
G1 X21.68 Y18.632
G1 X21.839 Y18.552
G1 X22.009 Y18.483
G1 X22.201 Y18.422
G1 X22.412 Y18.373
G1 X22.632 Y18.34
G1 X22.873 Y18.325
G1 X23.134 Y18.328
G1 X23.407 Y18.354
G1 X23.689 Y18.404
G1 X23.991 Y18.483
G1 X24.308 Y18.593
G1 X24.632 Y18.736
G1 X24.952 Y18.909
G1 X25.285 Y19.126
G1 X25.627 Y19.389
G1 X25.966 Y19.698
G1 X26.297 Y20.05
G1 X26.605 Y20.436
G1 X26.903 Y20.879
G1 X27.185 Y21.381
G1 X27.445 Y21.944
G1 X27.666 Y22.547
G1 X27.84 Y23.165
G1 X27.968 Y23.795
G1 X28.05 Y24.431
G1 X28.087 Y25.073
G1 X28.081 Y25.715
G1 X28.035 Y26.355
G1 X27.951 Y26.992
G1 X27.83 Y27.623
G1 X27.675 Y28.246
G1 X27.488 Y28.86
G1 X27.27 Y29.464
G1 X27.023 Y30.057
G1 X26.747 Y30.637
G1 X26.443 Y31.203
G1 X26.113 Y31.753
G1 X25.784 Y32.305
G1 X25.605 Y32.571
G1 X25.513 Y32.703
G1 X25.278 Y33.028
G1 X25.132 Y33.22
; MOVEMENT_LEAD_OUT
G1 X25.097 Y33.255 F180
G1 X25.057 Y33.285
G1 X25.013 Y33.308
G1 X24.966 Y33.324
G1 X24.917 Y33.333
G1 X24.867 Y33.334
G1 X24.818 Y33.327
G1 X24.77 Y33.312
G1 X24.726 Y33.29
G1 X24.685 Y33.261
G1 X24.649 Y33.227
G1 X24.619 Y33.187
G1 X24.596 Y33.143
G1 X24.58 Y33.096
G1 X24.558 Y33.011
; MOVEMENT_LINK_DIRECT
G1 X21.294 Y20.264 F480
; MOVEMENT_LEAD_IN
G1 X21.099 Y19.503 F180
; MOVEMENT_CUTTING
G1 X21.084 Y19.437 F480
G1 X21.046 Y19.288
G1 X21.022 Y19.217
G1 X21.011 Y19.181
G1 X21.005 Y19.146
G1 X21.002 Y19.109
G1 Y19.073
G1 X21.01 Y19
G1 X21.016 Y18.927
G1 X21.021 Y18.891
G1 X21.03 Y18.854
G1 X21.046 Y18.803
G1 X21.068 Y18.709
G1 X21.087 Y18.563
G1 X21.091 Y18.417
G1 X21.08 Y18.271
G1 X21.052 Y18.126
G1 X21.046 Y18.103
G1 X21.001 Y17.98
G1 X20.936 Y17.834
G1 X20.9 Y17.773
G1 X20.715 Y17.508
G1 X20.514 Y17.314
