;Fusion 360 CAM 2.0.7046
; Posts processor: DIYCNC_Marlin20.cps
; Gcode generated: Sat Jan 18 14:32:00 2020 GMT
; Document: Untitled
; Setup: Setup1
; 
; Ranges table:
; X: Min=2.42 Max=186.612 Size=184.191
; Y: Min=2.464 Max=24.617 Size=22.153
; Z: Min=-5 Max=5 Size=10
; 
; Tools table:
; T1 D=3.175 CR=0 TAPER=22.5deg - ZMIN=-5 - chamfer mill 

; *** START begin ***
G90
G21
M84 S0
G92 X0 Y0 Z0
; *** START end ***

; *** SECTION begin ***
;Engrave1 - Milling - Tool: 1 -  chamfer mill
; X Min: 2.42 - X Max: 186.612
; Y Min: 2.464 - Y Max: 24.617
; Z Min: -5 - Z Max: 5
; COMMAND_START_SPINDLE
; COMMAND_SPINDLE_CLOCKWISE
;M0 Turn ON 24000RPM
; COMMAND_COOLANT_ON
;M117  Engrave1
; MOVEMENT_LEAD_IN
G1 X110.585 Y14.158 Z5 F180
G1 Z0
; MOVEMENT_CUTTING
G1 X110.587 Y14.152 Z-0.014 F480
G1 X110.63 Y14.072 Z-0.201
G1 X110.68 Y13.994 Z-0.385
G1 X110.737 Y13.917 Z-0.565
G1 X110.785 Y13.858 Z-0.702
G1 X110.854 Y13.78 Z-0.883
G1 X110.857 Y13.776
G1 X110.903 Y13.729
G1 X110.857 Y13.684
G1 X110.856 Y13.683
G1 X110.791 Y13.615 Z-0.71
G1 X110.729 Y13.543 Z-0.527
G1 X110.671 Y13.47 Z-0.342
G1 X110.62 Y13.393 Z-0.147
G1 X110.593 Y13.346 Z-0.031
G1 X110.587 Y13.333 Z0
G1 X110.593 Y13.346 Z-0.031
G1 X110.62 Y13.393 Z-0.147
G1 X110.671 Y13.47 Z-0.342
G1 X110.729 Y13.543 Z-0.527
G1 X110.791 Y13.615 Z-0.71
G1 X110.856 Y13.683 Z-0.883
G1 X110.857 Y13.684
G1 X110.903 Y13.729
G1 X111.065 Y13.719
G1 X111.276 Y13.705
G1 X111.436 Y13.691
G1 X111.587 Y13.674
G1 X111.734 Y13.653
G1 X111.854 Y13.631
G1 X111.946 Y13.612
G1 X112.042 Y13.588
G1 X112.1 Y13.572
G1 X112.212 Y13.536
G1 X112.32 Y13.497
G1 X112.404 Y13.462
G1 X112.476 Y13.43
G1 X112.541 Y13.397
G1 X112.601 Y13.365
G1 X112.727 Y13.294
G1 X112.854 Y13.212
G1 X112.979 Y13.266
G1 X113.181 Y13.348
G1 X113.345 Y13.409
G1 X113.463 Y13.449
G1 X113.564 Y13.481
G1 X113.743 Y13.531
G1 X113.921 Y13.574
G1 X114.089 Y13.608
G1 X114.257 Y13.636
G1 X114.424 Y13.659
G1 X114.593 Y13.679
G1 X114.767 Y13.695
G1 X114.947 Y13.709
G1 X115.21 Y13.726
G1 X115.236 Y13.727
G1 X115.285 Y13.779
G1 X115.29 Y13.785 Z-0.87
G1 X115.368 Y13.873 Z-0.664
G1 X115.402 Y13.917 Z-0.564
G1 X115.459 Y13.994 Z-0.384
G1 X115.506 Y14.066 Z-0.216
G1 X115.552 Y14.152 Z-0.014
G1 X115.554 Y14.157 Z-0.001
G1 X115.552 Y14.152 Z-0.014
G1 X115.506 Y14.066 Z-0.216
G1 X115.459 Y13.994 Z-0.384
G1 X115.402 Y13.917 Z-0.564
G1 X115.368 Y13.873 Z-0.664
G1 X115.29 Y13.785 Z-0.87
G1 X115.285 Y13.779 Z-0.883
G1 X115.236 Y13.727
G1 X115.28 Y13.684
G1 X115.283 Y13.681
G1 X115.346 Y13.616 Z-0.715
G1 X115.408 Y13.544 Z-0.531
G1 X115.466 Y13.471 Z-0.346
G1 X115.518 Y13.393 Z-0.15
G1 X115.545 Y13.346 Z-0.033
G1 X115.552 Y13.333 Z-0.001
G1 X115.545 Y13.346 Z-0.033
G1 X115.518 Y13.393 Z-0.15
G1 X115.466 Y13.471 Z-0.346
G1 X115.408 Y13.544 Z-0.531
G1 X115.346 Y13.616 Z-0.715
G1 X115.283 Y13.681 Z-0.883
G1 X115.28 Y13.684
G1 X115.236 Y13.727
G1 X115.21 Y13.726
G1 X114.947 Y13.709
G1 X114.767 Y13.695
G1 X114.593 Y13.679
G1 X114.424 Y13.659
G1 X114.257 Y13.636
G1 X114.089 Y13.608
G1 X113.921 Y13.574
G1 X113.743 Y13.531
G1 X113.564 Y13.481
G1 X113.463 Y13.449
G1 X113.345 Y13.409
G1 X113.181 Y13.348
G1 X112.979 Y13.266
G1 X112.854 Y13.212
G1 X112.837 Y13.116
G1 X112.827 Y13.064
G1 X112.814 Y13.004
G1 X112.778 Y12.851
G1 X112.758 Y12.775
G1 X112.718 Y12.641
G1 X112.699 Y12.582
G1 X112.645 Y12.432
G1 X112.637 Y12.409
G1 X112.571 Y12.244
G1 X112.561 Y12.221
G1 X112.5 Y12.079
G1 X112.419 Y11.903
G1 X112.332 Y11.726
G1 X112.231 Y11.525
G1 X112.094 Y11.264
G1 X112.004 Y11.097
G1 X111.614 Y10.388
G1 X111.393 Y9.996
G1 X111.218 Y9.69
G1 X110.976 Y9.277
G1 X110.693 Y8.808
G1 X110.44 Y8.401
G1 X110.163 Y7.968
G1 X109.928 Y7.609
G1 X109.682 Y7.242
G1 X109.649 Y7.196
G1 X109.613 Y7.152
G1 X109.559 Y7.094
G1 X109.499 Y7.039
G1 X109.434 Y6.987
G1 X108.887 Y6.586
G1 X108.791 Y6.665
G1 X108.706 Y6.744
G1 X108.627 Y6.828
G1 X108.553 Y6.916
G1 X108.521 Y6.957
G1 X108.129 Y7.49
G1 X107.508 Y8.348
G1 X107.046 Y8.997
G1 X106.664 Y9.54
G1 X106.427 Y9.88
G1 X106.047 Y10.431
G1 X105.704 Y10.937
G1 X105.407 Y11.385
G1 X105.208 Y11.692
G1 X105.072 Y11.911
G1 X105.008 Y12.019
G1 X104.889 Y12.24
G1 X104.615 Y12.738
G1 X104.584 Y12.754
G1 X104.305 Y13.271
G1 X104.294 Y13.291
G1 X104.174 Y13.511
G1 X104.023 Y13.796
G1 X103.864 Y14.11
G1 X103.775 Y14.295
G1 X103.632 Y14.605
G1 X103.563 Y14.765
G1 X103.5 Y14.917
G1 X103.419 Y15.121
G1 X103.335 Y15.352
G1 X103.288 Y15.494
G1 X103.245 Y15.635
G1 X103.207 Y15.765
G1 X103.173 Y15.902
G1 X103.144 Y16.027
G1 X103.138 Y16.056
G1 X103.114 Y16.18
G1 X103.097 Y16.292
G1 X103.08 Y16.422
G1 X103.069 Y16.541
G1 X103.062 Y16.655
G1 X103.06 Y16.745
G1 Y16.788
G1 X103.063 Y16.889
G1 X103.072 Y17.027
G1 X103.077 Y17.07
G1 X103.09 Y17.167
G1 X103.115 Y17.316
G1 X103.137 Y17.413
G1 X103.151 Y17.47
G1 X103.191 Y17.614
G1 X103.251 Y17.789
G1 X103.28 Y17.865
G1 X103.303 Y17.921
G1 X103.384 Y18.096
G1 X103.482 Y18.279
G1 X103.506 Y18.319
G1 X103.584 Y18.443
G1 X103.634 Y18.517
G1 X103.699 Y18.607
G1 X103.776 Y18.705
G1 X103.806 Y18.743
G1 X103.919 Y18.871
G1 X103.958 Y18.912
G1 X104.076 Y19.029
G1 X104.106 Y19.057
G1 X104.228 Y19.163
G1 X104.303 Y19.225
G1 X104.39 Y19.291
G1 X104.495 Y19.365
G1 X104.548 Y19.4
G1 X104.703 Y19.497
G1 X104.87 Y19.586
G1 X104.93 Y19.616
G1 X105.025 Y19.659
G1 X105.174 Y19.723
G1 X105.333 Y19.779
G1 X105.438 Y19.813
G1 X105.481 Y19.825
G1 X105.629 Y19.862
G1 X105.72 Y19.882
G1 X105.77 Y19.891
G1 X105.908 Y19.912
G1 X106.02 Y19.925
G1 X106.042 Y19.927
G1 X106.174 Y19.932
G1 X106.336 Y19.933
G1 X106.516 Y19.923
G1 X106.678 Y19.905
G1 X106.765 Y19.892
G1 X106.839 Y19.878
G1 X106.972 Y19.849
G1 X106.995 Y19.843
G1 X107.15 Y19.798
G1 X107.3 Y19.745
G1 X107.338 Y19.73
G1 X107.448 Y19.682
G1 X107.54 Y19.639
G1 X107.595 Y19.61
G1 X107.709 Y19.545
G1 X107.74 Y19.526
G1 X107.867 Y19.441
G1 X107.876 Y19.435
G1 X108.008 Y19.334
G1 X108.14 Y19.219
G1 X108.264 Y19.096
G1 X108.381 Y18.964
G1 X108.481 Y18.833
G1 X108.489 Y18.822
G1 X108.568 Y18.704
G1 X108.592 Y18.665
G1 X108.645 Y18.573
G1 X108.703 Y18.462
G1 X108.76 Y18.338
G1 X108.819 Y18.184
G1 X108.828 Y18.157
G1 X108.86 Y18.053
G1 X108.89 Y17.934
G1 X108.919 Y17.79
G1 X108.937 Y17.655
G1 X108.943 Y17.592
G1 X108.949 Y17.517
G1 X108.952 Y17.392
G1 X108.948 Y17.27
G1 X108.938 Y17.161
G1 X108.916 Y17.036
G1 X108.892 Y16.929
G1 X108.884 Y16.9
G1 X108.853 Y16.795
G1 X108.785 Y16.602
G1 X108.709 Y16.425
G1 X108.704 Y16.414
G1 X108.622 Y16.249
G1 X108.609 Y16.224
G1 X108.519 Y16.064
G1 X108.509 Y16.046
G1 X108.401 Y15.875
G1 X108.274 Y15.688
G1 X108.143 Y15.512
G1 X108.004 Y15.338
G1 X107.858 Y15.168
G1 X107.786 Y15.087
G1 X107.705 Y14.998
G1 X107.598 Y14.886
G1 X107.541 Y14.828
G1 X107.399 Y14.687
G1 X107.195 Y14.496
G1 X107.007 Y14.33
G1 X106.815 Y14.168
G1 X106.8 Y14.155
G1 X106.613 Y14.006
G1 X106.491 Y13.911
G1 X106.406 Y13.846
G1 X106.241 Y13.725
G1 X105.982 Y13.543
G1 X105.737 Y13.379
G1 X105.499 Y13.229
G1 X105.468 Y13.21
G1 X105.437 Y13.192
G1 X104.615 Y12.738
G1 X105.437 Y13.192
G1 X105.468 Y13.21
G1 X105.499 Y13.229
G1 X105.737 Y13.379
G1 X105.982 Y13.543
G1 X106.241 Y13.725
G1 X106.406 Y13.846
G1 X106.491 Y13.911
G1 X106.613 Y14.006
G1 X106.8 Y14.155
G1 X106.815 Y14.168
G1 X107.007 Y14.33
G1 X107.195 Y14.496
G1 X107.399 Y14.687
G1 X107.541 Y14.828
G1 X107.598 Y14.886
G1 X107.705 Y14.998
G1 X107.786 Y15.087
G1 X107.858 Y15.168
G1 X108.004 Y15.338
G1 X108.143 Y15.512
G1 X108.274 Y15.688
G1 X108.401 Y15.875
G1 X108.509 Y16.046
G1 X108.519 Y16.064
G1 X108.609 Y16.224
G1 X108.622 Y16.249
G1 X108.704 Y16.414
G1 X108.709 Y16.425
G1 X108.785 Y16.602
G1 X108.853 Y16.795
G1 X108.884 Y16.9
G1 X108.892 Y16.929
G1 X108.916 Y17.036
G1 X108.938 Y17.161
G1 X108.948 Y17.27
G1 X108.952 Y17.392
G1 X108.949 Y17.517
G1 X108.943 Y17.592
G1 X108.937 Y17.655
G1 X108.919 Y17.79
G1 X108.89 Y17.934
G1 X108.86 Y18.053
G1 X108.828 Y18.157
G1 X108.819 Y18.184
G1 X108.76 Y18.338
G1 X108.703 Y18.462
G1 X108.645 Y18.573
G1 X108.592 Y18.665
G1 X108.568 Y18.704
G1 X108.489 Y18.822
G1 X108.481 Y18.833
G1 X108.381 Y18.964
G1 X108.264 Y19.096
G1 X108.14 Y19.219
G1 X108.008 Y19.334
G1 X107.876 Y19.435
G1 X107.867 Y19.441
G1 X107.74 Y19.526
G1 X107.709 Y19.545
G1 X107.595 Y19.61
G1 X107.54 Y19.639
G1 X107.448 Y19.682
G1 X107.338 Y19.73
G1 X107.3 Y19.745
G1 X107.15 Y19.798
G1 X106.995 Y19.843
G1 X106.972 Y19.849
G1 X106.839 Y19.878
G1 X106.765 Y19.892
G1 X106.678 Y19.905
G1 X106.516 Y19.923
G1 X106.336 Y19.933
G1 X106.174 Y19.932
G1 X106.042 Y19.927
G1 X106.02 Y19.925
G1 X105.908 Y19.912
G1 X105.77 Y19.891
G1 X105.72 Y19.882
G1 X105.629 Y19.862
G1 X105.481 Y19.825
G1 X105.438 Y19.813
G1 X105.333 Y19.779
G1 X105.174 Y19.723
G1 X105.025 Y19.659
G1 X104.93 Y19.616
G1 X104.87 Y19.586
G1 X104.703 Y19.497
G1 X104.548 Y19.4
G1 X104.495 Y19.365
G1 X104.39 Y19.291
G1 X104.303 Y19.225
G1 X104.228 Y19.163
G1 X104.106 Y19.057
G1 X104.076 Y19.029
G1 X103.958 Y18.912
G1 X103.919 Y18.871
G1 X103.806 Y18.743
G1 X103.776 Y18.705
G1 X103.699 Y18.607
G1 X103.634 Y18.517
G1 X103.584 Y18.443
G1 X103.506 Y18.319
G1 X103.482 Y18.279
G1 X103.384 Y18.096
G1 X103.303 Y17.921
G1 X103.28 Y17.865
G1 X103.251 Y17.789
G1 X103.191 Y17.614
G1 X103.151 Y17.47
G1 X103.137 Y17.413
G1 X103.115 Y17.316
G1 X103.09 Y17.167
G1 X103.077 Y17.07
G1 X103.072 Y17.027
G1 X103.063 Y16.889
G1 X103.06 Y16.788
G1 Y16.745
G1 X103.062 Y16.655
G1 X103.069 Y16.541
G1 X103.08 Y16.422
G1 X103.097 Y16.292
G1 X103.114 Y16.18
G1 X103.138 Y16.056
G1 X103.144 Y16.027
G1 X103.173 Y15.902
G1 X103.207 Y15.765
G1 X103.245 Y15.635
G1 X103.288 Y15.494
G1 X103.335 Y15.352
G1 X103.419 Y15.121
G1 X103.5 Y14.917
G1 X103.563 Y14.765
G1 X103.632 Y14.605
G1 X103.775 Y14.295
G1 X103.864 Y14.11
G1 X104.023 Y13.796
G1 X104.174 Y13.511
G1 X104.294 Y13.291
G1 X104.305 Y13.271
G1 X104.584 Y12.754
G1 X103.762 Y12.279
G1 X103.756 Y12.275
G1 X103.398 Y12.07
G1 X103.311 Y12.019
G1 X103.055 Y11.864
G1 X102.897 Y11.765
G1 X102.73 Y11.659
G1 X102.425 Y11.454
G1 X102.138 Y11.25
G1 X101.865 Y11.043
G1 X101.807 Y10.997
G1 X101.609 Y10.835
G1 X101.496 Y10.739
G1 X101.369 Y10.627
G1 X101.168 Y10.44
G1 X101.142 Y10.415
G1 X100.927 Y10.197
G1 X100.717 Y9.966
G1 X100.539 Y9.749
G1 X100.508 Y9.711
G1 X100.365 Y9.518
G1 X100.323 Y9.459
G1 X100.202 Y9.278
G1 X100.16 Y9.213
G1 X100.056 Y9.037
G1 X100.019 Y8.972
G1 X99.919 Y8.783
G1 X99.897 Y8.738
G1 X99.801 Y8.529
G1 X99.793 Y8.511
G1 X99.696 Y8.266
G1 X99.623 Y8.046
G1 X99.609 Y8
G1 X99.572 Y7.869
G1 X99.539 Y7.731
G1 X99.523 Y7.665
G1 X99.484 Y7.462
G1 X99.455 Y7.264
G1 X99.447 Y7.183
G1 X99.435 Y7.062
G1 X99.423 Y6.857
G1 X99.419 Y6.624
G1 X99.428 Y6.29
G1 X99.432 Y6.231
G1 X99.453 Y5.982
G1 X99.469 Y5.855
G1 X99.493 Y5.687
G1 X99.528 Y5.495
G1 X99.545 Y5.416
G1 X99.611 Y5.155
G1 X99.684 Y4.932
G1 X99.697 Y4.896
G1 X99.722 Y4.831
G1 X99.77 Y4.714
G1 X99.825 Y4.592
G1 X99.866 Y4.508
G1 X99.978 Y4.306
G1 X100.017 Y4.244
G1 X100.096 Y4.125
G1 X100.153 Y4.045
G1 X100.231 Y3.943
G1 X100.391 Y3.756
G1 X100.553 Y3.592
G1 X100.6 Y3.55
G1 X100.766 Y3.406
G1 X100.818 Y3.366
G1 X100.952 Y3.266
G1 X100.991 Y3.239
G1 X101.041 Y3.205
G1 X101.181 Y3.116
G1 X101.27 Y3.064
G1 X101.453 Y2.965
G1 X101.499 Y2.942
G1 X101.73 Y2.838
G1 X101.963 Y2.749
G1 X101.989 Y2.74
G1 X102.196 Y2.674
G1 X102.294 Y2.647
G1 X102.43 Y2.613
G1 X102.664 Y2.562
G1 X102.9 Y2.523
G1 X102.948 Y2.517
G1 X103.136 Y2.495
G1 X103.349 Y2.477
G1 X103.374 Y2.476
G1 X103.613 Y2.465
G1 X103.646 Y2.464
G1 X103.853
G1 X103.921 Y2.466
G1 X104.117 Y2.474
G1 X104.187 Y2.479
G1 X104.372 Y2.495
G1 X104.443 Y2.503
G1 X104.62 Y2.526
G1 X104.693 Y2.538
G1 X104.859 Y2.569
G1 X104.933 Y2.584
G1 X105.092 Y2.622
G1 X105.166 Y2.642
G1 X105.317 Y2.686
G1 X105.392 Y2.71
G1 X105.537 Y2.76
G1 X105.61 Y2.788
G1 X105.749 Y2.845
G1 X105.821 Y2.876
G1 X105.956 Y2.94
G1 X106.026 Y2.974
G1 X106.158 Y3.045
G1 X106.225 Y3.082
G1 X106.354 Y3.159
G1 X106.418 Y3.199
G1 X106.545 Y3.284
G1 X106.605 Y3.325
G1 X106.734 Y3.419
G1 X106.787 Y3.459
G1 X106.915 Y3.562
G1 X106.965 Y3.602
G1 X107.095 Y3.714
G1 X107.138 Y3.753
G1 X107.273 Y3.878
G1 X107.309 Y3.912
G1 X107.475 Y4.078
G1 X107.639 Y4.251
G1 X107.8 Y4.432
G1 X107.961 Y4.62
G1 X108.126 Y4.824
G1 X108.295 Y5.041
G1 X108.462 Y5.262
G1 X108.464 Y5.265
G1 X108.512 Y5.319
G1 X108.563 Y5.37
G1 X108.618 Y5.418
G1 X108.677 Y5.464
G1 X109.227 Y5.859
G1 X109.193 Y5.948
G1 X109.156 Y6.034
G1 X109.115 Y6.118
G1 X108.976 Y6.387
G1 X108.929 Y6.485
G1 X108.887 Y6.586
G1 X108.929 Y6.485
G1 X108.976 Y6.387
G1 X109.115 Y6.118
G1 X109.156 Y6.034
G1 X109.193 Y5.948
G1 X109.227 Y5.859
G1 X109.309 Y5.791
G1 X109.386 Y5.721
G1 X109.459 Y5.647
G1 X109.528 Y5.57
G1 X109.592 Y5.49
G1 X110.162 Y4.731
G1 X110.283 Y4.572
G1 X110.402 Y4.418
G1 X110.557 Y4.219
G1 X110.638 Y4.12
G1 X110.701 Y4.045
G1 X110.753 Y3.985
G1 X110.874 Y3.85
G1 X110.99 Y3.727
G1 X111.107 Y3.611
G1 X111.225 Y3.502
G1 X111.347 Y3.396
G1 X111.467 Y3.301
G1 X111.566 Y3.229
G1 X111.681 Y3.151
G1 X111.728 Y3.121
G1 X111.828 Y3.063
G1 X111.921 Y3.014
G1 X111.985 Y2.984
G1 X112.076 Y2.944
G1 X112.204 Y2.895
G1 X112.234 Y2.885
G1 X112.325 Y2.857
G1 X112.447 Y2.826
G1 X112.576 Y2.799
G1 X112.698 Y2.78
G1 X112.786 Y2.769
G1 X112.89 Y2.762
G1 X112.962 Y2.759
G1 X113.069 Y2.764
G1 X113.124 Y2.769
G1 X113.213 Y2.78
G1 X113.324 Y2.8
G1 X113.401 Y2.817
G1 X113.503 Y2.844
G1 X113.629 Y2.885
G1 X113.759 Y2.935
G1 X113.856 Y2.978
G1 X113.98 Y3.041
G1 X114.099 Y3.109
G1 X114.214 Y3.184
G1 X114.24 Y3.202
G1 X114.351 Y3.284
G1 X114.452 Y3.367
G1 X114.564 Y3.468
G1 X114.647 Y3.551
G1 X114.687 Y3.593
G1 X114.738 Y3.65
G1 X114.825 Y3.752
G1 X114.927 Y3.883
G1 X114.986 Y3.967
G1 X115.064 Y4.084 Z-0.849
G1 X115.153 Y4.228 Z-0.812
G1 X115.211 Y4.329 Z-0.784
G1 X115.278 Y4.456 Z-0.755
G1 X115.365 Y4.631 Z-0.717
G1 X115.713 Y4.728 Z-0.001
G1 X115.365 Y4.631 Z-0.717
G1 X115.354 Y4.67 Z-0.649
G1 X115.338 Y4.721 Z-0.554
G1 X115.307 Y4.796 Z-0.4
G1 X115.271 Y4.869 Z-0.241
G1 X115.219 Y4.965 Z-0.02
G1 X115.214 Y4.974 Z0
; MOVEMENT_RAPID
G0 Z5 F300
G0 X135.873 Y8.424 F2500
; MOVEMENT_LEAD_IN
G1 Z-0.001 F180
; MOVEMENT_CUTTING
G1 X136.13 Y8.605 Z-0.556 F480
G1 X136.297 Y8.727 Z-0.915
G1 X136.408 Y8.809
G1 X136.654 Y8.997
G1 X136.869 Y9.17
G1 X137.055 Y9.326
G1 X137.214 Y9.466
G1 X137.349 Y9.593
G1 X137.462 Y9.705
G1 X137.555 Y9.802
G1 X137.631 Y9.888
G1 X137.695 Y9.965
G1 X137.748 Y10.033
G1 X137.792 Y10.094
G1 X137.83 Y10.151
G1 X137.864 Y10.207
G1 X137.896 Y10.263
G1 X137.925 Y10.318
G1 X137.957 Y10.386
G1 X137.988 Y10.457
G1 X138.018 Y10.533
G1 X138.052 Y10.627
G1 X138.085 Y10.729
G1 X138.11 Y10.811
G1 X138.126 Y10.943
G1 X138.137 Y11.061
G1 X138.143 Y11.157
G1 X138.144 Y11.23
G1 X138.156 Y11.24
G1 X138.225 Y11.293
G1 X138.326 Y11.368
G1 X138.34 Y11.377
G1 X138.326 Y11.368
G1 X138.225 Y11.293
G1 X138.156 Y11.24
G1 X138.144 Y11.23
G1 X138.111 Y11.288
G1 X138.047 Y11.388
G1 X137.952 Y11.527
G1 X137.789 Y11.747
G1 X137.615 Y11.966
G1 X137.409 Y12.21
G1 X137.194 Y12.452
G1 X137.104 Y12.549
G1 X136.955 Y12.727
G1 X136.86 Y12.845
G1 X136.827 Y12.886 Z-0.813
G1 X136.729 Y13.009 Z-0.502
G1 X136.627 Y13.145 Z-0.161
G1 X136.58 Y13.208 Z0
; MOVEMENT_RAPID
G0 Z5 F300
G0 X137.022 Y16.685 F2500
; MOVEMENT_LEAD_IN
G1 Z-0.001 F180
; MOVEMENT_CUTTING
G1 X137.246 Y16.844 Z-0.481 F480
G1 X137.399 Y16.957 Z-0.808
G1 X137.496 Y17.029
G1 X137.72 Y17.2
G1 X137.917 Y17.358
G1 X138.088 Y17.501
G1 X138.236 Y17.631
G1 X138.362 Y17.747
G1 X138.467 Y17.85
G1 X138.555 Y17.941
G1 X138.626 Y18.019
G1 X138.684 Y18.087
G1 X138.733 Y18.149
G1 X138.771 Y18.2
G1 X138.804 Y18.247
G1 X138.832 Y18.292
G1 X138.855 Y18.332
G1 X138.879 Y18.376
G1 X138.902 Y18.424
G1 X138.925 Y18.476
G1 X138.949 Y18.535
G1 X138.975 Y18.603
G1 X138.997 Y18.67
G1 X139.004 Y18.742
G1 X139.011 Y18.857
G1 X139.014 Y18.947
G1 Y19.016
G1 X139.012 Y19.069
G1 X139.009 Y19.104
G1 X138.991 Y19.138
G1 X138.958 Y19.194
G1 X138.904 Y19.28
G1 X138.824 Y19.396
G1 X138.715 Y19.543
G1 X138.572 Y19.725
G1 X138.454 Y19.865
G1 X138.376 Y19.949
G1 X138.303 Y20.023
G1 X138.189 Y20.145
G1 X138.129 Y20.211
G1 X138.044 Y20.306
G1 X137.953 Y20.413
G1 X137.895 Y20.483
G1 X137.842 Y20.547 Z-0.646
G1 X137.774 Y20.631 Z-0.428
G1 X137.651 Y20.789 Z-0.024
G1 X137.644 Y20.798 Z-0.001
; MOVEMENT_RAPID
G0 Z5 F300
G0 X131.457 Y20.625 F2500
; MOVEMENT_LEAD_IN
G1 Z0 F180
; MOVEMENT_CUTTING
G1 X131.622 Y20.562 Z-0.309 F480
G1 X131.838 Y20.469 Z-0.722
G1 X131.937 Y20.422 Z-0.916
G1 X131.976 Y20.402 Z-0.993
G1 X132.097 Y20.342
G1 X132.201 Y20.284
G1 X132.317 Y20.217
G1 X132.384 Y20.292
G1 X132.478 Y20.393
G1 X132.575 Y20.492
G1 X132.652 Y20.566
G1 X132.675 Y20.589 Z-0.944
G1 X132.754 Y20.661 Z-0.779
G1 X132.838 Y20.752 Z-0.561
G1 X132.961 Y20.878 Z-0.242
G1 X133.054 Y20.968 Z-0.001
G1 X132.961 Y20.878 Z-0.242
G1 X132.838 Y20.752 Z-0.561
G1 X132.754 Y20.661 Z-0.779
G1 X132.675 Y20.589 Z-0.944
G1 X132.652 Y20.566 Z-0.993
G1 X132.575 Y20.492
G1 X132.478 Y20.393
G1 X132.384 Y20.292
G1 X132.317 Y20.217
G1 X132.322 Y20
G1 X132.32 Y19.795
G1 X132.312 Y19.601
G1 X132.299 Y19.41
G1 X132.279 Y19.215
G1 X132.253 Y19.022
G1 X132.221 Y18.833
G1 X132.184 Y18.643
G1 X132.14 Y18.448
G1 X132.089 Y18.252
G1 X132.032 Y18.057
G1 X131.968 Y17.856
G1 X131.899 Y17.655
G1 X131.821 Y17.447
G1 X131.738 Y17.238
G1 X131.645 Y17.021
G1 X131.548 Y16.802
G1 X131.44 Y16.574
G1 X131.325 Y16.342
G1 X131.236 Y16.168
G1 X131.166 Y16.127
G1 X131.093 Y16.089
G1 X131.014 Y16.054
G1 X130.942 Y16.028
G1 X130.864 Y16.004
G1 X130.795 Y15.985
G1 X130.713 Y15.967
G1 X130.56 Y15.939
G1 X130.474 Y15.927
G1 X130.366 Y15.915
G1 X130.302 Y15.911
G1 X130.239 Y15.91
G1 X130.184
G1 X130.097 Y15.914
G1 X130.016 Y15.923
G1 X129.96 Y15.932
G1 X129.867 Y15.951
G1 X129.815 Y15.963
G1 X129.769 Y15.977
G1 X129.489 Y16.068
G1 X129.232 Y16.161
G1 X128.998 Y16.257
G1 X128.833 Y16.333
G1 X128.786 Y16.356
G1 X128.784 Y16.357
G1 X128.636 Y16.435 Z-0.878
G1 X128.593 Y16.459 Z-0.848
G1 X128.457 Y16.541 Z-0.761
G1 X128.418 Y16.567 Z-0.739
G1 X128.388 Y16.588 Z-0.724
G1 X128.349 Y16.613 Z-0.709
G1 X128.29 Y16.645 Z-0.7
G1 X128.251 Y16.666
G1 X128.233 Y16.677 Z-0.702
G1 X128.169 Y16.718 Z-0.703
G1 X128.098 Y16.768 Z-0.699
G1 X128.05 Y16.808 Z-0.701
G1 X127.959 Y16.891 Z-0.695
G1 X127.94 Y16.911 Z-0.696
G1 X127.89 Y16.968 Z-0.695
G1 X127.825 Y17.05 Z-0.688
G1 X127.795 Y17.095
G1 X127.721 Y17.215 Z-0.679
G1 X127.708 Y17.24 Z-0.68
G1 X127.669 Y17.318 Z-0.676
G1 X127.635 Y17.392 Z-0.67
G1 X127.631 Y17.402
G1 X127.597 Y17.492 Z-0.667
G1 X127.565 Y17.586 Z-0.661
G1 X127.537 Y17.685 Z-0.66
G1 X127.511 Y17.789 Z-0.653
G1 X127.488 Y17.9
G1 X127.469 Y18.014 Z-0.649
G1 X127.454 Y18.132
G1 X127.444 Y18.227 Z-0.646
G1 X127.442 Y18.257 Z-0.647
G1 X127.429 Y18.469 Z-0.644
G1 X127.428 Y18.523 Z-0.647
G1 X127.427 Y18.773 Z-0.649
G1 X127.432 Y19.016 Z-0.661
G1 X127.435 Y19.086 Z-0.668
G1 X127.456 Y19.302 Z-0.661
G1 X127.466 Y19.383 Z-0.66
G1 X127.483 Y19.532 Z-0.659
G1 X127.487 Y19.566 Z-0.66
G1 X127.49 Y19.604 Z-0.667
G1 X127.494 Y19.632 Z-0.675
G1 X127.527 Y19.779 Z-0.676
G1 X127.57 Y19.954
G1 X127.617 Y20.124 Z-0.679
G1 X127.666 Y20.291 Z-0.678
G1 X127.719 Y20.455 Z-0.682
G1 X127.774 Y20.615 Z-0.683
G1 X127.879 Y20.888 Z-0.685
G1 X127.894 Y20.924 Z-0.687
G1 X127.959 Y21.072 Z-0.691
G1 X128.008 Y21.18 Z-0.69
G1 X128.025 Y21.216 Z-0.693
G1 X128.15 Y21.461 Z-0.695
G1 X128.169 Y21.496 Z-0.697
G1 X128.246 Y21.63 Z-0.7
G1 X128.305 Y21.731
G1 X128.324 Y21.761 Z-0.702
G1 X128.406 Y21.888 Z-0.705
G1 X128.474 Y21.989 Z-0.704
G1 X128.491 Y22.012 Z-0.705
G1 X128.579 Y22.132 Z-0.709
G1 X128.668 Y22.249
G1 X128.762 Y22.363 Z-0.712
G1 X128.856 Y22.473
G1 X128.956 Y22.579 Z-0.714
G1 X129.06 Y22.688 Z-0.711
G1 X129.162 Y22.785 Z-0.714
G1 X129.282 Y22.895 Z-0.711
G1 X129.379 Y22.976 Z-0.713
G1 X129.517 Y23.088 Z-0.708
G1 X129.61 Y23.158 Z-0.71
G1 X129.764 Y23.268 Z-0.705
G1 X129.852 Y23.327 Z-0.706
G1 X130.023 Y23.435 Z-0.7
G1 X130.11 Y23.486 Z-0.701
G1 X130.294 Y23.589 Z-0.695
G1 X130.38 Y23.633 Z-0.696
G1 X130.577 Y23.729 Z-0.69
G1 X130.664 Y23.769 Z-0.691
G1 X130.87 Y23.857 Z-0.684
G1 X130.964 Y23.893 Z-0.685
G1 X131.176 Y23.972 Z-0.679
G1 X131.275 Y24.005 Z-0.68
G1 X131.492 Y24.074 Z-0.674
G1 X131.604 Y24.105 Z-0.675
G1 X131.819 Y24.163 Z-0.67
G1 X131.946 Y24.193 Z-0.671
G1 X132.158 Y24.241 Z-0.667
G1 X132.301 Y24.269 Z-0.668
G1 X132.508 Y24.306 Z-0.665
G1 X132.672 Y24.332 Z-0.666
G1 X132.857 Y24.358 Z-0.661
G1 X132.905 Y24.359 Z-0.657
G1 X139.665 Y24.358 Z-0.658
G1 X140.033 Y24.308 Z-0.651
G1 X140.093 Y24.303 Z-0.657
G1 X140.619
G1 X140.687 Y24.289 Z-0.648
G1 X142.761 Y23.73 Z-0.653
G1 X142.817 Y23.713 Z-0.659
G1 X142.846 Y23.702 Z-0.666
G1 X143.515 Y23.387 Z-0.68
G1 X143.558 Y23.359 Z-0.672
G1 X143.648 Y23.294 Z-0.665
G1 X143.746 Y23.219 Z-0.66
G1 X143.907 Y23.087 Z-0.655
G1 X143.993 Y23.013 Z-0.653
G1 X144.135 Y22.881
G1 X144.214 Y22.802 Z-0.654
G1 X144.249 Y22.769 Z-0.657
G1 X144.355 Y22.658 Z-0.665
G1 X144.432 Y22.574 Z-0.669
G1 X144.483 Y22.514 Z-0.671
G1 X144.58 Y22.395 Z-0.674
G1 X144.672 Y22.271 Z-0.673
G1 X144.74 Y22.174 Z-0.672
G1 X144.807 Y22.073 Z-0.669
G1 X144.833 Y22.035 Z-0.671
G1 X144.84 Y22.026 Z-0.673
G1 X144.915 Y21.932 Z-0.709
G1 X145.064 Y21.743 Z-0.79
G1 X145.142 Y21.64 Z-0.838
G1 X145.22 Y21.535 Z-0.89
G1 X145.359 Y21.343 Z-0.993
G1 X145.373 Y21.324
G1 X145.442 Y21.225
G1 X145.483 Y21.162
G1 X145.559 Y21.022
G1 X145.63 Y20.885
G1 X145.697 Y20.74
G1 X145.755 Y20.612
G1 X145.818 Y20.456
G1 X145.866 Y20.33
G1 X145.923 Y20.164
G1 X145.961 Y20.045
G1 X145.992 Y19.938
G1 X146.033 Y19.784
G1 X146.069 Y19.631
G1 X146.095 Y19.51
G1 X146.099 Y19.481
G1 X146.112 Y19.386
G1 X146.131 Y19.191
G1 X146.138 Y19.068
G1 X146.139 Y19.011
G1 X146.141 Y18.859
G1 Y18.69
G1 X146.139 Y18.575
G1 X146.13 Y18.386
G1 X146.123 Y18.267
G1 X146.112 Y18.147
G1 X146.089 Y17.948
G1 X146.06 Y17.758
G1 X146.04 Y17.643
G1 X145.999 Y17.447
G1 X145.975 Y17.342
G1 X145.923 Y17.144
G1 X145.893 Y17.039
G1 X145.831 Y16.85
G1 X145.791 Y16.735
G1 X145.721 Y16.555
G1 X145.675 Y16.441
G1 X145.598 Y16.267
G1 X145.539 Y16.143
G1 X145.455 Y15.979
G1 X145.39 Y15.857
G1 X145.293 Y15.688
G1 X145.224 Y15.571
G1 X145.115 Y15.401
G1 X145.042 Y15.29
G1 X144.917 Y15.113
G1 X144.916 Y15.111
G1 X144.616 Y15.11
G1 X144.115 Y15.103
G1 X143.876 Y15.097
G1 X143.659 Y15.092 Z-0.606
G1 X143.308 Y15.079 Z-0.001
G1 X143.659 Y15.092 Z-0.606
G1 X143.876 Y15.097 Z-0.993
G1 X144.115 Y15.103
G1 X144.616 Y15.11
G1 X144.916 Y15.111
G1 X144.918 Y14.911
G1 X144.913 Y14.652
G1 X144.907 Y14.496
G1 X144.881 Y14.151
G1 X144.878 Y14.096
G1 X144.875 Y14.05
G1 X144.874 Y13.949
G1 X144.88 Y13.851
G1 X144.894 Y13.756
G1 X144.9 Y13.721
G1 X144.917 Y13.649
G1 X144.938 Y13.579
G1 X144.963 Y13.511
G1 X144.985 Y13.464
G1 X144.997 Y13.438
G1 X145.04 Y13.359
G1 X145.124 Y13.219
G1 X145.135 Y13.2
G1 X145.197 Y13.087
G1 X145.264 Y12.957
G1 X145.298 Y12.888
G1 X145.385 Y12.695
G1 X145.411 Y12.633
G1 X145.486 Y12.435
G1 X145.524 Y12.326
G1 X145.57 Y12.176
G1 X145.606 Y12.049
G1 X145.616 Y12.014
G1 X145.666 Y11.79
G1 X145.688 Y11.681
G1 X145.712 Y11.529
G1 X145.731 Y11.4
G1 X145.737 Y11.343
G1 X145.755 Y11.137
G1 X145.763 Y11.006
G1 X145.767 Y10.873
G1 X145.768 Y10.736
G1 Y10.638
G1 X145.76 Y10.46
G1 X145.752 Y10.318
G1 X145.748 Y10.269
G1 X145.74 Y10.176
G1 X145.716 Y9.973
G1 X145.706 Y9.901
G1 X145.685 Y9.768
G1 X145.645 Y9.547
G1 X145.623 Y9.443
G1 X145.57 Y9.212
G1 X145.542 Y9.102
G1 X145.476 Y8.865
G1 X145.444 Y8.76
G1 X145.4 Y8.621
G1 X145.317 Y8.375
G1 X145.219 Y8.111
G1 X145.169 Y7.981
G1 X145.068 Y7.73
G1 X144.941 Y7.445
G1 X144.866 Y7.29
G1 X144.81 Y7.168
G1 X144.785 Y7.108
G1 X144.77 Y7.073
G1 X144.639 Y6.841
G1 X144.554 Y6.705
G1 X144.47 Y6.579
G1 X144.437 Y6.531
G1 X144.287 Y6.331
G1 X144.19 Y6.212
G1 X144.089 Y6.096
G1 X144.06 Y6.063
G1 X143.882 Y5.881
G1 X143.779 Y5.783
G1 X143.649 Y5.668
G1 X143.628 Y5.65
G1 X143.46 Y5.515
G1 X143.406 Y5.475
G1 X143.303 Y5.4
G1 X143.152 Y5.297
G1 X143.128 Y5.281
G1 X142.89 Y5.137
G1 X142.746 Y5.057
G1 X142.616 Y4.99
G1 X142.538 Y4.951
G1 X142.32 Y4.85
G1 X142.047 Y4.738
G1 X141.799 Y4.649
G1 X141.751 Y4.633
G1 X141.59 Y4.581
G1 X141.448 Y4.539
G1 X141.322 Y4.504
G1 X141.139 Y4.457
G1 X141.041 Y4.433
G1 X140.824 Y4.386
G1 X140.747 Y4.37
G1 X140.503 Y4.325
G1 X140.424 Y4.312
G1 X140.318 Y4.292
G1 X140.204 Y4.264
G1 X140.177 Y4.261
G1 X139.841 Y4.231
G1 X139.5 Y4.206
G1 X139.288 Y4.194
G1 X139.215 Y4.182
G1 X139.109 Y4.168
G1 X139.003 Y4.159
G1 X138.897 Y4.156
G1 X130.939
G1 X130.863 Y4.185
G1 X130.78 Y4.219
G1 X129.677 Y4.675
G1 X129.475 Y4.759 Z-0.79
G1 X129.426 Y4.777 Z-0.746
G1 X129.377 Y4.792 Z-0.71
G1 X129.346 Y4.8 Z-0.694
G1 X129.327 Y4.805 Z-0.688
G1 X129.302 Y4.812 Z-0.683
G1 X129.278 Y4.823 Z-0.673
G1 X129.232 Y4.848 Z-0.658
G1 X129.216 Y4.858 Z-0.655
G1 X129.16 Y4.897 Z-0.647
G1 X129.095 Y4.947 Z-0.645
G1 X129.042 Y4.992 Z-0.646
G1 X128.97 Y5.06 Z-0.651
G1 X128.912 Y5.118 Z-0.657
G1 X128.845 Y5.192 Z-0.666
G1 X128.74 Y5.319 Z-0.68
G1 X128.68 Y5.398 Z-0.687
G1 X128.624 Y5.476 Z-0.691
G1 X128.595 Y5.52 Z-0.698
G1 X128.583 Y5.585 Z-0.67
G1 X128.578 Y5.65 Z-0.657
G1 X128.573 Y5.845 Z-0.645
G1 Y6.033 Z-0.641
G1 X128.58 Y6.214
G1 X128.595 Y6.39 Z-0.644
G1 X128.616 Y6.547 Z-0.649
G1 X128.618 Y6.559
G1 X128.648 Y6.706 Z-0.653
G1 X128.651 Y6.722 Z-0.654
G1 X128.688 Y6.859 Z-0.66
G1 X128.694 Y6.879 Z-0.661
G1 X128.722 Y6.966 Z-0.668
G1 X128.746 Y7.028 Z-0.669
G1 X128.773 Y7.095 Z-0.675
G1 X128.809 Y7.174 Z-0.676
G1 X128.83 Y7.215 Z-0.681
G1 X128.884 Y7.31 Z-0.684
G1 X128.894 Y7.327 Z-0.686
G1 X128.968 Y7.437 Z-0.69
G1 X129.056 Y7.546 Z-0.692
G1 X129.12 Y7.614 Z-0.697
G1 X129.174 Y7.665 Z-0.694
G1 X129.209 Y7.696 Z-0.697
G1 X129.291 Y7.762 Z-0.695
G1 X129.303 Y7.772 Z-0.696
G1 X129.418 Y7.849 Z-0.691
G1 X129.529 Y7.912 Z-0.687
G1 X129.554 Y7.924 Z-0.686
G1 X129.637 Y7.963 Z-0.685
G1 X129.696 Y7.988 Z-0.68
G1 X129.766 Y8.015
G1 X129.845 Y8.042 Z-0.674
G1 X129.905 Y8.06 Z-0.675
G1 X130 Y8.085 Z-0.669
G1 X130.055 Y8.098
G1 X130.161 Y8.12 Z-0.664
G1 X130.214 Y8.129 Z-0.665
G1 X130.329 Y8.146 Z-0.66
G1 X130.384 Y8.152 Z-0.661
G1 X130.504 Y8.163 Z-0.657
G1 X130.563 Y8.167 Z-0.659
G1 X130.684 Y8.172 Z-0.656
G1 X130.759 Y8.174 Z-0.658
G1 X130.815 Y8.178 Z-0.665
G1 X130.831 Y8.182 Z-0.664
G1 X130.869 Y8.195 Z-0.662
G1 X130.91 Y8.214 Z-0.665
G1 X130.949 Y8.236 Z-0.672
G1 X130.988 Y8.264 Z-0.685
G1 X131.019 Y8.289 Z-0.7
G1 X131.042 Y8.34 Z-0.682
G1 X131.062 Y8.392 Z-0.675
G1 X131.081 Y8.454 Z-0.673
G1 X131.104 Y8.511 Z-0.661
G1 X131.113 Y8.551 Z-0.652
G1 X131.121 Y8.592 Z-0.648
G1 X131.999 Y14.948 Z-0.674
G1 X132.005 Y15.02 Z-0.684
G1 X132.003 Y15.093 Z-0.713
G1 X131.993 Y15.168 Z-0.761
G1 X131.976 Y15.243 Z-0.828
G1 X131.951 Y15.319 Z-0.914
G1 X131.926 Y15.377 Z-0.993
G1 X131.917 Y15.397
G1 X131.876 Y15.476
G1 X131.827 Y15.555
G1 X131.771 Y15.636
G1 X131.706 Y15.718
G1 X131.634 Y15.801
G1 X131.553 Y15.885
G1 X131.465 Y15.97
G1 X131.369 Y16.057
G1 X131.236 Y16.168
; MOVEMENT_RAPID
G0 Z5 F300
G0 X147.275 Y14.275 F2500
; MOVEMENT_LEAD_IN
G1 Z-0.646 F180
; MOVEMENT_CUTTING
G1 X147.247 Y14.001 Z-0.648 F480
G1 X147.236 Y13.883 Z-0.645
G1 X147.212 Y13.531 Z-0.648
G1 X147.201 Y13.298 Z-0.65
G1 X147.195 Y13.105 Z-0.648
G1 X147.192 Y12.836 Z-0.65
G1 Y12.72 Z-0.649
G1 X147.193 Y12.685
G1 X147.2 Y12.382 Z-0.648
G1 X147.207 Y12.231 Z-0.65
G1 X147.223 Y11.956
G1 X147.237 Y11.786 Z-0.653
G1 X147.257 Y11.578 Z-0.651
G1 X147.266 Y11.493 Z-0.652
G1 X147.302 Y11.201
G1 X147.324 Y11.057 Z-0.655
G1 X147.36 Y10.828 Z-0.654
G1 X147.37 Y10.771 Z-0.655
G1 X147.424 Y10.486 Z-0.654
G1 X147.485 Y10.205 Z-0.655
G1 X147.512 Y10.088 Z-0.652
G1 X147.518 Y10.066 Z-0.653
G1 X147.59 Y9.787
G1 X147.628 Y9.65
G1 X147.705 Y9.391 Z-0.65
G1 X147.731 Y9.323 Z-0.642
G1 X147.779 Y9.216 Z-0.645
G1 X147.865 Y9.032 Z-0.647
G1 X147.952 Y8.852 Z-0.649
G1 X148.041 Y8.677 Z-0.65
G1 X148.086 Y8.591 Z-0.652
G1 X148.224 Y8.338 Z-0.655
G1 X148.319 Y8.177 Z-0.658
G1 X148.412 Y8.023
G1 X148.513 Y7.865 Z-0.663
G1 X148.602 Y7.73 Z-0.662
G1 X148.662 Y7.643 Z-0.666
G1 X148.801 Y7.449
G1 X148.862 Y7.373 Z-0.664
G1 X149.013 Y7.185 Z-0.655
G1 X149.136 Y7.042 Z-0.652
G1 X149.233 Y6.933 Z-0.647
G1 X149.308 Y6.852
G1 X149.46 Y6.693 Z-0.643
G1 X149.484 Y6.668
G1 X149.665 Y6.493 Z-0.642
G1 X149.79 Y6.379 Z-0.644
G1 X149.914 Y6.268 Z-0.645
G1 X150.043 Y6.16 Z-0.65
G1 X150.172 Y6.055 Z-0.652
G1 X150.239 Y6.003 Z-0.657
G1 X150.428 Y5.846 Z-0.696
G1 X150.677 Y5.648 Z-0.768
G1 X150.935 Y5.453 Z-0.86
G1 X151.197 Y5.264 Z-0.972
G1 X151.391 Y5.134 Z-1.061
G1 X151.473 Y5.081 Z-1.094
G1 X151.494 Y5.069 Z-1.103
G1 X151.717 Y4.936 Z-1.2
G1 X151.759 Y4.913 Z-1.216
G1 X151.881 Y4.846 Z-1.269
G1 X152.046 Y4.761 Z-1.334
G1 X152.193 Y4.691 Z-1.394
G1 X152.213 Y4.682
G1 X152.369 Y4.612
G1 X152.548 Y4.539
G1 X152.692 Y4.483
G1 X152.886 Y4.416
G1 X153.028 Y4.37
G1 X153.23 Y4.311
G1 X153.373 Y4.272
G1 X153.58 Y4.224
G1 X153.73 Y4.191
G1 X153.818 Y4.176
G1 X153.935 Y4.159
G1 X154.117 Y4.135
G1 X154.301 Y4.113
G1 X154.485 Y4.094
G1 X154.671 Y4.078
G1 X154.86 Y4.064
G1 X155.051 Y4.052
G1 X155.21 Y4.044
G1 X156.282
G1 X156.377 Y4.046
G1 X156.471 Y4.053
G1 X156.566 Y4.065
G1 X157.25 Y4.164
G1 X157.545 Y4.213
G1 X158.001 Y4.359
G1 X158.052 Y4.377
G1 X158.667 Y4.606
G1 X159.252 Y4.858
G1 X159.309 Y4.885
G1 X159.793 Y5.122
G1 X159.927 Y5.193
G1 X160.315 Y5.41
G1 X160.518 Y5.533
G1 X160.807 Y5.716
G1 X161.025 Y5.862
G1 X161.084 Y5.903
G1 X161.273 Y6.039
G1 X161.562 Y6.26
G1 X161.622 Y6.306
G1 X161.714 Y6.381
G1 X162.072 Y6.689
G1 X162.13 Y6.741
G1 X162.521 Y7.121
G1 X162.597 Y7.2
G1 X162.89 Y7.521
G1 X163.038 Y7.695
G1 X163.238 Y7.942
G1 X163.446 Y8.217
G1 X163.565 Y8.385
G1 X163.822 Y8.769
G1 X163.872 Y8.849
G1 X164.166 Y9.351
G1 X164.425 Y9.856
G1 X164.47 Y9.952
G1 X164.669 Y10.399
G1 X164.741 Y10.573
G1 X164.893 Y10.969
G1 X164.981 Y11.219
G1 X165.095 Y11.568
G1 X165.189 Y11.886
G1 X165.273 Y12.195
G1 X165.366 Y12.57
G1 X165.429 Y12.852
G1 X165.513 Y13.275
G1 X165.56 Y13.538
G1 X165.632 Y14.002
G1 X165.666 Y14.253
G1 X165.722 Y14.748
G1 X165.739 Y14.933
G1 X165.743 Y15.209
G1 X165.744 Y15.553
G1 X165.735 Y15.887
G1 X165.721 Y16.271
G1 X165.716 Y16.345
G1 X165.708 Y16.419
G1 X165.693 Y16.535
G1 X165.65 Y16.843
G1 X165.601 Y17.162
G1 X165.549 Y17.439
G1 X165.491 Y17.725
G1 X165.46 Y17.868
G1 X165.428 Y18.002
G1 X165.361 Y18.271
G1 X165.288 Y18.539
G1 X165.211 Y18.79
G1 X165.13 Y19.037
G1 X165.081 Y19.175
G1 X165.042 Y19.279
G1 X164.95 Y19.513
G1 X164.842 Y19.771
G1 X164.752 Y19.963
G1 X164.751 Y19.965
G1 X164.646 Y20.178 Z-1.329
G1 X164.568 Y20.327 Z-1.277
G1 X164.534 Y20.388 Z-1.26
G1 X164.416 Y20.591 Z-1.194
G1 X164.263 Y20.838 Z-1.096
G1 X164.163 Y20.983 Z-1.044
G1 X164.026 Y21.175 Z-0.962
G1 X163.93 Y21.306 Z-0.903
G1 X163.591 Y21.735 Z-0.748
G1 X163.418 Y21.942 Z-0.69
G1 X163.357 Y22.012 Z-0.675
G1 X163.331 Y22.043 Z-0.671
G1 X163.25 Y22.149 Z-0.67
G1 X163.164 Y22.256 Z-0.674
G1 X163.083 Y22.353 Z-0.671
G1 X162.993 Y22.455 Z-0.674
G1 X162.908 Y22.549 Z-0.672
G1 X162.816 Y22.646 Z-0.676
G1 X162.727 Y22.735 Z-0.673
G1 X162.632 Y22.827 Z-0.676
G1 X162.539 Y22.913 Z-0.673
G1 X162.442 Y22.999 Z-0.676
G1 X162.343 Y23.083 Z-0.672
G1 X162.244 Y23.163 Z-0.675
G1 X162.141 Y23.243 Z-0.672
G1 X162.04 Y23.318 Z-0.674
G1 X161.931 Y23.395 Z-0.671
G1 X161.829 Y23.464 Z-0.673
G1 X161.716 Y23.537 Z-0.669
G1 X161.611 Y23.602 Z-0.671
G1 X161.493 Y23.671 Z-0.667
G1 X161.385 Y23.731 Z-0.669
G1 X161.263 Y23.795 Z-0.665
G1 X161.152 Y23.851 Z-0.667
G1 X161.028 Y23.911 Z-0.663
G1 X160.912 Y23.963 Z-0.665
G1 X160.786 Y24.017 Z-0.66
G1 X160.664 Y24.066 Z-0.662
G1 X160.537 Y24.115 Z-0.658
G1 X160.409 Y24.161 Z-0.659
G1 X160.277 Y24.206 Z-0.655
G1 X160.146 Y24.246 Z-0.66
G1 X159.875 Y24.323 Z-0.656
G1 X159.749 Y24.356 Z-0.65
G1 X159.596 Y24.391 Z-0.654
G1 X159.31 Y24.451 Z-0.651
G1 X159.198 Y24.472 Z-0.645
G1 X159.016 Y24.501 Z-0.65
G1 X158.715 Y24.543 Z-0.646
G1 X158.622 Y24.554 Z-0.642
G1 X158.405 Y24.574 Z-0.647
G1 X158.022 Y24.603 Z-0.64
G1 X157.763 Y24.611 Z-0.646
G1 X157.356 Y24.617 Z-0.642
G1 X157.174 Y24.612 Z-0.643
G1 X156.983 Y24.605 Z-0.639
G1 X156.729 Y24.594 Z-0.632
G1 X156.578 Y24.586 Z-0.642
G1 X156.414 Y24.576 Z-0.648
G1 X156.236 Y24.563 Z-0.649
G1 X156.082 Y24.55 Z-0.647
G1 X156.039 Y24.544 Z-0.651
G1 X155.947 Y24.528 Z-0.665
G1 X155.616 Y24.448 Z-0.664
G1 X155.548 Y24.43 Z-0.667
G1 X155.204 Y24.334 Z-0.665
G1 X155.143 Y24.316 Z-0.667
G1 X154.801 Y24.208 Z-0.666
G1 X154.746 Y24.189 Z-0.668
G1 X154.36 Y24.052 Z-0.667
G1 X153.982 Y23.902
G1 X153.613 Y23.74 Z-0.666
G1 X153.253 Y23.566 Z-0.664
G1 X152.902 Y23.38 Z-0.663
G1 X152.56 Y23.182 Z-0.661
G1 X152.226 Y22.972 Z-0.659
G1 X151.901 Y22.75 Z-0.657
G1 X151.585 Y22.516 Z-0.656
G1 X151.276 Y22.268 Z-0.653
G1 X150.975 Y22.007 Z-0.651
G1 X150.685 Y21.735 Z-0.65
G1 X150.403 Y21.45
G1 X150.13 Y21.153 Z-0.649
G1 X149.868 Y20.845
G1 X149.615 Y20.526 Z-0.65
G1 X149.37 Y20.194 Z-0.651
G1 X149.134 Y19.849 Z-0.653
G1 X148.906 Y19.489 Z-0.657
G1 X148.687 Y19.117 Z-0.661
G1 X148.506 Y18.788 Z-0.664
G1 X148.495 Y18.758 Z-0.655
G1 X148.486 Y18.737 Z-0.652
G1 X148.379 Y18.474 Z-0.651
G1 X148.316 Y18.315 Z-0.648
G1 X148.179 Y17.955 Z-0.647
G1 X148.087 Y17.698 Z-0.646
G1 X148.014 Y17.49 Z-0.643
G1 X147.916 Y17.188
G1 X147.881 Y17.079 Z-0.641
G1 X147.761 Y16.682 Z-0.642
G1 X147.692 Y16.432 Z-0.643
G1 X147.649 Y16.267 Z-0.641
G1 X147.567 Y15.935 Z-0.643
G1 X147.511 Y15.689
G1 X147.464 Y15.464 Z-0.641
G1 X147.413 Y15.199 Z-0.644
G1 X147.389 Y15.065 Z-0.643
G1 X147.333 Y14.716 Z-0.645
G1 X147.3 Y14.476 Z-0.647
G1 X147.275 Y14.275 Z-0.646
; MOVEMENT_RAPID
G0 Z5 F300
G0 X154.247 Y13.584 F2500
; MOVEMENT_LEAD_IN
G1 Z-3.586 F180
; MOVEMENT_CUTTING
G1 X154.268 Y13.794 F480
G1 X154.324 Y14.236
G1 X154.387 Y14.684
G1 X154.456 Y15.091
G1 X154.534 Y15.477
G1 X154.621 Y15.843
G1 X154.715 Y16.186
G1 X154.814 Y16.505
G1 X154.92 Y16.798
G1 X155.034 Y17.073
G1 X155.151 Y17.326
G1 X155.27 Y17.553
G1 X155.395 Y17.761
G1 X155.522 Y17.951
G1 X155.652 Y18.121
G1 X155.782 Y18.272
G1 X155.912 Y18.406
G1 X156.049 Y18.528
G1 X156.188 Y18.637
G1 X156.328 Y18.732
G1 X156.477 Y18.818
G1 X156.634 Y18.896
G1 X156.8 Y18.965
G1 X156.978 Y19.025
G1 X157.001 Y19.032
G1 X157.134 Y18.984
G1 X157.251 Y18.932
G1 X157.349 Y18.878
G1 X157.433 Y18.822
G1 X157.507 Y18.763
G1 X157.571 Y18.701
G1 X157.631 Y18.632
G1 X157.691 Y18.55
G1 X157.749 Y18.455
G1 X157.805 Y18.341
G1 X157.861 Y18.203
G1 X157.913 Y18.043
G1 X157.96 Y17.858
G1 X158 Y17.642
G1 X158.032 Y17.4
G1 X158.052 Y17.133
G1 X158.061 Y16.84
G1 X158.056 Y16.52
G1 X158.036 Y16.175
G1 X158.002 Y15.802
G1 X157.952 Y15.405
G1 X157.882 Y14.956
G1 X157.874 Y14.897
G1 X157.816 Y14.444
G1 X157.752 Y14.039
G1 X157.68 Y13.66
G1 X157.599 Y13.304
G1 X157.511 Y12.97
G1 X157.415 Y12.66
G1 X157.312 Y12.37
G1 X157.203 Y12.103
G1 X157.092 Y11.86
G1 X156.976 Y11.642
G1 X156.855 Y11.44
G1 X156.732 Y11.258
G1 X156.608 Y11.098
G1 X156.482 Y10.954
G1 X156.354 Y10.825
G1 X156.223 Y10.71
G1 X156.087 Y10.608
G1 X155.945 Y10.514
G1 X155.797 Y10.431
G1 X155.642 Y10.357
G1 X155.474 Y10.291
G1 X155.292 Y10.233
G1 X155.216 Y10.214
G1 X155.207 Y10.216
G1 X155.083 Y10.257
G1 X154.98 Y10.301
G1 X154.895 Y10.346
G1 X154.824 Y10.392
G1 X154.76 Y10.442
G1 X154.701 Y10.497
G1 X154.646 Y10.559
G1 X154.592 Y10.633
G1 X154.534 Y10.726
G1 X154.476 Y10.84
G1 X154.419 Y10.977
G1 X154.364 Y11.136
G1 X154.315 Y11.322
G1 X154.271 Y11.538
G1 X154.236 Y11.779
G1 X154.21 Y12.051
G1 X154.195 Y12.349
G1 X154.192 Y12.669
G1 X154.204 Y13.02
G1 X154.228 Y13.396
G1 X154.247 Y13.584
; MOVEMENT_RAPID
G0 Z5 F300
G0 X171.928 Y20.625 F2500
; MOVEMENT_LEAD_IN
G1 Z0 F180
; MOVEMENT_CUTTING
G1 X172.093 Y20.562 Z-0.309 F480
G1 X172.309 Y20.469 Z-0.722
G1 X172.407 Y20.422 Z-0.914
G1 X172.447 Y20.402 Z-0.993
G1 X172.568 Y20.341
G1 X172.673 Y20.283
G1 X172.788 Y20.217
G1 X172.855 Y20.292
G1 X172.949 Y20.393
G1 X173.046 Y20.492
G1 X173.123 Y20.566
G1 X173.146 Y20.588 Z-0.944
G1 X173.225 Y20.661 Z-0.779
G1 X173.31 Y20.753 Z-0.558
G1 X173.433 Y20.879 Z-0.239
G1 X173.525 Y20.968 Z-0.001
G1 X173.433 Y20.879 Z-0.239
G1 X173.31 Y20.753 Z-0.558
G1 X173.225 Y20.661 Z-0.779
G1 X173.146 Y20.588 Z-0.944
G1 X173.123 Y20.566 Z-0.993
G1 X173.046 Y20.492
G1 X172.949 Y20.393
G1 X172.855 Y20.292
G1 X172.788 Y20.217
G1 X172.789 Y20.2
G1 X172.793 Y19.996
G1 X172.791 Y19.795
G1 X172.783 Y19.601
G1 X172.77 Y19.41
G1 X172.75 Y19.215
G1 X172.725 Y19.026
G1 X172.691 Y18.829
G1 X172.655 Y18.643
G1 X172.611 Y18.448
G1 X172.56 Y18.252
G1 X172.503 Y18.057
G1 X172.439 Y17.856
G1 X172.37 Y17.655
G1 X172.292 Y17.447
G1 X172.209 Y17.238
G1 X172.116 Y17.021
G1 X172.019 Y16.802
G1 X171.911 Y16.574
G1 X171.798 Y16.346
G1 X171.707 Y16.168
G1 X171.643 Y16.13
G1 X171.568 Y16.091
G1 X171.495 Y16.058
G1 X171.411 Y16.027
G1 X171.336 Y16.004
G1 X171.264 Y15.984
G1 X171.184 Y15.967
G1 X171.031 Y15.939
G1 X170.945 Y15.927
G1 X170.847 Y15.916
G1 X170.804 Y15.913
G1 X170.741 Y15.91
G1 X170.682
G1 X170.625 Y15.911
G1 X170.54 Y15.916
G1 X170.46 Y15.927
G1 X170.368 Y15.944
G1 X170.3 Y15.96
G1 X170.241 Y15.978
G1 X169.961 Y16.068
G1 X169.703 Y16.161
G1 X169.47 Y16.257
G1 X169.304 Y16.334
G1 X169.257 Y16.357
G1 X169.107 Y16.435 Z-0.877
G1 X169.064 Y16.46 Z-0.847
G1 X168.928 Y16.542 Z-0.76
G1 X168.86 Y16.587 Z-0.723
G1 X168.82 Y16.613 Z-0.708
G1 X168.761 Y16.645 Z-0.7
G1 X168.721 Y16.667
G1 X168.704 Y16.677 Z-0.702
G1 X168.641 Y16.718 Z-0.703
G1 X168.57 Y16.767 Z-0.7
G1 X168.521 Y16.808 Z-0.702
G1 X168.43 Y16.891 Z-0.696
G1 X168.411 Y16.911 Z-0.697
G1 X168.362 Y16.968 Z-0.696
G1 X168.296 Y17.051 Z-0.689
G1 X168.266 Y17.095
G1 X168.211 Y17.181 Z-0.681
G1 X168.18 Y17.238 Z-0.679
G1 X168.12 Y17.36 Z-0.671
G1 X168.102 Y17.403 Z-0.67
G1 X168.068 Y17.492 Z-0.667
G1 X168.036 Y17.585 Z-0.661
G1 X168.008 Y17.684 Z-0.659
G1 X167.982 Y17.79 Z-0.653
G1 X167.96 Y17.899
G1 X167.941 Y18.014 Z-0.649
G1 X167.925 Y18.134
G1 X167.915 Y18.227 Z-0.646
G1 X167.913 Y18.257 Z-0.647
G1 X167.9 Y18.469 Z-0.644
G1 X167.899 Y18.522 Z-0.647
G1 X167.898 Y18.773 Z-0.648
G1 X167.903 Y19.016 Z-0.66
G1 X167.908 Y19.112 Z-0.667
G1 X167.916 Y19.186 Z-0.664
G1 X167.928 Y19.306 Z-0.66
G1 X167.944 Y19.438
G1 X167.955 Y19.534
G1 X167.959 Y19.567
G1 X167.962 Y19.604 Z-0.667
G1 X167.966 Y19.633 Z-0.675
G1 X167.999 Y19.779 Z-0.678
G1 X168.041 Y19.954 Z-0.677
G1 X168.088 Y20.124 Z-0.679
G1 X168.137 Y20.291 Z-0.678
G1 X168.19 Y20.455 Z-0.682
G1 X168.245 Y20.614 Z-0.683
G1 X168.304 Y20.77 Z-0.686
G1 X168.35 Y20.887 Z-0.685
G1 X168.365 Y20.923 Z-0.687
G1 X168.43 Y21.072 Z-0.69
G1 X168.479 Y21.18 Z-0.689
G1 X168.497 Y21.217 Z-0.692
G1 X168.568 Y21.358 Z-0.695
G1 X168.621 Y21.461 Z-0.694
G1 X168.641 Y21.497 Z-0.696
G1 X168.717 Y21.631 Z-0.7
G1 X168.776 Y21.731
G1 X168.795 Y21.761 Z-0.702
G1 X168.878 Y21.888 Z-0.704
G1 X168.945 Y21.989
G1 X168.962 Y22.012 Z-0.705
G1 X169.05 Y22.133 Z-0.708
G1 X169.14 Y22.25 Z-0.709
G1 X169.232 Y22.362 Z-0.712
G1 X169.328 Y22.473 Z-0.711
G1 X169.427 Y22.58 Z-0.714
G1 X169.532 Y22.688 Z-0.711
G1 X169.633 Y22.784 Z-0.714
G1 X169.753 Y22.895 Z-0.711
G1 X169.85 Y22.977 Z-0.713
G1 X169.988 Y23.088 Z-0.708
G1 X170.08 Y23.157 Z-0.71
G1 X170.235 Y23.268 Z-0.704
G1 X170.324 Y23.328 Z-0.705
G1 X170.494 Y23.435 Z-0.7
G1 X170.581 Y23.486 Z-0.701
G1 X170.765 Y23.589 Z-0.695
G1 X170.851 Y23.633 Z-0.696
G1 X171.048 Y23.729 Z-0.69
G1 X171.136 Y23.769 Z-0.691
G1 X171.341 Y23.857 Z-0.684
G1 X171.434 Y23.893 Z-0.685
G1 X171.647 Y23.971 Z-0.679
G1 X171.748 Y24.005 Z-0.68
G1 X171.963 Y24.074 Z-0.674
G1 X172.075 Y24.105 Z-0.675
G1 X172.29 Y24.163 Z-0.67
G1 X172.417 Y24.193 Z-0.671
G1 X172.629 Y24.241 Z-0.667
G1 X172.772 Y24.269 Z-0.668
G1 X172.979 Y24.306 Z-0.665
G1 X173.143 Y24.332 Z-0.666
G1 X173.328 Y24.358 Z-0.661
G1 X173.376 Y24.359 Z-0.657
G1 X180.136 Y24.358 Z-0.658
G1 X180.504 Y24.308 Z-0.651
G1 X180.564 Y24.303 Z-0.657
G1 X181.09
G1 X181.158 Y24.289 Z-0.648
G1 X183.233 Y23.73 Z-0.653
G1 X183.289 Y23.713 Z-0.659
G1 X183.318 Y23.702 Z-0.666
G1 X183.985 Y23.388 Z-0.68
G1 X184.029 Y23.359 Z-0.671
G1 X184.159 Y23.263 Z-0.663
G1 X184.256 Y23.188 Z-0.659
G1 X184.347 Y23.114 Z-0.656
G1 X184.436 Y23.038 Z-0.654
G1 X184.494 Y22.986 Z-0.653
G1 X184.577 Y22.908
G1 X184.686 Y22.802 Z-0.654
G1 X184.748 Y22.741 Z-0.659
G1 X184.825 Y22.66 Z-0.665
G1 X184.927 Y22.546 Z-0.67
G1 X185.001 Y22.458 Z-0.673
G1 X185.051 Y22.395
G1 X185.101 Y22.33
G1 X185.19 Y22.206
G1 X185.282 Y22.067 Z-0.67
G1 X185.306 Y22.033 Z-0.673
G1 X185.382 Y21.939 Z-0.706
G1 X185.46 Y21.841 Z-0.746
G1 X185.541 Y21.735 Z-0.793
G1 X185.69 Y21.538 Z-0.888
G1 X185.768 Y21.431 Z-0.944
G1 X185.83 Y21.344 Z-0.993
G1 X185.913 Y21.226
G1 X185.954 Y21.162
G1 X186.03 Y21.023
G1 X186.101 Y20.884
G1 X186.167 Y20.743
G1 X186.227 Y20.61
G1 X186.289 Y20.456
G1 X186.337 Y20.33
G1 X186.395 Y20.161
G1 X186.432 Y20.045
G1 X186.462 Y19.942
G1 X186.504 Y19.784
G1 X186.54 Y19.631
G1 X186.566 Y19.51
G1 X186.57 Y19.481
G1 X186.586 Y19.359
G1 X186.594 Y19.28
G1 X186.604 Y19.166
G1 X186.609 Y19.081
G1 X186.61 Y19.011
G1 X186.612 Y18.859
G1 Y18.69
G1 X186.61 Y18.575
G1 X186.601 Y18.386
G1 X186.594 Y18.267
G1 X186.583 Y18.147
G1 X186.56 Y17.948
G1 X186.531 Y17.756
G1 X186.512 Y17.647
G1 X186.471 Y17.447
G1 X186.446 Y17.338
G1 X186.395 Y17.147
G1 X186.364 Y17.039
G1 X186.301 Y16.848
G1 X186.262 Y16.735
G1 X186.194 Y16.558
G1 X186.146 Y16.441
G1 X186.069 Y16.267
G1 X186.012 Y16.147
G1 X185.925 Y15.976
G1 X185.859 Y15.853
G1 X185.766 Y15.69
G1 X185.695 Y15.571
G1 X185.586 Y15.401
G1 X185.513 Y15.29
G1 X185.387 Y15.111
G1 X185.087 Y15.11
G1 X184.588 Y15.103
G1 X184.348 Y15.097
G1 X184.131 Y15.092 Z-0.606
G1 X183.78 Y15.079 Z-0.001
G1 X184.131 Y15.092 Z-0.606
G1 X184.348 Y15.097 Z-0.993
G1 X184.588 Y15.103
G1 X185.087 Y15.11
G1 X185.387 Y15.111
G1 X185.39 Y14.915
G1 X185.385 Y14.654
G1 X185.378 Y14.493
G1 X185.352 Y14.151
G1 X185.349 Y14.096
G1 X185.346 Y14.05
G1 X185.345 Y13.949
G1 X185.351 Y13.851
G1 X185.365 Y13.756
G1 X185.371 Y13.722
G1 X185.388 Y13.649
G1 X185.409 Y13.578
G1 X185.435 Y13.509
G1 X185.456 Y13.465
G1 X185.47 Y13.436
G1 X185.513 Y13.357
G1 X185.595 Y13.219
G1 X185.607 Y13.199
G1 X185.667 Y13.088
G1 X185.735 Y12.957
G1 X185.769 Y12.888
G1 X185.856 Y12.695
G1 X185.882 Y12.633
G1 X185.957 Y12.435
G1 X185.995 Y12.329
G1 X186.041 Y12.176
G1 X186.077 Y12.049
G1 X186.087 Y12.011
G1 X186.138 Y11.788
G1 X186.159 Y11.681
G1 X186.183 Y11.531
G1 X186.201 Y11.403
G1 X186.208 Y11.343
G1 X186.226 Y11.137
G1 X186.235 Y11.006
G1 X186.237 Y10.944
G1 X186.24 Y10.736
G1 X186.239 Y10.634
G1 X186.231 Y10.46
G1 X186.223 Y10.318
G1 X186.215 Y10.224
G1 X186.2 Y10.078
G1 X186.173 Y9.871
G1 X186.137 Y9.658
G1 X186.117 Y9.551
G1 X186.069 Y9.328
G1 X186.042 Y9.216
G1 X186.024 Y9.144
G1 X185.98 Y8.983
G1 X185.91 Y8.742
G1 X185.83 Y8.498
G1 X185.789 Y8.375
G1 X185.691 Y8.111
G1 X185.642 Y7.983
G1 X185.537 Y7.726
G1 X185.412 Y7.445
G1 X185.337 Y7.29
G1 X185.281 Y7.168
G1 X185.257 Y7.112
G1 X185.241 Y7.073
G1 X185.108 Y6.837
G1 X185.025 Y6.705
G1 X184.941 Y6.579
G1 X184.909 Y6.533
G1 X184.758 Y6.331
G1 X184.661 Y6.212
G1 X184.56 Y6.096
G1 X184.529 Y6.062
G1 X184.394 Y5.92
G1 X184.347 Y5.875
G1 X184.25 Y5.783
G1 X184.118 Y5.666
G1 X184.1 Y5.65
G1 X183.929 Y5.513
G1 X183.877 Y5.475
G1 X183.775 Y5.4
G1 X183.625 Y5.298
G1 X183.599 Y5.281
G1 X183.414 Y5.166
G1 X183.36 Y5.136
G1 X183.218 Y5.057
G1 X183.087 Y4.99
G1 X183.009 Y4.951
G1 X182.791 Y4.85
G1 X182.518 Y4.738
G1 X182.27 Y4.648
G1 X182.222 Y4.633
G1 X182.062 Y4.581
G1 X181.919 Y4.539
G1 X181.793 Y4.504
G1 X181.61 Y4.457
G1 X181.512 Y4.433
G1 X181.295 Y4.386
G1 X181.218 Y4.37
G1 X180.974 Y4.325
G1 X180.895 Y4.312
G1 X180.789 Y4.292
G1 X180.675 Y4.264
G1 X180.648 Y4.261
G1 X180.312 Y4.231
G1 X179.971 Y4.206
G1 X179.759 Y4.194
G1 X179.686 Y4.182
G1 X179.58 Y4.168
G1 X179.474 Y4.159
G1 X179.368 Y4.156
G1 X171.41
G1 X171.334 Y4.185
G1 X171.251 Y4.219
G1 X170.15 Y4.675
G1 X169.947 Y4.759 Z-0.79
G1 X169.897 Y4.777 Z-0.745
G1 X169.848 Y4.792 Z-0.71
G1 X169.817 Y4.8 Z-0.694
G1 X169.797 Y4.805 Z-0.687
G1 X169.772 Y4.812 Z-0.683
G1 X169.749 Y4.823 Z-0.673
G1 X169.687 Y4.859 Z-0.654
G1 X169.637 Y4.893 Z-0.648
G1 X169.584 Y4.933 Z-0.645
G1 X169.536 Y4.973
G1 X169.486 Y5.017 Z-0.648
G1 X169.42 Y5.08 Z-0.653
G1 X169.364 Y5.14 Z-0.66
G1 X169.269 Y5.247 Z-0.673
G1 X169.212 Y5.319 Z-0.68
G1 X169.123 Y5.437 Z-0.69
G1 X169.092 Y5.481 Z-0.693
G1 X169.067 Y5.52 Z-0.698
G1 X169.055 Y5.585 Z-0.67
G1 X169.05 Y5.65 Z-0.657
G1 X169.045 Y5.831 Z-0.645
G1 X169.044 Y5.973 Z-0.643
G1 Y6.018 Z-0.641
G1 X169.048 Y6.166 Z-0.644
G1 X169.05 Y6.198 Z-0.643
G1 X169.061 Y6.345 Z-0.646
G1 X169.082 Y6.516 Z-0.648
G1 X169.086 Y6.537
G1 X169.112 Y6.676 Z-0.654
G1 X169.117 Y6.701 Z-0.653
G1 X169.149 Y6.826 Z-0.66
G1 X169.158 Y6.856
G1 X169.193 Y6.965 Z-0.668
G1 X169.208 Y7.006 Z-0.667
G1 X169.245 Y7.095 Z-0.674
G1 X169.269 Y7.149 Z-0.675
G1 X169.303 Y7.216 Z-0.681
G1 X169.339 Y7.283
G1 X169.355 Y7.31 Z-0.683
G1 X169.423 Y7.414 Z-0.689
G1 X169.51 Y7.526 Z-0.694
G1 X169.517 Y7.535
G1 X169.592 Y7.614 Z-0.696
G1 X169.621 Y7.643 Z-0.694
G1 X169.68 Y7.696 Z-0.697
G1 X169.739 Y7.745 Z-0.694
G1 X169.763 Y7.763
G1 X169.866 Y7.834 Z-0.692
G1 X169.988 Y7.905 Z-0.689
G1 X169.999 Y7.911 Z-0.687
G1 X170.108 Y7.963 Z-0.685
G1 X170.144 Y7.978 Z-0.681
G1 X170.238 Y8.015 Z-0.679
G1 X170.292 Y8.034 Z-0.675
G1 X170.378 Y8.06 Z-0.674
G1 X170.45 Y8.08 Z-0.669
G1 X170.526 Y8.098
G1 X170.613 Y8.116 Z-0.664
G1 X170.686 Y8.129 Z-0.665
G1 X170.783 Y8.144 Z-0.66
G1 X170.855 Y8.152 Z-0.661
G1 X170.958 Y8.162 Z-0.658
G1 X171.034 Y8.167 Z-0.659
G1 X171.14 Y8.172 Z-0.656
G1 X171.23 Y8.174 Z-0.658
G1 X171.286 Y8.178 Z-0.665
G1 X171.329 Y8.191 Z-0.663
G1 X171.372 Y8.209 Z-0.664
G1 X171.411 Y8.23 Z-0.67
G1 X171.451 Y8.257 Z-0.682
G1 X171.49 Y8.289 Z-0.7
G1 X171.513 Y8.34 Z-0.682
G1 X171.533 Y8.392 Z-0.675
G1 X171.552 Y8.454 Z-0.673
G1 X171.575 Y8.511 Z-0.661
G1 X171.584 Y8.551 Z-0.652
G1 X171.592 Y8.592 Z-0.648
G1 X172.47 Y14.948 Z-0.674
G1 X172.476 Y15.02 Z-0.684
G1 X172.474 Y15.093 Z-0.713
G1 X172.464 Y15.168 Z-0.761
G1 X172.447 Y15.243 Z-0.828
G1 X172.422 Y15.319 Z-0.914
G1 X172.397 Y15.377 Z-0.993
G1 X172.388 Y15.397
G1 X172.347 Y15.476
G1 X172.298 Y15.555
G1 X172.242 Y15.636
G1 X172.177 Y15.718
G1 X172.105 Y15.801
G1 X172.024 Y15.885
G1 X171.936 Y15.97
G1 X171.84 Y16.057
G1 X171.707 Y16.168
; MOVEMENT_RAPID
G0 Z5 F300
G0 X177.492 Y16.685 F2500
; MOVEMENT_LEAD_IN
G1 Z0 F180
; MOVEMENT_CUTTING
G1 X177.717 Y16.844 Z-0.481 F480
G1 X177.87 Y16.957 Z-0.808
G1 X177.968 Y17.03
G1 X178.191 Y17.2
G1 X178.388 Y17.358
G1 X178.56 Y17.501
G1 X178.708 Y17.631
G1 X178.833 Y17.747
G1 X178.938 Y17.85
G1 X179.026 Y17.941
G1 X179.098 Y18.02
G1 X179.156 Y18.087
G1 X179.203 Y18.147
G1 X179.244 Y18.202
G1 X179.275 Y18.248
G1 X179.302 Y18.289
G1 X179.328 Y18.335
G1 X179.352 Y18.38
G1 X179.374 Y18.424
G1 X179.397 Y18.476
G1 X179.421 Y18.535
G1 X179.445 Y18.599
G1 X179.468 Y18.67
G1 X179.475 Y18.742
G1 X179.482 Y18.853
G1 X179.485 Y18.947
G1 Y19.016
G1 X179.483 Y19.069
G1 X179.48 Y19.104
G1 X179.462 Y19.138
G1 X179.429 Y19.194
G1 X179.375 Y19.28
G1 X179.295 Y19.396
G1 X179.186 Y19.543
G1 X179.044 Y19.724
G1 X178.928 Y19.862
G1 X178.831 Y19.966
G1 X178.746 Y20.053
G1 X178.631 Y20.178
G1 X178.515 Y20.306
G1 X178.366 Y20.484
G1 X178.354 Y20.497 Z-0.774
G1 X178.241 Y20.635 Z-0.418
G1 X178.122 Y20.79 Z-0.022
G1 X178.116 Y20.798 Z-0.001
; MOVEMENT_RAPID
G0 Z5 F300
G0 X176.344 Y8.424 F2500
; MOVEMENT_LEAD_IN
G1 Z0 F180
; MOVEMENT_CUTTING
G1 X176.601 Y8.605 Z-0.555 F480
G1 X176.768 Y8.727 Z-0.915
G1 X176.88 Y8.809
G1 X177.126 Y8.998
G1 X177.34 Y9.17
G1 X177.526 Y9.326
G1 X177.686 Y9.467
G1 X177.82 Y9.593
G1 X177.933 Y9.704
G1 X178.027 Y9.803
G1 X178.104 Y9.89
G1 X178.166 Y9.964
G1 X178.218 Y10.031
G1 X178.263 Y10.094
G1 X178.301 Y10.151
G1 X178.335 Y10.207
G1 X178.367 Y10.263
G1 X178.397 Y10.322
G1 X178.428 Y10.386
G1 X178.459 Y10.457
G1 X178.491 Y10.537
G1 X178.522 Y10.624
G1 X178.556 Y10.729
G1 X178.58 Y10.809
G1 X178.597 Y10.943
G1 X178.608 Y11.065
G1 X178.614 Y11.157
G1 X178.615 Y11.223
G1 Y11.23
G1 X178.63 Y11.242
G1 X178.738 Y11.323
G1 X178.792 Y11.365
G1 X178.84 Y11.402
G1 X178.792 Y11.365
G1 X178.738 Y11.323
G1 X178.63 Y11.242
G1 X178.615 Y11.23
G1 X178.582 Y11.288
G1 X178.517 Y11.389
G1 X178.423 Y11.526
G1 X178.26 Y11.747
G1 X178.086 Y11.966
G1 X177.878 Y12.213
G1 X177.604 Y12.517
G1 X177.575 Y12.549
G1 X177.471 Y12.673
G1 X177.331 Y12.845
G1 X177.326 Y12.851 Z-0.899
G1 X177.229 Y12.974 Z-0.592
G1 X177.098 Y13.145 Z-0.161
G1 X177.051 Y13.209 Z0
; MOVEMENT_RAPID
G0 Z5 F300
G0 X63.099 Y2.831 F2500
; MOVEMENT_LEAD_IN
G1 Z-0.809 F180
; MOVEMENT_CUTTING
G1 X63.122 Y2.816 Z-0.873 F480
G1 X63.169 Y2.786 Z-0.995
G1 X63.17 Z-0.996
G1 X63.18 Y2.782 Z-1.015
G1 X63.211 Y2.771 Z-1.065
G1 X63.179 Y2.702 Z-0.898
G1 X63.161 Y2.652 Z-0.777
G1 X63.156 Y2.634 Z-0.733
G1 X63.161 Y2.652 Z-0.777
G1 X63.179 Y2.702 Z-0.898
G1 X63.211 Y2.771 Z-1.065
G1 X63.221 Y2.773 Z-1.068
G1 X63.303 Y2.774 Z-1.072
G1 X63.391 Y2.777 Z-1.078
G1 X63.528 Y2.784 Z-1.095
G1 X63.616 Y2.79 Z-1.11
G1 X63.751 Y2.802 Z-1.14
G1 X63.841 Y2.812 Z-1.164
G1 X63.976 Y2.83 Z-1.207
G1 X64.067 Y2.844 Z-1.241
G1 X64.203 Y2.868 Z-1.299
G1 X64.296 Y2.886 Z-1.343
G1 X64.434 Y2.916 Z-1.415
G1 X64.529 Y2.939 Z-1.471
G1 X64.669 Y2.976 Z-1.559
G1 X64.684 Y2.98 Z-1.569
G1 X64.768 Y3.004
G1 X64.912 Y3.048
G1 X65.072 Y3.1
G1 X65.163 Y3.132
G1 X65.253 Y3.166
G1 X65.346 Y3.203
G1 X65.441 Y3.242
G1 X65.537 Y3.284
G1 X65.634 Y3.329
G1 X65.736 Y3.378
G1 X65.794 Y3.35
G1 X65.896 Y3.303
G1 X65.997 Y3.259
G1 X66.094 Y3.219
G1 X66.191 Y3.181
G1 X66.286 Y3.146
G1 X66.38 Y3.113
G1 X66.473 Y3.082
G1 X66.572 Y3.051
G1 X66.723 Y3.008
G1 X66.822 Y2.982
G1 X66.83 Y2.98
G1 X66.97 Y2.946 Z-1.486
G1 X67.068 Y2.923 Z-1.433
G1 X67.212 Y2.893 Z-1.36
G1 X67.307 Y2.875 Z-1.317
G1 X67.451 Y2.851 Z-1.258
G1 X67.544 Y2.837 Z-1.225
G1 X67.687 Y2.818 Z-1.179
G1 X67.778 Y2.808 Z-1.155
G1 X67.921 Y2.795 Z-1.122
G1 X68.012 Y2.788 Z-1.106
G1 X68.156 Y2.78 Z-1.085
G1 X68.246 Y2.776 Z-1.077
G1 X68.403 Y2.773 Z-1.069
G1 X68.413 Z-1.068
G1 X68.423 Y2.774 Z-1.064
G1 X68.462 Y2.746 Z-0.962
G1 X68.495 Y2.722 Z-0.867
G1 X68.462 Y2.746 Z-0.962
G1 X68.423 Y2.774 Z-1.064
G1 X68.424 Y2.775 Z-1.063
G1 X68.483 Y2.911 Z-0.73
G1 X68.486 Y2.919 Z-0.712
G1 X68.483 Y2.911 Z-0.73
G1 X68.424 Y2.775 Z-1.063
G1 X68.423 Y2.774 Z-1.064
G1 X68.413 Y2.773 Z-1.068
G1 X68.403 Z-1.069
G1 X68.246 Y2.776 Z-1.077
G1 X68.156 Y2.78 Z-1.085
G1 X68.012 Y2.788 Z-1.106
G1 X67.921 Y2.795 Z-1.122
G1 X67.778 Y2.808 Z-1.155
G1 X67.687 Y2.818 Z-1.179
G1 X67.544 Y2.837 Z-1.225
G1 X67.451 Y2.851 Z-1.258
G1 X67.307 Y2.875 Z-1.317
G1 X67.212 Y2.893 Z-1.36
G1 X67.068 Y2.923 Z-1.433
G1 X66.97 Y2.946 Z-1.486
G1 X66.83 Y2.98 Z-1.569
G1 X66.822 Y2.982
G1 X66.723 Y3.008
G1 X66.572 Y3.051
G1 X66.473 Y3.082
G1 X66.38 Y3.113
G1 X66.286 Y3.146
G1 X66.191 Y3.181
G1 X66.094 Y3.219
G1 X65.997 Y3.259
G1 X65.896 Y3.303
G1 X65.794 Y3.35
G1 X65.736 Y3.378
G1 X65.735 Y3.502
G1 X65.734 Y3.62
G1 X65.733 Y3.734
G1 Y3.841
G1 X65.732 Y3.945
G1 X65.731 Y4.045
G1 Y4.142
G1 Y4.213
G1 X65.73 Y4.237 Z-1.55
G1 Y4.328 Z-1.487
G1 Y4.416 Z-1.434
G1 X65.729 Y4.504 Z-1.391
G1 Y4.6 Z-1.353
G1 Y4.682 Z-1.328
G1 Y4.765 Z-1.311
G1 Y4.847 Z-1.301
G1 Y4.919 Z-1.299
G1 Y19.248
G1 X65.732 Y19.344 Z-1.308
G1 X65.744 Y19.439 Z-1.336
G1 X65.764 Y19.535 Z-1.383
G1 X65.791 Y19.631 Z-1.449
G1 X65.826 Y19.726 Z-1.534
G1 X65.841 Y19.759 Z-1.569
G1 X65.869 Y19.822
G1 X65.919 Y19.918
G1 X65.978 Y20.014
G1 X66.044 Y20.109
G1 X66.118 Y20.205
G1 X66.239 Y20.354
G1 X66.141 Y20.436
G1 X66.042 Y20.511
G1 X65.944 Y20.578
G1 X65.845 Y20.637
G1 X65.746 Y20.688
G1 X65.648 Y20.732
G1 X65.562 Y20.763
G1 X65.549 Y20.767 Z-1.558
G1 X65.451 Y20.796 Z-1.49
G1 X65.352 Y20.816 Z-1.441
G1 X65.191 Y20.842 Z-1.377
G1 X65.029 Y20.866 Z-1.321
G1 X64.864 Y20.886 Z-1.271
G1 X64.697 Y20.905 Z-1.227
G1 X64.527 Y20.92 Z-1.189
G1 X64.355 Y20.934 Z-1.156
G1 X64.179 Y20.945 Z-1.129
G1 X63.998 Y20.955 Z-1.106
G1 X63.814 Y20.962 Z-1.089
G1 X63.626 Y20.967 Z-1.077
G1 X63.434 Y20.97 Z-1.07
G1 X63.3 Z-1.068
G1 X63.287 Y20.968 Z-1.063
G1 X63.255 Y20.983 Z-1.002
G1 X63.25 Y20.985 Z-0.993
G1 X63.205 Y21.013 Z-0.878
G1 X63.188 Y21.025 Z-0.83
G1 X63.205 Y21.013 Z-0.878
G1 X63.25 Y20.985 Z-0.993
G1 X63.255 Y20.983 Z-1.002
G1 X63.287 Y20.968 Z-1.063
G1 X63.249 Y20.903 Z-0.904
G1 X63.287 Y20.968 Z-1.063
G1 X63.3 Y20.97 Z-1.068
G1 X63.434 Z-1.07
G1 X63.626 Y20.967 Z-1.077
G1 X63.814 Y20.962 Z-1.089
G1 X63.998 Y20.955 Z-1.106
G1 X64.179 Y20.945 Z-1.129
G1 X64.355 Y20.934 Z-1.156
G1 X64.527 Y20.92 Z-1.189
G1 X64.697 Y20.905 Z-1.227
G1 X64.864 Y20.886 Z-1.271
G1 X65.029 Y20.866 Z-1.321
G1 X65.191 Y20.842 Z-1.377
G1 X65.352 Y20.816 Z-1.441
G1 X65.451 Y20.796 Z-1.49
G1 X65.549 Y20.767 Z-1.558
G1 X65.562 Y20.763 Z-1.569
G1 X65.648 Y20.732
G1 X65.746 Y20.688
G1 X65.845 Y20.637
G1 X65.944 Y20.578
G1 X66.042 Y20.511
G1 X66.141 Y20.436
G1 X66.239 Y20.354
G1 X66.316 Y20.355
G1 X66.448 Y20.351
G1 X66.58 Y20.34
G1 X66.712 Y20.32
G1 X66.844 Y20.293
G1 X66.975 Y20.257
G1 X67.107 Y20.214
G1 X67.239 Y20.163
G1 X67.371 Y20.105
G1 X67.502 Y20.038
G1 X67.601 Y19.985
G1 X67.7 Y19.93
G1 X67.8 Y19.87
G1 X67.899 Y19.806
G1 X68.381 Y19.486
G1 X69.229 Y20.762
G1 X69.44 Y21.079 Z-0.802
G1 X69.455 Y21.104 Z-0.734
G1 X69.44 Y21.079 Z-0.802
G1 X69.229 Y20.762 Z-1.569
G1 X68.381 Y19.486
G1 X73.449 Y7.395
G1 X73.518 Y7.238
G1 X73.595 Y7.084
G1 X73.679 Y6.933
G1 X73.769 Y6.785
G1 X73.767 Y3.332
G1 Y2.775 Z-1.049
G1 X73.765 Y2.755 Z-1.026
G1 X73.736 Y2.712 Z-0.914
G1 X73.718 Y2.684 Z-0.836
G1 X73.736 Y2.712 Z-0.914
G1 X73.765 Y2.755 Z-1.026
G1 X73.767 Y2.775 Z-1.049
G1 Y3.332 Z-1.569
G1 X73.769 Y6.785
G1 X73.943 Y6.817
G1 X74.11 Y6.853
G1 X74.27 Y6.891
G1 X74.422 Y6.933
G1 X74.566 Y6.978
G1 X74.704 Y7.026
G1 X74.834 Y7.077
G1 X74.956 Y7.131
G1 X75.071 Y7.188
G1 X75.179 Y7.248
G1 X75.28 Y7.312
G1 X75.373 Y7.378
G1 X75.458 Y7.448
G1 X75.521 Y7.506
G1 X75.537 Y7.52 Z-1.549
G1 X75.608 Y7.596 Z-1.462
G1 X75.671 Y7.675 Z-1.394
G1 X75.727 Y7.757 Z-1.346
G1 X75.776 Y7.842 Z-1.317
G1 X75.817 Y7.93 Z-1.307
G1 X80.677 Y19.503 Z-1.301
G1 X80.717 Y19.588 Z-1.31
G1 X80.764 Y19.671 Z-1.337
G1 X80.817 Y19.75 Z-1.382
G1 X80.878 Y19.827 Z-1.445
G1 X80.946 Y19.9 Z-1.527
G1 X80.977 Y19.93 Z-1.569
G1 X81.02 Y19.971
G1 X81.101 Y20.039
G1 X81.19 Y20.103
G1 X81.285 Y20.165
G1 X81.387 Y20.224
G1 X81.496 Y20.281
G1 X81.612 Y20.334
G1 X81.327 Y20.763
G1 X81.172 Y20.996 Z-1.007
G1 X81.146 Y21.024 Z-0.923
G1 X81.11 Y21.058 Z-0.813
G1 X81.079 Y21.082 Z-0.725
G1 X81.11 Y21.058 Z-0.813
G1 X81.146 Y21.024 Z-0.923
G1 X81.172 Y20.996 Z-1.007
G1 X81.327 Y20.763 Z-1.569
G1 X81.612 Y20.334
G1 X81.745 Y20.306
G1 X81.878 Y20.27
G1 X82.011 Y20.226
G1 X82.144 Y20.174
G1 X82.277 Y20.114
G1 X82.409 Y20.046
G1 X82.542 Y19.969
G1 X82.675 Y19.885
G1 X82.808 Y19.792
G1 X82.941 Y19.692
G1 X83.074 Y19.583
G1 X83.207 Y19.466
G1 X83.34 Y19.342
G1 X83.44
G1 X83.563 Y19.447
G1 X83.698 Y19.558
G1 X83.826 Y19.66
G1 X83.957 Y19.761
G1 X84.082 Y19.852
G1 X84.201 Y19.935
G1 X84.32 Y20.015
G1 X84.438 Y20.091
G1 X84.549 Y20.158
G1 X84.658 Y20.222
G1 X84.766 Y20.282
G1 X84.868 Y20.336
G1 X84.973 Y20.388
G1 X85.111 Y20.454
G1 X85.207 Y20.496
G1 X85.303 Y20.537
G1 X85.394 Y20.573
G1 X85.484 Y20.607
G1 X85.574 Y20.64
G1 X85.668 Y20.671
G1 X85.813 Y20.717
G1 X85.914 Y20.746
G1 X85.975 Y20.763
G1 X86.056 Y20.785 Z-1.516
G1 X86.153 Y20.809 Z-1.457
G1 X86.291 Y20.841 Z-1.381
G1 X86.385 Y20.861 Z-1.333
G1 X86.523 Y20.886 Z-1.271
G1 X86.614 Y20.902 Z-1.234
G1 X86.75 Y20.921 Z-1.187
G1 X86.84 Y20.932 Z-1.16
G1 X86.976 Y20.947 Z-1.125
G1 X87.065 Y20.954 Z-1.108
G1 X87.201 Y20.963 Z-1.087
G1 X87.289 Y20.967 Z-1.077
G1 X87.428 Y20.97 Z-1.069
G1 X87.446 Z-1.068
G1 X87.471 Y20.975 Z-1.058
G1 X87.523 Y21.089 Z-0.778
G1 X87.471 Y20.975 Z-1.058
G1 X87.473 Y20.974 Z-1.056
G1 X87.515 Y20.945 Z-0.945
G1 X87.545 Y20.925 Z-0.862
G1 X87.515 Y20.945 Z-0.945
G1 X87.473 Y20.974 Z-1.056
G1 X87.471 Y20.975 Z-1.058
G1 X87.446 Y20.97 Z-1.068
G1 X87.428 Z-1.069
G1 X87.289 Y20.967 Z-1.077
G1 X87.201 Y20.963 Z-1.087
G1 X87.065 Y20.954 Z-1.108
G1 X86.976 Y20.947 Z-1.125
G1 X86.84 Y20.932 Z-1.16
G1 X86.75 Y20.921 Z-1.187
G1 X86.614 Y20.902 Z-1.234
G1 X86.523 Y20.886 Z-1.271
G1 X86.385 Y20.861 Z-1.333
G1 X86.291 Y20.841 Z-1.381
G1 X86.153 Y20.809 Z-1.457
G1 X86.056 Y20.785 Z-1.516
G1 X85.975 Y20.763 Z-1.569
G1 X85.914 Y20.746
G1 X85.813 Y20.717
G1 X85.668 Y20.671
G1 X85.574 Y20.64
G1 X85.484 Y20.607
G1 X85.394 Y20.573
G1 X85.303 Y20.537
G1 X85.207 Y20.496
G1 X85.111 Y20.454
G1 X84.973 Y20.388
G1 X84.868 Y20.336
G1 X84.766 Y20.282
G1 X84.658 Y20.222
G1 X84.549 Y20.158
G1 X84.438 Y20.091
G1 X84.32 Y20.015
G1 X84.201 Y19.935
G1 X84.082 Y19.852
G1 X83.957 Y19.761
G1 X83.826 Y19.66
G1 X83.698 Y19.558
G1 X83.563 Y19.447
G1 X83.44 Y19.342
G1 X83.431 Y19.268
G1 X83.418 Y19.134
G1 X83.409 Y18.994
G1 X83.406 Y18.858
G1 Y4.919
G1 X83.407 Y4.819
G1 X83.414 Y4.674
G1 X83.426 Y4.532
G1 X83.442 Y4.401
G1 X83.538 Y4.318
G1 X83.682 Y4.199
G1 X83.822 Y4.088
G1 X83.953 Y3.989
G1 X84.085 Y3.893
G1 X84.211 Y3.806
G1 X84.333 Y3.725
G1 X84.454 Y3.649
G1 X84.568 Y3.581
G1 X84.682 Y3.516
G1 X84.794 Y3.456
G1 X84.899 Y3.402
G1 X85.004 Y3.35
G1 X85.106 Y3.303
G1 X85.207 Y3.259
G1 X85.304 Y3.219
G1 X85.401 Y3.181
G1 X85.496 Y3.146
G1 X85.59 Y3.113
G1 X85.683 Y3.082
G1 X85.783 Y3.051
G1 X85.95 Y3.004
G1 X86.042 Y2.98
G1 X86.115 Y2.961 Z-1.524
G1 X86.262 Y2.927 Z-1.441
G1 X86.358 Y2.906 Z-1.391
G1 X86.502 Y2.878 Z-1.324
G1 X86.597 Y2.862 Z-1.283
G1 X86.74 Y2.839 Z-1.229
G1 X86.832 Y2.827 Z-1.199
G1 X86.975 Y2.81 Z-1.158
G1 X87.066 Y2.801 Z-1.136
G1 X87.21 Y2.789 Z-1.108
G1 X87.3 Y2.783 Z-1.094
G1 X87.445 Y2.776 Z-1.078
G1 X87.535 Y2.774 Z-1.072
G1 X87.623 Y2.773 Z-1.068
G1 X87.633 Y2.774 Z-1.064
G1 X87.679 Y2.742 Z-0.944
G1 X87.705 Y2.722 Z-0.867
G1 X87.679 Y2.742 Z-0.944
G1 X87.633 Y2.774 Z-1.064
G1 X87.634 Y2.775 Z-1.062
G1 X87.694 Y2.913 Z-0.725
G1 X87.696 Y2.919 Z-0.712
G1 X87.694 Y2.913 Z-0.725
G1 X87.634 Y2.775 Z-1.062
G1 X87.633 Y2.774 Z-1.064
G1 X87.623 Y2.773 Z-1.068
G1 X87.535 Y2.774 Z-1.072
G1 X87.445 Y2.776 Z-1.078
G1 X87.3 Y2.783 Z-1.094
G1 X87.21 Y2.789 Z-1.108
G1 X87.066 Y2.801 Z-1.136
G1 X86.975 Y2.81 Z-1.158
G1 X86.832 Y2.827 Z-1.199
G1 X86.74 Y2.839 Z-1.229
G1 X86.597 Y2.862 Z-1.283
G1 X86.502 Y2.878 Z-1.324
G1 X86.358 Y2.906 Z-1.391
G1 X86.262 Y2.927 Z-1.441
G1 X86.115 Y2.961 Z-1.524
G1 X86.042 Y2.98 Z-1.569
G1 X85.95 Y3.004
G1 X85.783 Y3.051
G1 X85.683 Y3.082
G1 X85.59 Y3.113
G1 X85.496 Y3.146
G1 X85.401 Y3.181
G1 X85.304 Y3.219
G1 X85.207 Y3.259
G1 X85.106 Y3.303
G1 X85.004 Y3.35
G1 X84.899 Y3.402
G1 X84.794 Y3.456
G1 X84.682 Y3.516
G1 X84.568 Y3.581
G1 X84.454 Y3.649
G1 X84.333 Y3.725
G1 X84.211 Y3.806
G1 X84.085 Y3.893
G1 X83.953 Y3.989
G1 X83.822 Y4.088
G1 X83.682 Y4.199
G1 X83.538 Y4.318
G1 X83.442 Y4.401
G1 X83.306
G1 X83.173 Y4.287
G1 X83.042 Y4.179
G1 X82.907 Y4.073
G1 X82.779 Y3.976
G1 X82.652 Y3.883
G1 X82.53 Y3.799
G1 X82.412 Y3.72
G1 X82.294 Y3.645
G1 X82.182 Y3.578
G1 X82.072 Y3.514
G1 X81.963 Y3.455
G1 X81.859 Y3.4
G1 X81.755 Y3.349
G1 X81.656 Y3.302
G1 X81.52 Y3.242
G1 X81.425 Y3.203
G1 X81.333 Y3.166
G1 X81.241 Y3.132
G1 X81.151 Y3.1
G1 X80.99 Y3.047
G1 X80.846 Y3.004
G1 X80.763 Y2.98
G1 X80.747 Y2.976 Z-1.558
G1 X80.606 Y2.939 Z-1.47
G1 X80.51 Y2.916 Z-1.414
G1 X80.371 Y2.886 Z-1.342
G1 X80.278 Y2.868 Z-1.298
G1 X80.141 Y2.844 Z-1.24
G1 X80.049 Y2.83 Z-1.207
G1 X79.913 Y2.812 Z-1.164
G1 X79.823 Y2.802 Z-1.14
G1 X79.686 Y2.79 Z-1.11
G1 X79.597 Y2.784 Z-1.095
G1 X79.459 Y2.777 Z-1.078
G1 X79.37 Y2.774 Z-1.072
G1 X79.294 Y2.773 Z-1.069
G1 X79.272 Y2.767 Z-1.056
G1 X79.265 Y2.765 Z-1.051
G1 X79.233 Y2.774 Z-0.989
G1 X79.195 Y2.789 Z-0.899
G1 X79.174 Y2.798 Z-0.846
G1 X79.195 Y2.789 Z-0.899
G1 X79.233 Y2.774 Z-0.989
G1 X79.265 Y2.765 Z-1.051
G1 X79.253 Y2.744 Z-1
G1 X79.265 Y2.765 Z-1.051
G1 X79.272 Y2.767 Z-1.056
G1 X79.294 Y2.773 Z-1.069
G1 X79.37 Y2.774 Z-1.072
G1 X79.459 Y2.777 Z-1.078
G1 X79.597 Y2.784 Z-1.095
G1 X79.686 Y2.79 Z-1.11
G1 X79.823 Y2.802 Z-1.14
G1 X79.913 Y2.812 Z-1.164
G1 X80.049 Y2.83 Z-1.207
G1 X80.141 Y2.844 Z-1.24
G1 X80.278 Y2.868 Z-1.298
G1 X80.371 Y2.886 Z-1.342
G1 X80.51 Y2.916 Z-1.414
G1 X80.606 Y2.939 Z-1.47
G1 X80.747 Y2.976 Z-1.558
G1 X80.763 Y2.98 Z-1.569
G1 X80.846 Y3.004
G1 X80.99 Y3.047
G1 X81.151 Y3.1
G1 X81.241 Y3.132
G1 X81.333 Y3.166
G1 X81.425 Y3.203
G1 X81.52 Y3.242
G1 X81.656 Y3.302
G1 X81.755 Y3.349
G1 X81.859 Y3.4
G1 X81.963 Y3.455
G1 X82.072 Y3.514
G1 X82.182 Y3.578
G1 X82.294 Y3.645
G1 X82.412 Y3.72
G1 X82.53 Y3.799
G1 X82.652 Y3.883
G1 X82.779 Y3.976
G1 X82.907 Y4.073
G1 X83.042 Y4.179
G1 X83.173 Y4.287
G1 X83.306 Y4.401
G1 X83.315 Y4.472
G1 X83.328 Y4.606
G1 X83.337 Y4.746
G1 X83.341 Y4.881
G1 Y18.824
G1 Y19.275
; MOVEMENT_RAPID
G0 Z5 F300
G0 X42.887 Y2.726 F2500
; MOVEMENT_LEAD_IN
G1 Z-0.862 F180
; MOVEMENT_CUTTING
G1 X42.913 Y2.744 Z-0.937 F480
G1 X42.957 Y2.775 Z-1.052
G1 X42.962 Y2.776 Z-1.059
G1 X42.941 Y2.817 Z-0.961
G1 X42.92 Y2.87 Z-0.831
G1 X42.914 Y2.887 Z-0.789
G1 X42.92 Y2.87 Z-0.831
G1 X42.941 Y2.817 Z-0.961
G1 X42.962 Y2.776 Z-1.059
G1 X42.984 Y2.773 Z-1.069
G1 X43.098 Y2.775 Z-1.075
G1 X43.219 Y2.781 Z-1.089
G1 X43.339 Y2.79 Z-1.111
G1 X43.459 Y2.802 Z-1.141
G1 X43.581 Y2.818 Z-1.178
G1 X43.702 Y2.837 Z-1.224
G1 X43.826 Y2.86 Z-1.279
G1 X43.95 Y2.886 Z-1.343
G1 X44.076 Y2.917 Z-1.417
G1 X44.205 Y2.952 Z-1.501
G1 X44.273 Y2.972 Z-1.55
G1 X44.335 Y2.99
G1 X44.458 Y3.03
G1 X44.59 Y3.076
G1 X44.725 Y3.126
G1 X44.862 Y3.181
G1 X45.002 Y3.241
G1 X45.146 Y3.306
G1 X45.292 Y3.378
G1 X45.443 Y3.457
G1 X45.598 Y3.543
G1 X45.757 Y3.636
G1 X45.88 Y3.712
G1 X46.04 Y3.593
G1 X46.201 Y3.479
G1 X46.355 Y3.376
G1 X46.474 Y3.301
G1 X46.593 Y3.23
G1 X46.688 Y3.177
G1 X46.777 Y3.131
G1 X46.866 Y3.088
G1 X46.953 Y3.049
G1 X47.039 Y3.013
G1 X47.122 Y2.98
G1 X47.146 Y2.972
G1 X47.203 Y2.952 Z-1.501
G1 X47.283 Y2.925 Z-1.438
G1 X47.362 Y2.902 Z-1.381
G1 X47.439 Y2.881 Z-1.331
G1 X47.514 Y2.863 Z-1.287
G1 X47.589 Y2.847 Z-1.248
G1 X47.687 Y2.828 Z-1.203
G1 X47.76 Y2.817 Z-1.175
G1 X47.831 Y2.807 Z-1.151
G1 X47.902 Y2.798 Z-1.13
G1 X47.974 Y2.791 Z-1.113
G1 X48.045 Y2.785 Z-1.098
G1 X48.117 Y2.78 Z-1.087
G1 X48.248 Y2.775 Z-1.073
G1 X48.334 Y2.773 Z-1.069
G1 X48.353 Y2.77 Z-1.061
G1 X48.383 Y2.776 Z-1.017
G1 X48.386 Y2.777 Z-1.013
G1 X48.387 Z-1.011
G1 X48.388 Z-1.01
G1 X48.415 Y2.793 Z-0.943
G1 X48.464 Y2.821 Z-0.815
G1 X48.415 Y2.793 Z-0.943
G1 X48.388 Y2.777 Z-1.01
G1 X48.387 Z-1.011
G1 X48.386 Z-1.013
G1 X48.383 Y2.776 Z-1.017
G1 X48.353 Y2.77 Z-1.061
G1 X48.334 Y2.773 Z-1.069
G1 X48.248 Y2.775 Z-1.073
G1 X48.117 Y2.78 Z-1.087
G1 X48.045 Y2.785 Z-1.098
G1 X47.974 Y2.791 Z-1.113
G1 X47.902 Y2.798 Z-1.13
G1 X47.831 Y2.807 Z-1.151
G1 X47.76 Y2.817 Z-1.175
G1 X47.687 Y2.828 Z-1.203
G1 X47.589 Y2.847 Z-1.248
G1 X47.514 Y2.863 Z-1.287
G1 X47.439 Y2.881 Z-1.331
G1 X47.362 Y2.902 Z-1.381
G1 X47.283 Y2.925 Z-1.438
G1 X47.203 Y2.952 Z-1.501
G1 X47.146 Y2.972 Z-1.55
G1 X47.122 Y2.98
G1 X47.039 Y3.013
G1 X46.953 Y3.049
G1 X46.866 Y3.088
G1 X46.777 Y3.131
G1 X46.688 Y3.177
G1 X46.593 Y3.23
G1 X46.474 Y3.301
G1 X46.355 Y3.376
G1 X46.201 Y3.479
G1 X46.04 Y3.593
G1 X45.88 Y3.712
G1 X45.888 Y3.806
G1 X45.898 Y3.918
G1 X45.906 Y4.016
G1 X45.921 Y4.171
G1 X45.939 Y4.334
G1 X45.959 Y4.494
G1 X45.982 Y4.657
G1 X46.008 Y4.817
G1 X46.036 Y4.98
G1 X46.071 Y5.167
G1 X46.112 Y5.373
G1 X46.158 Y5.586
G1 X46.208 Y5.804
G1 X46.262 Y6.029
G1 X46.321 Y6.261
G1 X46.383 Y6.5
G1 X46.45 Y6.747
G1 X46.521 Y7.002
G1 X46.596 Y7.266
G1 X46.676 Y7.538
G1 X46.76 Y7.818
G1 X46.802 Y7.958
G1 X46.837 Y8.061
G1 X46.879 Y8.159
G1 X46.928 Y8.255
G1 X46.983 Y8.347
G1 X47.046 Y8.438
G1 Y8.548
G1 X47.054 Y8.656
G1 X47.068 Y8.761
G1 X47.09 Y8.863
G1 X47.119 Y8.963
G1 X47.153 Y9.064
G1 X47.217 Y9.257 Z-1.528
G1 X47.354 Y9.658 Z-1.489
G1 X47.505 Y10.096 Z-1.451
G1 X47.673 Y10.574 Z-1.415
G1 X47.857 Y11.093 Z-1.382
G1 X48.091 Y11.74 Z-1.35
G1 X48.326 Y12.386 Z-1.322
G1 X48.564 Y13.032 Z-1.299
G1 X48.804 Y13.679 Z-1.281
G1 X49.441 Y15.376 Z-1.251
G1 X49.754 Y16.209 Z-1.235
G1 X49.79 Y16.293 Z-1.244
G1 X49.834 Y16.374 Z-1.271
G1 X49.884 Y16.453 Z-1.316
G1 X49.941 Y16.529 Z-1.379
G1 X50.005 Y16.602 Z-1.46
G1 X50.069 Y16.667 Z-1.55
G1 X50.076 Y16.673
G1 X50.154 Y16.741
G1 X50.239 Y16.806
G1 X50.331 Y16.869
G1 X50.43 Y16.929
G1 X50.536 Y16.987
G1 X50.648 Y17.041
G1 X50.768 Y17.093
G1 X50.895 Y17.143
G1 X51.029 Y17.19
G1 X51.169 Y17.234
G1 X51.317 Y17.275
G1 X51.471 Y17.314
G1 X51.633 Y17.35
G1 X51.801 Y17.383
G1 X51.72 Y20.968
G1 X51.707 Y21.509 Z-1.054
G1 X51.734 Y21.555 Z-0.94
G1 X51.744 Y21.573 Z-0.892
G1 X51.734 Y21.555 Z-0.94
G1 X51.707 Y21.509 Z-1.054
G1 X51.673 Y21.556 Z-0.937
G1 X51.639 Y21.596 Z-0.828
G1 X51.603 Y21.633 Z-0.713
G1 X51.595 Y21.641 Z-0.687
G1 X51.603 Y21.633 Z-0.713
G1 X51.639 Y21.596 Z-0.828
G1 X51.673 Y21.556 Z-0.937
G1 X51.707 Y21.509 Z-1.054
G1 X51.72 Y20.968 Z-1.55
G1 X51.801 Y17.383
G1 X51.886 Y17.245
G1 X51.966 Y17.105
G1 X52.039 Y16.962
G1 X52.106 Y16.817
G1 X52.344 Y16.276
G1 X52.732 Y15.388
G1 X53.035 Y14.69
G1 X53.402 Y13.839
G1 X53.759 Y13.007
G1 X54.03 Y12.375
G1 X54.353 Y11.622
G1 X54.647 Y10.93
G1 X54.863 Y10.42
G1 X55.06 Y9.949
G1 X55.239 Y9.516
G1 X55.289 Y9.389
G1 X55.335 Y9.26
G1 X55.376 Y9.129
G1 X55.414 Y8.996
G1 X53.932 Y8.44
G1 X53.874 Y8.418 Z-1.455
G1 X53.829 Y8.401 Z-1.389
G1 X53.785 Y8.385 Z-1.331
G1 X53.741 Y8.368 Z-1.279
G1 X53.697 Y8.352 Z-1.235
G1 X53.623 Y8.327 Z-1.175
G1 X53.549 Y8.307 Z-1.128
G1 X53.475 Y8.293 Z-1.094
G1 X53.401 Y8.285 Z-1.074
G1 X53.327 Y8.282 Z-1.068
G1 X47.79
G1 X47.708 Y8.286 Z-1.076
G1 X47.626 Y8.296 Z-1.101
G1 X47.544 Y8.313 Z-1.142
G1 X47.493 Y8.326 Z-1.178
G1 X47.441 Y8.339 Z-1.227
G1 X47.387 Y8.352 Z-1.288
G1 X47.33 Y8.367 Z-1.364
G1 X47.269 Y8.382 Z-1.455
G1 X47.211 Y8.396 Z-1.55
G1 X47.046 Y8.438
G1 X47.211 Y8.396
G1 X47.269 Y8.382 Z-1.455
G1 X47.33 Y8.367 Z-1.364
G1 X47.387 Y8.352 Z-1.288
G1 X47.441 Y8.339 Z-1.227
G1 X47.493 Y8.326 Z-1.178
G1 X47.544 Y8.313 Z-1.142
G1 X47.626 Y8.296 Z-1.101
G1 X47.708 Y8.286 Z-1.076
G1 X47.79 Y8.282 Z-1.068
G1 X53.327
G1 X53.401 Y8.285 Z-1.074
G1 X53.475 Y8.293 Z-1.094
G1 X53.549 Y8.307 Z-1.128
G1 X53.623 Y8.327 Z-1.175
G1 X53.697 Y8.352 Z-1.235
G1 X53.741 Y8.368 Z-1.279
G1 X53.785 Y8.385 Z-1.331
G1 X53.829 Y8.401 Z-1.389
G1 X53.874 Y8.418 Z-1.455
G1 X53.932 Y8.44 Z-1.55
G1 X55.414 Y8.996
G1 X55.48 Y8.873
G1 X55.542 Y8.748
G1 X55.6 Y8.621
G1 X55.631 Y8.55
G1 X55.779 Y8.19
G1 X55.926 Y7.826
G1 X56.071 Y7.462
G1 X56.182 Y7.179
G1 X56.209 Y7.101
G1 X56.239 Y7.01
G1 X56.27 Y6.919
G1 X56.3 Y6.827
G1 X56.33 Y6.736
G1 X56.359 Y6.646
G1 X56.389 Y6.553
G1 X56.417 Y6.463
G1 X56.445 Y6.373
G1 X56.474 Y6.279
G1 X56.504 Y6.179
G1 X56.531 Y6.085
G1 X56.559 Y5.99
G1 X56.585 Y5.895
G1 X56.61 Y5.801
G1 X56.633 Y5.707
G1 X56.656 Y5.614
G1 X56.678 Y5.521
G1 X56.698 Y5.432
G1 X56.718 Y5.338
G1 X56.736 Y5.249
G1 X56.754 Y5.155
G1 X56.77 Y5.067
G1 X56.785 Y4.977
G1 X56.799 Y4.883
G1 X56.811 Y4.795
G1 X56.822 Y4.704
G1 X56.832 Y4.613
G1 X56.84 Y4.525
G1 X56.847 Y4.429
G1 X56.691 Y4.237
G1 X56.603 Y4.148
G1 X56.473 Y4.02
G1 X56.393 Y3.946
G1 X56.287 Y3.852
G1 X56.129 Y3.722
G1 X55.975 Y3.606
G1 X55.84 Y3.513
G1 X55.716 Y3.435
G1 X55.603 Y3.371
G1 X55.496 Y3.314
G1 X55.4 Y3.268
G1 X55.31 Y3.227
G1 X55.225 Y3.192
G1 X55.145 Y3.161
G1 X55.033 Y3.122
G1 X54.92 Y3.085
G1 X54.824 Y3.057
G1 X54.689 Y3.021
G1 X54.552 Y2.989
G1 X54.475 Y2.972
G1 X54.414 Y2.959 Z-1.518
G1 X54.278 Y2.932 Z-1.453
G1 X54.082 Y2.895 Z-1.365
G1 X53.895 Y2.864 Z-1.288
G1 X53.725 Y2.837 Z-1.225
G1 X53.604 Y2.821 Z-1.185
G1 X53.494 Y2.807 Z-1.153
G1 X53.387 Y2.796 Z-1.125
G1 X53.284 Y2.787 Z-1.103
G1 X53.183 Y2.78 Z-1.086
G1 X53.083 Y2.775 Z-1.074
G1 X53.006 Y2.773 Z-1.069
G1 X52.984 Y2.776 Z-1.059
G1 X52.959 Y2.826 Z-0.939
G1 X52.939 Y2.878 Z-0.812
G1 X52.959 Y2.826 Z-0.939
G1 X52.984 Y2.776 Z-1.059
G1 X52.979 Y2.775 Z-1.052
G1 X52.936 Y2.744 Z-0.937
G1 X52.91 Y2.726 Z-0.862
G1 X52.936 Y2.744 Z-0.937
G1 X52.979 Y2.775 Z-1.052
G1 X52.984 Y2.776 Z-1.059
G1 X53.006 Y2.773 Z-1.069
G1 X53.083 Y2.775 Z-1.074
G1 X53.183 Y2.78 Z-1.086
G1 X53.284 Y2.787 Z-1.103
G1 X53.387 Y2.796 Z-1.125
G1 X53.494 Y2.807 Z-1.153
G1 X53.604 Y2.821 Z-1.185
G1 X53.725 Y2.837 Z-1.225
G1 X53.895 Y2.864 Z-1.288
G1 X54.082 Y2.895 Z-1.365
G1 X54.278 Y2.932 Z-1.453
G1 X54.414 Y2.959 Z-1.518
G1 X54.475 Y2.972 Z-1.55
G1 X54.552 Y2.989
G1 X54.689 Y3.021
G1 X54.824 Y3.057
G1 X54.92 Y3.085
G1 X55.033 Y3.122
G1 X55.145 Y3.161
G1 X55.225 Y3.192
G1 X55.31 Y3.227
G1 X55.4 Y3.268
G1 X55.496 Y3.314
G1 X55.603 Y3.371
G1 X55.716 Y3.435
G1 X55.84 Y3.513
G1 X55.975 Y3.606
G1 X56.129 Y3.722
G1 X56.287 Y3.852
G1 X56.393 Y3.946
G1 X56.473 Y4.02
G1 X56.603 Y4.148
G1 X56.691 Y4.237
G1 X56.849 Y4.401
G1 X57.395
G1 X56.182 Y7.179
G1 X57.395 Y4.401
G1 X57.864 Y4.096
G1 X58.175 Y3.899
G1 X58.416 Y3.751
G1 X58.648 Y3.611
G1 X58.816 Y3.514
G1 X58.96 Y3.435
G1 X59.085 Y3.371
G1 X59.239 Y3.295
G1 X59.389 Y3.226
G1 X59.537 Y3.162
G1 X59.682 Y3.102
G1 X59.826 Y3.047
G1 X59.967 Y2.996
G1 X60.039 Y2.972
G1 X60.072 Y2.961 Z-1.523
G1 X60.18 Y2.927 Z-1.442
G1 X60.286 Y2.898 Z-1.37
G1 X60.39 Y2.871 Z-1.307
G1 X60.492 Y2.848 Z-1.252
G1 X60.594 Y2.829 Z-1.204
G1 X60.695 Y2.812 Z-1.164
G1 X60.794 Y2.798 Z-1.131
G1 X60.893 Y2.788 Z-1.105
G1 X60.991 Y2.78 Z-1.086
G1 X61.089 Y2.775 Z-1.074
G1 X61.157 Y2.773 Z-1.069
G1 X61.174 Y2.768 Z-1.057
G1 X61.179 Y2.766 Z-1.053
G1 X61.224 Y2.769 Z-0.97
G1 X61.255 Y2.775 Z-0.906
G1 X61.29 Y2.789 Z-0.825
G1 X61.304 Y2.794 Z-0.789
G1 X61.29 Y2.789 Z-0.825
G1 X61.255 Y2.775 Z-0.906
G1 X61.224 Y2.769 Z-0.97
G1 X61.179 Y2.766 Z-1.053
G1 X61.21 Y2.694 Z-0.878
G1 X61.227 Y2.64 Z-0.747
G1 X61.231 Y2.621 Z-0.702
; MOVEMENT_RAPID
G0 Z5 F300
G0 X22.357 Y20.623 F2500
; MOVEMENT_LEAD_IN
G1 Z0 F180
; MOVEMENT_CUTTING
G1 X22.526 Y20.775 Z-0.519 F480
G1 X22.543 Y20.791
G1 X22.697 Y20.93
; MOVEMENT_RAPID
G0 Z5 F300
G0 X22.357 Y21.236 F2500
; MOVEMENT_LEAD_IN
G1 Z0 F180
; MOVEMENT_CUTTING
G1 X22.543 Y21.068 Z-0.572 F480
G1 X22.685 Y20.941 Z-1
G1 X22.697 Y20.93
G1 X22.759
G1 X22.76 Y20.929
G1 X22.882
G1 X23.089 Y20.927
G1 X23.28 Y20.924
G1 X23.457 Y20.919
G1 X23.619 Y20.913
G1 X23.768 Y20.905
G1 X23.905 Y20.895
G1 X23.993 Y20.887
G1 X24.082 Y20.877
G1 X24.163 Y20.866
G1 X24.237 Y20.854
G1 X24.317 Y20.839
G1 X24.395 Y20.821
G1 X24.478 Y20.799
G1 X24.562 Y20.774
G1 X24.647 Y20.745
G1 X24.738 Y20.711
G1 X24.827 Y20.675
G1 X24.922 Y20.631
G1 X25.011 Y20.588
G1 X25.115 Y20.532
G1 X25.205 Y20.48
G1 X25.313 Y20.414
G1 X25.466 Y20.313
G1 X25.569 Y20.242
G1 X25.71 Y20.139
G1 X25.855 Y20.027
G1 X25.998 Y19.91
G1 X26.143 Y19.788
G1 X26.294 Y19.656
G1 X26.469 Y19.498
G1 X26.667 Y19.314
G1 X27.034
G1 X27.128 Y19.405
G1 X27.279 Y19.546
G1 X27.404 Y19.658
G1 X27.549 Y19.78
G1 X27.665 Y19.874
G1 X27.806 Y19.982
G1 X27.916 Y20.062
G1 X28.05 Y20.153
G1 X28.155 Y20.221
G1 X28.275 Y20.293
G1 X28.382 Y20.354
G1 X28.493 Y20.413
G1 X28.59 Y20.46
G1 X28.691 Y20.507
G1 X28.787 Y20.548
G1 X28.875 Y20.583
G1 X29.003 Y20.63
G1 X29.101 Y20.663
G1 X29.197 Y20.694
G1 X29.305 Y20.726
G1 X29.427 Y20.759
G1 X29.52 Y20.782
G1 X29.623 Y20.804
G1 X29.744 Y20.828
G1 X29.835 Y20.844
G1 X29.923 Y20.858
G1 X30.018 Y20.871
G1 X30.139 Y20.885
G1 X30.26 Y20.898
G1 X30.382 Y20.908
G1 X30.502 Y20.916
G1 X30.624 Y20.923
G1 X30.745 Y20.927
G1 X30.868 Y20.929
G1 X31.107 Y20.928
G1 X31.275 Y20.925
G1 X31.441 Y20.918
G1 X31.551 Y20.912
G1 X31.769 Y20.895
G1 X31.93 Y20.878
G1 X32.091 Y20.857
G1 X32.202 Y20.84
G1 X32.41 Y20.804
G1 X32.568 Y20.771
G1 X32.725 Y20.735
G1 X32.883 Y20.695
G1 X33.027 Y20.653
G1 X33.196 Y20.601
G1 X33.352 Y20.547
G1 X33.508 Y20.489
G1 X33.663 Y20.426
G1 X33.794 Y20.369
G1 X33.975 Y20.285
G1 X34.131 Y20.207
G1 X34.287 Y20.123
G1 X34.442 Y20.034
G1 X34.598 Y19.939
G1 X34.753 Y19.84
G1 X34.902 Y19.738
G1 X35.044 Y19.637
G1 X35.184 Y19.533
G1 X35.325 Y19.424
G1 X35.485 Y19.294
G1 X35.6 Y19.197
G1 X35.758 Y19.057
G1 X35.892 Y18.934
G1 X36.025 Y18.807
G1 X36.156 Y18.675
G1 X36.262 Y18.564
G1 X36.387 Y18.427
G1 X36.512 Y18.284
G1 X36.632 Y18.14
G1 X36.752 Y17.989
G1 X36.852 Y17.857
G1 X36.944 Y17.729
G1 X36.979 Y17.679
G1 X37.089 Y17.518
G1 X37.194 Y17.354
G1 X37.281 Y17.212
G1 X37.316 Y17.153
G1 X37.395 Y17.013
G1 X37.491 Y16.838
G1 X37.57 Y16.682
G1 X37.598 Y16.625
G1 X37.678 Y16.456
G1 X37.718 Y16.298
G1 X37.76 Y16.122
G1 X37.801 Y15.945
G1 X37.84 Y15.768
G1 X37.876 Y15.592
G1 X37.911 Y15.416
G1 X37.945 Y15.239
G1 X37.976 Y15.062
G1 X38.005 Y14.884
G1 X38.033 Y14.708
G1 X38.058 Y14.532
G1 X38.083 Y14.353
G1 X38.104 Y14.177
G1 X38.124 Y14.001
G1 X38.143 Y13.824
G1 X38.159 Y13.646
G1 X38.173 Y13.47
G1 X38.186 Y13.293
G1 X38.196 Y13.115
G1 X38.205 Y12.939
G1 X38.212 Y12.762
G1 X38.217 Y12.584
G1 X38.22 Y12.408
G1 X38.221 Y12.233
G1 X38.22 Y12.033
G1 X38.218 Y11.837
G1 X38.214 Y11.644
G1 X38.209 Y11.448
G1 X38.202 Y11.254
G1 X38.193 Y11.06
G1 X38.183 Y10.868
G1 X38.171 Y10.674
G1 X38.158 Y10.481
G1 X38.143 Y10.289
G1 X38.127 Y10.096
G1 X38.109 Y9.905
G1 X38.089 Y9.714
G1 X38.068 Y9.524
G1 X38.045 Y9.332
G1 X38.021 Y9.144
G1 X37.996 Y8.953
G1 X37.968 Y8.763
G1 X37.939 Y8.576
G1 X37.908 Y8.387
G1 X37.876 Y8.199
G1 X37.843 Y8.012
G1 X37.807 Y7.825
G1 X37.798 Y7.776
G1 X37.829 Y7.831
G1 X37.887 Y7.935
G1 X37.944 Y8.042
G1 X38 Y8.15
G1 X38.054 Y8.261
G1 X38.106 Y8.372
G1 X38.157 Y8.485
G1 X38.206 Y8.6
G1 X38.254 Y8.717
G1 X38.301 Y8.835
G1 X38.348 Y8.96
G1 X38.394 Y9.087
G1 X38.436 Y9.21
G1 X38.477 Y9.335
G1 X38.515 Y9.461
G1 X38.552 Y9.588
G1 X38.587 Y9.716
G1 X38.621 Y9.846
G1 X38.652 Y9.976
G1 X38.682 Y10.108
G1 X38.71 Y10.241
G1 X38.736 Y10.375
G1 X38.76 Y10.511
G1 X38.782 Y10.649
G1 X38.803 Y10.787
G1 X38.821 Y10.926
G1 X38.838 Y11.067
G1 X38.852 Y11.21
G1 X38.865 Y11.354
G1 X38.876 Y11.499
G1 X38.885 Y11.646
G1 X38.892 Y11.794
G1 X38.897 Y11.944
G1 X38.9 Y12.095
G1 X38.901 Y12.244
G1 X38.899 Y12.437
G1 X38.894 Y12.624
G1 X38.885 Y12.808
G1 X38.873 Y12.989
G1 X38.857 Y13.166
G1 X38.838 Y13.341
G1 X38.816 Y13.512
G1 X38.79 Y13.681
G1 X38.761 Y13.846
G1 X38.729 Y14.009
G1 X38.694 Y14.17
G1 X38.656 Y14.327
G1 X38.614 Y14.481
G1 X38.57 Y14.633
G1 X38.522 Y14.783
G1 X38.472 Y14.93
G1 X38.418 Y15.075
G1 X38.361 Y15.218
G1 X38.301 Y15.358
G1 X38.238 Y15.496
G1 X38.172 Y15.633
G1 X38.103 Y15.767
G1 X38.031 Y15.899
G1 X37.954 Y16.031
G1 X37.875 Y16.161
G1 X37.793 Y16.289
G1 X37.708 Y16.414
G1 X37.678 Y16.456
G1 X37.708 Y16.414
G1 X37.793 Y16.289
G1 X37.875 Y16.161
G1 X37.954 Y16.031
G1 X38.031 Y15.899
G1 X38.103 Y15.767
G1 X38.172 Y15.633
G1 X38.238 Y15.496
G1 X38.301 Y15.358
G1 X38.361 Y15.218
G1 X38.418 Y15.075
G1 X38.472 Y14.93
G1 X38.522 Y14.783
G1 X38.57 Y14.633
G1 X38.614 Y14.481
G1 X38.656 Y14.327
G1 X38.694 Y14.17
G1 X38.729 Y14.009
G1 X38.761 Y13.846
G1 X38.79 Y13.681
G1 X38.816 Y13.512
G1 X38.838 Y13.341
G1 X38.857 Y13.166
G1 X38.873 Y12.989
G1 X38.885 Y12.808
G1 X38.894 Y12.624
G1 X38.899 Y12.437
G1 X38.901 Y12.244
G1 X38.9 Y12.095
G1 X38.897 Y11.944
G1 X38.892 Y11.794
G1 X38.885 Y11.646
G1 X38.876 Y11.499
G1 X38.865 Y11.354
G1 X38.852 Y11.21
G1 X38.838 Y11.067
G1 X38.821 Y10.926
G1 X38.803 Y10.787
G1 X38.782 Y10.649
G1 X38.76 Y10.511
G1 X38.736 Y10.375
G1 X38.71 Y10.241
G1 X38.682 Y10.108
G1 X38.652 Y9.976
G1 X38.621 Y9.846
G1 X38.587 Y9.716
G1 X38.552 Y9.588
G1 X38.515 Y9.461
G1 X38.477 Y9.335
G1 X38.436 Y9.21
G1 X38.394 Y9.087
G1 X38.348 Y8.96
G1 X38.301 Y8.835
G1 X38.254 Y8.717
G1 X38.206 Y8.6
G1 X38.157 Y8.485
G1 X38.106 Y8.372
G1 X38.054 Y8.261
G1 X38 Y8.15
G1 X37.944 Y8.042
G1 X37.887 Y7.935
G1 X37.829 Y7.831
G1 X37.798 Y7.776
G1 X37.778 Y7.723
G1 X37.689 Y7.499
G1 X37.594 Y7.277
G1 X37.544 Y7.167
G1 X37.44 Y6.948
G1 X37.328 Y6.732
G1 X37.269 Y6.624
G1 X37.147 Y6.409
G1 X37.018 Y6.199
G1 X36.951 Y6.097
G1 X36.814 Y5.894
G1 X36.668 Y5.694
G1 X36.593 Y5.595
G1 X36.434 Y5.398
G1 X36.352 Y5.3
G1 X36.18 Y5.107
G1 X36.091 Y5.011
G1 X35.905 Y4.821
G1 X35.808 Y4.727
G1 X35.611 Y4.546
G1 X35.501 Y4.45
G1 X35.393 Y4.359
G1 X35.181 Y4.189
G1 X35.052 Y4.091
G1 X34.933 Y4.004
G1 X34.731 Y3.865
G1 X34.569 Y3.76
G1 X34.433 Y3.678
G1 X34.241 Y3.57
G1 X34.075 Y3.483
G1 X33.91 Y3.403
G1 X33.747 Y3.33
G1 X33.602 Y3.27
G1 X33.454 Y3.213
G1 X33.238 Y3.138
G1 X33.068 Y3.084
G1 X32.897 Y3.035
G1 X32.725 Y2.992
G1 X32.551 Y2.952
G1 X32.377 Y2.917
G1 X32.2 Y2.887
G1 X32.022 Y2.861
G1 X31.849 Y2.84
G1 X31.677 Y2.823
G1 X31.503 Y2.809
G1 X31.326 Y2.8
G1 X31.103 Y2.791
G1 X30.913 Y2.787
G1 X30.719 Y2.786
G1 X30.599 Y2.787
G1 X30.48 Y2.791
G1 X30.362 Y2.797
G1 X30.244 Y2.806
G1 X30.125 Y2.818
G1 X30.007 Y2.833
G1 X29.887 Y2.85
G1 X29.766 Y2.871
G1 X29.645 Y2.895
G1 X29.522 Y2.922
G1 X29.397 Y2.952
G1 X29.271 Y2.986
G1 X29.181 Y3.013
G1 X29.08 Y3.046
G1 X28.959 Y3.09
G1 X28.849 Y3.133
G1 X28.727 Y3.185
G1 X28.645 Y3.223
G1 X28.561 Y3.264
G1 X28.431 Y3.331
G1 X28.338 Y3.383
G1 X28.246 Y3.437
G1 X28.153 Y3.495
G1 X28.054 Y3.559
G1 X27.952 Y3.628
G1 X27.85 Y3.701
G1 X27.743 Y3.781
G1 X27.633 Y3.867
G1 X27.524 Y3.956
G1 X27.408 Y4.054
G1 X27.29 Y4.159
G1 X27.174 Y4.267
G1 X27.034 Y4.401
G1 X27.033 Y4.426
G1 Y4.919
G1 Y19.248
G1 X27.034 Y19.313
G1 X27.033 Y19.277
G1 Y4.919
G1 Y4.468
G1 X27.034 Y4.401
G1 X26.667
G1 X26.469 Y4.217
G1 X26.294 Y4.059
G1 X26.143 Y3.927
G1 X25.999 Y3.805
G1 X25.857 Y3.689
G1 X25.713 Y3.577
G1 X25.574 Y3.474
G1 X25.472 Y3.402
G1 X25.354 Y3.324
G1 X25.252 Y3.26
G1 X25.158 Y3.205
G1 X25.062 Y3.152
G1 X24.97 Y3.104
G1 X24.878 Y3.061
G1 X24.792 Y3.023
G1 X24.703 Y2.988
G1 X24.62 Y2.957
G1 X24.537 Y2.93
G1 X24.457 Y2.907
G1 X24.378 Y2.887
G1 X24.3 Y2.869
G1 X24.226 Y2.855
G1 X24.148 Y2.841
G1 X24.08 Y2.832
G1 X24.015 Y2.825
G1 X23.899 Y2.815
G1 X23.803 Y2.809
G1 X23.661 Y2.802
G1 X23.506 Y2.796
G1 X23.337 Y2.792
G1 X23.087 Y2.788
G1 X22.809 Y2.786
G1 X22.759
G1 X22.749 Y2.788
G1 X22.7
G1 X22.683 Y2.781
G1 X22.7 Y2.788
G1 X22.749
G1 X22.759 Y2.786
G1 X22.809
G1 X23.087 Y2.788
G1 X23.337 Y2.792
G1 X23.506 Y2.796
G1 X23.661 Y2.802
G1 X23.803 Y2.809
G1 X23.899 Y2.815
G1 X24.015 Y2.825
G1 X24.08 Y2.832
G1 X24.148 Y2.841
G1 X24.226 Y2.855
G1 X24.3 Y2.869
G1 X24.378 Y2.887
G1 X24.457 Y2.907
G1 X24.537 Y2.93
G1 X24.62 Y2.957
G1 X24.703 Y2.988
G1 X24.792 Y3.023
G1 X24.878 Y3.061
G1 X24.97 Y3.104
G1 X25.062 Y3.152
G1 X25.158 Y3.205
G1 X25.252 Y3.26
G1 X25.354 Y3.324
G1 X25.472 Y3.402
G1 X25.574 Y3.474
G1 X25.713 Y3.577
G1 X25.857 Y3.689
G1 X25.999 Y3.805
G1 X26.143 Y3.927
G1 X26.294 Y4.059
G1 X26.469 Y4.217
G1 X26.667 Y4.401
G1 X26.668 Y4.418
G1 X26.672 Y4.498
G1 X26.675 Y4.582
G1 X26.678 Y4.662
G1 X26.68 Y4.744
G1 X26.681 Y4.826
G1 Y4.909
G1 Y18.797
G1 Y18.873
G1 X26.68 Y18.954
G1 X26.678 Y19.035
G1 X26.676 Y19.114
G1 X26.673 Y19.194
G1 X26.669 Y19.276
G1 X26.667 Y19.314
; MOVEMENT_RAPID
G0 Z5 F300
G0 X2.42 Y2.729 F2500
; MOVEMENT_LEAD_IN
G1 Z-0.874 F180
; MOVEMENT_CUTTING
G1 X2.442 Y2.744 Z-0.935 F480
G1 X2.486 Y2.775 Z-1.052
G1 X2.49 Y2.776 Z-1.059
G1 X2.465 Y2.827 Z-0.936
G1 X2.446 Y2.877 Z-0.814
G1 X2.444 Y2.885 Z-0.792
G1 X2.446 Y2.877 Z-0.814
G1 X2.465 Y2.827 Z-0.936
G1 X2.49 Y2.776 Z-1.059
G1 X2.513 Y2.773 Z-1.069
G1 X2.627 Y2.775 Z-1.075
G1 X2.747 Y2.781 Z-1.089
G1 X2.868 Y2.79 Z-1.111
G1 X2.988 Y2.802 Z-1.141
G1 X3.109 Y2.818 Z-1.178
G1 X3.231 Y2.837 Z-1.224
G1 X3.354 Y2.86 Z-1.279
G1 X3.479 Y2.886 Z-1.343
G1 X3.605 Y2.917 Z-1.417
G1 X3.733 Y2.952 Z-1.5
G1 X3.815 Y2.976 Z-1.559
G1 X3.864 Y2.99
G1 X3.986 Y3.03
G1 X4.119 Y3.076
G1 X4.254 Y3.126
G1 X4.391 Y3.181
G1 X4.531 Y3.241
G1 X4.674 Y3.306
G1 X4.821 Y3.378
G1 X4.972 Y3.457
G1 X5.126 Y3.542
G1 X5.286 Y3.636
G1 X5.409 Y3.712
G1 X5.569 Y3.593
G1 X5.728 Y3.481
G1 X5.882 Y3.377
G1 X6.004 Y3.3
G1 X6.122 Y3.23
G1 X6.215 Y3.178
G1 X6.306 Y3.131
G1 X6.395 Y3.088
G1 X6.482 Y3.049
G1 X6.567 Y3.013
G1 X6.65 Y2.981
G1 X6.664 Y2.976
G1 X6.732 Y2.952 Z-1.5
G1 X6.812 Y2.926 Z-1.438
G1 X6.89 Y2.902 Z-1.381
G1 X6.967 Y2.882 Z-1.331
G1 X7.043 Y2.863 Z-1.287
G1 X7.118 Y2.847 Z-1.248
G1 X7.216 Y2.828 Z-1.203
G1 X7.288 Y2.817 Z-1.175
G1 X7.36 Y2.807 Z-1.151
G1 X7.431 Y2.798 Z-1.13
G1 X7.502 Y2.791 Z-1.113
G1 X7.574 Y2.785 Z-1.098
G1 X7.646 Y2.78 Z-1.087
G1 X7.777 Y2.775 Z-1.073
G1 X7.863 Y2.773 Z-1.069
G1 X7.881 Y2.77 Z-1.061
G1 X7.914 Y2.776 Z-1.015
G1 X7.916 Y2.777 Z-1.011
G1 X7.931 Y2.786 Z-0.976
G1 X7.983 Y2.815 Z-0.842
G1 X7.987 Y2.818 Z-0.831
G1 X7.983 Y2.815 Z-0.842
G1 X7.931 Y2.786 Z-0.976
G1 X7.916 Y2.777 Z-1.011
G1 X7.914 Y2.776 Z-1.015
G1 X7.881 Y2.77 Z-1.061
G1 X7.863 Y2.773 Z-1.069
G1 X7.777 Y2.775 Z-1.073
G1 X7.646 Y2.78 Z-1.087
G1 X7.574 Y2.785 Z-1.098
G1 X7.502 Y2.791 Z-1.113
G1 X7.431 Y2.798 Z-1.13
G1 X7.36 Y2.807 Z-1.151
G1 X7.288 Y2.817 Z-1.175
G1 X7.216 Y2.828 Z-1.203
G1 X7.118 Y2.847 Z-1.248
G1 X7.043 Y2.863 Z-1.287
G1 X6.967 Y2.882 Z-1.331
G1 X6.89 Y2.902 Z-1.381
G1 X6.812 Y2.926 Z-1.438
G1 X6.732 Y2.952 Z-1.5
G1 X6.664 Y2.976 Z-1.559
G1 X6.65 Y2.981
G1 X6.567 Y3.013
G1 X6.482 Y3.049
G1 X6.395 Y3.088
G1 X6.306 Y3.131
G1 X6.215 Y3.178
G1 X6.122 Y3.23
G1 X6.004 Y3.3
G1 X5.882 Y3.377
G1 X5.728 Y3.481
G1 X5.569 Y3.593
G1 X5.409 Y3.712
G1 X5.417 Y3.804
G1 X5.428 Y3.926
G1 X5.439 Y4.061
G1 X5.449 Y4.169
G1 X5.467 Y4.333
G1 X5.488 Y4.495
G1 X5.511 Y4.657
G1 X5.537 Y4.818
G1 X5.565 Y4.981
G1 X5.599 Y5.166
G1 X5.641 Y5.374
G1 X5.687 Y5.586
G1 X5.737 Y5.804
G1 X5.791 Y6.029
G1 X5.849 Y6.26
G1 X5.912 Y6.499
G1 X5.978 Y6.746
G1 X6.049 Y7.002
G1 X6.125 Y7.265
G1 X6.204 Y7.538
G1 X6.288 Y7.819
G1 X6.331 Y7.959
G1 X6.366 Y8.061
G1 X6.408 Y8.159
G1 X6.456 Y8.255
G1 X6.512 Y8.347
G1 X6.575 Y8.438
G1 Y8.548
G1 X6.583 Y8.656
G1 X6.597 Y8.761
G1 X6.619 Y8.863
G1 X6.648 Y8.963
G1 X6.654 Y8.981
G1 X6.746 Y9.257 Z-1.528
G1 X6.882 Y9.658 Z-1.489
G1 X7.034 Y10.097 Z-1.451
G1 X7.201 Y10.574 Z-1.416
G1 X7.385 Y11.093 Z-1.382
G1 X7.619 Y11.74 Z-1.35
G1 X7.855 Y12.387 Z-1.322
G1 X8.093 Y13.032 Z-1.299
G1 X8.333 Y13.679 Z-1.281
G1 X9.242 Y16.098 Z-1.237
G1 X9.283 Y16.209 Z-1.235
G1 X9.319 Y16.293 Z-1.244
G1 X9.362 Y16.374 Z-1.271
G1 X9.412 Y16.453 Z-1.316
G1 X9.47 Y16.529 Z-1.379
G1 X9.534 Y16.602 Z-1.46
G1 X9.605 Y16.673 Z-1.559
G1 X9.683 Y16.741
G1 X9.768 Y16.806
G1 X9.86 Y16.869
G1 X9.958 Y16.929
G1 X10.064 Y16.987
G1 X10.177 Y17.041
G1 X10.297 Y17.093
G1 X10.424 Y17.143
G1 X10.557 Y17.19
G1 X10.698 Y17.234
G1 X10.845 Y17.275
G1 X11 Y17.314
G1 X11.162 Y17.35
G1 X11.33 Y17.383
G1 X11.249 Y20.958
G1 X11.237 Y21.501 Z-1.062
G1 X11.236 Y21.509 Z-1.054
G1 X11.265 Y21.56 Z-0.928
G1 X11.272 Y21.573 Z-0.894
G1 X11.265 Y21.56 Z-0.928
G1 X11.236 Y21.509 Z-1.054
G1 X11.202 Y21.556 Z-0.937
G1 X11.168 Y21.596 Z-0.828
G1 X11.129 Y21.635 Z-0.707
G1 X11.127 Y21.637 Z-0.699
G1 X11.129 Y21.635 Z-0.707
G1 X11.168 Y21.596 Z-0.828
G1 X11.202 Y21.556 Z-0.937
G1 X11.236 Y21.509 Z-1.054
G1 X11.237 Y21.501 Z-1.062
G1 X11.249 Y20.958 Z-1.559
G1 X11.33 Y17.383
G1 X11.415 Y17.245
G1 X11.494 Y17.105
G1 X11.568 Y16.962
G1 X11.635 Y16.817
G1 X11.873 Y16.276
G1 X12.26 Y15.389
G1 X12.637 Y14.52
G1 X13.003 Y13.672
G1 X13.289 Y13.006
G1 X13.559 Y12.375
G1 X13.882 Y11.621
G1 X14.176 Y10.93
G1 X14.392 Y10.42
G1 X14.588 Y9.949
G1 X14.768 Y9.515
G1 X14.818 Y9.388
G1 X14.864 Y9.259
G1 X14.905 Y9.128
G1 X14.943 Y8.996
G1 X13.466 Y8.442
G1 X13.403 Y8.418 Z-1.455
G1 X13.358 Y8.401 Z-1.389
G1 X13.314 Y8.385 Z-1.331
G1 X13.27 Y8.368 Z-1.279
G1 X13.225 Y8.352 Z-1.235
G1 X13.151 Y8.327 Z-1.175
G1 X13.078 Y8.307 Z-1.128
G1 X13.004 Y8.293 Z-1.094
G1 X12.93 Y8.285 Z-1.074
G1 X12.856 Y8.282 Z-1.068
G1 X7.319
G1 X7.237 Y8.286 Z-1.076
G1 X7.155 Y8.296 Z-1.101
G1 X7.073 Y8.313 Z-1.142
G1 X7.022 Y8.326 Z-1.178
G1 X6.97 Y8.339 Z-1.227
G1 X6.916 Y8.352 Z-1.288
G1 X6.859 Y8.367 Z-1.364
G1 X6.797 Y8.382 Z-1.455
G1 X6.734 Y8.398 Z-1.559
G1 X6.575 Y8.438
G1 X6.734 Y8.398
G1 X6.797 Y8.382 Z-1.455
G1 X6.859 Y8.367 Z-1.364
G1 X6.916 Y8.352 Z-1.288
G1 X6.97 Y8.339 Z-1.227
G1 X7.022 Y8.326 Z-1.178
G1 X7.073 Y8.313 Z-1.142
G1 X7.155 Y8.296 Z-1.101
G1 X7.237 Y8.286 Z-1.076
G1 X7.319 Y8.282 Z-1.068
G1 X12.856
G1 X12.93 Y8.285 Z-1.074
G1 X13.004 Y8.293 Z-1.094
G1 X13.078 Y8.307 Z-1.128
G1 X13.151 Y8.327 Z-1.175
G1 X13.225 Y8.352 Z-1.235
G1 X13.27 Y8.368 Z-1.279
G1 X13.314 Y8.385 Z-1.331
G1 X13.358 Y8.401 Z-1.389
G1 X13.403 Y8.418 Z-1.455
G1 X13.466 Y8.442 Z-1.559
G1 X14.943 Y8.996
G1 X15.009 Y8.873
G1 X15.071 Y8.748
G1 X15.129 Y8.621
G1 X15.159 Y8.55
G1 X15.308 Y8.19
G1 X15.455 Y7.826
G1 X15.599 Y7.464
G1 X15.711 Y7.179
G1 X16.924 Y4.401
G1 X17.39 Y4.098
G1 X17.652 Y3.932
G1 X17.899 Y3.778
G1 X18.131 Y3.638
G1 X18.299 Y3.54
G1 X18.435 Y3.465
G1 X18.561 Y3.398
G1 X18.716 Y3.32
G1 X18.852 Y3.256
G1 X18.968 Y3.204
G1 X19.114 Y3.141
G1 X19.259 Y3.083
G1 X19.402 Y3.029
G1 X19.546 Y2.979
G1 X19.556 Y2.976
G1 X19.655 Y2.944 Z-1.482
G1 X19.762 Y2.912 Z-1.405
G1 X19.867 Y2.884 Z-1.338
G1 X19.97 Y2.859 Z-1.278
G1 X20.073 Y2.838 Z-1.226
G1 X20.173 Y2.82 Z-1.183
G1 X20.273 Y2.805 Z-1.146
G1 X20.372 Y2.793 Z-1.117
G1 X20.471 Y2.784 Z-1.095
G1 X20.569 Y2.777 Z-1.079
G1 X20.667 Y2.773 Z-1.07
G1 X20.685
G1 X20.703 Y2.768 Z-1.057
G1 X20.708 Y2.766 Z-1.053
G1 X20.738 Y2.696 Z-0.884
G1 X20.756 Y2.641 Z-0.751
G1 X20.759 Y2.628 Z-0.718
G1 X20.756 Y2.641 Z-0.751
G1 X20.738 Y2.696 Z-0.884
G1 X20.708 Y2.766 Z-1.053
G1 X20.752 Y2.769 Z-0.97
G1 X20.785 Y2.776 Z-0.903
G1 X20.825 Y2.791 Z-0.808
G1 X20.833 Y2.794 Z-0.788
G1 X20.825 Y2.791 Z-0.808
G1 X20.785 Y2.776 Z-0.903
G1 X20.752 Y2.769 Z-0.97
G1 X20.708 Y2.766 Z-1.053
G1 X20.703 Y2.768 Z-1.057
G1 X20.685 Y2.773 Z-1.07
G1 X20.667
G1 X20.569 Y2.777 Z-1.079
G1 X20.471 Y2.784 Z-1.095
G1 X20.372 Y2.793 Z-1.117
G1 X20.273 Y2.805 Z-1.146
G1 X20.173 Y2.82 Z-1.183
G1 X20.073 Y2.838 Z-1.226
G1 X19.97 Y2.859 Z-1.278
G1 X19.867 Y2.884 Z-1.338
G1 X19.762 Y2.912 Z-1.405
G1 X19.655 Y2.944 Z-1.482
G1 X19.556 Y2.976 Z-1.559
G1 X19.546 Y2.979
G1 X19.402 Y3.029
G1 X19.259 Y3.083
G1 X19.114 Y3.141
G1 X18.968 Y3.204
G1 X18.852 Y3.256
G1 X18.716 Y3.32
G1 X18.561 Y3.398
G1 X18.435 Y3.465
G1 X18.299 Y3.54
G1 X18.131 Y3.638
G1 X17.899 Y3.778
G1 X17.652 Y3.932
G1 X17.39 Y4.098
G1 X16.924 Y4.401
G1 X16.377
G1 X16.372 Y4.484
G1 X16.364 Y4.577
G1 X16.355 Y4.671
G1 X16.344 Y4.763
G1 X16.332 Y4.856
G1 X16.318 Y4.948
G1 X16.303 Y5.04
G1 X16.288 Y5.129
G1 X16.27 Y5.225
G1 X16.252 Y5.314
G1 X16.232 Y5.41
G1 X16.212 Y5.5
G1 X16.19 Y5.594
G1 X16.166 Y5.69
G1 X16.143 Y5.782
G1 X16.118 Y5.877
G1 X16.092 Y5.973
G1 X16.066 Y6.067
G1 X16.037 Y6.166
G1 X16.008 Y6.264
G1 X15.978 Y6.36
G1 X15.948 Y6.457
G1 X15.919 Y6.547
G1 X15.89 Y6.64
G1 X15.861 Y6.728
G1 X15.831 Y6.821
G1 X15.8 Y6.914
G1 X15.771 Y7.002
G1 X15.739 Y7.095
G1 X15.711 Y7.179
G1 X15.737 Y7.103
G1 X15.768 Y7.01
G1 X15.799 Y6.917
G1 X15.828 Y6.829
G1 X15.859 Y6.736
G1 X15.888 Y6.644
G1 X15.917 Y6.555
G1 X15.946 Y6.463
G1 X15.974 Y6.373
G1 X16.004 Y6.277
G1 X16.032 Y6.182
G1 X16.06 Y6.085
G1 X16.088 Y5.987
G1 X16.113 Y5.895
G1 X16.138 Y5.801
G1 X16.162 Y5.707
G1 X16.184 Y5.617
G1 X16.207 Y5.521
G1 X16.228 Y5.429
G1 X16.247 Y5.341
G1 X16.266 Y5.246
G1 X16.282 Y5.158
G1 X16.299 Y5.064
G1 X16.314 Y4.977
G1 X16.327 Y4.886
G1 X16.34 Y4.795
G1 X16.351 Y4.704
G1 X16.361 Y4.613
G1 X16.369 Y4.521
G1 X16.376 Y4.429
G1 X16.223 Y4.24
G1 X16.128 Y4.144
G1 X16.001 Y4.02
G1 X15.925 Y3.948
G1 X15.822 Y3.857
G1 X15.751 Y3.797
G1 X15.653 Y3.718
G1 X15.509 Y3.609
G1 X15.368 Y3.513
G1 X15.245 Y3.435
G1 X15.128 Y3.369
G1 X15.027 Y3.316
G1 X14.929 Y3.268
G1 X14.839 Y3.227
G1 X14.752 Y3.192
G1 X14.674 Y3.161
G1 X14.563 Y3.122
G1 X14.447 Y3.085
G1 X14.353 Y3.057
G1 X14.236 Y3.026
G1 X14.15 Y3.005
G1 X14.023 Y2.976
G1 X14.012 Y2.973 Z-1.553
G1 X13.872 Y2.944 Z-1.483
G1 X13.675 Y2.907 Z-1.393
G1 X13.485 Y2.874 Z-1.313
G1 X13.305 Y2.845 Z-1.243
G1 X13.14 Y2.822 Z-1.188
G1 X13.023 Y2.807 Z-1.153
G1 X12.916 Y2.796 Z-1.125
G1 X12.812 Y2.787 Z-1.103
G1 X12.711 Y2.78 Z-1.086
G1 X12.612 Y2.775 Z-1.074
G1 X12.535 Y2.773 Z-1.069
G1 X12.513 Y2.776 Z-1.059
G1 X12.508 Y2.775 Z-1.052
G1 X12.464 Y2.744 Z-0.937
G1 X12.438 Y2.726 Z-0.862
G1 X12.464 Y2.744 Z-0.937
G1 X12.508 Y2.775 Z-1.052
G1 X12.513 Y2.776 Z-1.059
G1 X12.488 Y2.826 Z-0.939
G1 X12.469 Y2.875 Z-0.818
G1 X12.465 Y2.887 Z-0.789
; MOVEMENT_RAPID
G0 Z5 F300
G0 X6.734 Y8.398 F2500
; MOVEMENT_LEAD_IN
G1 Z-1.559 F180
; MOVEMENT_CUTTING
G1 X6.73 Y8.399 Z-1.565 F480
G1 X6.657 Y8.417 Z-1.695
G1 X6.575 Y8.438 Z-1.851
G1 X6.657 Y8.417 Z-1.695
G1 X6.73 Y8.399 Z-1.565
G1 X6.734 Y8.398 Z-1.559
; MOVEMENT_RAPID
G0 Z5 F300
G0 X3.815 Y2.976 F2500
; MOVEMENT_LEAD_IN
G1 Z-1.559 F180
; MOVEMENT_CUTTING
G1 X3.864 Y2.99 Z-1.594 F480
G1 X3.986 Y3.03 Z-1.69
G1 X4.119 Y3.076 Z-1.8
G1 X4.254 Y3.126 Z-1.921
G1 X4.391 Y3.181 Z-2.054
G1 X4.531 Y3.241 Z-2.199
G1 X4.674 Y3.306 Z-2.357
G1 X4.727 Y3.332 Z-2.419
G1 X4.821 Y3.378
G1 X4.972 Y3.457
G1 X5.126 Y3.542
G1 X5.286 Y3.636
G1 X5.409 Y3.712
G1 X5.569 Y3.593
G1 X5.728 Y3.481
G1 X5.882 Y3.377
G1 X5.953 Y3.332
G1 X6.004 Y3.3 Z-2.341
G1 X6.122 Y3.23 Z-2.172
G1 X6.215 Y3.178 Z-2.048
G1 X6.306 Y3.131 Z-1.934
G1 X6.395 Y3.088 Z-1.83
G1 X6.482 Y3.049 Z-1.735
G1 X6.567 Y3.013 Z-1.649
G1 X6.65 Y2.981 Z-1.571
G1 X6.664 Y2.976 Z-1.559
G1 X6.65 Y2.981 Z-1.571
G1 X6.567 Y3.013 Z-1.649
G1 X6.482 Y3.049 Z-1.735
G1 X6.395 Y3.088 Z-1.83
G1 X6.306 Y3.131 Z-1.934
G1 X6.215 Y3.178 Z-2.048
G1 X6.122 Y3.23 Z-2.172
G1 X6.004 Y3.3 Z-2.341
G1 X5.953 Y3.332 Z-2.419
G1 X5.882 Y3.377
G1 X5.728 Y3.481
G1 X5.569 Y3.593
G1 X5.409 Y3.712
G1 X5.417 Y3.804
G1 X5.428 Y3.926
G1 X5.439 Y4.061
G1 X5.449 Y4.169
G1 X5.467 Y4.333
G1 X5.488 Y4.495
G1 X5.511 Y4.657
G1 X5.537 Y4.818
G1 X5.565 Y4.981
G1 X5.599 Y5.166
G1 X5.63 Y5.316
G1 X5.641 Y5.374 Z-2.396
G1 X5.687 Y5.586 Z-2.316
G1 X5.737 Y5.804 Z-2.24
G1 X5.791 Y6.029 Z-2.167
G1 X5.849 Y6.26 Z-2.098
G1 X5.912 Y6.499 Z-2.032
G1 X5.978 Y6.746 Z-1.969
G1 X6.049 Y7.002 Z-1.908
G1 X6.125 Y7.265 Z-1.85
G1 X6.204 Y7.538 Z-1.794
G1 X6.288 Y7.819 Z-1.741
G1 X6.331 Y7.959 Z-1.715
G1 X6.366 Y8.061 Z-1.706
G1 X6.408 Y8.159 Z-1.715
G1 X6.456 Y8.255 Z-1.742
G1 X6.512 Y8.347 Z-1.787
G1 X6.575 Y8.438 Z-1.851
G1 Y8.548 Z-1.756
G1 X6.583 Y8.656 Z-1.679
G1 X6.597 Y8.761 Z-1.622
G1 X6.619 Y8.863 Z-1.582
G1 X6.648 Y8.963 Z-1.561
G1 X6.654 Y8.981 Z-1.559
; MOVEMENT_RAPID
G0 Z5 F300
G0 X9.605 Y16.673 F2500
; MOVEMENT_LEAD_IN
G1 Z-1.559 F180
; MOVEMENT_CUTTING
G1 X9.683 Y16.741 Z-1.676 F480
G1 X9.768 Y16.806 Z-1.811
G1 X9.86 Y16.869 Z-1.964
G1 X9.958 Y16.929 Z-2.135
G1 X10.064 Y16.987 Z-2.324
G1 X10.117 Y17.012 Z-2.419
G1 X10.177 Y17.041
G1 X10.297 Y17.093
G1 X10.424 Y17.143
G1 X10.557 Y17.19
G1 X10.698 Y17.234
G1 X10.845 Y17.275
G1 X11 Y17.314
G1 X11.162 Y17.35
G1 X11.33 Y17.383
G1 X11.27 Y20.019
G1 X11.249 Y20.958 Z-1.559
G1 X11.27 Y20.019 Z-2.419
G1 X11.33 Y17.383
G1 X11.415 Y17.245
G1 X11.494 Y17.105
G1 X11.568 Y16.962
G1 X11.635 Y16.817
G1 X11.873 Y16.276
G1 X12.26 Y15.389
G1 X12.637 Y14.52
G1 X13.003 Y13.672
G1 X13.289 Y13.006
G1 X13.559 Y12.375
G1 X13.882 Y11.621
G1 X14.176 Y10.93
G1 X14.392 Y10.42
G1 X14.588 Y9.949
G1 X14.768 Y9.515
G1 X14.818 Y9.388
G1 X14.864 Y9.259
G1 X14.905 Y9.128
G1 X14.943 Y8.996
G1 X13.894 Y8.602
G1 X13.868 Y8.593 Z-2.362
G1 X13.771 Y8.556 Z-2.15
G1 X13.676 Y8.521 Z-1.952
G1 X13.583 Y8.486 Z-1.768
G1 X13.492 Y8.452 Z-1.602
G1 X13.466 Y8.442 Z-1.559
G1 X13.492 Y8.452 Z-1.602
G1 X13.583 Y8.486 Z-1.768
G1 X13.676 Y8.521 Z-1.952
G1 X13.771 Y8.556 Z-2.15
G1 X13.868 Y8.593 Z-2.362
G1 X13.894 Y8.602 Z-2.419
G1 X14.943 Y8.996
G1 X15.009 Y8.873
G1 X15.071 Y8.748
G1 X15.129 Y8.621
G1 X15.159 Y8.55
G1 X15.308 Y8.19
G1 X15.455 Y7.826
G1 X15.599 Y7.464
G1 X15.711 Y7.179
G1 X16.924 Y4.401
G1 X17.39 Y4.098
G1 X17.652 Y3.932
G1 X17.899 Y3.778
G1 X18.131 Y3.638
G1 X18.299 Y3.54
G1 X18.435 Y3.465
G1 X18.561 Y3.398
G1 X18.692 Y3.332
G1 X18.716 Y3.32 Z-2.39
G1 X18.852 Y3.256 Z-2.235
G1 X18.968 Y3.204 Z-2.109
G1 X19.114 Y3.141 Z-1.958
G1 X19.259 Y3.083 Z-1.819
G1 X19.402 Y3.029 Z-1.688
G1 X19.546 Y2.979 Z-1.567
G1 X19.556 Y2.976 Z-1.559
G1 X19.546 Y2.979 Z-1.567
G1 X19.402 Y3.029 Z-1.688
G1 X19.259 Y3.083 Z-1.819
G1 X19.114 Y3.141 Z-1.958
G1 X18.968 Y3.204 Z-2.109
G1 X18.852 Y3.256 Z-2.235
G1 X18.716 Y3.32 Z-2.39
G1 X18.692 Y3.332 Z-2.419
G1 X18.561 Y3.398
G1 X18.435 Y3.465
G1 X18.299 Y3.54
G1 X18.131 Y3.638
G1 X17.899 Y3.778
G1 X17.652 Y3.932
G1 X17.39 Y4.098
G1 X16.924 Y4.401
G1 X16.377
G1 X16.372 Y4.484
G1 X16.364 Y4.577
G1 X16.355 Y4.671
G1 X16.344 Y4.763
G1 X16.332 Y4.856
G1 X16.318 Y4.948
G1 X16.303 Y5.04
G1 X16.288 Y5.129
G1 X16.27 Y5.225
G1 X16.252 Y5.314
G1 X16.232 Y5.41
G1 X16.212 Y5.5
G1 X16.19 Y5.594
G1 X16.166 Y5.69
G1 X16.143 Y5.782
G1 X16.118 Y5.877
G1 X16.092 Y5.973
G1 X16.066 Y6.067
G1 X16.037 Y6.166
G1 X16.008 Y6.264
G1 X15.978 Y6.36
G1 X15.948 Y6.457
G1 X15.919 Y6.547
G1 X15.89 Y6.64
G1 X15.861 Y6.728
G1 X15.831 Y6.821
G1 X15.8 Y6.914
G1 X15.771 Y7.002
G1 X15.739 Y7.095
G1 X15.711 Y7.179
G1 X15.737 Y7.103
G1 X15.768 Y7.01
G1 X15.799 Y6.917
G1 X15.828 Y6.829
G1 X15.859 Y6.736
G1 X15.888 Y6.644
G1 X15.917 Y6.555
G1 X15.946 Y6.463
G1 X15.974 Y6.373
G1 X16.004 Y6.277
G1 X16.032 Y6.182
G1 X16.06 Y6.085
G1 X16.088 Y5.987
G1 X16.113 Y5.895
G1 X16.138 Y5.801
G1 X16.162 Y5.707
G1 X16.184 Y5.617
G1 X16.207 Y5.521
G1 X16.228 Y5.429
G1 X16.247 Y5.341
G1 X16.266 Y5.246
G1 X16.282 Y5.158
G1 X16.299 Y5.064
G1 X16.314 Y4.977
G1 X16.327 Y4.886
G1 X16.34 Y4.795
G1 X16.351 Y4.704
G1 X16.361 Y4.613
G1 X16.369 Y4.521
G1 X16.376 Y4.429
G1 X16.223 Y4.24
G1 X16.128 Y4.144
G1 X16.001 Y4.02
G1 X15.925 Y3.948
G1 X15.822 Y3.857
G1 X15.751 Y3.797
G1 X15.653 Y3.718
G1 X15.509 Y3.609
G1 X15.368 Y3.513
G1 X15.245 Y3.435
G1 X15.128 Y3.369
G1 X15.059 Y3.332
G1 X15.027 Y3.316 Z-2.38
G1 X14.929 Y3.268 Z-2.264
G1 X14.839 Y3.227 Z-2.166
G1 X14.752 Y3.192 Z-2.08
G1 X14.674 Y3.161 Z-2.007
G1 X14.563 Y3.122 Z-1.912
G1 X14.447 Y3.085 Z-1.823
G1 X14.353 Y3.057 Z-1.756
G1 X14.236 Y3.026 Z-1.68
G1 X14.15 Y3.005 Z-1.629
G1 X14.023 Y2.976 Z-1.559
; MOVEMENT_RAPID
G0 Z5 F300
G0 X22.526 Y20.775 F2500
; MOVEMENT_LEAD_IN
G1 Z-0.519 F180
; MOVEMENT_CUTTING
G1 X22.543 Y20.791 Z-0.572 F480
G1 X22.697 Y20.93 Z-1.038
; MOVEMENT_RAPID
G0 Z5 F300
G0 X22.685 Y20.941 F2500
; MOVEMENT_LEAD_IN
G1 Z-1 F180
; MOVEMENT_CUTTING
G1 X22.697 Y20.93 Z-1.038 F480
G1 X22.759 Z-1.101
G1 X22.76 Y20.929
G1 X22.882 Z-1.102
G1 X23.089 Y20.927 Z-1.107
G1 X23.28 Y20.924 Z-1.115
G1 X23.457 Y20.919 Z-1.127
G1 X23.619 Y20.913 Z-1.142
G1 X23.768 Y20.905 Z-1.161
G1 X23.905 Y20.895 Z-1.185
G1 X23.993 Y20.887 Z-1.204
G1 X24.082 Y20.877 Z-1.227
G1 X24.163 Y20.866 Z-1.253
G1 X24.237 Y20.854 Z-1.282
G1 X24.317 Y20.839 Z-1.32
G1 X24.395 Y20.821 Z-1.363
G1 X24.478 Y20.799 Z-1.415
G1 X24.562 Y20.774 Z-1.476
G1 X24.647 Y20.745 Z-1.545
G1 X24.738 Y20.711 Z-1.627
G1 X24.827 Y20.675 Z-1.716
G1 X24.922 Y20.631 Z-1.821
G1 X25.011 Y20.588 Z-1.926
G1 X25.068 Y20.557 Z-2
G1 X25.115 Y20.532
G1 X25.205 Y20.48
G1 X25.313 Y20.414
G1 X25.466 Y20.313
G1 X25.569 Y20.242
G1 X25.71 Y20.139
G1 X25.855 Y20.027
G1 X25.998 Y19.91
G1 X26.143 Y19.788
G1 X26.294 Y19.656
G1 X26.469 Y19.498
G1 X26.667 Y19.314
G1 X27.034
G1 X27.128 Y19.405
G1 X27.279 Y19.546
G1 X27.404 Y19.658
G1 X27.549 Y19.78
G1 X27.665 Y19.874
G1 X27.806 Y19.982
G1 X27.916 Y20.062
G1 X28.05 Y20.153
G1 X28.155 Y20.221
G1 X28.275 Y20.293
G1 X28.382 Y20.354
G1 X28.493 Y20.413
G1 X28.59 Y20.46
G1 X28.691 Y20.507
G1 X28.787 Y20.548
G1 X28.81 Y20.557
G1 X28.875 Y20.583 Z-1.938
G1 X29.003 Y20.63 Z-1.824
G1 X29.101 Y20.663 Z-1.743
G1 X29.197 Y20.694 Z-1.669
G1 X29.305 Y20.726 Z-1.592
G1 X29.427 Y20.759 Z-1.513
G1 X29.52 Y20.782 Z-1.458
G1 X29.623 Y20.804 Z-1.403
G1 X29.744 Y20.828 Z-1.345
G1 X29.835 Y20.844 Z-1.307
G1 X29.923 Y20.858 Z-1.274
G1 X30.018 Y20.871 Z-1.243
G1 X30.139 Y20.885 Z-1.208
G1 X30.26 Y20.898 Z-1.178
G1 X30.382 Y20.908 Z-1.153
G1 X30.502 Y20.916 Z-1.133
G1 X30.624 Y20.923 Z-1.117
G1 X30.745 Y20.927 Z-1.107
G1 X30.868 Y20.929 Z-1.102
G1 X31.107 Y20.928 Z-1.103
G1 X31.275 Y20.925 Z-1.112
G1 X31.441 Y20.918 Z-1.126
G1 X31.551 Y20.912 Z-1.138
G1 X31.769 Y20.895 Z-1.166
G1 X31.93 Y20.878 Z-1.191
G1 X32.091 Y20.857 Z-1.22
G1 X32.202 Y20.84 Z-1.244
G1 X32.41 Y20.804 Z-1.292
G1 X32.568 Y20.771 Z-1.334
G1 X32.725 Y20.735 Z-1.38
G1 X32.883 Y20.695 Z-1.431
G1 X33.027 Y20.653 Z-1.483
G1 X33.196 Y20.601 Z-1.547
G1 X33.352 Y20.547 Z-1.612
G1 X33.508 Y20.489 Z-1.682
G1 X33.663 Y20.426 Z-1.757
G1 X33.794 Y20.369 Z-1.824
G1 X33.975 Y20.285 Z-1.922
G1 X34.111 Y20.217 Z-2
G1 X34.131 Y20.207
G1 X34.287 Y20.123
G1 X34.442 Y20.034
G1 X34.598 Y19.939
G1 X34.753 Y19.84
G1 X34.902 Y19.738
G1 X35.044 Y19.637
G1 X35.184 Y19.533
G1 X35.325 Y19.424
G1 X35.485 Y19.294
G1 X35.6 Y19.197
G1 X35.758 Y19.057
G1 X35.892 Y18.934
G1 X36.025 Y18.807
G1 X36.156 Y18.675
G1 X36.262 Y18.564
G1 X36.387 Y18.427
G1 X36.512 Y18.284
G1 X36.632 Y18.14
G1 X36.752 Y17.989
G1 X36.852 Y17.857
G1 X36.944 Y17.729
G1 X36.979 Y17.679
G1 X37.089 Y17.518
G1 X37.194 Y17.354
G1 X37.281 Y17.212
G1 X37.316 Y17.153
G1 X37.395 Y17.013
G1 X37.491 Y16.838
G1 X37.57 Y16.682
G1 X37.598 Y16.625
G1 X37.678 Y16.456
G1 X37.718 Y16.298
G1 X37.76 Y16.122
