;Fusion 360 CAM 2.0.7438
; Posts processor: DIYCNC_Marlin20.cps
; Gcode generated: Sun Feb 23 07:39:07 2020 GMT
; Document: toolChangeTest v1
; Setup: Setup1
; 
; Ranges table:
; X: Min=37.534 Max=65.153 Size=27.619
; Y: Min=-29.07 Max=24.028 Size=53.097
; Z: Min=-13.65 Max=3 Size=16.65
; 
; Tools table:
; T1 D=3.175 CR=0 TAPER=22.5deg - ZMIN=-13.65 - chamfer mill 

; *** START begin ***
G90
G21
M84 S0
G92 X0 Y0 Z5
; *** START end ***

; *** SECTION begin ***
;Engrave1 - Milling - Tool: 1 -  chamfer mill
; X Min: 43.176 - X Max: 65.153
; Y Min: -23.328 - Y Max: 24.028
; Z Min: -2.05 - Z Max: 3
; COMMAND_START_SPINDLE
; COMMAND_SPINDLE_CLOCKWISE
;M0 Turn ON 24000RPM
; COMMAND_COOLANT_ON
;M117  Engrave1
G0 Z3 F300
G0 X43.176 Y-10.646 F2500
G0 Z2.95 F300
; MOVEMENT_LEAD_IN
G1 Z-1.748 F180
; MOVEMENT_CUTTING
G1 Y-10.645 Z-1.746 F480
G1 Y-10.646 Z-1.748
G1 X43.178 Y-10.755
G1 X43.185 Y-10.88
G1 X43.188 Y-10.912
G1 X43.198 Y-11.002
G1 X43.207 Y-11.076 Z-1.749
G1 X43.215 Y-11.123 Z-1.748
G1 X43.231 Y-11.212 Z-1.749
G1 X43.238 Y-11.242 Z-1.748
G1 X43.261 Y-11.343 Z-1.749
G1 X43.297 Y-11.469
G1 X43.338 Y-11.588
G1 X43.383 Y-11.698
G1 X43.432 Y-11.805
G1 X43.488 Y-11.91
G1 X43.55 Y-12.011
G1 X43.617 Y-12.11 Z-1.75
G1 X43.69 Y-12.204
G1 X43.769 Y-12.294
G1 X43.852 Y-12.377 Z-1.751
G1 X43.936 Y-12.451
G1 X43.944 Y-12.458
G1 X44.023 Y-12.519
G1 X44.041 Y-12.533 Z-1.75
G1 X44.114 Y-12.582 Z-1.751
G1 X44.141 Y-12.6 Z-1.75
G1 X44.186 Y-12.626
G1 X44.267 Y-12.671 Z-1.749
G1 X44.375 Y-12.722
G1 X44.474 Y-12.761 Z-1.748
G1 X44.593 Y-12.8
G1 X44.642 Y-12.814
G1 X44.744 Y-12.838 Z-1.749
G1 X44.866 Y-12.857
G1 X44.929 Y-12.865
G1 X45.052 Y-12.872 Z-1.748
G1 X45.187 Y-12.871
G1 X45.253 Y-12.867 Z-1.747
G1 X45.376 Y-12.853 Z-1.746
G1 X45.516 Y-12.828
G1 X45.649 Y-12.795 Z-1.747
G1 X45.671 Y-12.788 Z-1.746
G1 X45.781 Y-12.752 Z-1.747
G1 X45.848 Y-12.727 Z-1.746
G1 X45.975 Y-12.672 Z-1.747
G1 X46.111 Y-12.603 Z-1.748
G1 X46.242 Y-12.526 Z-1.749
G1 X46.372 Y-12.438 Z-1.75
G1 X46.503 Y-12.338
G1 X46.63 Y-12.229 Z-1.751
G1 X46.696 Y-12.167
G1 X46.768 Y-12.097 Z-1.75
G1 X46.861 Y-11.998
G1 X46.945 Y-11.903 Z-1.751
G1 X47.065 Y-11.754
G1 X47.176 Y-11.603 Z-1.75
G1 X47.238 Y-11.511 Z-1.751
G1 X47.349 Y-11.336 Z-1.75
G1 X47.453 Y-11.155 Z-1.749
G1 X47.506 Y-11.055 Z-1.75
G1 X47.605 Y-10.855 Z-1.749
G1 X47.881 Y-10.223
G1 X48.071 Y-9.811 Z-1.748
G1 X48.263 Y-9.414
G1 X48.459 Y-9.033
G1 X48.656 Y-8.667 Z-1.747
G1 X48.856 Y-8.315
G1 X49.059 Y-7.977
G1 X49.262 Y-7.652
G1 X49.468 Y-7.339 Z-1.746
G1 X49.674 Y-7.039
G1 X49.881 Y-6.751
G1 X50.089 Y-6.473 Z-1.747
G1 X50.298 Y-6.205
G1 X50.506 Y-5.948
G1 X50.714 Y-5.699
G1 X50.922 Y-5.46 Z-1.748
G1 X51.128 Y-5.228
G1 X51.333 Y-5.004
G1 X51.536 Y-4.788 Z-1.749
G1 X51.738 Y-4.577
G1 X51.739 Y-4.576
G1 X52.882 Y-3.422 Z-1.748
G1 X52.971 Y-3.334 Z-1.749
G1 X53.017 Y-3.291 Z-1.756
G1 X53.063 Y-3.251 Z-1.768
G1 X53.113 Y-3.211 Z-1.788
G1 X53.162 Y-3.175 Z-1.812
G1 X53.216 Y-3.139 Z-1.844
G1 X53.268 Y-3.107 Z-1.881
G1 X53.325 Y-3.074 Z-1.925
G1 X53.381 Y-3.045 Z-1.974
G1 X53.46 Y-3.008 Z-2.05
G1 X53.488 Y-2.979
G1 X53.492 Y-2.975
G1 X53.572 Y-2.89
G1 X53.576 Y-2.886
G1 X53.655 Y-2.801
G1 X53.659 Y-2.796
G1 X53.737 Y-2.711
G1 X53.741 Y-2.707
G1 X53.818 Y-2.622
G1 X53.822 Y-2.617
G1 X53.898 Y-2.531
G1 X53.904 Y-2.525
G1 X53.978 Y-2.44
G1 X53.983 Y-2.434
G1 X54.056 Y-2.348
G1 X54.062 Y-2.342
G1 X54.134 Y-2.256
G1 X54.14 Y-2.248
G1 X54.211 Y-2.162
G1 X54.217 Y-2.154
G1 X54.287 Y-2.068
G1 X54.293 Y-2.059
G1 X54.361 Y-1.972
G1 X54.368 Y-1.963
G1 X54.435 Y-1.875
G1 X54.442 Y-1.866
G1 X54.508 Y-1.777
G1 X54.515 Y-1.768
G1 X54.573 Y-1.687
G1 X54.577 Y-1.683
G1 X54.578 Y-1.682
G1 X54.587 Y-1.673
G1 X54.59 Y-1.671
G1 X54.591 Y-1.67
G1 X54.6 Y-1.66
G1 X54.602 Y-1.658
G1 X54.658 Y-1.596
G1 X54.708 Y-1.53
G1 X54.751 Y-1.458
G1 X54.787 Y-1.383
G1 X54.816 Y-1.305
G1 X54.837 Y-1.224
G1 X54.841 Y-1.208
G1 X54.847 Y-1.179
G1 X54.85 Y-1.16
G1 X54.854 Y-1.138
G1 X54.857 Y-1.116
G1 X54.861 Y-1.085
G1 X54.864 Y-1.06
G1 X54.867 Y-1.039
G1 X54.869 Y-1.009
G1 X54.871 Y-0.984
G1 X54.874 Y-0.951
G1 X54.875 Y-0.926
G1 X54.876 Y-0.89
G1 X54.877 Y-0.867
G1 Y-0.827
G1 Y-0.808
G1 Y-0.764
G1 Y-0.741
G1 X54.875 Y-0.692
G1 X54.874 Y-0.671
G1 X54.871 Y-0.619
G1 X54.87 Y-0.601
G1 X54.865 Y-0.544
G1 X54.863 Y-0.525
G1 X54.857 Y-0.464
G1 X54.855 Y-0.445
G1 X54.847 Y-0.379
G1 X54.845 Y-0.363
G1 X54.835 Y-0.293
G1 X54.832 Y-0.277
G1 X54.82 Y-0.202
G1 X54.817 Y-0.186
G1 X54.803 Y-0.106
G1 X54.8 Y-0.09
G1 X54.783 Y-0.006
G1 X54.78 Y0.008
G1 X54.761 Y0.098
G1 X54.758 Y0.112
G1 X54.735 Y0.207
G1 X54.732 Y0.221
G1 X54.707 Y0.321
G1 X54.704 Y0.333
G1 X54.676 Y0.439
G1 X54.672 Y0.452
G1 X54.641 Y0.563
G1 X54.637 Y0.574
G1 X54.603 Y0.691
G1 X54.602 Y0.692
G1 X54.508 Y1.008
G1 X54.423 Y1.305
G1 X54.346 Y1.589
G1 X54.277 Y1.862
G1 X54.214 Y2.125
G1 X54.158 Y2.377
G1 X54.108 Y2.622
G1 X54.064 Y2.859
G1 X54.025 Y3.09
G1 X53.991 Y3.317
G1 X53.962 Y3.54
G1 X53.937 Y3.761
G1 X53.916 Y3.981
G1 X53.899 Y4.201
G1 X53.885 Y4.424
G1 X53.873 Y4.648
G1 X53.872 Y4.673
G1 X53.831 Y4.774 Z-1.959
G1 X53.796 Y4.875 Z-1.886
G1 X53.775 Y4.953 Z-1.839
G1 X53.758 Y5.03 Z-1.803
G1 X53.745 Y5.108 Z-1.776
G1 X53.735 Y5.199 Z-1.756
G1 X53.73 Y5.29 Z-1.749
G1 X53.727 Y5.563
G1 X53.725 Y6.189
G1 X53.728 Y7.179
G1 X53.732 Y7.812
G1 X53.743 Y8.186
G1 X53.761 Y8.567
G1 X53.785 Y8.953
G1 X53.815 Y9.342
G1 X53.851 Y9.735
G1 X53.891 Y10.129
G1 X53.937 Y10.525
G1 X53.987 Y10.92
G1 X54.04 Y11.315
G1 X54.097 Y11.707
G1 X54.156 Y12.097
G1 X54.163 Y12.139
G1 X54.282 Y12.864 Z-1.75
G1 X54.414 Y13.608 Z-1.749
G1 X54.548 Y14.321
G1 X54.681 Y14.996
G1 X55 Y16.555
G1 X55.108 Y17.089
G1 X55.168 Y17.401
G1 X55.21 Y17.637
G1 X55.224 Y17.728 Z-1.75
G1 X55.229 Y17.78 Z-1.755
G1 X55.232 Y17.825 Z-1.762
G1 X55.233 Y17.867 Z-1.771
G1 X55.232 Y17.934 Z-1.789
G1 X55.228 Y17.989 Z-1.806
G1 X55.204 Y18.037 Z-1.781
G1 X55.177 Y18.088 Z-1.762
G1 X55.144 Y18.147 Z-1.749
G1 X55.131 Y18.169 Z-1.747
G1 X55.092 Y18.235 Z-1.746
G1 X55.024 Y18.36
G1 X54.974 Y18.463
G1 X54.924 Y18.576
G1 X54.875 Y18.7 Z-1.747
G1 X54.829 Y18.836
G1 X54.786 Y18.981 Z-1.749
G1 X54.749 Y19.137 Z-1.75
G1 X54.718 Y19.303 Z-1.751
G1 X54.694 Y19.478 Z-1.752
G1 X54.69 Y19.513 Z-1.751
G1 X54.679 Y19.663 Z-1.753
G1 X54.677 Y19.7 Z-1.752
G1 X54.674 Y19.86 Z-1.754
G1 Y19.898 Z-1.753
G1 X54.677 Y19.992 Z-1.754
G1 X54.682 Y20.103 Z-1.753
G1 X54.691 Y20.202 Z-1.754
G1 X54.703 Y20.318 Z-1.753
G1 X54.718 Y20.421 Z-1.754
G1 X54.738 Y20.54 Z-1.753
G1 X54.76 Y20.651 Z-1.754
G1 X54.787 Y20.769 Z-1.752
G1 X54.819 Y20.89 Z-1.753
G1 X54.851 Y21.005 Z-1.751
G1 X54.895 Y21.141 Z-1.752
G1 X54.932 Y21.247 Z-1.75
G1 X54.957 Y21.313 Z-1.751
G1 X55.028 Y21.49 Z-1.75
G1 X55.11 Y21.672 Z-1.751
G1 X55.177 Y21.812 Z-1.749
G1 X55.303 Y22.058
G1 X55.436 Y22.308
G1 X55.603 Y22.609
G1 X55.77 Y22.901
G1 X55.827 Y22.996 Z-1.752
G1 X55.864 Y23.052 Z-1.761
G1 X55.905 Y23.108 Z-1.778
G1 X55.946 Y23.159 Z-1.801
G1 X55.99 Y23.21 Z-1.831
G1 X56.035 Y23.256 Z-1.865
G1 X56.082 Y23.302 Z-1.907
G1 X56.129 Y23.344 Z-1.952
G1 X56.178 Y23.385 Z-2.002
G1 X56.222 Y23.418 Z-2.05
G1 X56.254 Y23.472
G1 X56.308 Y23.562
G1 X56.359 Y23.645
G1 X56.405 Y23.719
G1 X56.446 Y23.785
G1 X56.45 Y23.791
G1 Y24.003 Z-1.779
G1 Y24.004 Z-1.777
G1 Y24.018 Z-1.758
G1 Y24.021 Z-1.755
G1 Y24.023 Z-1.752
G1 Y24.024 Z-1.751
G1 Y24.025 Z-1.749
G1 Y24.026 Z-1.748
G1 Z-1.747
G1 Y24.027
G1 X56.449 Y24.028 Z-1.744
G1 X56.45 Y24.027 Z-1.747
G1 Y24.026
G1 Z-1.748
G1 Y24.025 Z-1.749
G1 Y24.024 Z-1.751
G1 Y24.023 Z-1.752
G1 Y24.021 Z-1.755
G1 Y24.018 Z-1.758
G1 Y24.004 Z-1.777
G1 Y24.003 Z-1.779
G1 Y23.791 Z-2.05
G1 X56.454 Y23.785
G1 X56.494 Y23.719
G1 X56.541 Y23.644
G1 X56.591 Y23.562
G1 X56.646 Y23.471
G1 X56.678 Y23.419
G1 X56.603 Y23.435
G1 X56.527 Y23.445
G1 X56.45 Y23.449
G1 X56.373 Y23.445
G1 X56.297 Y23.435
G1 X56.222 Y23.418
G1 X56.297 Y23.435
G1 X56.373 Y23.445
G1 X56.45 Y23.449
G1 X56.527 Y23.445
G1 X56.603 Y23.435
G1 X56.678 Y23.419
G1 X56.722 Y23.385 Z-2.002
G1 X56.771 Y23.344 Z-1.951
G1 X56.818 Y23.302 Z-1.906
G1 X56.865 Y23.257 Z-1.865
G1 X56.909 Y23.21 Z-1.83
G1 X56.954 Y23.159 Z-1.8
G1 X56.995 Y23.108 Z-1.777
G1 X57.036 Y23.053 Z-1.76
G1 X57.073 Y22.996 Z-1.751
G1 X57.129 Y22.903 Z-1.749
G1 X57.296 Y22.61
G1 X57.463 Y22.309 Z-1.748
G1 X57.597 Y22.059
G1 X57.722 Y21.815
G1 X57.855 Y21.525 Z-1.749
G1 X57.863 Y21.506 Z-1.748
G1 X57.946 Y21.287 Z-1.751
G1 X57.968 Y21.223 Z-1.747
G1 X58.022 Y21.052 Z-1.751
G1 X58.052 Y20.943 Z-1.747
G1 X58.082 Y20.82 Z-1.751
G1 X58.115 Y20.665 Z-1.748
G1 X58.124 Y20.618
G1 X58.159 Y20.392
G1 X58.184 Y20.142 Z-1.749
G1 X58.185 Y20.126 Z-1.748
G1 X58.193 Y19.923 Z-1.749
G1 X58.194 Y19.866 Z-1.746
G1 X58.193 Y19.708 Z-1.748
G1 X58.19 Y19.615 Z-1.745
G1 X58.183 Y19.498 Z-1.747
G1 X58.173 Y19.372 Z-1.745
G1 X58.17 Y19.336
G1 X58.146 Y19.139 Z-1.744
G1 X58.109 Y18.917
G1 X58.068 Y18.717
G1 X58.024 Y18.54 Z-1.745
G1 X57.977 Y18.371
G1 X57.954 Y18.295 Z-1.743
G1 X57.901 Y18.134 Z-1.744
G1 X57.847 Y17.984
G1 X57.789 Y17.837 Z-1.745
G1 X57.733 Y17.705
G1 X57.672 Y17.572 Z-1.747
G1 X57.586 Y17.402 Z-1.748
G1 X57.552 Y17.334 Z-1.754
G1 X57.528 Y17.281 Z-1.766
G1 X57.519 Y17.261 Z-1.772
G1 X57.516 Y17.252 Z-1.775
G1 X57.51 Y17.239 Z-1.78
G1 X57.509 Y17.23 Z-1.777
G1 Y17.228
G1 X57.503 Y17.155 Z-1.759
G1 X57.5 Y17.084 Z-1.751
G1 X57.501 Y17.027 Z-1.748
G1 X57.504 Y16.947 Z-1.749
G1 X57.515 Y16.747 Z-1.748
G1 X57.534 Y16.512 Z-1.749
G1 X57.556 Y16.294
G1 X57.586 Y16.04 Z-1.75
G1 X57.632 Y15.707
G1 X57.685 Y15.36
G1 X57.747 Y15 Z-1.749
G1 X57.845 Y14.463
G1 X58.286 Y12.259
G1 X58.438 Y11.485
G1 X58.537 Y10.959
G1 X58.63 Y10.428
G1 X58.718 Y9.894
G1 X58.766 Y9.573
G1 X58.804 Y9.304
G1 X58.866 Y8.819
G1 X58.896 Y8.551
G1 X58.923 Y8.283
G1 X58.947 Y8.016 Z-1.748
G1 X58.967 Y7.75 Z-1.749
G1 X58.983 Y7.485 Z-1.748
G1 X58.994 Y7.221 Z-1.749
G1 X59.002 Y6.959 Z-1.748
G1 X59.004 Y6.697 Z-1.749
G1 Y6.617 Z-1.748
G1 X58.998 Y6.396
G1 X58.987 Y6.19
G1 X58.969 Y6
G1 X58.947 Y5.824
G1 X58.929 Y5.715
G1 X58.9 Y5.563
G1 X58.866 Y5.417
G1 X58.828 Y5.285
G1 X58.801 Y5.206 Z-1.752
G1 X58.775 Y5.144 Z-1.761
G1 X58.746 Y5.085 Z-1.774
G1 X58.716 Y5.03 Z-1.791
G1 X58.683 Y4.979 Z-1.811
G1 X58.649 Y4.931 Z-1.834
G1 X58.615 Y4.887 Z-1.858
G1 X58.577 Y4.844 Z-1.886
G1 X58.573 Y4.839 Z-1.889
G1 X58.566 Y4.832 Z-1.894
G1 X58.562 Y4.828 Z-1.897
G1 X58.557 Y4.824 Z-1.9
G1 X58.55 Y4.816 Z-1.906
G1 X58.546 Y4.812 Z-1.908
G1 X58.542 Y4.808 Z-1.912
G1 X58.538 Y4.804 Z-1.915
G1 X58.533 Y4.799 Z-1.918
G1 X58.522 Y4.789 Z-1.927
G1 X58.471 Y4.74 Z-1.974
G1 X58.442 Y4.712 Z-2.007
G1 X58.408 Y4.679 Z-2.05
G1 X58.33 Y4.655
G1 X58.25 Y4.638
G1 X58.169 Y4.628
G1 X58.088 Y4.626
G1 X58.006 Y4.632
G1 X57.926 Y4.645
G1 X57.847 Y4.666
G1 X57.77 Y4.694
G1 X57.696 Y4.728
G1 X57.568 Y4.796
G1 X57.464 Y4.843
G1 X57.357 Y4.883
G1 X57.249 Y4.917
G1 X57.137 Y4.945
G1 X57.023 Y4.966
G1 X56.907 Y4.981
G1 X56.788 Y4.991
G1 X56.667 Y4.995
G1 X56.545 Y4.993
G1 X56.421 Y4.986
G1 X56.296 Y4.974
G1 X56.171 Y4.957
G1 X56.045 Y4.934
G1 X55.92 Y4.908
G1 X55.795 Y4.877
G1 X55.672 Y4.842
G1 X55.551 Y4.804
G1 X55.432 Y4.763
G1 X55.316 Y4.719
G1 X55.203 Y4.672
G1 X55.094 Y4.624
G1 X54.99 Y4.575
G1 X54.88 Y4.519
G1 X54.804 Y4.485
G1 X54.725 Y4.459
G1 X54.643 Y4.44
G1 X54.56 Y4.428
G1 X54.477 Y4.425
G1 X54.393 Y4.43
G1 X54.311 Y4.442
G1 X54.229 Y4.463
G1 X54.151 Y4.491
G1 X54.075 Y4.526
G1 X54.003 Y4.569
G1 X53.935 Y4.618
G1 X53.872 Y4.673
G1 X53.935 Y4.618
G1 X54.003 Y4.569
G1 X54.075 Y4.526
G1 X54.151 Y4.491
G1 X54.229 Y4.463
G1 X54.311 Y4.442
G1 X54.393 Y4.43
G1 X54.477 Y4.425
G1 X54.56 Y4.428
G1 X54.643 Y4.44
G1 X54.725 Y4.459
G1 X54.804 Y4.485
G1 X54.88 Y4.519
G1 X54.99 Y4.575
G1 X55.094 Y4.624
G1 X55.203 Y4.672
G1 X55.316 Y4.719
G1 X55.432 Y4.763
G1 X55.551 Y4.804
G1 X55.672 Y4.842
G1 X55.795 Y4.877
G1 X55.92 Y4.908
G1 X56.045 Y4.934
G1 X56.171 Y4.957
G1 X56.296 Y4.974
G1 X56.421 Y4.986
G1 X56.545 Y4.993
G1 X56.667 Y4.995
G1 X56.788 Y4.991
G1 X56.907 Y4.981
G1 X57.023 Y4.966
G1 X57.137 Y4.945
G1 X57.249 Y4.917
G1 X57.357 Y4.883
G1 X57.464 Y4.843
G1 X57.568 Y4.796
G1 X57.696 Y4.728
G1 X57.77 Y4.694
G1 X57.847 Y4.666
G1 X57.926 Y4.645
G1 X58.006 Y4.632
G1 X58.088 Y4.626
G1 X58.169 Y4.628
G1 X58.25 Y4.638
G1 X58.33 Y4.655
G1 X58.408 Y4.679
G1 X58.38 Y4.603
G1 X58.36 Y4.525
G1 X58.347 Y4.445
G1 X58.341 Y4.364
G1 X58.343 Y4.284
G1 X58.352 Y4.203
G1 X58.369 Y4.124
G1 X58.393 Y4.047
G1 X58.423 Y3.972
G1 X58.503 Y3.801
G1 X58.555 Y3.659
G1 X58.597 Y3.512
G1 X58.628 Y3.359
G1 X58.648 Y3.199
G1 X58.658 Y3.032
G1 Y2.858
G1 X58.647 Y2.676
G1 X58.627 Y2.488
G1 X58.596 Y2.295
G1 X58.557 Y2.096
G1 X58.508 Y1.892
G1 X58.451 Y1.684
G1 X58.386 Y1.472
G1 X58.313 Y1.258
G1 X58.235 Y1.042
G1 X58.151 Y0.824
G1 X58.061 Y0.605
G1 X57.968 Y0.386
G1 X57.872 Y0.167
G1 X57.773 Y-0.052
G1 X57.673 Y-0.27
G1 X57.571 Y-0.487
G1 X57.47 Y-0.703
G1 X57.425 Y-0.799
G1 Y-0.8
G1 X57.379 Y-0.897
G1 X57.333 Y-0.995
G1 X57.332 Y-0.997
G1 X57.287 Y-1.095
G1 X57.286 Y-1.096
G1 X57.24 Y-1.194
G1 X57.239 Y-1.198
G1 X57.194 Y-1.296
G1 X57.193 Y-1.298
G1 X57.149 Y-1.396
G1 X57.147 Y-1.4
G1 X57.104 Y-1.497
G1 X57.102 Y-1.501
G1 X57.06 Y-1.597
G1 X57.057 Y-1.602
G1 X57.017 Y-1.697
G1 X57.013 Y-1.704
G1 X56.974 Y-1.797
G1 X56.971 Y-1.804
G1 X56.934 Y-1.895
G1 X56.93 Y-1.904
G1 X56.894 Y-1.994
G1 X56.89 Y-2.004
G1 X56.857 Y-2.091
G1 X56.853 Y-2.102
G1 X56.821 Y-2.187
G1 X56.816 Y-2.201
G1 X56.787 Y-2.284
G1 X56.782 Y-2.298
G1 X56.756 Y-2.377
G1 X56.75 Y-2.397
G1 X56.726 Y-2.473
G1 X56.72 Y-2.494
G1 X56.7 Y-2.567
G1 X56.693 Y-2.593
G1 X56.676 Y-2.662
G1 X56.669 Y-2.692
G1 X56.655 Y-2.758
G1 X56.648 Y-2.796
G1 X56.638 Y-2.858
G1 X56.631 Y-2.906
G1 X56.625 Y-2.962
G1 X56.621 Y-3.021
G1 X56.619 Y-3.073
G1 Y-3.133
G1 X56.621 Y-3.228
G1 X56.624 Y-3.278
G1 X56.632 Y-3.372
G1 X56.638 Y-3.42
G1 X56.651 Y-3.513
G1 X56.659 Y-3.558
G1 X56.677 Y-3.651
G1 X56.686 Y-3.694
G1 X56.709 Y-3.787
G1 X56.72 Y-3.826
G1 X56.748 Y-3.919
G1 X56.759 Y-3.954
G1 X56.791 Y-4.047
G1 X56.803 Y-4.08
G1 X56.839 Y-4.172
G1 X56.851 Y-4.203
G1 X56.892 Y-4.296
G1 X56.903 Y-4.322
G1 X56.947 Y-4.415
G1 X56.959 Y-4.439
G1 X57.006 Y-4.532
G1 X57.017 Y-4.553
G1 X57.068 Y-4.647
G1 X57.079 Y-4.666
G1 X57.133 Y-4.76
G1 X57.143 Y-4.776
G1 X57.2 Y-4.871
G1 X57.209 Y-4.885
G1 X57.269 Y-4.98
G1 X57.277 Y-4.992
G1 X57.339 Y-5.088
G1 X57.346 Y-5.098
G1 X57.411 Y-5.194
G1 X57.418 Y-5.204
G1 X57.48 Y-5.294
G1 X57.496 Y-5.304 Z-2.033
G1 X57.55 Y-5.34 Z-1.977
G1 X57.606 Y-5.38 Z-1.923
G1 X57.656 Y-5.419 Z-1.88
G1 X57.709 Y-5.464 Z-1.84
G1 X57.756 Y-5.506 Z-1.809
G1 X57.803 Y-5.552 Z-1.784
G1 X57.846 Y-5.598 Z-1.766
G1 X57.888 Y-5.647 Z-1.754
G1 X57.961 Y-5.741 Z-1.749
G1 X58.393 Y-6.324
G1 X58.534 Y-6.522
G1 X58.674 Y-6.725
G1 X58.822 Y-6.952
G1 X58.944 Y-7.152 Z-1.748
G1 X59.035 Y-7.307 Z-1.749
G1 X59.135 Y-7.491
G1 X59.195 Y-7.608
G1 X59.254 Y-7.728
G1 X59.309 Y-7.849
G1 X59.363 Y-7.973
G1 X59.414 Y-8.099
G1 X59.463 Y-8.228 Z-1.75
G1 X59.508 Y-8.359
G1 X59.55 Y-8.489
G1 X59.565 Y-8.545 Z-1.753
G1 X59.578 Y-8.601 Z-1.761
G1 X59.591 Y-8.679 Z-1.777
G1 X59.6 Y-8.758 Z-1.804
G1 X59.603 Y-8.79 Z-1.818
G1 X59.606 Y-8.823 Z-1.836
G1 X59.609 Y-8.857 Z-1.858
G1 X59.612 Y-8.892 Z-1.884
G1 X59.616 Y-8.93 Z-1.915
G1 X59.619 Y-8.97 Z-1.952
G1 X59.623 Y-9.013 Z-1.997
G1 X59.628 Y-9.059 Z-2.05
G1 X59.678 Y-9.126
G1 X59.734 Y-9.187
G1 X59.796 Y-9.242
G1 X59.863 Y-9.292
G1 X59.935 Y-9.335
G1 X60.01 Y-9.371
G1 X60.088 Y-9.4
G1 X60.168 Y-9.421
G1 X60.25 Y-9.434
G1 X60.334 Y-9.44
G1 X60.417 Y-9.438
G1 X60.478 Y-9.411 Z-2.002
G1 X60.542 Y-9.377 Z-1.951
G1 X60.603 Y-9.342 Z-1.908
G1 X60.668 Y-9.298 Z-1.863
G1 X60.729 Y-9.252 Z-1.828
G1 X60.791 Y-9.197 Z-1.794
G1 X60.849 Y-9.139 Z-1.77
G1 X60.906 Y-9.073 Z-1.752
G1 X60.976 Y-8.98 Z-1.744
G1 X61.052 Y-8.862
G1 X61.079 Y-8.818 Z-1.743
G1 X61.143 Y-8.709
G1 X61.181 Y-8.642
G1 X61.252 Y-8.508 Z-1.744
G1 X61.278 Y-8.456 Z-1.743
G1 X61.382 Y-8.238 Z-1.744
G1 X61.44 Y-8.104 Z-1.745
G1 X61.449 Y-8.083
G1 X61.492 Y-7.979 Z-1.744
G1 X61.542 Y-7.853 Z-1.746
G1 X61.638 Y-7.59
G1 X61.729 Y-7.314 Z-1.747
G1 X61.816 Y-7.026
G1 X61.898 Y-6.725 Z-1.748
G1 X61.975 Y-6.413
G1 X62.048 Y-6.09
G1 X62.116 Y-5.754
G1 X62.151 Y-5.572 Z-1.749
G1 X62.211 Y-5.228
G1 X62.268 Y-4.867
G1 X62.326 Y-4.441 Z-1.75
G1 X62.354 Y-4.22 Z-1.748
G1 X62.393 Y-3.875
G1 X62.394 Y-3.865
G1 X62.432 Y-3.49 Z-1.749
G1 X62.469 Y-3.063 Z-1.75
G1 X62.505 Y-2.576
G1 X62.535 Y-2.075
G1 X62.549 Y-1.773 Z-1.748
G1 X62.558 Y-1.561 Z-1.75
G1 X62.568 Y-1.288 Z-1.748
G1 X62.576 Y-1.034 Z-1.75
G1 X62.582 Y-0.779 Z-1.748
G1 X62.587 Y-0.494 Z-1.749
G1 X62.59 Y-0.248 Z-1.747
G1 X62.592 Y0.058 Z-1.749
G1 X62.593 Y0.308 Z-1.747
G1 X62.592 Y0.622 Z-1.749
G1 X62.589 Y0.887 Z-1.747
G1 X62.585 Y1.199 Z-1.749
G1 X62.579 Y1.491 Z-1.747
G1 X62.571 Y1.786 Z-1.749
G1 X62.561 Y2.12 Z-1.747
G1 X62.552 Y2.386 Z-1.749
G1 X62.537 Y2.774 Z-1.747
G1 X62.527 Y2.996 Z-1.749
G1 X62.495 Y3.618 Z-1.748
G1 X62.457 Y4.25
G1 X62.413 Y4.892
G1 X62.354 Y5.649
G1 X62.286 Y6.434
G1 X62.243 Y6.879 Z-1.75
G1 X62.207 Y7.246 Z-1.748
G1 X62.175 Y7.561 Z-1.75
G1 X62.1 Y8.252
G1 X62.019 Y8.952 Z-1.748
G1 Z-1.747
G1 X62.018 Z-1.746
G1 X62.019 Z-1.747
G1 Z-1.748
G1 X62.02 Z-1.747
G1 X62.019 Z-1.748
G1 X62.1 Y8.252 Z-1.75
G1 X62.175 Y7.561
G1 X62.207 Y7.246 Z-1.748
G1 X62.243 Y6.879 Z-1.75
G1 X62.286 Y6.434 Z-1.748
G1 X62.354 Y5.649
G1 X62.413 Y4.892
G1 X62.457 Y4.25
G1 X62.495 Y3.618
G1 X62.527 Y2.996 Z-1.749
G1 X62.537 Y2.774 Z-1.747
G1 X62.552 Y2.386 Z-1.749
G1 X62.561 Y2.12 Z-1.747
G1 X62.571 Y1.786 Z-1.749
G1 X62.579 Y1.491 Z-1.747
G1 X62.585 Y1.199 Z-1.749
G1 X62.589 Y0.887 Z-1.747
G1 X62.592 Y0.622 Z-1.749
G1 X62.593 Y0.308 Z-1.747
G1 X62.592 Y0.058 Z-1.749
G1 X62.59 Y-0.248 Z-1.747
G1 X62.587 Y-0.494 Z-1.749
G1 X62.582 Y-0.779 Z-1.748
G1 X62.576 Y-1.034 Z-1.75
G1 X62.568 Y-1.288 Z-1.748
G1 X62.558 Y-1.561 Z-1.75
G1 X62.549 Y-1.773 Z-1.748
G1 X62.535 Y-2.075 Z-1.75
G1 X62.505 Y-2.576
G1 X62.469 Y-3.063
G1 X62.432 Y-3.49 Z-1.749
G1 X62.394 Y-3.865 Z-1.748
G1 X62.393 Y-3.875
G1 X62.354 Y-4.22
G1 X62.326 Y-4.441 Z-1.75
G1 X62.268 Y-4.867 Z-1.749
G1 X62.211 Y-5.228
G1 X62.151 Y-5.572
G1 X62.116 Y-5.754 Z-1.748
G1 X62.048 Y-6.09
G1 X61.975 Y-6.413
G1 X61.898 Y-6.725
G1 X61.816 Y-7.026 Z-1.747
G1 X61.729 Y-7.314
G1 X61.638 Y-7.59 Z-1.746
G1 X61.542 Y-7.853
G1 X61.492 Y-7.979 Z-1.744
G1 X61.449 Y-8.083 Z-1.745
G1 X61.44 Y-8.104
G1 X61.382 Y-8.238 Z-1.744
G1 X61.278 Y-8.456 Z-1.743
G1 X61.252 Y-8.508 Z-1.744
G1 X61.181 Y-8.642 Z-1.743
G1 X61.143 Y-8.709
G1 X61.079 Y-8.818
G1 X61.052 Y-8.862 Z-1.744
G1 X60.976 Y-8.98
G1 X60.906 Y-9.073 Z-1.752
G1 X60.849 Y-9.139 Z-1.77
G1 X60.791 Y-9.197 Z-1.794
G1 X60.729 Y-9.252 Z-1.828
G1 X60.668 Y-9.298 Z-1.863
G1 X60.603 Y-9.342 Z-1.908
G1 X60.542 Y-9.377 Z-1.951
G1 X60.478 Y-9.411 Z-2.002
G1 X60.417 Y-9.438 Z-2.05
G1 X60.369 Y-9.479
G1 X60.276 Y-9.549
G1 X60.184 Y-9.609
G1 X60.063 Y-9.675
G1 X59.997 Y-9.714
G1 X59.934 Y-9.76
G1 X59.876 Y-9.81
G1 X59.823 Y-9.866
G1 X59.775 Y-9.926
G1 X59.732 Y-9.99
G1 X59.695 Y-10.057
G1 X59.663 Y-10.128
G1 X59.639 Y-10.201
G1 X59.62 Y-10.276
G1 X59.609 Y-10.352
G1 X59.603 Y-10.409
G1 X59.602 Y-10.412
G1 X59.601 Y-10.424
G1 X59.6 Y-10.434
G1 X59.599 Y-10.437
G1 Y-10.443
G1 X59.598 Y-10.446
G1 X59.597 Y-10.456
G1 X59.596 Y-10.464
G1 Y-10.466
G1 X59.595 Y-10.468
G1 X59.59 Y-10.506
G1 Y-10.508
G1 X59.589 Y-10.516
G1 X59.581 Y-10.596
G1 X59.58 Y-10.677
G1 X59.587 Y-10.757
G1 X59.601 Y-10.837
G1 X59.622 Y-10.915
G1 X59.651 Y-10.991
G1 X59.686 Y-11.063
G1 X59.728 Y-11.132
G1 X59.775 Y-11.197
G1 X59.829 Y-11.258
G1 X59.907 Y-11.281 Z-1.962
G1 X59.974 Y-11.301 Z-1.899
G1 X60.034 Y-11.319 Z-1.853
G1 X60.091 Y-11.336 Z-1.82
G1 X60.16 Y-11.358 Z-1.789
G1 X60.23 Y-11.384 Z-1.769
G1 X60.295 Y-11.41 Z-1.759
G1 X60.362 Y-11.439 Z-1.758
G1 X60.473 Y-11.483
G1 X60.558 Y-11.514
G1 X60.672 Y-11.549
G1 X60.759 Y-11.571
G1 X60.872 Y-11.595 Z-1.757
G1 X60.982 Y-11.613 Z-1.756
G1 X61.098 Y-11.625 Z-1.755
G1 X61.211 Y-11.63 Z-1.754
G1 X61.316 Y-11.629 Z-1.752
G1 X61.42 Y-11.622 Z-1.751
G1 X61.518 Y-11.61 Z-1.75
G1 X61.621 Y-11.592 Z-1.749
G1 X61.695 Y-11.575
G1 X61.745 Y-11.561 Z-1.748
G1 X61.83 Y-11.536 Z-1.751
G1 X61.899 Y-11.512 Z-1.748
G1 X61.961 Y-11.488 Z-1.751
G1 X62.121 Y-11.416
G1 X62.231 Y-11.355 Z-1.755
G1 X62.294 Y-11.318 Z-1.753
G1 X62.372 Y-11.267 Z-1.757
G1 X62.467 Y-11.2 Z-1.755
G1 X62.516 Y-11.163 Z-1.758
G1 X62.682 Y-11.023 Z-1.759
G1 X62.84 Y-10.868 Z-1.76
G1 X62.978 Y-10.716 Z-1.762
G1 X63.009 Y-10.679 Z-1.761
G1 X63.116 Y-10.546 Z-1.764
G1 X63.164 Y-10.482 Z-1.762
G1 X63.271 Y-10.333 Z-1.765
G1 X63.315 Y-10.266 Z-1.762
G1 X63.442 Y-10.064 Z-1.763
G1 X63.461 Y-10.032 Z-1.762
G1 X63.602 Y-9.78 Z-1.763
G1 X63.738 Y-9.509
G1 X63.879 Y-9.195
G1 X63.995 Y-8.907 Z-1.76
G1 X64.025 Y-8.831 Z-1.763
G1 X64.117 Y-8.575 Z-1.758
G1 X64.165 Y-8.434 Z-1.762
G1 X64.233 Y-8.223 Z-1.757
G1 X64.3 Y-8.001 Z-1.76
G1 X64.344 Y-7.849 Z-1.755
G1 X64.444 Y-7.473
G1 X64.449 Y-7.453
G1 X64.551 Y-7.025 Z-1.754
G1 X64.641 Y-6.593 Z-1.751
G1 X64.664 Y-6.479 Z-1.753
G1 X64.727 Y-6.129 Z-1.749
G1 X64.767 Y-5.893 Z-1.752
G1 X64.806 Y-5.64 Z-1.748
G1 X64.861 Y-5.265 Z-1.751
G1 X64.879 Y-5.127 Z-1.748
G1 X64.944 Y-4.588 Z-1.749
G1 X65.006 Y-3.97
G1 X65.057 Y-3.332 Z-1.748
G1 X65.097 Y-2.676
G1 X65.126 Y-2.001
G1 X65.145 Y-1.308
G1 X65.153 Y-0.597 Z-1.747
G1 X65.15 Y0.132
G1 X65.137 Y0.879
G1 X65.114 Y1.643
G1 X65.08 Y2.424
G1 X65.035 Y3.221
G1 X64.981 Y4.036
G1 X64.916 Y4.866
G1 X64.84 Y5.712
G1 X64.755 Y6.574 Z-1.748
G1 X64.659 Y7.451
G1 X64.553 Y8.343
G1 X64.437 Y9.25
G1 X64.31 Y10.172
G1 X64.174 Y11.107
G1 X64.027 Y12.057 Z-1.749
G1 X63.87 Y13.019
G1 X63.703 Y13.995
G1 X63.527 Y14.982 Z-1.748
G1 Y14.983 Z-1.744
G1 Y14.982 Z-1.748
G1 X63.703 Y13.995 Z-1.749
G1 X63.87 Y13.019
G1 X64.027 Y12.057
G1 X64.174 Y11.107 Z-1.748
G1 X64.31 Y10.172
G1 X64.437 Y9.25
G1 X64.553 Y8.343
G1 X64.659 Y7.451
G1 X64.755 Y6.574
G1 X64.84 Y5.712 Z-1.747
G1 X64.916 Y4.866
G1 X64.981 Y4.036
G1 X65.035 Y3.221
G1 X65.08 Y2.424
G1 X65.114 Y1.643
G1 X65.137 Y0.879
G1 X65.15 Y0.132
G1 X65.153 Y-0.597
G1 X65.145 Y-1.308 Z-1.748
G1 X65.126 Y-2.001
G1 X65.097 Y-2.676
G1 X65.057 Y-3.332
G1 X65.006 Y-3.97 Z-1.749
G1 X64.944 Y-4.588
G1 X64.879 Y-5.127 Z-1.748
G1 X64.861 Y-5.265 Z-1.751
G1 X64.806 Y-5.64 Z-1.748
G1 X64.767 Y-5.893 Z-1.752
G1 X64.727 Y-6.129 Z-1.749
G1 X64.664 Y-6.479 Z-1.753
G1 X64.641 Y-6.593 Z-1.751
G1 X64.551 Y-7.025 Z-1.754
G1 X64.449 Y-7.453 Z-1.755
G1 X64.444 Y-7.473
G1 X64.344 Y-7.849
G1 X64.3 Y-8.001 Z-1.76
G1 X64.233 Y-8.223 Z-1.757
G1 X64.165 Y-8.434 Z-1.762
G1 X64.117 Y-8.575 Z-1.758
G1 X64.025 Y-8.831 Z-1.763
G1 X63.995 Y-8.907 Z-1.76
G1 X63.879 Y-9.195 Z-1.763
G1 X63.738 Y-9.509
G1 X63.602 Y-9.78
G1 X63.461 Y-10.032 Z-1.762
G1 X63.442 Y-10.064 Z-1.763
G1 X63.315 Y-10.266 Z-1.762
G1 X63.271 Y-10.333 Z-1.765
G1 X63.164 Y-10.482 Z-1.762
G1 X63.116 Y-10.546 Z-1.764
G1 X63.009 Y-10.679 Z-1.761
G1 X62.978 Y-10.716 Z-1.762
G1 X62.84 Y-10.868 Z-1.76
G1 X62.682 Y-11.023 Z-1.759
G1 X62.516 Y-11.163 Z-1.758
G1 X62.467 Y-11.2 Z-1.755
G1 X62.372 Y-11.267 Z-1.757
G1 X62.294 Y-11.318 Z-1.753
G1 X62.231 Y-11.355 Z-1.755
G1 X62.121 Y-11.416 Z-1.751
G1 X61.961 Y-11.488
G1 X61.899 Y-11.512 Z-1.748
G1 X61.83 Y-11.536 Z-1.751
G1 X61.745 Y-11.561 Z-1.748
G1 X61.695 Y-11.575 Z-1.749
G1 X61.621 Y-11.592
G1 X61.518 Y-11.61 Z-1.75
G1 X61.42 Y-11.622 Z-1.751
G1 X61.316 Y-11.629 Z-1.752
G1 X61.211 Y-11.63 Z-1.754
G1 X61.098 Y-11.625 Z-1.755
G1 X60.982 Y-11.613 Z-1.756
G1 X60.872 Y-11.595 Z-1.757
G1 X60.759 Y-11.571 Z-1.758
G1 X60.672 Y-11.549
G1 X60.558 Y-11.514
G1 X60.473 Y-11.483
G1 X60.362 Y-11.439
G1 X60.295 Y-11.41 Z-1.759
G1 X60.23 Y-11.384 Z-1.769
G1 X60.16 Y-11.358 Z-1.789
G1 X60.091 Y-11.336 Z-1.82
G1 X60.034 Y-11.319 Z-1.853
G1 X59.974 Y-11.301 Z-1.899
G1 X59.907 Y-11.281 Z-1.962
G1 X59.829 Y-11.258 Z-2.05
G1 X59.759 Y-11.276
G1 X59.691 Y-11.301
G1 X59.625 Y-11.33
G1 X59.629 Y-11.25
G1 X59.625 Y-11.17
G1 X59.615 Y-11.091
G1 X59.597 Y-11.013
G1 X59.572 Y-10.936
G1 X59.54 Y-10.863
G1 X59.502 Y-10.792
G1 X59.457 Y-10.726
G1 X59.407 Y-10.664
G1 X59.351 Y-10.606
G1 X59.329 Y-10.585
G1 X59.308 Y-10.566
G1 X59.287 Y-10.545
G1 X59.266 Y-10.525
G1 X59.245 Y-10.505
G1 X59.223 Y-10.483
G1 X59.203 Y-10.463
G1 X59.182 Y-10.442
G1 X59.16 Y-10.42
G1 X59.139 Y-10.399
G1 X59.118 Y-10.376
G1 X59.096 Y-10.354
G1 X59.075 Y-10.331
G1 X59.053 Y-10.308
G1 X59.032 Y-10.285
G1 X59.01 Y-10.261
G1 X58.988 Y-10.237
G1 X58.966 Y-10.214
G1 X58.944 Y-10.189
G1 X58.922 Y-10.164
G1 X58.9 Y-10.139
G1 X58.879 Y-10.115
G1 X58.857 Y-10.089
G1 X58.835 Y-10.063
G1 X58.791 Y-10.011
G1 X58.748 Y-9.96
G1 X58.705 Y-9.907
G1 X58.662 Y-9.853
G1 X58.619 Y-9.798
G1 X58.577 Y-9.743
G1 X58.533 Y-9.685
G1 X58.49 Y-9.628
G1 X58.447 Y-9.569
G1 X58.404 Y-9.51
G1 X58.362 Y-9.449
G1 X58.358 Y-9.444
G1 X58.431 Y-9.485
G1 X58.507 Y-9.519
G1 X58.586 Y-9.546
G1 X58.667 Y-9.565
G1 X58.75 Y-9.576
G1 X58.834 Y-9.579
G1 X58.917 Y-9.574
G1 X59 Y-9.562
G1 X59.081 Y-9.541
G1 X59.159 Y-9.513
G1 X59.235 Y-9.478
G1 X59.307 Y-9.436
G1 X59.374 Y-9.387
G1 X59.437 Y-9.331
G1 X59.494 Y-9.271
G1 X59.545 Y-9.204
G1 X59.59 Y-9.134
G1 X59.628 Y-9.059
G1 X59.59 Y-9.134
G1 X59.545 Y-9.204
G1 X59.494 Y-9.271
G1 X59.437 Y-9.331
G1 X59.374 Y-9.387
G1 X59.307 Y-9.436
G1 X59.235 Y-9.478
G1 X59.159 Y-9.513
G1 X59.081 Y-9.541
G1 X59 Y-9.562
G1 X58.917 Y-9.574
G1 X58.834 Y-9.579
G1 X58.75 Y-9.576
G1 X58.667 Y-9.565
G1 X58.586 Y-9.546
G1 X58.507 Y-9.519
G1 X58.431 Y-9.485
G1 X58.358 Y-9.444
G1 X58.308 Y-9.395 Z-2.02
G1 X58.257 Y-9.339 Z-1.994
G1 X58.216 Y-9.29 Z-1.978
G1 X58.152 Y-9.211 Z-1.956
G1 X58.063 Y-9.095 Z-1.928
G1 X57.968 Y-8.966 Z-1.901
G1 X57.875 Y-8.833 Z-1.877
G1 X57.77 Y-8.677 Z-1.853
G1 X57.713 Y-8.589 Z-1.844
G1 X57.64 Y-8.489 Z-1.852
G1 X57.559 Y-8.393 Z-1.888
G1 X57.509 Y-8.339 Z-1.92
G1 X57.467 Y-8.297 Z-1.952
G1 X57.41 Y-8.245 Z-2.002
G1 X57.361 Y-8.203 Z-2.05
G1 X57.355 Y-8.193
G1 X57.292 Y-8.086
G1 X57.286 Y-8.075
G1 X57.222 Y-7.964
G1 X57.215 Y-7.952
G1 X57.151 Y-7.837
G1 X57.146 Y-7.826
G1 X57.081 Y-7.706
G1 X57.076 Y-7.696
G1 X57.011 Y-7.571
G1 X57.006 Y-7.56
G1 X56.941 Y-7.43
G1 X56.936 Y-7.421
G1 X56.871 Y-7.287
G1 X56.866 Y-7.277
G1 X56.801 Y-7.138
G1 X56.797 Y-7.129
G1 X56.731 Y-6.985
G1 X56.727 Y-6.975
G1 X56.661 Y-6.827
G1 X56.657 Y-6.818
G1 X56.592 Y-6.664
G1 X56.588 Y-6.655
G1 X56.522 Y-6.497
G1 X56.495 Y-6.421
G1 X56.474 Y-6.342
G1 X56.461 Y-6.261
G1 X56.455 Y-6.18
G1 X56.457 Y-6.099
G1 X56.467 Y-6.018
G1 X56.484 Y-5.938
G1 X56.508 Y-5.86
G1 X56.539 Y-5.785
G1 X56.577 Y-5.713
G1 X56.622 Y-5.645
G1 X56.672 Y-5.582
G1 X56.729 Y-5.523
G1 X56.79 Y-5.47
G1 X56.857 Y-5.422
G1 X56.927 Y-5.381
G1 X57.001 Y-5.347
G1 X57.078 Y-5.32
G1 X57.157 Y-5.3
G1 X57.237 Y-5.287
G1 X57.318 Y-5.282
G1 X57.4 Y-5.284
G1 X57.48 Y-5.294
G1 X57.4 Y-5.284
G1 X57.318 Y-5.282
G1 X57.237 Y-5.287
G1 X57.157 Y-5.3
G1 X57.078 Y-5.32
G1 X57.001 Y-5.347
G1 X56.927 Y-5.381
G1 X56.857 Y-5.422
G1 X56.79 Y-5.47
G1 X56.729 Y-5.523
G1 X56.672 Y-5.582
G1 X56.622 Y-5.645
G1 X56.577 Y-5.713
G1 X56.539 Y-5.785
G1 X56.508 Y-5.86
G1 X56.484 Y-5.938
G1 X56.467 Y-6.018
G1 X56.457 Y-6.099
G1 X56.455 Y-6.18
G1 X56.461 Y-6.261
G1 X56.474 Y-6.342
G1 X56.495 Y-6.421
G1 X56.522 Y-6.497
G1 X56.588 Y-6.655
G1 X56.592 Y-6.664
G1 X56.657 Y-6.818
G1 X56.661 Y-6.827
G1 X56.727 Y-6.975
G1 X56.731 Y-6.985
G1 X56.797 Y-7.129
G1 X56.801 Y-7.138
G1 X56.866 Y-7.277
G1 X56.871 Y-7.287
G1 X56.936 Y-7.421
G1 X56.941 Y-7.43
G1 X57.006 Y-7.56
G1 X57.011 Y-7.571
G1 X57.076 Y-7.696
G1 X57.081 Y-7.706
G1 X57.146 Y-7.826
G1 X57.151 Y-7.837
G1 X57.215 Y-7.952
G1 X57.222 Y-7.964
G1 X57.286 Y-8.075
G1 X57.292 Y-8.086
G1 X57.355 Y-8.193
G1 X57.361 Y-8.203
G1 X57.283 Y-8.177
G1 X57.202 Y-8.159
G1 X57.12 Y-8.149
G1 X57.038 Y-8.146
G1 X56.956 Y-8.151
G1 X56.874 Y-8.164
G1 X56.794 Y-8.184
G1 X56.717 Y-8.212
G1 X56.642 Y-8.246
G1 X56.571 Y-8.288
G1 X56.504 Y-8.336
G1 X56.442 Y-8.391
G1 X56.443 Y-8.264
G1 X56.444 Y-8.247
G1 X56.442 Y-7.971
G1 X56.441 Y-7.953
G1 X56.434 Y-7.677
G1 X56.433 Y-7.658
G1 X56.42 Y-7.381
G1 X56.419 Y-7.362
G1 X56.399 Y-7.085
G1 X56.398 Y-7.065
G1 X56.372 Y-6.787
G1 X56.361 Y-6.707
G1 X56.343 Y-6.628
G1 X56.317 Y-6.551
G1 X56.284 Y-6.477
G1 X56.245 Y-6.406
G1 X56.199 Y-6.339
G1 X56.147 Y-6.277
G1 X56.09 Y-6.219
G1 X56.028 Y-6.168
G1 X55.961 Y-6.122
G1 X55.89 Y-6.082
G1 X55.816 Y-6.049
G1 X55.739 Y-6.023
G1 X55.66 Y-6.005
G1 X55.58 Y-5.993
G1 X55.499 Y-5.99
G1 X55.418 Y-5.993
G1 X55.337 Y-6.004
G1 X55.258 Y-6.023
G1 X55.182 Y-6.048
G1 X55.107 Y-6.081
G1 X55.036 Y-6.12
G1 X54.969 Y-6.166
G1 X54.949 Y-6.212 Z-1.992
G1 X54.931 Y-6.255 Z-1.945
G1 X54.914 Y-6.295 Z-1.905
G1 X54.898 Y-6.332 Z-1.872
G1 X54.883 Y-6.366 Z-1.845
G1 X54.868 Y-6.4 Z-1.823
G1 X54.854 Y-6.433 Z-1.805
G1 X54.84 Y-6.465 Z-1.791
G1 X54.803 Y-6.558 Z-1.765
G1 X54.773 Y-6.653 Z-1.754
G1 X54.75 Y-6.731 Z-1.752
G1 X54.658 Y-7.039 Z-1.754
G1 X54.586 Y-7.258 Z-1.751
G1 X54.536 Y-7.403 Z-1.754
G1 X54.496 Y-7.514 Z-1.752
G1 X54.402 Y-7.766 Z-1.753
G1 X54.302 Y-8.011 Z-1.752
G1 X54.265 Y-8.1 Z-1.754
G1 X54.198 Y-8.252 Z-1.751
G1 X54.09 Y-8.489 Z-1.752
G1 X53.959 Y-8.757 Z-1.753
G1 X53.86 Y-8.947 Z-1.751
G1 X53.794 Y-9.072 Z-1.753
G1 X53.74 Y-9.169 Z-1.751
G1 X53.617 Y-9.388 Z-1.752
G1 X53.443 Y-9.676
G1 X53.358 Y-9.809 Z-1.75
G1 X53.225 Y-10.014
G1 X53.066 Y-10.248 Z-1.751
G1 X52.949 Y-10.411 Z-1.749
G1 X52.868 Y-10.522 Z-1.751
G1 X52.807 Y-10.604 Z-1.749
G1 X52.664 Y-10.792 Z-1.75
G1 X52.459 Y-11.049
G1 X52.37 Y-11.157 Z-1.748
G1 X52.22 Y-11.335 Z-1.749
G1 X52.034 Y-11.549
G1 X51.92 Y-11.675 Z-1.748
G1 X51.867 Y-11.731 Z-1.753
G1 X51.81 Y-11.784 Z-1.767
G1 X51.727 Y-11.852 Z-1.8
G1 X51.638 Y-11.916 Z-1.852
G1 X51.544 Y-11.974 Z-1.921
G1 X51.472 Y-12.012 Z-1.981
G1 X51.4 Y-12.046 Z-2.049
G1 X51.472 Y-12.012 Z-1.981
G1 X51.544 Y-11.974 Z-1.921
G1 X51.638 Y-11.916 Z-1.852
G1 X51.727 Y-11.852 Z-1.8
G1 X51.81 Y-11.784 Z-1.767
G1 X51.867 Y-11.731 Z-1.753
G1 X51.92 Y-11.675 Z-1.748
G1 X52.034 Y-11.549 Z-1.749
G1 X52.22 Y-11.335
G1 X52.37 Y-11.157 Z-1.748
G1 X52.459 Y-11.049 Z-1.75
G1 X52.664 Y-10.792
G1 X52.807 Y-10.604 Z-1.749
G1 X52.868 Y-10.522 Z-1.751
G1 X52.949 Y-10.411 Z-1.749
G1 X53.066 Y-10.248 Z-1.751
G1 X53.225 Y-10.014 Z-1.75
G1 X53.358 Y-9.809
G1 X53.443 Y-9.676 Z-1.752
G1 X53.617 Y-9.388
G1 X53.74 Y-9.169 Z-1.751
G1 X53.794 Y-9.072 Z-1.753
G1 X53.86 Y-8.947 Z-1.751
G1 X53.959 Y-8.757 Z-1.753
G1 X54.09 Y-8.489 Z-1.752
G1 X54.198 Y-8.252 Z-1.751
G1 X54.265 Y-8.1 Z-1.754
G1 X54.302 Y-8.011 Z-1.752
G1 X54.402 Y-7.766 Z-1.753
G1 X54.496 Y-7.514 Z-1.752
G1 X54.536 Y-7.403 Z-1.754
G1 X54.586 Y-7.258 Z-1.751
G1 X54.658 Y-7.039 Z-1.754
G1 X54.75 Y-6.731 Z-1.752
G1 X54.773 Y-6.653 Z-1.754
G1 X54.803 Y-6.558 Z-1.765
G1 X54.84 Y-6.465 Z-1.791
G1 X54.854 Y-6.433 Z-1.805
G1 X54.868 Y-6.4 Z-1.823
G1 X54.883 Y-6.366 Z-1.845
G1 X54.898 Y-6.332 Z-1.872
G1 X54.914 Y-6.295 Z-1.905
G1 X54.931 Y-6.255 Z-1.945
G1 X54.949 Y-6.212 Z-1.992
G1 X54.969 Y-6.166 Z-2.05
G1 X54.957 Y-6.085
G1 X54.936 Y-6.005
G1 X54.909 Y-5.927
G1 X54.874 Y-5.853
G1 X54.832 Y-5.782
G1 X54.784 Y-5.715
G1 X54.73 Y-5.653
G1 X54.67 Y-5.596
G1 X54.605 Y-5.546
G1 X54.536 Y-5.501
G1 X54.463 Y-5.463
G1 X54.386 Y-5.433
G1 X54.307 Y-5.409
G1 X54.227 Y-5.393
G1 X54.145 Y-5.385
G1 X54.062 Y-5.384
G1 X53.98 Y-5.391
G1 X53.899 Y-5.406
G1 X53.82 Y-5.428
G1 X53.853 Y-5.358
G1 X53.859 Y-5.346
G1 X53.921 Y-5.214
G1 X53.927 Y-5.2
G1 X53.986 Y-5.067
G1 X53.992 Y-5.052
G1 X54.049 Y-4.918
G1 X54.055 Y-4.903
G1 X54.109 Y-4.767
G1 X54.115 Y-4.752
G1 X54.167 Y-4.615
G1 X54.173 Y-4.598
G1 X54.222 Y-4.46
G1 X54.228 Y-4.442
G1 X54.274 Y-4.303
G1 X54.28 Y-4.285
G1 X54.323 Y-4.144
G1 X54.344 Y-4.063
G1 X54.357 Y-3.981
G1 X54.362 Y-3.898
G1 X54.359 Y-3.815
G1 X54.348 Y-3.732
G1 X54.33 Y-3.651
G1 X54.304 Y-3.572
G1 X54.271 Y-3.496
G1 X54.23 Y-3.423
G1 X54.183 Y-3.355
G1 X54.13 Y-3.291
G1 X54.07 Y-3.232
G1 X54.006 Y-3.18
G1 X53.937 Y-3.134
G1 X53.864 Y-3.094
G1 X53.787 Y-3.062
G1 X53.708 Y-3.037
G1 X53.626 Y-3.019
G1 X53.544 Y-3.01
G1 X53.46 Y-3.008
G1 X53.544 Y-3.01
G1 X53.626 Y-3.019
G1 X53.708 Y-3.037
G1 X53.787 Y-3.062
G1 X53.864 Y-3.094
G1 X53.937 Y-3.134
G1 X54.006 Y-3.18
G1 X54.07 Y-3.232
G1 X54.13 Y-3.291
G1 X54.183 Y-3.355
G1 X54.23 Y-3.423
G1 X54.271 Y-3.496
G1 X54.304 Y-3.572
G1 X54.33 Y-3.651
G1 X54.348 Y-3.732
G1 X54.359 Y-3.815
G1 X54.362 Y-3.898
G1 X54.357 Y-3.981
G1 X54.344 Y-4.063
G1 X54.323 Y-4.144
G1 X54.28 Y-4.285
G1 X54.274 Y-4.303
G1 X54.228 Y-4.442
G1 X54.222 Y-4.46
G1 X54.173 Y-4.598
G1 X54.167 Y-4.615
G1 X54.115 Y-4.752
G1 X54.109 Y-4.767
G1 X54.055 Y-4.903
G1 X54.049 Y-4.918
G1 X53.992 Y-5.052
G1 X53.986 Y-5.067
G1 X53.927 Y-5.2
G1 X53.921 Y-5.214
G1 X53.859 Y-5.346
G1 X53.853 Y-5.358
G1 X53.82 Y-5.428
G1 X53.765 Y-5.478 Z-1.983
G1 X53.7 Y-5.542 Z-1.912
G1 X53.648 Y-5.599 Z-1.861
G1 X53.593 Y-5.665 Z-1.815
G1 X53.548 Y-5.724 Z-1.784
G1 X53.499 Y-5.794 Z-1.761
G1 X53.46 Y-5.856 Z-1.749
G1 X53.399 Y-5.967 Z-1.747
G1 X53.25 Y-6.231 Z-1.748
G1 X53.07 Y-6.536
G1 X52.857 Y-6.884 Z-1.749
G1 X52.406 Y-7.598
G1 X52.102 Y-8.082 Z-1.75
G1 X51.849 Y-8.495
G1 X51.679 Y-8.783
G1 X51.52 Y-9.061
G1 X51.442 Y-9.203
G1 X51.288 Y-9.492
G1 X51.138 Y-9.789 Z-1.751
G1 X51.065 Y-9.94
G1 X50.922 Y-10.25 Z-1.752
G1 X50.853 Y-10.409 Z-1.751
G1 X50.72 Y-10.734 Z-1.752
G1 X50.657 Y-10.9 Z-1.751
G1 X50.625 Y-10.993 Z-1.759
G1 X50.602 Y-11.08 Z-1.776
G1 X50.584 Y-11.169 Z-1.807
G1 X50.571 Y-11.26 Z-1.85
G1 X50.565 Y-11.353 Z-1.904
G1 X50.563 Y-11.447 Z-1.971
G1 X50.567 Y-11.543 Z-2.05
G1 X50.604 Y-11.613
G1 X50.647 Y-11.679
G1 X50.696 Y-11.742
G1 X50.75 Y-11.799
G1 X50.809 Y-11.852
G1 X50.873 Y-11.899
G1 X50.941 Y-11.94
G1 X51.012 Y-11.975
G1 X51.086 Y-12.003
G1 X51.162 Y-12.024
G1 X51.24 Y-12.039
G1 X51.319 Y-12.046
G1 X51.398 Y-12.047
G1 X51.284 Y-12.164
G1 X51.061 Y-12.386
G1 X50.836 Y-12.602
G1 X50.611 Y-12.814
G1 X50.385 Y-13.021
G1 X50.193 Y-13.194
G1 X50.232 Y-12.948
G1 X50.286 Y-12.651
G1 X50.347 Y-12.364
G1 X50.415 Y-12.084
G1 X50.487 Y-11.811
G1 X50.566 Y-11.546
G1 X50.567 Y-11.543
G1 X50.566 Y-11.546
G1 X50.487 Y-11.811
G1 X50.415 Y-12.084
G1 X50.347 Y-12.364
G1 X50.286 Y-12.651
G1 X50.232 Y-12.948
G1 X50.193 Y-13.194
G1 X50.157 Y-13.26 Z-1.989
G1 X50.138 Y-13.298 Z-1.958
G1 X50.119 Y-13.333 Z-1.934
G1 X50.102 Y-13.365 Z-1.916
G1 X50.087 Y-13.395 Z-1.902
G1 X50.072 Y-13.424 Z-1.891
G1 X50.043 Y-13.478 Z-1.88
G1 X50.029 Y-13.504 Z-1.879
G1 X50.013 Y-13.534 Z-1.881
G1 X49.997 Y-13.565 Z-1.886
G1 X49.981 Y-13.596 Z-1.895
G1 X49.963 Y-13.629 Z-1.909
G1 X49.945 Y-13.664 Z-1.927
G1 X49.926 Y-13.701 Z-1.952
G1 X49.905 Y-13.741 Z-1.983
G1 X49.868 Y-13.811 Z-2.05
G1 X49.862 Y-13.876
G1 Y-13.882
G1 X49.855 Y-13.959
G1 Y-13.965
G1 X49.849 Y-14.043
G1 X49.848 Y-14.049
G1 X49.843 Y-14.128
G1 X49.842 Y-14.132
G1 X49.837 Y-14.211
G1 Y-14.217
G1 X49.832 Y-14.297
G1 Y-14.303
G1 X49.827 Y-14.383
G1 Y-14.388
G1 X49.823 Y-14.469
G1 Y-14.475
G1 X49.82 Y-14.556
G1 Y-14.562
G1 X49.818 Y-14.617
G1 X49.759 Y-14.561
G1 X49.695 Y-14.51
G1 X49.627 Y-14.466
G1 X49.555 Y-14.428
G1 X49.48 Y-14.397
G1 X49.402 Y-14.373
G1 X49.322 Y-14.357
G1 X49.241 Y-14.348
G1 X49.116 Y-14.394 Z-1.939
G1 X49.027 Y-14.434 Z-1.873
G1 X48.942 Y-14.479 Z-1.822
G1 X48.862 Y-14.526 Z-1.784
G1 X48.786 Y-14.578 Z-1.76
G1 X48.713 Y-14.635 Z-1.75
G1 X48.509 Y-14.811 Z-1.749
G1 X48.221 Y-15.063 Z-1.748
G1 X48.07 Y-15.199
G1 X47.779 Y-15.467 Z-1.747
G1 X47.64 Y-15.601 Z-1.746
G1 X47.578 Y-15.661 Z-1.747
G1 X47.415 Y-15.825
G1 X47.26 Y-15.989 Z-1.746
G1 X47.126 Y-16.137
G1 X47.01 Y-16.274 Z-1.745
G1 X46.899 Y-16.411
G1 X46.884 Y-16.431 Z-1.746
G1 X46.794 Y-16.551
G1 X46.739 Y-16.628 Z-1.748
G1 X46.695 Y-16.693 Z-1.746
G1 X46.635 Y-16.785 Z-1.749
G1 X46.603 Y-16.838 Z-1.747
G1 X46.543 Y-16.94 Z-1.75
G1 X46.518 Y-16.986 Z-1.748
G1 X46.461 Y-17.095 Z-1.751
G1 X46.44 Y-17.139 Z-1.749
G1 X46.39 Y-17.248 Z-1.751
G1 X46.371 Y-17.295 Z-1.75
G1 X46.33 Y-17.4 Z-1.752
G1 X46.311 Y-17.458 Z-1.75
G1 X46.281 Y-17.553 Z-1.752
G1 X46.262 Y-17.624 Z-1.75
G1 X46.249 Y-17.678
G1 X46.225 Y-17.796 Z-1.749
G1 X46.215 Y-17.854 Z-1.75
G1 X46.201 Y-17.972 Z-1.748
G1 X46.197 Y-18.02 Z-1.749
G1 X46.191 Y-18.183 Z-1.748
G1 Z-1.747
G1 Z-1.748
G1 X46.19 Z-1.747
G1 X46.191 Z-1.748
G1 X46.197 Y-18.02 Z-1.749
G1 X46.201 Y-17.972 Z-1.748
G1 X46.215 Y-17.854 Z-1.75
G1 X46.225 Y-17.796 Z-1.749
G1 X46.249 Y-17.678 Z-1.75
G1 X46.262 Y-17.624
G1 X46.281 Y-17.553 Z-1.752
G1 X46.311 Y-17.458 Z-1.75
G1 X46.33 Y-17.4 Z-1.752
G1 X46.371 Y-17.295 Z-1.75
G1 X46.39 Y-17.248 Z-1.751
G1 X46.44 Y-17.139 Z-1.749
G1 X46.461 Y-17.095 Z-1.751
G1 X46.518 Y-16.986 Z-1.748
G1 X46.543 Y-16.94 Z-1.75
G1 X46.603 Y-16.838 Z-1.747
G1 X46.635 Y-16.785 Z-1.749
G1 X46.695 Y-16.693 Z-1.746
G1 X46.739 Y-16.628 Z-1.748
G1 X46.794 Y-16.551 Z-1.746
G1 X46.884 Y-16.431
G1 X46.899 Y-16.411 Z-1.745
G1 X47.01 Y-16.274
G1 X47.126 Y-16.137 Z-1.746
G1 X47.26 Y-15.989
G1 X47.415 Y-15.825 Z-1.747
G1 X47.578 Y-15.661
G1 X47.64 Y-15.601 Z-1.746
G1 X47.779 Y-15.467 Z-1.747
G1 X48.07 Y-15.199 Z-1.748
G1 X48.221 Y-15.063
G1 X48.509 Y-14.811 Z-1.749
G1 X48.713 Y-14.635 Z-1.75
G1 X48.786 Y-14.578 Z-1.76
G1 X48.862 Y-14.526 Z-1.784
G1 X48.942 Y-14.479 Z-1.822
G1 X49.027 Y-14.434 Z-1.873
G1 X49.116 Y-14.394 Z-1.939
G1 X49.241 Y-14.348 Z-2.05
G1 X49.244 Y-14.345
G1 X49.271 Y-14.323
G1 X49.298 Y-14.299
G1 X49.3 Y-14.298
G1 X49.327 Y-14.275
G1 X49.353 Y-14.252
G1 X49.355 Y-14.251
G1 X49.382 Y-14.228
G1 X49.409 Y-14.205
G1 X49.437 Y-14.181
G1 X49.438 Y-14.18
G1 X49.465 Y-14.157
G1 X49.492 Y-14.134
G1 X49.494 Y-14.132
G1 X49.577 Y-14.061
G1 X49.605 Y-14.037
G1 X49.633 Y-14.013
G1 X49.635 Y-14.012
G1 X49.662 Y-13.988
G1 X49.689 Y-13.965
G1 X49.691 Y-13.964
G1 X49.718 Y-13.94
G1 X49.746 Y-13.916
G1 X49.748 Y-13.914
G1 X49.776 Y-13.891
G1 X49.803 Y-13.867
G1 X49.832 Y-13.842
G1 X49.833 Y-13.841
G1 X49.861 Y-13.817
G1 X49.868 Y-13.811
G1 X49.861 Y-13.817
G1 X49.833 Y-13.841
G1 X49.832 Y-13.842
G1 X49.803 Y-13.867
G1 X49.776 Y-13.891
G1 X49.748 Y-13.914
G1 X49.746 Y-13.916
G1 X49.718 Y-13.94
G1 X49.691 Y-13.964
G1 X49.689 Y-13.965
G1 X49.662 Y-13.988
G1 X49.635 Y-14.012
G1 X49.633 Y-14.013
G1 X49.605 Y-14.037
G1 X49.577 Y-14.061
G1 X49.494 Y-14.132
G1 X49.492 Y-14.134
G1 X49.465 Y-14.157
G1 X49.438 Y-14.18
G1 X49.437 Y-14.181
G1 X49.409 Y-14.205
G1 X49.382 Y-14.228
G1 X49.355 Y-14.251
G1 X49.353 Y-14.252
G1 X49.327 Y-14.275
G1 X49.3 Y-14.298
G1 X49.298 Y-14.299
G1 X49.271 Y-14.323
G1 X49.244 Y-14.345
G1 X49.241 Y-14.348
G1 X49.322 Y-14.357
G1 X49.402 Y-14.373
G1 X49.48 Y-14.397
G1 X49.555 Y-14.428
G1 X49.627 Y-14.466
G1 X49.695 Y-14.51
G1 X49.759 Y-14.561
G1 X49.818 Y-14.617
G1 X49.858 Y-14.732 Z-1.945
G1 X49.883 Y-14.821 Z-1.88
G1 X49.904 Y-14.91 Z-1.827
G1 X49.919 Y-14.999 Z-1.788
G1 X49.93 Y-15.089 Z-1.762
G1 X49.936 Y-15.179 Z-1.749
G1 X49.94 Y-15.42 Z-1.748
G1 X49.948 Y-15.684 Z-1.749
G1 X49.982 Y-16.536 Z-1.747
G1 X49.984 Y-16.629 Z-1.75
G1 X49.982 Y-17.125 Z-1.746
G1 X49.978 Y-17.287 Z-1.751
G1 X49.96 Y-17.678 Z-1.745
G1 X49.946 Y-17.896 Z-1.752
G1 X49.919 Y-18.196 Z-1.745
G1 X49.889 Y-18.459 Z-1.752
G1 X49.859 Y-18.68 Z-1.745
G1 X49.811 Y-18.977 Z-1.751
G1 X49.783 Y-19.13 Z-1.745
G1 X49.715 Y-19.452 Z-1.751
G1 X49.692 Y-19.548 Z-1.746
G1 X49.603 Y-19.886 Z-1.75
G1 X49.588 Y-19.936 Z-1.747
G1 X49.477 Y-20.281 Z-1.749
G1 X49.348 Y-20.621 Z-1.748
G1 X49.214 Y-20.921
G1 X49.076 Y-21.193 Z-1.747
G1 X49.057 Y-21.229 Z-1.748
G1 X48.934 Y-21.439 Z-1.747
G1 X48.912 Y-21.475 Z-1.748
G1 X48.79 Y-21.66 Z-1.746
G1 X48.742 Y-21.729 Z-1.749
G1 X48.646 Y-21.856 Z-1.746
G1 X48.591 Y-21.926 Z-1.749
G1 X48.506 Y-22.028 Z-1.746
G1 X48.445 Y-22.098 Z-1.748
G1 X48.37 Y-22.178 Z-1.746
G1 X48.314 Y-22.235 Z-1.748
G1 X48.088 Y-22.191 Z-1.291
G1 X47.854 Y-22.139 Z-0.824
G1 X47.674 Y-22.095 Z-0.468
G1 X47.54 Y-22.058 Z-0.207
G1 X47.457 Y-22.034 Z-0.051
G1 X47.54 Y-22.058 Z-0.207
G1 X47.674 Y-22.095 Z-0.468
G1 X47.854 Y-22.139 Z-0.824
G1 X48.088 Y-22.191 Z-1.291
G1 X48.314 Y-22.235 Z-1.748
G1 X48.266 Y-22.472 Z-1.412
G1 X48.219 Y-22.676 Z-1.109
G1 X48.171 Y-22.861 Z-0.824
G1 X48.124 Y-23.025 Z-0.563
G1 X48.082 Y-23.164 Z-0.333
G1 X48.045 Y-23.275 Z-0.144
G1 X48.025 Y-23.328 Z-0.05
; MOVEMENT_RAPID
G0 Z3 F300
G0 X52.221 Y-22.706 F2500
G0 Z2.95 F300
; MOVEMENT_LEAD_IN
G1 Z-1.748 F180
; MOVEMENT_CUTTING
G1 Y-22.687 Z-1.749 F480
G1 X52.225 Y-22.46 Z-1.747
G1 X52.228 Y-22.358 Z-1.75
G1 X52.235 Y-22.229 Z-1.748
G1 X52.25 Y-22.001 Z-1.75
G1 X52.272 Y-21.777 Z-1.749
G1 X52.281 Y-21.696 Z-1.752
G1 X52.299 Y-21.558 Z-1.75
G1 X52.332 Y-21.341 Z-1.752
G1 X52.381 Y-21.076 Z-1.754
G1 X52.416 Y-20.919 Z-1.752
G1 X52.46 Y-20.735 Z-1.754
G1 X52.465 Y-20.714
G1 X52.525 Y-20.492 Z-1.756
G1 X52.58 Y-20.314 Z-1.755
G1 X52.613 Y-20.214 Z-1.758
G1 X52.645 Y-20.12 Z-1.756
G1 X52.714 Y-19.929 Z-1.757
G1 X52.789 Y-19.741
G1 X52.815 Y-19.679 Z-1.759
G1 X52.867 Y-19.558 Z-1.757
G1 X52.95 Y-19.378
G1 X53.051 Y-19.171 Z-1.759
G1 X53.127 Y-19.027 Z-1.757
G1 X53.182 Y-18.926 Z-1.758
G1 X53.221 Y-18.857 Z-1.757
G1 X53.319 Y-18.687
G1 X53.464 Y-18.454
G1 X53.522 Y-18.365 Z-1.755
G1 X53.628 Y-18.208
G1 X53.732 Y-18.061 Z-1.754
G1 X53.776 Y-18.002 Z-1.759
G1 X53.836 Y-17.932 Z-1.773
G1 X53.9 Y-17.866 Z-1.801
G1 X53.968 Y-17.804 Z-1.842
G1 X54.041 Y-17.745 Z-1.893
G1 X54.118 Y-17.691 Z-1.957
G1 X54.216 Y-17.63 Z-2.05
G1 X54.379 Y-17.434
G1 X54.557 Y-17.229
G1 X54.741 Y-17.026
G1 X54.928 Y-16.827
G1 X55.045 Y-16.705
G1 X55.028 Y-16.888
G1 X55.027 Y-16.903
G1 X55.006 Y-17.159
G1 X55.005 Y-17.175
G1 X54.99 Y-17.429
G1 X54.989 Y-17.447
G1 X54.979 Y-17.698
G1 X54.978 Y-17.717
G1 X54.975 Y-17.883
G1 X54.914 Y-17.827
G1 X54.848 Y-17.776
G1 X54.778 Y-17.732
G1 X54.703 Y-17.695
G1 X54.626 Y-17.665
G1 X54.546 Y-17.643
G1 X54.464 Y-17.628
G1 X54.382 Y-17.621
G1 X54.299
G1 X54.216 Y-17.63
G1 X54.299 Y-17.621
G1 X54.382
G1 X54.464 Y-17.628
G1 X54.546 Y-17.643
G1 X54.626 Y-17.665
G1 X54.703 Y-17.695
G1 X54.778 Y-17.732
G1 X54.848 Y-17.776
G1 X54.914 Y-17.827
G1 X54.975 Y-17.883
G1 X54.978 Y-17.717
G1 X54.979 Y-17.698
G1 X54.989 Y-17.447
G1 X54.99 Y-17.429
G1 X55.005 Y-17.175
G1 X55.006 Y-17.159
G1 X55.027 Y-16.903
G1 X55.028 Y-16.888
G1 X55.045 Y-16.705
G1 X55.079 Y-16.632 Z-1.985
G1 X55.113 Y-16.562 Z-1.929
G1 X55.129 Y-16.529 Z-1.907
G1 X55.144 Y-16.498 Z-1.89
G1 X55.158 Y-16.469 Z-1.877
G1 X55.172 Y-16.441 Z-1.868
G1 X55.197 Y-16.389 Z-1.858
G1 X55.222 Y-16.338
G1 X55.248 Y-16.285 Z-1.868
G1 X55.276 Y-16.228 Z-1.891
G1 X55.291 Y-16.197 Z-1.908
G1 X55.308 Y-16.163 Z-1.931
G1 X55.325 Y-16.126 Z-1.96
G1 X55.377 Y-16.024 Z-2.05
G1 X55.4 Y-16.001
G1 X55.403 Y-15.999
G1 X55.487 Y-15.918
G1 X55.488 Y-15.917
G1 X55.53 Y-15.876
G1 X55.531
G1 X55.573 Y-15.836
G1 X55.575 Y-15.833
G1 X55.66 Y-15.753
G1 X55.662 Y-15.752
G1 X55.704 Y-15.712
G1 X55.746 Y-15.672
G1 X55.748 Y-15.671
G1 X55.79 Y-15.631
G1 X55.791 Y-15.63
G1 X55.834 Y-15.591
G1 Y-15.59
G1 X55.877 Y-15.55
G1 X55.878
G1 X55.92 Y-15.51
G1 X55.921 Y-15.509
G1 X56.006 Y-15.43
G1 X56.007
G1 X56.092 Y-15.351
G1 X56.093 Y-15.35
G1 X56.136 Y-15.311
G1 X56.178 Y-15.271
G1 X56.179
G1 X56.222 Y-15.231
G1 X56.264 Y-15.192
G1 X56.272 Y-15.185
G1 X56.32 Y-15.167 Z-2.005
G1 X56.377 Y-15.142 Z-1.955
G1 X56.472 Y-15.096 Z-1.881
G1 X56.562 Y-15.046 Z-1.824
G1 X56.648 Y-14.99 Z-1.783
G1 X56.729 Y-14.929 Z-1.758
G1 X56.809 Y-14.86 Z-1.749
G1 X57.17 Y-14.522
G1 X57.454 Y-14.248 Z-1.748
G1 X57.73 Y-13.973 Z-1.747
G1 X57.864 Y-13.835 Z-1.746
G1 X58.101 Y-13.58 Z-1.745
G1 X58.22 Y-13.447
G1 X58.336 Y-13.313
G1 X58.449 Y-13.177 Z-1.744
G1 X58.559 Y-13.04
G1 X58.666 Y-12.9
G1 X58.77 Y-12.759
G1 X58.87 Y-12.615 Z-1.745
G1 X58.966 Y-12.469
G1 X59.058 Y-12.32
G1 X59.146 Y-12.168 Z-1.746
G1 X59.229 Y-12.014 Z-1.747
G1 X59.307 Y-11.856
G1 X59.339 Y-11.788 Z-1.749
G1 X59.385 Y-11.698 Z-1.761
G1 X59.399 Y-11.674 Z-1.767
G1 X59.437 Y-11.608 Z-1.793
G1 X59.478 Y-11.544 Z-1.828
G1 X59.51 Y-11.498 Z-1.861
G1 X59.544 Y-11.449 Z-1.906
G1 X59.581 Y-11.394 Z-1.966
G1 X59.625 Y-11.33 Z-2.05
G1 X59.581 Y-11.394 Z-1.966
G1 X59.544 Y-11.449 Z-1.906
G1 X59.51 Y-11.498 Z-1.861
G1 X59.478 Y-11.544 Z-1.828
G1 X59.437 Y-11.608 Z-1.793
G1 X59.399 Y-11.674 Z-1.767
G1 X59.385 Y-11.698 Z-1.761
G1 X59.339 Y-11.788 Z-1.749
G1 X59.307 Y-11.856 Z-1.747
G1 X59.229 Y-12.014
G1 X59.146 Y-12.168 Z-1.746
G1 X59.058 Y-12.32 Z-1.745
G1 X58.966 Y-12.469
G1 X58.87 Y-12.615
G1 X58.77 Y-12.759 Z-1.744
G1 X58.666 Y-12.9
G1 X58.559 Y-13.04
G1 X58.449 Y-13.177
G1 X58.336 Y-13.313 Z-1.745
G1 X58.22 Y-13.447
G1 X58.101 Y-13.58
G1 X57.864 Y-13.835 Z-1.746
G1 X57.73 Y-13.973 Z-1.747
G1 X57.454 Y-14.248 Z-1.748
G1 X57.17 Y-14.522 Z-1.749
G1 X56.809 Y-14.86
G1 X56.729 Y-14.929 Z-1.758
G1 X56.648 Y-14.99 Z-1.783
G1 X56.562 Y-15.046 Z-1.824
G1 X56.472 Y-15.096 Z-1.881
G1 X56.377 Y-15.142 Z-1.955
G1 X56.32 Y-15.167 Z-2.005
G1 X56.272 Y-15.185 Z-2.05
G1 X56.189 Y-15.179
G1 X56.107 Y-15.165
G1 X56.027 Y-15.143
G1 X55.949 Y-15.114
G1 X55.874 Y-15.077
G1 X55.803 Y-15.034
G1 X55.737 Y-14.984
G1 X55.675 Y-14.928
G1 X55.619 Y-14.867
G1 X55.569 Y-14.8
G1 X55.556 Y-14.88
G1 X55.538 Y-14.986
G1 X55.52 Y-15.091
G1 X55.502 Y-15.197
G1 X55.485 Y-15.302
G1 X55.468 Y-15.406
G1 X55.452 Y-15.511
G1 X55.436 Y-15.615
G1 X55.42 Y-15.718
G1 X55.405 Y-15.821
G1 X55.391 Y-15.924
G1 X55.377 Y-16.024
G1 X55.391 Y-15.924
G1 X55.405 Y-15.821
G1 X55.42 Y-15.718
G1 X55.436 Y-15.615
G1 X55.452 Y-15.511
G1 X55.468 Y-15.406
G1 X55.485 Y-15.302
G1 X55.502 Y-15.197
G1 X55.52 Y-15.091
G1 X55.538 Y-14.986
G1 X55.556 Y-14.88
G1 X55.569 Y-14.8
G1 X55.564 Y-14.772 Z-2.024
G1 X55.545 Y-14.659 Z-1.933
G1 X55.534 Y-14.546 Z-1.859
G1 X55.53 Y-14.435 Z-1.804
G1 X55.535 Y-14.325 Z-1.768
G1 X55.548 Y-14.216 Z-1.751
G1 X55.567 Y-14.107 Z-1.749
G1 X55.904 Y-12.255
G1 X55.968 Y-11.877 Z-1.748
G1 X56.047 Y-11.378
G1 X56.088 Y-11.099 Z-1.747
G1 X56.139 Y-10.731 Z-1.748
G1 X56.186 Y-10.346 Z-1.747
G1 X56.207 Y-10.153
G1 X56.245 Y-9.766
G1 X56.261 Y-9.572
G1 X56.276 Y-9.378 Z-1.746
G1 X56.298 Y-8.985
G1 X56.304 Y-8.913 Z-1.751
G1 X56.315 Y-8.828 Z-1.767
G1 X56.331 Y-8.736 Z-1.8
G1 X56.353 Y-8.645 Z-1.846
G1 X56.385 Y-8.539 Z-1.917
G1 X56.412 Y-8.465 Z-1.979
G1 X56.442 Y-8.391 Z-2.05
; MOVEMENT_RAPID
G0 Z3 F300
G0 X56.696 Y1.29 F2500
G0 Z2.95 F300
; MOVEMENT_LEAD_IN
G1 Z-2.05 F180
; MOVEMENT_CUTTING
G1 X56.704 F480
G1 X56.729
G1 X56.758
G1 X56.783
G1 X56.812 Y1.291
G1 X56.837 Y1.292
G1 X56.866 Y1.294
G1 X56.891 Y1.296
G1 X56.92 Y1.299
G1 X56.944 Y1.302
G1 X56.972 Y1.306
G1 X56.997 Y1.31
G1 X57.025 Y1.314
G1 X57.049 Y1.319
G1 X57.077 Y1.324
G1 X57.101 Y1.33
G1 X57.13 Y1.336
G1 X57.153 Y1.342
G1 X57.18 Y1.349
G1 X57.204 Y1.356
G1 X57.231 Y1.365
G1 X57.255 Y1.372
G1 X57.281 Y1.381
G1 X57.304 Y1.389
G1 X57.331 Y1.399
G1 X57.354 Y1.408
G1 X57.38 Y1.419
G1 X57.402 Y1.429
G1 X57.427 Y1.44
G1 X57.45 Y1.451
G1 X57.475 Y1.463
G1 X57.497 Y1.474
G1 X57.524 Y1.488
G1 X57.545 Y1.5
G1 X57.568 Y1.514
G1 X57.59 Y1.526
G1 X57.614 Y1.541
G1 X57.635 Y1.554
G1 X57.66 Y1.571
G1 X57.68 Y1.585
G1 X57.703 Y1.601
G1 X57.722 Y1.616
G1 X57.746 Y1.634
G1 X57.765 Y1.649
G1 X57.788 Y1.667
G1 X57.807 Y1.683
G1 X57.829 Y1.702
G1 X57.847 Y1.719
G1 X57.87 Y1.74
G1 X57.888 Y1.757
G1 X57.909 Y1.779
G1 X57.926 Y1.796
G1 X57.946 Y1.817
G1 X57.962 Y1.836
G1 X57.981 Y1.857
G1 X57.997 Y1.876
G1 X58.016 Y1.9
G1 X58.031 Y1.919
G1 X58.05 Y1.943
G1 X58.064 Y1.963
G1 X58.08 Y1.985
G1 X58.094 Y2.005
G1 X58.112 Y2.032
G1 X58.125 Y2.053
G1 X58.138 Y2.075
G1 X58.151 Y2.096
G1 X58.165 Y2.121
G1 X58.177 Y2.142
G1 X58.19 Y2.167
G1 X58.202 Y2.189
G1 X58.214 Y2.214
G1 X58.224 Y2.237
G1 X58.236 Y2.261
G1 X58.245 Y2.284
G1 X58.257 Y2.312
G1 X58.266 Y2.335
G1 X58.276 Y2.36
G1 X58.284 Y2.383
G1 X58.293 Y2.412
G1 X58.301 Y2.435
G1 X58.309 Y2.46
G1 X58.315 Y2.484
G1 X58.323 Y2.513
G1 X58.329 Y2.536
G1 X58.336 Y2.565
G1 X58.341 Y2.589
G1 X58.346 Y2.614
G1 X58.35 Y2.638
G1 X58.355 Y2.667
G1 X58.359 Y2.691
G1 X58.363 Y2.723
G1 X58.366 Y2.748
G1 X58.369 Y2.773
G1 X58.371 Y2.798
G1 X58.373 Y2.83
G1 X58.374 Y2.854
G1 X58.375 Y2.879
G1 Y2.904
G1 Y2.939
G1 Y2.964
G1 X58.374 Y2.989
G1 X58.373 Y3.014
G1 X58.371 Y3.046
G1 X58.369 Y3.07
G1 X58.366 Y3.095
G1 X58.363 Y3.12
G1 X58.359 Y3.152
G1 X58.355 Y3.176
G1 X58.35 Y3.205
G1 X58.346 Y3.229
G1 X58.341 Y3.254
G1 X58.336 Y3.278
G1 X58.329 Y3.307
G1 X58.323 Y3.331
G1 X58.315 Y3.359
G1 X58.309 Y3.383
G1 X58.301 Y3.408
G1 X58.293 Y3.432
G1 X58.284 Y3.46
G1 X58.276 Y3.483
G1 X58.266 Y3.508
G1 X58.257 Y3.531
G1 X58.245 Y3.559
G1 X58.236 Y3.582
G1 X58.224 Y3.607
G1 X58.214 Y3.629
G1 X58.202 Y3.654
G1 X58.19 Y3.676
G1 X58.177 Y3.701
G1 X58.165 Y3.722
G1 X58.151 Y3.747
G1 X58.138 Y3.769
G1 X58.125 Y3.791
G1 X58.112 Y3.811
G1 X58.094 Y3.838
G1 X58.08 Y3.859
G1 X58.064 Y3.881
G1 X58.05 Y3.9
G1 X58.031 Y3.924
G1 X58.016 Y3.944
G1 X57.997 Y3.967
G1 X57.981 Y3.986
G1 X57.962 Y4.008
G1 X57.946 Y4.026
G1 X57.926 Y4.047
G1 X57.909 Y4.065
G1 X57.888 Y4.086
G1 X57.87 Y4.103
G1 X57.847 Y4.124
G1 X57.829 Y4.141
G1 X57.807 Y4.16
G1 X57.788 Y4.176
G1 X57.765 Y4.195
G1 X57.746 Y4.21
G1 X57.723 Y4.228
G1 X57.703 Y4.242
G1 X57.68 Y4.258
G1 X57.66 Y4.272
G1 X57.635 Y4.289
G1 X57.614 Y4.302
G1 X57.59 Y4.317
G1 X57.569 Y4.33
G1 X57.544 Y4.344
G1 X57.522 Y4.356
G1 X57.498 Y4.369
G1 X57.476 Y4.38
G1 X57.45 Y4.393
G1 X57.428 Y4.403
G1 X57.402 Y4.415
G1 X57.38 Y4.424
G1 X57.353 Y4.435
G1 X57.331 Y4.444
G1 X57.304 Y4.454
G1 X57.281 Y4.462
G1 X57.254 Y4.471
G1 X57.231 Y4.479
G1 X57.204 Y4.487
G1 X57.18 Y4.494
G1 X57.153 Y4.501
G1 X57.129 Y4.507
G1 X57.102 Y4.514
G1 X57.078 Y4.519
G1 X57.049 Y4.525
G1 X57.025 Y4.529
G1 X56.997 Y4.534
G1 X56.973 Y4.537
G1 X56.944 Y4.541
G1 X56.919 Y4.544
G1 X56.891 Y4.547
G1 X56.866 Y4.549
G1 X56.837 Y4.551
G1 X56.812 Y4.552
G1 X56.783 Y4.553
G1 X56.758 Y4.554
G1 X56.728
G1 X56.704 Y4.553
G1 X56.675 Y4.552
G1 X56.65 Y4.551
G1 X56.621 Y4.549
G1 X56.596 Y4.547
G1 X56.567 Y4.544
G1 X56.542 Y4.541
G1 X56.515 Y4.538
G1 X56.49 Y4.534
G1 X56.461 Y4.529
G1 X56.437 Y4.525
G1 X56.41 Y4.519
G1 X56.386 Y4.514
G1 X56.358 Y4.507
G1 X56.334 Y4.501
G1 X56.307 Y4.494
G1 X56.283 Y4.487
G1 X56.256 Y4.479
G1 X56.232 Y4.471
G1 X56.206 Y4.462
G1 X56.182 Y4.454
G1 X56.156 Y4.444
G1 X56.133 Y4.435
G1 X56.107 Y4.424
G1 X56.084 Y4.415
G1 X56.059 Y4.403
G1 X56.037 Y4.393
G1 X56.011 Y4.38
G1 X55.989 Y4.369
G1 X55.964 Y4.356
G1 X55.943 Y4.344
G1 X55.918 Y4.33
G1 X55.897 Y4.317
G1 X55.871 Y4.301
G1 X55.85 Y4.288
G1 X55.829 Y4.274
G1 X55.808 Y4.26
G1 X55.784 Y4.242
G1 X55.764 Y4.228
G1 X55.741 Y4.21
G1 X55.721 Y4.195
G1 X55.699 Y4.176
G1 X55.68 Y4.16
G1 X55.656 Y4.139
G1 X55.638 Y4.123
G1 X55.619 Y4.105
G1 X55.601 Y4.088
G1 X55.578 Y4.065
G1 X55.561 Y4.047
G1 X55.541 Y4.026
G1 X55.524 Y4.008
G1 X55.504 Y3.984
G1 X55.488 Y3.965
G1 X55.471 Y3.944
G1 X55.455 Y3.924
G1 X55.437 Y3.9
G1 X55.422 Y3.881
G1 X55.407 Y3.859
G1 X55.393 Y3.838
G1 X55.377 Y3.814
G1 X55.363 Y3.793
G1 X55.348 Y3.769
G1 X55.336 Y3.747
G1 X55.321 Y3.722
G1 X55.309 Y3.701
G1 X55.296 Y3.676
G1 X55.285 Y3.654
G1 X55.273 Y3.629
G1 X55.262 Y3.607
G1 X55.25 Y3.579
G1 X55.24 Y3.556
G1 X55.23 Y3.531
G1 X55.221 Y3.508
G1 X55.211 Y3.483
G1 X55.203 Y3.46
G1 X55.194 Y3.435
G1 X55.187 Y3.411
G1 X55.178 Y3.383
G1 X55.171 Y3.359
G1 X55.164 Y3.331
G1 X55.158 Y3.307
G1 X55.151 Y3.278
G1 X55.146 Y3.254
G1 X55.141 Y3.229
G1 X55.136 Y3.205
G1 X55.131 Y3.173
G1 X55.127 Y3.149
G1 X55.124 Y3.123
G1 X55.121 Y3.099
G1 X55.118 Y3.07
G1 X55.116 Y3.046
G1 X55.114 Y3.014
G1 X55.113 Y2.989
G1 X55.112 Y2.961
G1 X55.111 Y2.936
G1 Y2.907
G1 X55.112 Y2.883
G1 X55.113 Y2.854
G1 X55.114 Y2.83
G1 X55.116 Y2.798
G1 X55.118 Y2.773
G1 X55.121 Y2.744
G1 X55.124 Y2.72
G1 X55.127 Y2.695
G1 X55.131 Y2.67
G1 X55.136 Y2.638
G1 X55.141 Y2.614
G1 X55.146 Y2.589
G1 X55.151 Y2.565
G1 X55.158 Y2.536
G1 X55.164 Y2.513
G1 X55.171 Y2.484
G1 X55.178 Y2.46
G1 X55.187 Y2.432
G1 X55.194 Y2.409
G1 X55.203 Y2.383
G1 X55.211 Y2.36
G1 X55.221 Y2.335
G1 X55.23 Y2.312
G1 X55.24 Y2.287
G1 X55.25 Y2.264
G1 X55.262 Y2.237
G1 X55.273 Y2.214
G1 X55.285 Y2.189
G1 X55.296 Y2.167
G1 X55.309 Y2.142
G1 X55.321 Y2.121
G1 X55.336 Y2.096
G1 X55.348 Y2.075
G1 X55.363 Y2.05
G1 X55.377 Y2.03
G1 X55.393 Y2.005
G1 X55.407 Y1.985
G1 X55.422 Y1.963
G1 X55.437 Y1.943
G1 X55.455 Y1.919
G1 X55.471 Y1.9
G1 X55.488 Y1.878
G1 X55.504 Y1.859
G1 X55.524 Y1.836
G1 X55.541 Y1.817
G1 X55.561 Y1.796
G1 X55.578 Y1.779
G1 X55.601 Y1.756
G1 X55.619 Y1.738
G1 X55.638 Y1.721
G1 X55.656 Y1.704
G1 X55.68 Y1.683
G1 X55.699 Y1.667
G1 X55.721 Y1.649
G1 X55.741 Y1.634
G1 X55.764 Y1.616
G1 X55.784 Y1.601
G1 X55.808 Y1.584
G1 X55.828 Y1.57
G1 X55.85 Y1.555
G1 X55.871 Y1.542
G1 X55.897 Y1.526
G1 X55.918 Y1.514
G1 X55.943 Y1.499
G1 X55.964 Y1.488
G1 X55.99 Y1.474
G1 X56.012 Y1.463
G1 X56.035 Y1.451
G1 X56.058 Y1.441
G1 X56.086 Y1.428
G1 X56.109 Y1.418
G1 X56.133 Y1.408
G1 X56.156 Y1.399
G1 X56.182 Y1.39
G1 X56.205 Y1.381
G1 X56.233 Y1.372
G1 X56.256 Y1.364
G1 X56.283 Y1.356
G1 X56.307 Y1.349
G1 X56.333 Y1.342
G1 X56.357 Y1.336
G1 X56.385 Y1.33
G1 X56.409 Y1.324
G1 X56.437 Y1.319
G1 X56.462 Y1.314
G1 X56.49 Y1.31
G1 X56.514 Y1.306
G1 X56.543 Y1.302
G1 X56.567 Y1.299
G1 X56.596 Y1.296
G1 X56.621 Y1.294
G1 X56.65 Y1.292
G1 X56.674 Y1.291
G1 X56.696 Y1.29
; MOVEMENT_RAPID
G0 Z3 F300
G0 X54.975 Y-17.884 F2500
G0 Z2.95 F300
; MOVEMENT_LEAD_IN
G1 Z-2.049 F180
; MOVEMENT_CUTTING
G1 X55.006 Y-17.967 Z-1.972 F480
G1 X55.039 Y-18.069 Z-1.893
G1 X55.06 Y-18.151 Z-1.843
G1 X55.077 Y-18.233 Z-1.803
G1 X55.096 Y-18.357 Z-1.767
G1 X55.104 Y-18.461 Z-1.756
G1 X55.114 Y-18.663 Z-1.757
G1 X55.121 Y-18.758 Z-1.756
G1 X55.143 Y-19.02 Z-1.758
G1 X55.168 Y-19.233 Z-1.759
G1 X55.195 Y-19.42 Z-1.761
G1 X55.215 Y-19.538 Z-1.759
G1 X55.262 Y-19.787 Z-1.761
G1 X55.303 Y-19.969 Z-1.762
G1 X55.323 Y-20.051 Z-1.76
G1 X55.33 Y-20.08
G1 X55.392 Y-20.305 Z-1.761
G1 X55.455 Y-20.504 Z-1.762
G1 X55.473 Y-20.557 Z-1.76
G1 X55.516 Y-20.68 Z-1.762
G1 X55.564 Y-20.807 Z-1.759
G1 X55.655 Y-21.028 Z-1.76
G1 X55.734 Y-21.199
G1 X55.782 Y-21.299 Z-1.757
G1 X55.908 Y-21.54 Z-1.756
G1 X56.006 Y-21.709
G1 X56.048 Y-21.779 Z-1.753
G1 X56.11 Y-21.877 Z-1.754
G1 X56.2 Y-22.013 Z-1.752
G1 X56.34 Y-22.211
G1 X56.365 Y-22.244 Z-1.75
G1 X56.467 Y-22.376 Z-1.751
G1 X56.542 Y-22.47 Z-1.748
G1 X56.564 Y-22.496 Z-1.749
G1 X56.729 Y-22.69
G1 X56.743 Y-22.706 Z-1.748
G1 X56.744 Z-1.747
G1 X56.746 Y-22.707 Z-1.742
G1 X56.744 Y-22.706 Z-1.747
G1 X56.743 Z-1.748
G1 Z-1.747
G1 Y-22.707 Z-1.745
G1 Y-22.706 Z-1.747
G1 X56.744 Y-22.708 Z-1.743
; MOVEMENT_RAPID
G0 Z3 F300
G0 X52.221 Y-22.706 F2500
G0 Z2.95 F300
; MOVEMENT_LEAD_IN
G1 Z-1.748 F180
; MOVEMENT_CUTTING
G1 X52.222 Z-1.746 F480
; MOVEMENT_RAPID
G0 Z3 F300
; *** SECTION end ***

;*** Tool change script ***
G0 X0 Y0 Z5 F2500
M84 S999 ;keep on steppers
M18 Z ;disable z axis for manual adjustment
M6 ;wait for user interaction
G92 X0 Y0 Z5
M84 S0

; *** SECTION begin ***
;2D Contour1 - Milling - Tool: 1 -  flat end mill
; X Min: 37.534 - X Max: 71.59
; Y Min: -29.07 - Y Max: 29.337
; Z Min: -13.65 - Z Max: 3
; COMMAND_START_SPINDLE
; COMMAND_SPINDLE_CLOCKWISE
; COMMAND_COOLANT_ON
;M117  2D Contour1
; MOVEMENT_PLUNGE
G1 X37.534 Y2.315 Z3 F180
G1 Z2.818
G1 X37.537 Z2.768
G1 X37.549 Y2.314 Z2.719
G1 X37.568 Y2.312 Z2.673
G1 X37.594 Y2.31 Z2.631
G1 X37.626 Y2.307 Z2.593
G1 X37.664 Y2.304 Z2.561
G1 X37.706 Y2.3 Z2.535
G1 X37.752 Y2.296 Z2.516
G1 X37.8 Y2.292 Z2.504
G1 X37.85 Y2.288 Z2.5
; MOVEMENT_LEAD_IN
G1 X38.166 Y2.26
G1 X38.216
G1 X38.265 Y2.267
G1 X38.313 Y2.282
G1 X38.357 Y2.305
G1 X38.398 Y2.334
G1 X38.433 Y2.369
G1 X38.463 Y2.409
G1 X38.486 Y2.453
G1 X38.502 Y2.5
G1 X38.51 Y2.549
; MOVEMENT_RAMP
G1 X38.608 Y3.682 Z2.46
G1 X38.61 Y3.704
G1 X38.613 Y3.726 Z2.459
G1 X38.771 Y5.105 Z2.41
G1 X38.774 Y5.127 Z2.409
G1 X38.777 Y5.15
G1 X38.972 Y6.506 Z2.361
G1 X38.975 Y6.528 Z2.36
G1 X38.979 Y6.55 Z2.359
G1 X39.208 Y7.877 Z2.312
G1 X39.212 Y7.899 Z2.311
G1 X39.216 Y7.921
G1 X39.477 Y9.215 Z2.265
G1 X39.482 Y9.237 Z2.264
G1 X39.487 Y9.259 Z2.263
G1 X39.778 Y10.514 Z2.218
G1 X39.783 Y10.536 Z2.217
G1 X39.788 Y10.558 Z2.216
G1 X40.107 Y11.772 Z2.173
G1 X40.113 Y11.795 Z2.172
G1 X40.119 Y11.817 Z2.171
G1 X40.463 Y12.988 Z2.128
G1 X40.47 Y13.01
G1 X40.477 Y13.032 Z2.127
G1 X40.844 Y14.158 Z2.085
G1 X40.852 Y14.181
G1 X40.86 Y14.203 Z2.084
G1 X41.248 Y15.283 Z2.044
G1 X41.257 Y15.306 Z2.043
G1 X41.265 Y15.329 Z2.042
G1 X41.673 Y16.362 Z2.003
G1 X41.683 Y16.385 Z2.002
G1 X41.692 Y16.408 Z2.001
G1 X42.118 Y17.396 Z1.964
G1 X42.128 Y17.419 Z1.963
G1 X42.139 Y17.442 Z1.962
G1 X42.581 Y18.383 Z1.926
G1 X42.593 Y18.407 Z1.925
G1 X42.604 Y18.43 Z1.924
G1 X43.061 Y19.325 Z1.889
G1 X43.074 Y19.349 Z1.888
G1 X43.087 Y19.372 Z1.887
G1 X43.557 Y20.222 Z1.853
G1 X43.571 Y20.246 Z1.852
G1 X43.585 Y20.27 Z1.851
G1 X44.068 Y21.074 Z1.818
G1 X44.083 Y21.099 Z1.817
G1 X44.099 Y21.123 Z1.816
G1 X44.593 Y21.882 Z1.785
G1 X44.609 Y21.907 Z1.784
G1 X44.626 Y21.931 Z1.783
G1 X45.131 Y22.646 Z1.752
G1 X45.149 Y22.671 Z1.751
G1 X45.167 Y22.696 Z1.75
G1 X45.681 Y23.367 Z1.72
G1 X45.701 Y23.392 Z1.719
G1 X45.722 Y23.417 Z1.718
G1 X46.244 Y24.045 Z1.69
G1 X46.266 Y24.07 Z1.689
G1 X46.288 Y24.095 Z1.687
G1 X46.818 Y24.68 Z1.66
G1 X46.842 Y24.706 Z1.659
G1 X46.866 Y24.731 Z1.657
G1 X47.403 Y25.273 Z1.631
G1 X47.42 Y25.29 Z1.63
G1 X47.438 Y25.307 Z1.629
G1 X47.455 Y25.324 Z1.628
G1 X47.998 Y25.824 Z1.602
G1 X48.017 Y25.841 Z1.601
G1 X48.036 Y25.857
G1 X48.056 Y25.874 Z1.6
G1 X48.604 Y26.332 Z1.575
G1 X48.624 Y26.349 Z1.574
G1 X48.645 Y26.365 Z1.573
G1 X48.666 Y26.382 Z1.572
G1 X49.219 Y26.799 Z1.548
G1 X49.241 Y26.815 Z1.547
G1 X49.264 Y26.831 Z1.546
G1 X49.287 Y26.847 Z1.545
G1 X49.844 Y27.223 Z1.521
G1 X49.868 Y27.239 Z1.52
G1 X49.892 Y27.254 Z1.519
G1 X49.917 Y27.269 Z1.518
G1 X50.478 Y27.604 Z1.496
G1 X50.504 Y27.62 Z1.495
G1 X50.53 Y27.634 Z1.493
G1 X50.556 Y27.648 Z1.492
G1 X51.119 Y27.943 Z1.47
G1 X51.147 Y27.957 Z1.469
G1 X51.176 Y27.971 Z1.468
G1 X51.204 Y27.984 Z1.467
G1 X51.77 Y28.239 Z1.445
G1 X51.799 Y28.252 Z1.444
G1 X51.829 Y28.264 Z1.443
G1 X51.86 Y28.276 Z1.442
G1 X52.427 Y28.49 Z1.421
G1 X52.458 Y28.502 Z1.42
G1 X52.49 Y28.512 Z1.418
G1 X52.522 Y28.523 Z1.417
G1 X53.09 Y28.697 Z1.396
G1 X53.123 Y28.707 Z1.395
G1 X53.157 Y28.716 Z1.394
G1 X53.19 Y28.724 Z1.393
G1 X53.759 Y28.859 Z1.372
G1 X53.793 Y28.867 Z1.371
G1 X53.828 Y28.874 Z1.37
G1 X53.863 Y28.88 Z1.369
G1 X54.432 Y28.975 Z1.349
G1 X54.538 Y28.99 Z1.345
G1 X55.107 Y29.046 Z1.325
G1 X55.216 Y29.053 Z1.321
G1 X55.783 Y29.069 Z1.301
G1 X55.893 Z1.297
G1 X56.459 Y29.046 Z1.278
G1 X56.568 Y29.038 Z1.274
G1 X57.132 Y28.977 Z1.254
G1 X57.24 Y28.961 Z1.25
G1 X57.802 Y28.86 Z1.23
G1 X57.907 Y28.838 Z1.227
G1 X58.465 Y28.698 Z1.206
G1 X58.499 Y28.689 Z1.205
G1 X58.533 Y28.679 Z1.204
G1 X58.567 Y28.669 Z1.203
G1 X59.122 Y28.49 Z1.182
G1 X59.154 Y28.479 Z1.181
G1 X59.187 Y28.467 Z1.18
G1 X59.219 Y28.455 Z1.179
G1 X59.769 Y28.236 Z1.158
G1 X59.8 Y28.224 Z1.157
G1 X59.831 Y28.21 Z1.156
G1 X59.861 Y28.196 Z1.155
G1 X60.407 Y27.939 Z1.133
G1 X60.436 Y27.925 Z1.132
G1 X60.465 Y27.91 Z1.131
G1 X60.494 Y27.895 Z1.13
G1 X61.034 Y27.598 Z1.109
G1 X61.062 Y27.583 Z1.107
G1 X61.089 Y27.567 Z1.106
G1 X61.116 Y27.55 Z1.105
G1 X61.65 Y27.214 Z1.083
G1 X61.675 Y27.198 Z1.082
G1 X61.7 Y27.181 Z1.081
G1 X61.725 Y27.164 Z1.08
G1 X62.253 Y26.789 Z1.057
G1 X62.277 Y26.772 Z1.056
G1 X62.3 Y26.754 Z1.055
G1 X62.323 Y26.736 Z1.054
G1 X62.844 Y26.321 Z1.031
G1 X62.865 Y26.304 Z1.03
G1 X62.886 Y26.286 Z1.029
G1 X62.907 Y26.268 Z1.028
G1 X63.421 Y25.813 Z1.004
G1 X63.441 Y25.795 Z1.003
G1 X63.46 Y25.777 Z1.002
G1 X63.479 Y25.758 Z1.001
G1 X63.984 Y25.263 Z0.977
G1 X64.002 Y25.245 Z0.976
G1 X64.02 Y25.227 Z0.975
G1 X64.037 Y25.208 Z0.974
G1 X64.533 Y24.673 Z0.949
G1 X64.55 Y24.655 Z0.948
G1 X64.566 Y24.637 Z0.947
G1 X64.582 Y24.618 Z0.946
G1 X65.068 Y24.042 Z0.92
G1 X65.091 Y24.015 Z0.919
G1 X65.112 Y23.988 Z0.917
G1 X65.588 Y23.371 Z0.89
G1 X65.608 Y23.345 Z0.889
G1 X65.628 Y23.318 Z0.888
G1 X66.093 Y22.66 Z0.86
G1 X66.111 Y22.634 Z0.859
G1 X66.129 Y22.607 Z0.857
G1 X66.582 Y21.908 Z0.828
G1 X66.598 Y21.882 Z0.827
G1 X66.614 Y21.855 Z0.826
G1 X67.054 Y21.115 Z0.796
G1 X67.069 Y21.089 Z0.795
G1 X67.083 Y21.064 Z0.794
G1 X67.509 Y20.281 Z0.763
G1 X67.523 Y20.256 Z0.762
G1 X67.536 Y20.23 Z0.761
G1 X67.947 Y19.406 Z0.729
G1 X67.959 Y19.381 Z0.728
G1 X67.971 Y19.356 Z0.727
G1 X68.366 Y18.489 Z0.694
G1 X68.377 Y18.464 Z0.693
G1 X68.388 Y18.44 Z0.692
G1 X68.766 Y17.53 Z0.657
G1 X68.776 Y17.506 Z0.656
G1 X68.785 Y17.482 Z0.655
G1 X69.146 Y16.529 Z0.62
G1 X69.154 Y16.505 Z0.619
G1 X69.163 Y16.481 Z0.618
G1 X69.504 Y15.486 Z0.581
G1 X69.511 Y15.462
G1 X69.519 Y15.439 Z0.58
G1 X69.839 Y14.401 Z0.542
G1 X69.845 Y14.377 Z0.541
G1 X69.852 Y14.354 Z0.54
G1 X70.15 Y13.273 Z0.501
G1 X70.156 Y13.25 Z0.5
G1 X70.161 Y13.227 Z0.499
G1 X70.435 Y12.103 Z0.459
G1 X70.44 Y12.08 Z0.458
G1 X70.445 Y12.058 Z0.457
G1 X70.693 Y10.892 Z0.416
G1 X70.697 Y10.87 Z0.415
G1 X70.702 Y10.847 Z0.414
G1 X70.922 Y9.641 Z0.371
G1 X70.926 Y9.619 Z0.37
G1 X70.929 Y9.596
G1 X71.12 Y8.351 Z0.326
G1 X71.124 Y8.329 Z0.325
G1 X71.126 Y8.307 Z0.324
G1 X71.286 Y7.025 Z0.279
G1 X71.289 Y7.003 Z0.278
G1 X71.291 Y6.981 Z0.277
G1 X71.417 Y5.665 Z0.231
G1 X71.419 Y5.643 Z0.23
G1 X71.421 Y5.621
G1 X71.512 Y4.276 Z0.183
G1 X71.513 Y4.254 Z0.182
G1 X71.515 Y4.232 Z0.181
G1 X71.569 Y2.862 Z0.133
G1 X71.57 Y2.84 Z0.132
G1 Y2.818
G1 X71.587 Y1.43 Z0.083
G1 Y1.408 Z0.082
G1 Y1.386
G1 X71.565 Y-0.014 Z0.033
G1 Y-0.036 Z0.032
G1 X71.564 Y-0.058 Z0.031
G1 X71.503 Y-1.462 Z-0.018
G1 X71.502 Y-1.484 Z-0.019
G1 X71.5 Y-1.506
G1 X71.4 Y-2.907 Z-0.068
G1 X71.398 Y-2.929 Z-0.069
G1 X71.396 Y-2.951 Z-0.07
G1 X71.258 Y-4.339 Z-0.119
G1 X71.255 Y-4.361 Z-0.12
G1 X71.253 Y-4.384
G1 X71.077 Y-5.753 Z-0.169
G1 X71.074 Y-5.775
G1 X71.071 Y-5.797 Z-0.17
G1 X70.86 Y-7.141 Z-0.218
G1 X70.857 Y-7.163
G1 X70.853 Y-7.185 Z-0.219
G1 X70.609 Y-8.497 Z-0.266
G1 X70.604 Y-8.519 Z-0.267
G1 X70.6 Y-8.541
G1 X70.325 Y-9.817 Z-0.313
G1 X70.32 Y-9.84 Z-0.314
G1 X70.314 Y-9.862
G1 X70.011 Y-11.098 Z-0.359
G1 X70.005 Y-11.12 Z-0.36
G1 X69.999 Y-11.143 Z-0.361
G1 X69.668 Y-12.337 Z-0.404
G1 X69.662 Y-12.359 Z-0.405
G1 X69.655 Y-12.381
G1 X69.301 Y-13.532 Z-0.447
G1 X69.294 Y-13.554 Z-0.448
G1 X69.286 Y-13.577 Z-0.449
G1 X68.909 Y-14.681 Z-0.49
G1 X68.901 Y-14.704 Z-0.491
G1 X68.893 Y-14.727 Z-0.492
G1 X68.495 Y-15.785 Z-0.531
G1 X68.486 Y-15.808 Z-0.532
G1 X68.477 Y-15.831 Z-0.533
G1 X68.06 Y-16.844 Z-0.571
G1 X68.051 Y-16.867 Z-0.572
G1 X68.041 Y-16.89 Z-0.573
G1 X67.607 Y-17.856 Z-0.61
G1 X67.596 Y-17.879 Z-0.611
G1 X67.585 Y-17.902 Z-0.612
G1 X67.136 Y-18.822 Z-0.647
G1 X67.124 Y-18.846 Z-0.648
G1 X67.112 Y-18.869 Z-0.649
G1 X66.649 Y-19.743 Z-0.684
G1 X66.636 Y-19.767 Z-0.685
G1 X66.622 Y-19.791 Z-0.686
G1 X66.146 Y-20.619 Z-0.719
G1 X66.132 Y-20.644 Z-0.72
G1 X66.117 Y-20.668 Z-0.721
G1 X65.628 Y-21.451 Z-0.753
G1 X65.613 Y-21.476 Z-0.754
G1 X65.597 Y-21.5 Z-0.755
G1 X65.097 Y-22.239 Z-0.786
G1 X65.08 Y-22.264 Z-0.787
G1 X65.063 Y-22.289 Z-0.788
G1 X64.554 Y-22.983 Z-0.819
G1 X64.535 Y-23.008 Z-0.82
G1 X64.515 Y-23.033 Z-0.821
G1 X63.997 Y-23.684 Z-0.85
G1 X63.977 Y-23.71 Z-0.851
G1 X63.956 Y-23.735 Z-0.852
G1 X63.43 Y-24.342 Z-0.88
G1 X63.407 Y-24.368 Z-0.881
G1 X63.384 Y-24.393 Z-0.883
G1 X62.851 Y-24.958 Z-0.91
G1 X62.834 Y-24.975
G1 X62.818 Y-24.992 Z-0.911
G1 X62.801 Y-25.009 Z-0.912
G1 X62.261 Y-25.532 Z-0.938
G1 X62.243 Y-25.549 Z-0.939
G1 X62.225 Y-25.566 Z-0.94
G1 X62.206 Y-25.582 Z-0.941
G1 X61.661 Y-26.063 Z-0.966
G1 X61.641 Y-26.08 Z-0.967
G1 X61.621 Y-26.097 Z-0.968
G1 X61.601 Y-26.113 Z-0.969
G1 X61.051 Y-26.552 Z-0.994
G1 X61.029 Y-26.569 Z-0.995
G1 X61.008 Y-26.585 Z-0.996
G1 X60.986 Y-26.601 Z-0.997
G1 X60.431 Y-26.999 Z-1.02
G1 X60.408 Y-27.015 Z-1.021
G1 X60.384 Y-27.031 Z-1.022
G1 X60.361 Y-27.047 Z-1.023
G1 X59.802 Y-27.404 Z-1.046
G1 X59.777 Y-27.419 Z-1.048
G1 X59.752 Y-27.434 Z-1.049
G1 X59.726 Y-27.449 Z-1.05
G1 X59.164 Y-27.766 Z-1.072
G1 X59.137 Y-27.78 Z-1.073
G1 X59.11 Y-27.795 Z-1.074
G1 X59.083 Y-27.808 Z-1.075
G1 X58.519 Y-28.084 Z-1.097
G1 X58.49 Y-28.098 Z-1.098
G1 X58.461 Y-28.111 Z-1.099
G1 X58.431 Y-28.124 Z-1.101
G1 X57.865 Y-28.36 Z-1.122
G1 X57.834 Y-28.372 Z-1.123
G1 X57.804 Y-28.384 Z-1.124
G1 X57.772 Y-28.395 Z-1.125
G1 X57.205 Y-28.591 Z-1.146
G1 X57.173 Y-28.602 Z-1.148
G1 X57.14 Y-28.612 Z-1.149
G1 X57.108 Y-28.621 Z-1.15
G1 X56.539 Y-28.777 Z-1.171
G1 X56.505 Y-28.786 Z-1.172
G1 X56.471 Y-28.794 Z-1.173
G1 X56.437 Y-28.802 Z-1.174
G1 X55.868 Y-28.918 Z-1.195
G1 X55.763 Y-28.936 Z-1.198
G1 X55.194 Y-29.013 Z-1.218
G1 X55.086 Y-29.024 Z-1.222
G1 X54.518 Y-29.062 Z-1.242
G1 X54.409 Y-29.066 Z-1.246
G1 X53.842 Y-29.064 Z-1.266
G1 X53.812 Z-1.267
G1 X53.783 Y-29.063 Z-1.268
G1 X53.737 Y-29.061 Z-1.269
G1 X53.708 Y-29.06 Z-1.27
G1 X53.678 Y-29.058 Z-1.271
G1 X53.113 Y-29.014 Z-1.291
G1 X53.004 Y-29.002 Z-1.295
G1 X52.442 Y-28.919 Z-1.315
G1 X52.335 Y-28.9 Z-1.319
G1 X51.776 Y-28.778 Z-1.339
G1 X51.672 Y-28.752 Z-1.342
G1 X51.116 Y-28.591 Z-1.363
G1 X51.082 Y-28.581 Z-1.364
G1 X51.049 Y-28.57 Z-1.365
G1 X51.016 Y-28.559 Z-1.366
G1 X50.464 Y-28.358 Z-1.387
G1 X50.432 Y-28.347 Z-1.388
G1 X50.4 Y-28.334 Z-1.389
G1 X50.369 Y-28.321 Z-1.39
G1 X49.821 Y-28.081 Z-1.411
G1 X49.791 Y-28.068 Z-1.412
G1 X49.761 Y-28.054 Z-1.413
G1 X49.732 Y-28.039 Z-1.415
G1 X49.189 Y-27.76 Z-1.436
G1 X49.161 Y-27.746 Z-1.437
G1 X49.133 Y-27.73 Z-1.438
G1 X49.105 Y-27.714 Z-1.439
G1 X48.568 Y-27.396 Z-1.461
G1 X48.542 Y-27.38 Z-1.462
G1 X48.516 Y-27.364 Z-1.463
G1 X48.49 Y-27.347 Z-1.464
G1 X47.959 Y-26.99 Z-1.487
G1 X47.935 Y-26.973 Z-1.488
G1 X47.911 Y-26.956 Z-1.489
G1 X47.887 Y-26.938 Z-1.49
G1 X47.363 Y-26.541 Z-1.513
G1 X47.34 Y-26.524 Z-1.514
G1 X47.318 Y-26.506 Z-1.515
G1 X47.296 Y-26.488 Z-1.516
G1 X46.779 Y-26.051 Z-1.539
G1 X46.759 Y-26.034 Z-1.54
G1 X46.739 Y-26.016 Z-1.541
G1 X46.719 Y-25.998 Z-1.542
G1 X46.21 Y-25.521 Z-1.566
G1 X46.191 Y-25.503 Z-1.567
G1 X46.172 Y-25.485 Z-1.568
G1 X46.154 Y-25.466 Z-1.569
G1 X45.654 Y-24.949 Z-1.594
G1 X45.637 Y-24.931 Z-1.595
G1 X45.62 Y-24.913 Z-1.596
G1 X45.603 Y-24.895 Z-1.597
G1 X45.112 Y-24.338 Z-1.623
G1 X45.089 Y-24.311 Z-1.624
G1 X45.066 Y-24.283 Z-1.625
G1 X44.585 Y-23.685 Z-1.652
G1 X44.564 Y-23.658 Z-1.653
G1 X44.544 Y-23.631 Z-1.654
G1 X44.074 Y-22.992 Z-1.682
G1 X44.054 Y-22.966 Z-1.683
G1 X44.036 Y-22.939 Z-1.684
G1 X43.577 Y-22.259 Z-1.713
G1 X43.56 Y-22.233 Z-1.714
G1 X43.543 Y-22.206 Z-1.715
G1 X43.097 Y-21.485 Z-1.745
G1 X43.082 Y-21.459 Z-1.746
G1 X43.067 Y-21.433 Z-1.747
G1 X42.634 Y-20.67 Z-1.778
G1 X42.62 Y-20.644 Z-1.779
G1 X42.606 Y-20.619 Z-1.78
G1 X42.188 Y-19.813 Z-1.811
G1 X42.175 Y-19.788 Z-1.812
G1 X42.163 Y-19.763 Z-1.813
G1 X41.76 Y-18.916 Z-1.846
G1 X41.749 Y-18.891 Z-1.847
G1 X41.738 Y-18.866 Z-1.848
G1 X41.351 Y-17.976 Z-1.882
G1 X41.341 Y-17.952 Z-1.883
G1 X41.331 Y-17.928 Z-1.884
G1 X40.962 Y-16.995 Z-1.919
G1 X40.953 Y-16.971 Z-1.92
G1 X40.944 Y-16.947 Z-1.921
G1 X40.595 Y-15.971 Z-1.957
G1 X40.586 Y-15.947 Z-1.958
G1 X40.578 Y-15.924
G1 X40.249 Y-14.905 Z-1.996
G1 X40.242 Y-14.882 Z-1.997
G1 X40.235 Y-14.859 Z-1.998
G1 X39.927 Y-13.797 Z-2.036
G1 X39.92 Y-13.774 Z-2.037
G1 X39.914 Y-13.751 Z-2.038
G1 X39.629 Y-12.646 Z-2.078
G1 X39.624 Y-12.624
G1 X39.618 Y-12.601 Z-2.079
G1 X39.359 Y-11.454 Z-2.12
G1 X39.354 Y-11.432 Z-2.121
G1 X39.349 Y-11.409 Z-2.122
G1 X39.116 Y-10.221 Z-2.164
G1 X39.112 Y-10.199 Z-2.165
G1 X39.108 Y-10.177 Z-2.166
G1 X38.903 Y-8.949 Z-2.209
G1 X38.9 Y-8.927 Z-2.21
G1 X38.896 Y-8.905 Z-2.211
G1 X38.722 Y-7.639 Z-2.255
G1 X38.719 Y-7.617 Z-2.256
G1 X38.717 Y-7.595 Z-2.257
G1 X38.575 Y-6.295 Z-2.303
G1 X38.573 Y-6.273
G1 X38.571 Y-6.25 Z-2.304
G1 X38.463 Y-4.918 Z-2.351
G1 X38.462 Y-4.896 Z-2.352
G1 X38.46 Y-4.874
G1 X38.388 Y-3.515 Z-2.4
G1 X38.387 Y-3.493 Z-2.401
G1 Y-3.471 Z-2.402
G1 X38.352 Y-2.091 Z-2.45
G1 Y-2.069 Z-2.451
G1 Y-2.047
G1 X38.356 Y-0.651 Z-2.5
; MOVEMENT_FINISH_CUTTING
G1 X38.357 Y-0.607 F480
G1 X38.37 Y0.022
G1 X38.391 Y0.651
G1 X38.42 Y1.28
G1 X38.457 Y1.909
G1 X38.501 Y2.536
G1 X38.554 Y3.164
G1 X38.615 Y3.79
G1 X38.684 Y4.416
G1 X38.761 Y5.041
G1 X38.845 Y5.665
G1 X38.938 Y6.287
G1 X39.038 Y6.909
G1 X39.146 Y7.529
G1 X39.262 Y8.148
G1 X39.386 Y8.765
G1 X39.518 Y9.38
G1 X39.657 Y9.994
G1 X39.805 Y10.606
G1 X39.96 Y11.216
G1 X40.122 Y11.824
G1 X40.293 Y12.43
G1 X40.471 Y13.034
G1 X40.628 Y13.532
G1 X40.793 Y14.028
G1 X40.964 Y14.522
G1 X41.143 Y15.013
G1 X41.328 Y15.502
G1 X41.52 Y15.988
G1 X41.719 Y16.471
G1 X41.924 Y16.951
G1 X42.137 Y17.429
G1 X42.356 Y17.903
G1 X42.581 Y18.374
G1 X42.814 Y18.842
G1 X43.052 Y19.307
G1 X43.297 Y19.768
G1 X43.549 Y20.226
G1 X43.802 Y20.649
G1 X44.062 Y21.067
G1 X44.328 Y21.481
G1 X44.601 Y21.891
G1 X44.881 Y22.296
G1 X45.167 Y22.697
G1 X45.4 Y23.012
G1 X45.64 Y23.322
G1 X45.886 Y23.627
G1 X46.138 Y23.927
G1 X46.396 Y24.222
G1 X46.66 Y24.512
G1 X46.93 Y24.797
G1 X47.205 Y25.076
G1 X47.486 Y25.349
G1 X47.773 Y25.617
G1 X48.065 Y25.879
G1 X48.362 Y26.135
G1 X48.664 Y26.384
G1 X48.913 Y26.579
G1 X49.168 Y26.768
G1 X49.426 Y26.951
G1 X49.689 Y27.127
G1 X49.956 Y27.297
G1 X50.227 Y27.461
G1 X50.502 Y27.618
G1 X50.781 Y27.768
G1 X51.063 Y27.912
G1 X51.348 Y28.049
G1 X51.637 Y28.179
G1 X51.929 Y28.302
G1 X52.223 Y28.418
G1 X52.521 Y28.527
G1 X52.788 Y28.611
G1 X53.058 Y28.69
G1 X53.33 Y28.761
G1 X53.603 Y28.825
G1 X53.878 Y28.883
G1 X54.154 Y28.933
G1 X54.431 Y28.977
G1 X54.538 Y28.99
G1 X55.107 Y29.046
G1 X55.216 Y29.053
G1 X55.783 Y29.069
G1 X55.893
G1 X56.459 Y29.046
G1 X56.568 Y29.038
G1 X57.132 Y28.977
G1 X57.24 Y28.961
G1 X57.802 Y28.86
G1 X57.907 Y28.838
G1 X58.195 Y28.766
G1 X58.482 Y28.688
G1 X58.767 Y28.602
G1 X59.049 Y28.508
G1 X59.329 Y28.408
G1 X59.606 Y28.3
G1 X59.88 Y28.185
G1 X60.151 Y28.062
G1 X60.419 Y27.933
G1 X60.684 Y27.797
G1 X60.945 Y27.655
G1 X61.202 Y27.505
G1 X61.455 Y27.349
G1 X61.704 Y27.186
G1 X61.948 Y27.017
G1 X62.188 Y26.842
G1 X62.424 Y26.66
G1 X62.655 Y26.473
G1 X62.881 Y26.279
G1 X63.146 Y26.049
G1 X63.408 Y25.814
G1 X63.664 Y25.574
G1 X63.915 Y25.328
G1 X64.161 Y25.077
G1 X64.401 Y24.821
G1 X64.636 Y24.56
G1 X64.866 Y24.294
G1 X65.09 Y24.023
G1 X65.309 Y23.748
G1 X65.522 Y23.469
G1 X65.729 Y23.185
G1 X65.93 Y22.896
G1 X66.125 Y22.604
G1 X66.374 Y22.222
G1 X66.618 Y21.835
G1 X66.855 Y21.444
G1 X67.085 Y21.05
G1 X67.308 Y20.651
G1 X67.525 Y20.249
G1 X67.734 Y19.843
G1 X67.937 Y19.433
G1 X68.133 Y19.021
G1 X68.321 Y18.605
G1 X68.503 Y18.185
G1 X68.678 Y17.763
G1 X68.845 Y17.338
G1 X69.005 Y16.91
G1 X69.158 Y16.48
G1 X69.335 Y15.967
G1 X69.506 Y15.453
G1 X69.669 Y14.936
G1 X69.826 Y14.417
G1 X69.976 Y13.896
G1 X70.119 Y13.373
G1 X70.255 Y12.849
G1 X70.384 Y12.322
G1 X70.506 Y11.794
G1 X70.621 Y11.264
G1 X70.729 Y10.733
G1 X70.83 Y10.2
G1 X70.924 Y9.666
G1 X71.01 Y9.131
G1 X71.089 Y8.595
G1 X71.162 Y8.057
G1 X71.227 Y7.519
G1 X71.285 Y6.98
G1 X71.35 Y6.353
G1 X71.407 Y5.725
G1 X71.457 Y5.096
G1 X71.499 Y4.466
G1 X71.533 Y3.837
G1 X71.559 Y3.206
G1 X71.577 Y2.576
G1 X71.587 Y1.945
G1 X71.59 Y1.315
G1 X71.584 Y0.684
G1 X71.571 Y0.053
G1 X71.55 Y-0.577
G1 X71.52 Y-1.207
G1 X71.484 Y-1.837
G1 X71.439 Y-2.466
G1 X71.386 Y-3.095
G1 X71.326 Y-3.722
G1 X71.257 Y-4.349
G1 X71.181 Y-4.976
G1 X71.097 Y-5.601
G1 X71.005 Y-6.225
G1 X70.906 Y-6.848
G1 X70.799 Y-7.469
G1 X70.684 Y-8.089
G1 X70.561 Y-8.708
G1 X70.43 Y-9.325
G1 X70.292 Y-9.941
G1 X70.146 Y-10.554
G1 X69.993 Y-11.166
G1 X69.832 Y-11.776
G1 X69.663 Y-12.384
G1 X69.508 Y-12.898
G1 X69.347 Y-13.41
G1 X69.178 Y-13.919
G1 X69.003 Y-14.427
G1 X68.82 Y-14.931
G1 X68.631 Y-15.434
G1 X68.435 Y-15.933
G1 X68.232 Y-16.43
G1 X68.022 Y-16.925
G1 X67.805 Y-17.416
G1 X67.582 Y-17.904
G1 X67.352 Y-18.389
G1 X67.115 Y-18.871
G1 X66.914 Y-19.263
G1 X66.706 Y-19.652
G1 X66.491 Y-20.037
G1 X66.27 Y-20.419
G1 X66.043 Y-20.797
G1 X65.809 Y-21.171
G1 X65.57 Y-21.541
G1 X65.324 Y-21.907
G1 X65.072 Y-22.269
G1 X64.814 Y-22.627
G1 X64.55 Y-22.981
G1 X64.28 Y-23.33
G1 X64.005 Y-23.674
G1 X63.724 Y-24.014
G1 X63.437 Y-24.349
G1 X63.193 Y-24.609
G1 X62.945 Y-24.865
G1 X62.693 Y-25.117
G1 X62.436 Y-25.365
G1 X62.176 Y-25.608
G1 X61.911 Y-25.847
G1 X61.642 Y-26.081
G1 X61.394 Y-26.288
G1 X61.142 Y-26.489
G1 X60.885 Y-26.684
G1 X60.623 Y-26.873
G1 X60.356 Y-27.055
G1 X60.085 Y-27.231
G1 X59.81 Y-27.4
G1 X59.531 Y-27.562
G1 X59.249 Y-27.718
G1 X58.962 Y-27.866
G1 X58.672 Y-28.008
G1 X58.379 Y-28.143
G1 X58.082 Y-28.27
G1 X57.782 Y-28.391
G1 X57.48 Y-28.503
G1 X57.175 Y-28.609
G1 X56.916 Y-28.682
G1 X56.656 Y-28.749
G1 X56.395 Y-28.811
G1 X56.132 Y-28.868
G1 X55.868 Y-28.919
G1 X55.763 Y-28.936
G1 X55.194 Y-29.013
G1 X55.086 Y-29.024
G1 X54.518 Y-29.062
G1 X54.409 Y-29.066
G1 X54.149 Y-29.07
G1 X53.89 Y-29.066
G1 X53.631 Y-29.056
G1 X53.372 Y-29.039
G1 X53.113 Y-29.014
G1 X53.004 Y-29.002
G1 X52.442 Y-28.919
G1 X52.335 Y-28.9
G1 X51.776 Y-28.778
G1 X51.672 Y-28.752
G1 X51.391 Y-28.672
G1 X51.112 Y-28.586
G1 X50.836 Y-28.492
G1 X50.561 Y-28.392
G1 X50.29 Y-28.284
G1 X50.021 Y-28.17
G1 X49.756 Y-28.049
G1 X49.493 Y-27.921
G1 X49.234 Y-27.787
G1 X48.978 Y-27.646
G1 X48.726 Y-27.498
G1 X48.478 Y-27.345
G1 X48.233 Y-27.185
G1 X47.993 Y-27.019
G1 X47.757 Y-26.847
G1 X47.526 Y-26.668
G1 X47.299 Y-26.485
G1 X47.026 Y-26.257
G1 X46.758 Y-26.023
G1 X46.495 Y-25.784
G1 X46.237 Y-25.54
G1 X45.984 Y-25.291
G1 X45.736 Y-25.036
G1 X45.494 Y-24.776
G1 X45.257 Y-24.511
G1 X45.025 Y-24.241
G1 X44.8 Y-23.967
G1 X44.579 Y-23.688
G1 X44.365 Y-23.405
G1 X44.157 Y-23.117
G1 X43.954 Y-22.825
G1 X43.758 Y-22.528
G1 X43.568 Y-22.228
G1 X43.32 Y-21.833
G1 X43.078 Y-21.434
G1 X42.844 Y-21.031
G1 X42.616 Y-20.624
G1 X42.396 Y-20.213
G1 X42.182 Y-19.798
G1 X41.976 Y-19.38
G1 X41.776 Y-18.959
G1 X41.584 Y-18.534
G1 X41.399 Y-18.106
G1 X41.221 Y-17.675
G1 X41.051 Y-17.241
G1 X40.888 Y-16.804
G1 X40.732 Y-16.364
G1 X40.584 Y-15.922
G1 X40.413 Y-15.399
G1 X40.248 Y-14.874
G1 X40.091 Y-14.347
G1 X39.94 Y-13.818
G1 X39.796 Y-13.287
G1 X39.66 Y-12.754
G1 X39.53 Y-12.22
G1 X39.408 Y-11.684
G1 X39.292 Y-11.146
G1 X39.184 Y-10.606
G1 X39.083 Y-10.066
G1 X38.989 Y-9.524
G1 X38.902 Y-8.98
G1 X38.823 Y-8.436
G1 X38.75 Y-7.891
G1 X38.685 Y-7.345
G1 X38.627 Y-6.798
G1 X38.577 Y-6.25
G1 X38.525 Y-5.692
G1 X38.481 Y-5.133
G1 X38.442 Y-4.574
G1 X38.41 Y-4.014
G1 X38.385 Y-3.454
G1 X38.367 Y-2.894
G1 X38.354 Y-2.333
G1 X38.349 Y-1.773
G1 X38.35 Y-1.212
G1 X38.358 Y-0.651
; MOVEMENT_RAMP
G1 X38.357 Y-0.607 Z-2.502 F180
G1 X38.4 Y0.796 Z-2.549
G1 Y0.818 Z-2.55
G1 X38.402 Y0.84 Z-2.551
G1 X38.484 Y2.243 Z-2.599
G1 X38.485 Y2.265 Z-2.6
G1 X38.487 Y2.287
G1 X38.608 Y3.682 Z-2.648
G1 X38.61 Y3.704 Z-2.649
G1 X38.613 Y3.726 Z-2.65
G1 X38.771 Y5.105 Z-2.697
G1 X38.774 Y5.127 Z-2.698
G1 X38.777 Y5.15 Z-2.699
G1 X38.972 Y6.506 Z-2.746
G1 X38.975 Y6.528
G1 X38.979 Y6.55 Z-2.747
G1 X39.208 Y7.877 Z-2.793
G1 X39.212 Y7.899 Z-2.794
G1 X39.216 Y7.921 Z-2.795
G1 X39.477 Y9.215 Z-2.84
G1 X39.482 Y9.237
G1 X39.487 Y9.259 Z-2.841
G1 X39.778 Y10.514 Z-2.885
G1 X39.783 Y10.536 Z-2.886
G1 X39.788 Y10.558 Z-2.887
G1 X40.107 Y11.772 Z-2.93
G1 X40.113 Y11.795
G1 X40.119 Y11.817 Z-2.931
G1 X40.463 Y12.988 Z-2.973
G1 X40.47 Y13.01 Z-2.974
G1 X40.477 Y13.032 Z-2.975
G1 X40.844 Y14.158 Z-3.015
G1 X40.852 Y14.181 Z-3.016
G1 X40.86 Y14.203 Z-3.017
G1 X41.248 Y15.283 Z-3.056
G1 X41.257 Y15.306 Z-3.057
G1 X41.265 Y15.329
G1 X41.673 Y16.362 Z-3.095
G1 X41.683 Y16.385 Z-3.096
G1 X41.692 Y16.408 Z-3.097
G1 X42.118 Y17.396 Z-3.134
G1 X42.128 Y17.419 Z-3.135
G1 X42.139 Y17.442 Z-3.136
G1 X42.581 Y18.383 Z-3.171
G1 X42.593 Y18.407 Z-3.172
G1 X42.604 Y18.43 Z-3.173
G1 X43.061 Y19.325 Z-3.207
G1 X43.074 Y19.349 Z-3.208
G1 X43.087 Y19.372 Z-3.209
G1 X43.557 Y20.222 Z-3.242
G1 X43.571 Y20.246 Z-3.243
G1 X43.585 Y20.27 Z-3.244
G1 X44.068 Y21.074 Z-3.276
G1 X44.083 Y21.099 Z-3.277
G1 X44.099 Y21.123 Z-3.278
G1 X44.593 Y21.882 Z-3.309
G1 X44.609 Y21.907 Z-3.31
G1 X44.626 Y21.931 Z-3.311
G1 X45.131 Y22.646 Z-3.341
G1 X45.149 Y22.671 Z-3.342
G1 X45.167 Y22.696 Z-3.343
G1 X45.681 Y23.367 Z-3.372
G1 X45.701 Y23.392 Z-3.373
G1 X45.722 Y23.417 Z-3.374
G1 X46.244 Y24.045 Z-3.402
G1 X46.266 Y24.07 Z-3.403
G1 X46.288 Y24.095 Z-3.404
G1 X46.818 Y24.68 Z-3.431
G1 X46.842 Y24.706 Z-3.432
G1 X46.866 Y24.731 Z-3.434
G1 X47.403 Y25.273 Z-3.46
G1 X47.42 Y25.29 Z-3.461
G1 X47.438 Y25.307
G1 X47.455 Y25.324 Z-3.462
G1 X47.998 Y25.824 Z-3.487
G1 X48.017 Y25.841 Z-3.488
G1 X48.036 Y25.857 Z-3.489
G1 X48.056 Y25.874 Z-3.49
G1 X48.604 Y26.332 Z-3.514
G1 X48.624 Y26.349 Z-3.515
G1 X48.645 Y26.365 Z-3.516
G1 X48.666 Y26.382 Z-3.517
G1 X49.219 Y26.799 Z-3.541
G1 X49.241 Y26.815 Z-3.542
G1 X49.264 Y26.831 Z-3.543
G1 X49.287 Y26.847 Z-3.544
G1 X49.844 Y27.223 Z-3.567
G1 X49.868 Y27.239 Z-3.568
G1 X49.892 Y27.254 Z-3.569
G1 X49.917 Y27.269 Z-3.57
G1 X50.478 Y27.604 Z-3.592
G1 X50.504 Y27.62 Z-3.593
G1 X50.53 Y27.634 Z-3.594
G1 X50.556 Y27.648 Z-3.595
G1 X51.119 Y27.943 Z-3.617
G1 X51.147 Y27.957 Z-3.618
G1 X51.176 Y27.971 Z-3.619
G1 X51.204 Y27.984 Z-3.62
G1 X51.77 Y28.239 Z-3.641
G1 X51.799 Y28.252 Z-3.642
G1 X51.829 Y28.264 Z-3.643
G1 X51.86 Y28.276 Z-3.644
G1 X52.427 Y28.49 Z-3.665
G1 X52.458 Y28.502 Z-3.666
G1 X52.49 Y28.512 Z-3.667
G1 X52.522 Y28.523 Z-3.669
G1 X53.09 Y28.697 Z-3.689
G1 X53.123 Y28.707 Z-3.69
G1 X53.157 Y28.716 Z-3.691
G1 X53.19 Y28.724 Z-3.692
G1 X53.759 Y28.859 Z-3.712
G1 X53.793 Y28.867 Z-3.714
G1 X53.828 Y28.874 Z-3.715
G1 X53.863 Y28.88 Z-3.716
G1 X54.432 Y28.975 Z-3.736
G1 X54.538 Y28.99 Z-3.739
G1 X55.107 Y29.046 Z-3.759
G1 X55.216 Y29.053 Z-3.763
G1 X55.783 Y29.069 Z-3.782
G1 X55.893 Z-3.786
G1 X56.459 Y29.046 Z-3.805
G1 X56.568 Y29.038 Z-3.809
G1 X57.132 Y28.977 Z-3.828
G1 X57.24 Y28.961 Z-3.832
G1 X57.802 Y28.86 Z-3.851
G1 X57.907 Y28.838 Z-3.855
G1 X58.465 Y28.698 Z-3.875
G1 X58.499 Y28.689 Z-3.876
G1 X58.533 Y28.679 Z-3.877
G1 X58.567 Y28.669 Z-3.878
G1 X59.122 Y28.49 Z-3.898
G1 X59.154 Y28.479 Z-3.899
G1 X59.187 Y28.467 Z-3.901
G1 X59.219 Y28.455 Z-3.902
G1 X59.769 Y28.236 Z-3.922
G1 X59.8 Y28.224 Z-3.923
G1 X59.831 Y28.21 Z-3.924
G1 X59.861 Y28.196 Z-3.925
G1 X60.407 Y27.939 Z-3.946
G1 X60.436 Y27.925 Z-3.947
G1 X60.465 Y27.91 Z-3.948
G1 X60.494 Y27.895 Z-3.949
G1 X61.034 Y27.598 Z-3.97
G1 X61.062 Y27.583 Z-3.972
G1 X61.089 Y27.567 Z-3.973
G1 X61.116 Y27.55 Z-3.974
G1 X61.65 Y27.214 Z-3.995
G1 X61.675 Y27.198 Z-3.996
G1 X61.7 Y27.181 Z-3.997
G1 X61.725 Y27.164 Z-3.998
G1 X62.253 Y26.789 Z-4.02
G1 X62.277 Y26.772 Z-4.021
G1 X62.3 Y26.754 Z-4.022
G1 X62.323 Y26.736 Z-4.023
G1 X62.844 Y26.321 Z-4.046
G1 X62.865 Y26.304 Z-4.047
G1 X62.886 Y26.286 Z-4.048
G1 X62.907 Y26.268 Z-4.049
G1 X63.421 Y25.813 Z-4.072
G1 X63.441 Y25.795 Z-4.073
G1 X63.46 Y25.777 Z-4.074
G1 X63.479 Y25.758 Z-4.075
G1 X63.984 Y25.263 Z-4.099
G1 X64.002 Y25.245 Z-4.1
G1 X64.02 Y25.227 Z-4.101
G1 X64.037 Y25.208 Z-4.102
G1 X64.533 Y24.673 Z-4.127
G1 X64.55 Y24.655 Z-4.128
G1 X64.566 Y24.637 Z-4.129
G1 X64.582 Y24.618
G1 X65.068 Y24.042 Z-4.155
G1 X65.091 Y24.015 Z-4.156
G1 X65.112 Y23.988 Z-4.157
G1 X65.588 Y23.371 Z-4.184
G1 X65.608 Y23.345 Z-4.185
G1 X65.628 Y23.318 Z-4.186
G1 X66.093 Y22.66 Z-4.214
G1 X66.111 Y22.634 Z-4.215
G1 X66.129 Y22.607 Z-4.216
G1 X66.582 Y21.908 Z-4.245
G1 X66.598 Y21.882 Z-4.246
G1 X66.614 Y21.855 Z-4.247
G1 X67.054 Y21.115 Z-4.276
G1 X67.069 Y21.089 Z-4.277
G1 X67.083 Y21.064 Z-4.278
G1 X67.509 Y20.281 Z-4.309
G1 X67.523 Y20.256
G1 X67.536 Y20.23 Z-4.31
G1 X67.947 Y19.406 Z-4.342
G1 X67.959 Y19.381 Z-4.343
G1 X67.971 Y19.356 Z-4.344
G1 X68.366 Y18.489 Z-4.376
G1 X68.377 Y18.464 Z-4.377
G1 X68.388 Y18.44 Z-4.378
G1 X68.766 Y17.53 Z-4.412
G1 X68.776 Y17.506 Z-4.413
G1 X68.785 Y17.482 Z-4.414
G1 X69.146 Y16.529 Z-4.448
G1 X69.154 Y16.505 Z-4.449
G1 X69.163 Y16.481 Z-4.45
G1 X69.504 Y15.486 Z-4.486
G1 X69.511 Y15.462 Z-4.487
G1 X69.519 Y15.439 Z-4.488
G1 X69.839 Y14.401 Z-4.525
G1 X69.845 Y14.377 Z-4.526
G1 X69.852 Y14.354 Z-4.527
G1 X70.15 Y13.273 Z-4.565
G1 X70.156 Y13.25 Z-4.566
G1 X70.161 Y13.227
G1 X70.435 Y12.103 Z-4.606
G1 X70.44 Y12.08 Z-4.607
G1 X70.445 Y12.058 Z-4.608
G1 X70.693 Y10.892 Z-4.648
G1 X70.697 Y10.87 Z-4.649
G1 X70.702 Y10.847 Z-4.65
G1 X70.922 Y9.641 Z-4.692
G1 X70.926 Y9.619
G1 X70.929 Y9.596 Z-4.693
G1 X71.12 Y8.351 Z-4.736
G1 X71.124 Y8.329 Z-4.737
G1 X71.126 Y8.307 Z-4.738
G1 X71.286 Y7.025 Z-4.782
G1 X71.289 Y7.003 Z-4.783
G1 X71.291 Y6.981
G1 X71.417 Y5.665 Z-4.829
G1 X71.419 Y5.643
G1 X71.421 Y5.621 Z-4.83
G1 X71.512 Y4.276 Z-4.876
G1 X71.513 Y4.254 Z-4.877
G1 X71.515 Y4.232 Z-4.878
G1 X71.569 Y2.862 Z-4.924
G1 X71.57 Y2.84 Z-4.925
G1 Y2.818 Z-4.926
G1 X71.587 Y1.43 Z-4.973
G1 Y1.408 Z-4.974
G1 Y1.386 Z-4.975
G1 X71.576 Y0.651 Z-5
; MOVEMENT_FINISH_CUTTING
G1 X71.565 Y0.049 F480
G1 X71.547 Y-0.554
G1 X71.521 Y-1.156
G1 X71.488 Y-1.757
G1 X71.448 Y-2.359
G1 X71.4 Y-2.959
G1 X71.345 Y-3.56
G1 X71.282 Y-4.159
G1 X71.212 Y-4.758
G1 X71.135 Y-5.355
G1 X71.051 Y-5.952
G1 X70.959 Y-6.548
G1 X70.86 Y-7.142
G1 X70.753 Y-7.735
G1 X70.64 Y-8.327
G1 X70.519 Y-8.918
G1 X70.391 Y-9.507
G1 X70.255 Y-10.094
G1 X70.113 Y-10.679
G1 X69.963 Y-11.263
G1 X69.806 Y-11.845
G1 X69.642 Y-12.425
G1 X69.471 Y-13.003
G1 X69.293 Y-13.579
G1 X69.131 Y-14.068
G1 X68.962 Y-14.554
G1 X68.786 Y-15.038
G1 X68.603 Y-15.52
G1 X68.414 Y-15.999
G1 X68.217 Y-16.476
G1 X68.014 Y-16.949
G1 X67.805 Y-17.42
G1 X67.589 Y-17.887
G1 X67.366 Y-18.352
G1 X67.136 Y-18.813
G1 X66.9 Y-19.271
G1 X66.658 Y-19.725
G1 X66.409 Y-20.177
G1 X66.154 Y-20.624
G1 X65.898 Y-21.037
G1 X65.635 Y-21.445
G1 X65.365 Y-21.849
G1 X65.088 Y-22.249
G1 X64.806 Y-22.644
G1 X64.516 Y-23.034
G1 X64.28 Y-23.341
G1 X64.037 Y-23.643
G1 X63.789 Y-23.94
G1 X63.534 Y-24.231
G1 X63.274 Y-24.518
G1 X63.007 Y-24.799
G1 X62.735 Y-25.074
G1 X62.457 Y-25.344
G1 X62.174 Y-25.608
G1 X61.885 Y-25.866
G1 X61.591 Y-26.118
G1 X61.292 Y-26.364
G1 X60.988 Y-26.604
G1 X60.736 Y-26.791
G1 X60.479 Y-26.972
G1 X60.219 Y-27.147
G1 X59.954 Y-27.315
G1 X59.684 Y-27.477
G1 X59.412 Y-27.632
G1 X59.135 Y-27.78
G1 X58.855 Y-27.922
G1 X58.571 Y-28.057
G1 X58.285 Y-28.185
G1 X57.995 Y-28.306
G1 X57.702 Y-28.419
G1 X57.407 Y-28.526
G1 X57.109 Y-28.625
G1 X56.864 Y-28.695
G1 X56.617 Y-28.759
G1 X56.368 Y-28.817
G1 X56.119 Y-28.871
G1 X55.868 Y-28.918
G1 X55.763 Y-28.936
G1 X55.194 Y-29.013
G1 X55.086 Y-29.024
G1 X54.518 Y-29.062
G1 X54.409 Y-29.066
G1 X54.149 Y-29.07
G1 X53.89 Y-29.066
G1 X53.631 Y-29.056
G1 X53.372 Y-29.039
G1 X53.113 Y-29.014
G1 X53.004 Y-29.002
G1 X52.442 Y-28.919
G1 X52.335 Y-28.9
G1 X51.776 Y-28.778
G1 X51.672 Y-28.752
G1 X51.391 Y-28.672
G1 X51.112 Y-28.586
G1 X50.836 Y-28.492
G1 X50.561 Y-28.392
G1 X50.29 Y-28.284
G1 X50.021 Y-28.17
G1 X49.756 Y-28.049
G1 X49.493 Y-27.921
G1 X49.234 Y-27.787
G1 X48.978 Y-27.646
G1 X48.726 Y-27.498
G1 X48.478 Y-27.345
G1 X48.233 Y-27.185
G1 X47.993 Y-27.019
G1 X47.757 Y-26.847
G1 X47.526 Y-26.668
G1 X47.299 Y-26.485
G1 X47.026 Y-26.257
G1 X46.758 Y-26.023
G1 X46.495 Y-25.784
G1 X46.237 Y-25.54
G1 X45.984 Y-25.291
G1 X45.736 Y-25.036
G1 X45.494 Y-24.776
G1 X45.257 Y-24.511
G1 X45.025 Y-24.241
G1 X44.8 Y-23.967
G1 X44.579 Y-23.688
G1 X44.365 Y-23.405
G1 X44.157 Y-23.117
G1 X43.954 Y-22.825
G1 X43.758 Y-22.528
G1 X43.568 Y-22.228
G1 X43.32 Y-21.833
G1 X43.078 Y-21.434
G1 X42.844 Y-21.031
G1 X42.616 Y-20.624
G1 X42.396 Y-20.213
G1 X42.182 Y-19.798
G1 X41.976 Y-19.38
G1 X41.776 Y-18.959
G1 X41.584 Y-18.534
G1 X41.399 Y-18.106
G1 X41.221 Y-17.675
G1 X41.051 Y-17.241
G1 X40.888 Y-16.804
G1 X40.732 Y-16.364
G1 X40.584 Y-15.922
G1 X40.413 Y-15.399
G1 X40.248 Y-14.874
G1 X40.091 Y-14.347
G1 X39.94 Y-13.818
G1 X39.796 Y-13.287
G1 X39.66 Y-12.754
G1 X39.53 Y-12.22
G1 X39.408 Y-11.684
G1 X39.292 Y-11.146
G1 X39.184 Y-10.606
G1 X39.083 Y-10.066
G1 X38.989 Y-9.524
G1 X38.902 Y-8.98
G1 X38.823 Y-8.436
G1 X38.75 Y-7.891
G1 X38.685 Y-7.345
G1 X38.627 Y-6.798
G1 X38.577 Y-6.25
G1 X38.521 Y-5.624
G1 X38.473 Y-4.997
G1 X38.432 Y-4.369
G1 X38.4 Y-3.742
G1 X38.375 Y-3.113
G1 X38.358 Y-2.485
G1 X38.349 Y-1.856
G1 X38.348 Y-1.228
G1 X38.354 Y-0.599
G1 X38.369 Y0.03
G1 X38.391 Y0.658
G1 X38.421 Y1.286
G1 X38.458 Y1.913
G1 X38.504 Y2.54
G1 X38.557 Y3.167
G1 X38.618 Y3.793
G1 X38.687 Y4.417
G1 X38.764 Y5.041
G1 X38.848 Y5.664
G1 X38.94 Y6.286
G1 X39.04 Y6.907
G1 X39.147 Y7.527
G1 X39.262 Y8.145
G1 X39.385 Y8.761
G1 X39.516 Y9.376
G1 X39.654 Y9.989
G1 X39.8 Y10.601
G1 X39.953 Y11.211
G1 X40.114 Y11.818
G1 X40.261 Y12.338
G1 X40.416 Y12.856
G1 X40.578 Y13.372
G1 X40.747 Y13.885
G1 X40.923 Y14.396
G1 X41.106 Y14.905
G1 X41.296 Y15.41
G1 X41.494 Y15.914
G1 X41.698 Y16.414
G1 X41.909 Y16.911
G1 X42.127 Y17.406
G1 X42.352 Y17.897
G1 X42.584 Y18.385
G1 X42.823 Y18.87
G1 X43.068 Y19.352
G1 X43.279 Y19.74
G1 X43.496 Y20.125
G1 X43.719 Y20.507
G1 X43.949 Y20.884
G1 X44.184 Y21.258
G1 X44.425 Y21.629
G1 X44.673 Y21.995
G1 X44.926 Y22.357
G1 X45.185 Y22.715
G1 X45.449 Y23.069
G1 X45.72 Y23.419
G1 X45.959 Y23.716
G1 X46.205 Y24.008
G1 X46.457 Y24.295
G1 X46.715 Y24.576
G1 X46.979 Y24.853
G1 X47.248 Y25.123
G1 X47.523 Y25.388
G1 X47.804 Y25.647
G1 X48.09 Y25.9
G1 X48.381 Y26.147
G1 X48.677 Y26.387
G1 X48.978 Y26.622
G1 X49.285 Y26.85
G1 X49.539 Y27.028
G1 X49.799 Y27.2
G1 X50.062 Y27.365
G1 X50.33 Y27.524
G1 X50.601 Y27.676
G1 X50.876 Y27.821
G1 X51.155 Y27.96
G1 X51.437 Y28.091
G1 X51.722 Y28.215
G1 X52.01 Y28.332
G1 X52.301 Y28.442
G1 X52.594 Y28.545
G1 X52.89 Y28.64
G1 X53.189 Y28.728
G1 X53.435 Y28.789
G1 X53.683 Y28.844
G1 X53.931 Y28.893
G1 X54.181 Y28.937
G1 X54.432 Y28.975
G1 X54.538 Y28.99
G1 X55.107 Y29.046
G1 X55.216 Y29.053
G1 X55.783 Y29.069
G1 X55.893
G1 X56.459 Y29.046
G1 X56.568 Y29.038
G1 X57.132 Y28.977
G1 X57.24 Y28.961
G1 X57.802 Y28.86
G1 X57.907 Y28.838
G1 X58.195 Y28.766
G1 X58.482 Y28.688
G1 X58.767 Y28.602
G1 X59.049 Y28.508
G1 X59.329 Y28.408
G1 X59.606 Y28.3
G1 X59.88 Y28.185
G1 X60.151 Y28.062
G1 X60.419 Y27.933
G1 X60.684 Y27.797
G1 X60.945 Y27.655
G1 X61.202 Y27.505
G1 X61.455 Y27.349
G1 X61.704 Y27.186
G1 X61.948 Y27.017
G1 X62.188 Y26.842
G1 X62.424 Y26.66
G1 X62.655 Y26.473
G1 X62.881 Y26.279
G1 X63.146 Y26.049
G1 X63.408 Y25.814
G1 X63.664 Y25.574
G1 X63.915 Y25.328
G1 X64.161 Y25.077
G1 X64.401 Y24.821
G1 X64.636 Y24.56
G1 X64.866 Y24.294
G1 X65.09 Y24.023
G1 X65.309 Y23.748
G1 X65.522 Y23.469
G1 X65.729 Y23.185
G1 X65.93 Y22.896
G1 X66.125 Y22.604
G1 X66.374 Y22.222
G1 X66.618 Y21.835
G1 X66.855 Y21.444
G1 X67.085 Y21.05
G1 X67.308 Y20.651
G1 X67.525 Y20.249
G1 X67.734 Y19.843
G1 X67.937 Y19.433
G1 X68.133 Y19.021
G1 X68.321 Y18.605
G1 X68.503 Y18.185
G1 X68.678 Y17.763
G1 X68.845 Y17.338
G1 X69.005 Y16.91
G1 X69.158 Y16.48
G1 X69.335 Y15.967
G1 X69.506 Y15.453
G1 X69.669 Y14.936
G1 X69.826 Y14.417
G1 X69.976 Y13.896
G1 X70.119 Y13.373
G1 X70.255 Y12.849
G1 X70.384 Y12.322
G1 X70.506 Y11.794
G1 X70.621 Y11.264
G1 X70.729 Y10.733
G1 X70.83 Y10.2
G1 X70.924 Y9.666
G1 X71.01 Y9.131
G1 X71.089 Y8.595
G1 X71.162 Y8.057
G1 X71.227 Y7.519
G1 X71.285 Y6.98
G1 X71.346 Y6.407
G1 X71.4 Y5.833
G1 X71.448 Y5.259
G1 X71.488 Y4.684
G1 X71.522 Y4.108
G1 X71.549 Y3.533
G1 X71.568 Y2.957
G1 X71.581 Y2.38
G1 X71.586 Y1.804
G1 X71.585 Y1.228
G1 X71.577 Y0.651
; MOVEMENT_RAMP
G1 X71.565 Y-0.014 Z-5.023 F180
G1 Y-0.036
G1 X71.564 Y-0.058 Z-5.024
G1 X71.503 Y-1.462 Z-5.072
G1 X71.502 Y-1.484 Z-5.073
G1 X71.5 Y-1.506 Z-5.074
G1 X71.4 Y-2.907 Z-5.122
G1 X71.398 Y-2.929
G1 X71.396 Y-2.951 Z-5.123
G1 X71.258 Y-4.339 Z-5.171
G1 X71.255 Y-4.361 Z-5.172
G1 X71.253 Y-4.384
G1 X71.077 Y-5.753 Z-5.22
G1 X71.074 Y-5.775
G1 X71.071 Y-5.797 Z-5.221
G1 X70.86 Y-7.141 Z-5.268
G1 X70.857 Y-7.163
G1 X70.853 Y-7.185 Z-5.269
G1 X70.609 Y-8.497 Z-5.315
G1 X70.604 Y-8.519
G1 X70.6 Y-8.541 Z-5.316
G1 X70.325 Y-9.817 Z-5.361
G1 X70.32 Y-9.84 Z-5.362
G1 X70.314 Y-9.862
G1 X70.011 Y-11.098 Z-5.406
G1 X70.005 Y-11.12 Z-5.407
G1 X69.999 Y-11.143
G1 X69.668 Y-12.337 Z-5.45
G1 X69.662 Y-12.359 Z-5.451
G1 X69.655 Y-12.381
G1 X69.301 Y-13.532 Z-5.492
G1 X69.294 Y-13.554 Z-5.493
G1 X69.286 Y-13.577 Z-5.494
G1 X68.909 Y-14.681 Z-5.534
G1 X68.901 Y-14.704 Z-5.535
G1 X68.893 Y-14.727 Z-5.536
G1 X68.495 Y-15.785 Z-5.574
G1 X68.486 Y-15.808 Z-5.575
G1 X68.477 Y-15.831 Z-5.576
G1 X68.06 Y-16.844 Z-5.613
G1 X68.051 Y-16.867 Z-5.614
G1 X68.041 Y-16.89 Z-5.615
G1 X67.607 Y-17.856 Z-5.651
G1 X67.596 Y-17.879 Z-5.652
G1 X67.585 Y-17.902 Z-5.653
G1 X67.136 Y-18.822 Z-5.688
G1 X67.124 Y-18.846 Z-5.689
G1 X67.112 Y-18.869 Z-5.69
G1 X66.649 Y-19.743 Z-5.723
G1 X66.636 Y-19.767 Z-5.724
G1 X66.622 Y-19.791 Z-5.725
G1 X66.146 Y-20.619 Z-5.758
G1 X66.132 Y-20.644 Z-5.759
G1 X66.117 Y-20.668 Z-5.76
G1 X65.628 Y-21.451 Z-5.791
G1 X65.613 Y-21.476 Z-5.792
G1 X65.597 Y-21.5 Z-5.793
G1 X65.097 Y-22.239 Z-5.824
G1 X65.08 Y-22.264 Z-5.825
G1 X65.063 Y-22.289 Z-5.826
G1 X64.554 Y-22.983 Z-5.855
G1 X64.535 Y-23.008 Z-5.856
G1 X64.515 Y-23.033 Z-5.857
G1 X63.997 Y-23.684 Z-5.886
G1 X63.977 Y-23.71 Z-5.887
G1 X63.956 Y-23.735 Z-5.888
G1 X63.43 Y-24.342 Z-5.916
G1 X63.407 Y-24.368 Z-5.917
G1 X63.384 Y-24.393 Z-5.918
G1 X62.851 Y-24.958 Z-5.944
G1 X62.834 Y-24.975 Z-5.945
G1 X62.818 Y-24.992 Z-5.946
G1 X62.801 Y-25.009 Z-5.947
G1 X62.261 Y-25.532 Z-5.973
G1 X62.243 Y-25.549
G1 X62.225 Y-25.566 Z-5.974
G1 X62.206 Y-25.582 Z-5.975
G1 X61.661 Y-26.063 Z-6
G1 X61.641 Y-26.08 Z-6.001
G1 X61.621 Y-26.097 Z-6.002
G1 X61.601 Y-26.113 Z-6.003
G1 X61.051 Y-26.552 Z-6.027
G1 X61.029 Y-26.569 Z-6.028
G1 X61.008 Y-26.585 Z-6.029
G1 X60.986 Y-26.601
G1 X60.431 Y-26.999 Z-6.053
G1 X60.408 Y-27.015 Z-6.054
G1 X60.384 Y-27.031 Z-6.055
G1 X60.361 Y-27.047 Z-6.056
G1 X59.802 Y-27.404 Z-6.078
G1 X59.777 Y-27.419 Z-6.079
G1 X59.752 Y-27.434 Z-6.08
G1 X59.726 Y-27.449 Z-6.081
G1 X59.164 Y-27.766 Z-6.103
G1 X59.137 Y-27.78 Z-6.104
G1 X59.11 Y-27.795 Z-6.105
G1 X59.083 Y-27.808 Z-6.106
G1 X58.519 Y-28.084 Z-6.128
G1 X58.49 Y-28.098 Z-6.129
G1 X58.461 Y-28.111 Z-6.13
G1 X58.431 Y-28.124 Z-6.131
G1 X57.865 Y-28.36 Z-6.152
G1 X57.834 Y-28.372 Z-6.153
G1 X57.804 Y-28.384 Z-6.154
G1 X57.772 Y-28.395 Z-6.156
G1 X57.205 Y-28.591 Z-6.176
G1 X57.173 Y-28.602 Z-6.177
G1 X57.14 Y-28.612 Z-6.178
G1 X57.108 Y-28.621 Z-6.18
G1 X56.539 Y-28.777 Z-6.2
G1 X56.505 Y-28.786 Z-6.201
G1 X56.471 Y-28.794 Z-6.202
G1 X56.437 Y-28.802 Z-6.203
G1 X55.868 Y-28.918 Z-6.223
G1 X55.763 Y-28.936 Z-6.227
G1 X55.194 Y-29.013 Z-6.246
G1 X55.086 Y-29.024 Z-6.25
G1 X54.518 Y-29.062 Z-6.27
G1 X54.409 Y-29.066 Z-6.273
G1 X53.842 Y-29.064 Z-6.293
G1 X53.812 Z-6.294
G1 X53.783 Y-29.063 Z-6.295
G1 X53.737 Y-29.061 Z-6.296
G1 X53.708 Y-29.06 Z-6.297
G1 X53.678 Y-29.058 Z-6.298
G1 X53.113 Y-29.014 Z-6.318
G1 X53.004 Y-29.002 Z-6.321
G1 X52.442 Y-28.919 Z-6.341
G1 X52.335 Y-28.9 Z-6.344
G1 X51.776 Y-28.778 Z-6.364
G1 X51.672 Y-28.752 Z-6.368
G1 X51.116 Y-28.591 Z-6.387
G1 X51.082 Y-28.581 Z-6.389
G1 X51.049 Y-28.57 Z-6.39
G1 X51.016 Y-28.559 Z-6.391
G1 X50.464 Y-28.358 Z-6.411
G1 X50.432 Y-28.347 Z-6.412
G1 X50.4 Y-28.334 Z-6.413
G1 X50.369 Y-28.321 Z-6.415
G1 X49.821 Y-28.081 Z-6.435
G1 X49.791 Y-28.068 Z-6.436
G1 X49.761 Y-28.054 Z-6.437
G1 X49.732 Y-28.039 Z-6.438
G1 X49.189 Y-27.76 Z-6.459
G1 X49.161 Y-27.746 Z-6.46
G1 X49.133 Y-27.73 Z-6.461
G1 X49.105 Y-27.714 Z-6.462
G1 X48.568 Y-27.396 Z-6.484
G1 X48.542 Y-27.38 Z-6.485
G1 X48.516 Y-27.364 Z-6.486
G1 X48.49 Y-27.347 Z-6.487
G1 X47.959 Y-26.99 Z-6.509
G1 X47.935 Y-26.973 Z-6.51
G1 X47.911 Y-26.956 Z-6.511
G1 X47.887 Y-26.938 Z-6.512
G1 X47.363 Y-26.541 Z-6.534
G1 X47.34 Y-26.524 Z-6.535
G1 X47.318 Y-26.506 Z-6.536
G1 X47.296 Y-26.488 Z-6.537
G1 X46.779 Y-26.051 Z-6.56
G1 X46.759 Y-26.034 Z-6.561
G1 X46.739 Y-26.016 Z-6.562
G1 X46.719 Y-25.998 Z-6.563
G1 X46.21 Y-25.521 Z-6.587
G1 X46.191 Y-25.503 Z-6.588
G1 X46.172 Y-25.485 Z-6.589
G1 X46.154 Y-25.466 Z-6.59
G1 X45.654 Y-24.949 Z-6.614
G1 X45.637 Y-24.931 Z-6.615
G1 X45.62 Y-24.913 Z-6.616
G1 X45.603 Y-24.895 Z-6.617
G1 X45.112 Y-24.338 Z-6.642
G1 X45.089 Y-24.311 Z-6.643
G1 X45.066 Y-24.283 Z-6.644
G1 X44.585 Y-23.685 Z-6.671
G1 X44.564 Y-23.658 Z-6.672
G1 X44.544 Y-23.631 Z-6.673
G1 X44.074 Y-22.992 Z-6.7
G1 X44.054 Y-22.966 Z-6.701
G1 X44.036 Y-22.939 Z-6.702
G1 X43.577 Y-22.259 Z-6.73
G1 X43.56 Y-22.233 Z-6.731
G1 X43.543 Y-22.206 Z-6.732
G1 X43.097 Y-21.485 Z-6.761
G1 X43.082 Y-21.459 Z-6.762
G1 X43.067 Y-21.433 Z-6.764
G1 X42.634 Y-20.67 Z-6.793
G1 X42.62 Y-20.644 Z-6.794
G1 X42.606 Y-20.619 Z-6.795
G1 X42.188 Y-19.813 Z-6.826
G1 X42.175 Y-19.788 Z-6.827
G1 X42.163 Y-19.763 Z-6.828
G1 X41.76 Y-18.916 Z-6.86
G1 X41.749 Y-18.891 Z-6.861
G1 X41.738 Y-18.866 Z-6.862
G1 X41.351 Y-17.976 Z-6.895
G1 X41.341 Y-17.952 Z-6.896
G1 X41.331 Y-17.928 Z-6.897
G1 X40.962 Y-16.995 Z-6.931
G1 X40.953 Y-16.971 Z-6.932
G1 X40.944 Y-16.947 Z-6.933
G1 X40.595 Y-15.971 Z-6.969
G1 X40.586 Y-15.947
G1 X40.578 Y-15.924 Z-6.97
G1 X40.249 Y-14.905 Z-7.007
G1 X40.242 Y-14.882 Z-7.008
G1 X40.235 Y-14.859 Z-7.009
G1 X39.927 Y-13.797 Z-7.046
G1 X39.92 Y-13.774 Z-7.047
G1 X39.914 Y-13.751 Z-7.048
G1 X39.629 Y-12.646 Z-7.087
G1 X39.624 Y-12.624 Z-7.088
G1 X39.618 Y-12.601 Z-7.089
G1 X39.359 Y-11.454 Z-7.129
G1 X39.354 Y-11.432
G1 X39.349 Y-11.409 Z-7.13
G1 X39.116 Y-10.221 Z-7.172
G1 X39.112 Y-10.199
G1 X39.108 Y-10.177 Z-7.173
G1 X38.903 Y-8.949 Z-7.216
G1 X38.9 Y-8.927
G1 X38.896 Y-8.905 Z-7.217
G1 X38.722 Y-7.639 Z-7.261
G1 X38.719 Y-7.617 Z-7.262
G1 X38.717 Y-7.595
G1 X38.575 Y-6.295 Z-7.307
G1 X38.573 Y-6.273 Z-7.308
G1 X38.571 Y-6.25 Z-7.309
G1 X38.463 Y-4.918 Z-7.354
G1 X38.462 Y-4.896 Z-7.355
G1 X38.46 Y-4.874 Z-7.356
G1 X38.388 Y-3.515 Z-7.402
G1 X38.387 Y-3.493 Z-7.403
G1 Y-3.471 Z-7.404
G1 X38.352 Y-2.091 Z-7.451
G1 Y-2.069 Z-7.452
G1 Y-2.047
G1 X38.356 Y-0.651 Z-7.5
; MOVEMENT_FINISH_CUTTING
G1 X38.357 Y-0.607 F480
G1 X38.37 Y0.022
G1 X38.391 Y0.651
G1 X38.42 Y1.28
G1 X38.457 Y1.909
G1 X38.501 Y2.536
G1 X38.554 Y3.164
G1 X38.615 Y3.79
G1 X38.684 Y4.416
G1 X38.761 Y5.041
G1 X38.845 Y5.665
G1 X38.938 Y6.287
G1 X39.038 Y6.909
G1 X39.146 Y7.529
G1 X39.262 Y8.148
G1 X39.386 Y8.765
G1 X39.518 Y9.38
G1 X39.657 Y9.994
G1 X39.805 Y10.606
G1 X39.96 Y11.216
G1 X40.122 Y11.824
G1 X40.293 Y12.43
G1 X40.471 Y13.034
G1 X40.628 Y13.532
G1 X40.793 Y14.028
G1 X40.964 Y14.522
G1 X41.143 Y15.013
G1 X41.328 Y15.502
G1 X41.52 Y15.988
G1 X41.719 Y16.471
G1 X41.924 Y16.951
G1 X42.137 Y17.429
G1 X42.356 Y17.903
G1 X42.581 Y18.374
G1 X42.814 Y18.842
G1 X43.052 Y19.307
G1 X43.297 Y19.768
G1 X43.549 Y20.226
G1 X43.802 Y20.649
G1 X44.062 Y21.067
G1 X44.328 Y21.481
G1 X44.601 Y21.891
G1 X44.881 Y22.296
G1 X45.167 Y22.697
G1 X45.4 Y23.012
G1 X45.64 Y23.322
G1 X45.886 Y23.627
G1 X46.138 Y23.927
G1 X46.396 Y24.222
G1 X46.66 Y24.512
G1 X46.93 Y24.797
G1 X47.205 Y25.076
G1 X47.486 Y25.349
G1 X47.773 Y25.617
G1 X48.065 Y25.879
G1 X48.362 Y26.135
G1 X48.664 Y26.384
G1 X48.913 Y26.579
G1 X49.168 Y26.768
G1 X49.426 Y26.951
G1 X49.689 Y27.127
G1 X49.956 Y27.297
G1 X50.227 Y27.461
G1 X50.502 Y27.618
G1 X50.781 Y27.768
G1 X51.063 Y27.912
G1 X51.348 Y28.049
G1 X51.637 Y28.179
G1 X51.929 Y28.302
G1 X52.223 Y28.418
G1 X52.521 Y28.527
G1 X52.788 Y28.611
G1 X53.058 Y28.69
G1 X53.33 Y28.761
G1 X53.603 Y28.825
G1 X53.878 Y28.883
G1 X54.154 Y28.933
G1 X54.431 Y28.977
G1 X54.538 Y28.99
G1 X55.107 Y29.046
G1 X55.216 Y29.053
G1 X55.783 Y29.069
G1 X55.893
G1 X56.459 Y29.046
G1 X56.568 Y29.038
G1 X57.132 Y28.977
G1 X57.24 Y28.961
G1 X57.802 Y28.86
G1 X57.907 Y28.838
G1 X58.195 Y28.766
G1 X58.482 Y28.688
G1 X58.767 Y28.602
G1 X59.049 Y28.508
G1 X59.329 Y28.408
G1 X59.606 Y28.3
G1 X59.88 Y28.185
G1 X60.151 Y28.062
G1 X60.419 Y27.933
G1 X60.684 Y27.797
G1 X60.945 Y27.655
G1 X61.202 Y27.505
G1 X61.455 Y27.349
G1 X61.704 Y27.186
G1 X61.948 Y27.017
G1 X62.188 Y26.842
G1 X62.424 Y26.66
G1 X62.655 Y26.473
G1 X62.881 Y26.279
G1 X63.146 Y26.049
G1 X63.408 Y25.814
G1 X63.664 Y25.574
G1 X63.915 Y25.328
G1 X64.161 Y25.077
G1 X64.401 Y24.821
G1 X64.636 Y24.56
G1 X64.866 Y24.294
G1 X65.09 Y24.023
G1 X65.309 Y23.748
G1 X65.522 Y23.469
G1 X65.729 Y23.185
G1 X65.93 Y22.896
G1 X66.125 Y22.604
G1 X66.374 Y22.222
G1 X66.618 Y21.835
G1 X66.855 Y21.444
G1 X67.085 Y21.05
G1 X67.308 Y20.651
G1 X67.525 Y20.249
G1 X67.734 Y19.843
G1 X67.937 Y19.433
G1 X68.133 Y19.021
G1 X68.321 Y18.605
G1 X68.503 Y18.185
G1 X68.678 Y17.763
G1 X68.845 Y17.338
G1 X69.005 Y16.91
G1 X69.158 Y16.48
G1 X69.335 Y15.967
G1 X69.506 Y15.453
G1 X69.669 Y14.936
G1 X69.826 Y14.417
G1 X69.976 Y13.896
G1 X70.119 Y13.373
G1 X70.255 Y12.849
G1 X70.384 Y12.322
G1 X70.506 Y11.794
G1 X70.621 Y11.264
G1 X70.729 Y10.733
G1 X70.83 Y10.2
G1 X70.924 Y9.666
G1 X71.01 Y9.131
G1 X71.089 Y8.595
G1 X71.162 Y8.057
G1 X71.227 Y7.519
G1 X71.285 Y6.98
G1 X71.35 Y6.353
G1 X71.407 Y5.725
G1 X71.457 Y5.096
G1 X71.499 Y4.466
G1 X71.533 Y3.837
G1 X71.559 Y3.206
G1 X71.577 Y2.576
G1 X71.587 Y1.945
G1 X71.59 Y1.315
G1 X71.584 Y0.684
G1 X71.571 Y0.053
G1 X71.55 Y-0.577
G1 X71.52 Y-1.207
G1 X71.484 Y-1.837
G1 X71.439 Y-2.466
G1 X71.386 Y-3.095
G1 X71.326 Y-3.722
G1 X71.257 Y-4.349
G1 X71.181 Y-4.976
G1 X71.097 Y-5.601
G1 X71.005 Y-6.225
G1 X70.906 Y-6.848
G1 X70.799 Y-7.469
G1 X70.684 Y-8.089
G1 X70.561 Y-8.708
G1 X70.43 Y-9.325
