%
O01001
(Using high feed G1 F5000. instead of G0.)
(T1 D=12.7 CR=0. - ZMIN=-28.4 - flat end mill)
(T3 D=6.35 CR=0. - ZMIN=-75. - flat end mill)
(T4 D=7.938 CR=0. TAPER=118deg - ZMIN=-35.608 - drill)
(T5 D=3.175 CR=1.587 - ZMIN=-3.926 - ball end mill)
(T6 D=11.906 CR=0. TAPER=118deg - ZMIN=-118.577 - drill)
(T7 D=14.684 CR=0. TAPER=118deg - ZMIN=-119.412 - drill)
(T15 D=6.35 CR=0. TAPER=90deg - ZMIN=-29.4 - spot drill)
N10 G90 G94 G17
N15 G21
N20 G53 G0 Z0.

(Drill8 2)
N25 T3 M6
N30 S2750 M3
N35 G54
N40 M8
N45 G0 X85.024 Y-70.
N50 G43 Z45.391 H3
N55 T1
N60 G0 Z5.
N65 X88.752
N70 G1 Z0. F1000.
N75 G3 X88.737 Y-70.325 Z-0.986 I-3.728 J0.
N80 X88.695 Y-70.647 Z-1.972 I-3.713 J0.325
N85 X88.624 Y-70.965 Z-2.958 I-3.671 J0.647
N90 X88.527 Y-71.275 Z-3.944 I-3.6 J0.965
N95 X88.402 Y-71.575 Z-4.931 I-3.503 J1.275
N100 X88.252 Y-71.864 Z-5.917 I-3.378 J1.575
N105 X88.077 Y-72.138 Z-6.903 I-3.228 J1.864
N110 X87.879 Y-72.396 Z-7.889 I-3.053 J2.138
N115 X87.66 Y-72.636 Z-8.875 I-2.855 J2.396
N120 X87.42 Y-72.855 Z-9.861 I-2.636 J2.636
N125 X87.162 Y-73.053 Z-10.847 I-2.396 J2.855
N130 X86.888 Y-73.228 Z-11.833 I-2.138 J3.053
N135 X86.599 Y-73.378 Z-12.819 I-1.864 J3.228
N140 X86.299 Y-73.503 Z-13.806 I-1.575 J3.378
N145 X85.989 Y-73.6 Z-14.792 I-1.275 J3.503
N150 X85.671 Y-73.671 Z-15.778 I-0.965 J3.6
N155 X85.349 Y-73.713 Z-16.764 I-0.647 J3.671
N160 X85.024 Y-73.728 Z-17.75 I-0.325 J3.713
N165 X84.699 Y-73.713 Z-18.736 I0. J3.728
N170 X84.377 Y-73.671 Z-19.722 I0.325 J3.713
N175 X84.059 Y-73.6 Z-20.708 I0.647 J3.671
N180 X83.749 Y-73.503 Z-21.694 I0.965 J3.6
N185 X83.449 Y-73.378 Z-22.681 I1.275 J3.503
N190 X83.16 Y-73.228 Z-23.667 I1.575 J3.378
N195 X82.886 Y-73.053 Z-24.653 I1.864 J3.228
N200 X82.628 Y-72.855 Z-25.639 I2.138 J3.053
N205 X82.388 Y-72.636 Z-26.625 I2.396 J2.855
N210 X82.169 Y-72.396 Z-27.611 I2.636 J2.636
N215 X81.971 Y-72.138 Z-28.597 I2.855 J2.396
N220 X81.796 Y-71.864 Z-29.583 I3.053 J2.138
N225 X81.646 Y-71.575 Z-30.569 I3.228 J1.864
N230 X81.521 Y-71.275 Z-31.556 I3.378 J1.575
N235 X81.424 Y-70.965 Z-32.542 I3.503 J1.275
N240 X81.353 Y-70.647 Z-33.528 I3.6 J0.965
N245 X81.311 Y-70.325 Z-34.514 I3.671 J0.647
N250 X81.297 Y-70. Z-35.5 I3.713 J0.325
N255 X81.311 Y-69.675 Z-36.486 I3.728 J0.
N260 X81.353 Y-69.353 Z-37.472 I3.713 J-0.325
N265 X81.424 Y-69.035 Z-38.458 I3.671 J-0.647
N270 X81.521 Y-68.725 Z-39.444 I3.6 J-0.965
N275 X81.646 Y-68.425 Z-40.431 I3.503 J-1.275
N280 X81.796 Y-68.136 Z-41.417 I3.378 J-1.575
N285 X81.971 Y-67.862 Z-42.403 I3.228 J-1.864
N290 X82.169 Y-67.604 Z-43.389 I3.053 J-2.138
N295 X82.388 Y-67.364 Z-44.375 I2.855 J-2.396
N300 X82.628 Y-67.145 Z-45.361 I2.636 J-2.636
N305 X82.886 Y-66.947 Z-46.347 I2.396 J-2.855
N310 X83.16 Y-66.772 Z-47.333 I2.138 J-3.053
N315 X83.449 Y-66.622 Z-48.319 I1.864 J-3.228
N320 X83.749 Y-66.497 Z-49.306 I1.575 J-3.378
N325 X84.059 Y-66.4 Z-50.292 I1.275 J-3.503
N330 X84.377 Y-66.329 Z-51.278 I0.965 J-3.6
N335 X84.699 Y-66.287 Z-52.264 I0.647 J-3.671
N340 X85.024 Y-66.272 Z-53.25 I0.325 J-3.713
N345 X85.349 Y-66.287 Z-54.236 I0. J-3.728
N350 X85.671 Y-66.329 Z-55.222 I-0.325 J-3.713
N355 X85.989 Y-66.4 Z-56.208 I-0.647 J-3.671
N360 X86.299 Y-66.497 Z-57.194 I-0.965 J-3.6
N365 X86.599 Y-66.622 Z-58.181 I-1.275 J-3.503
N370 X86.888 Y-66.772 Z-59.167 I-1.575 J-3.378
N375 X87.162 Y-66.947 Z-60.153 I-1.864 J-3.228
N380 X87.42 Y-67.145 Z-61.139 I-2.138 J-3.053
N385 X87.66 Y-67.364 Z-62.125 I-2.396 J-2.855
N390 X87.879 Y-67.604 Z-63.111 I-2.636 J-2.636
N395 X88.077 Y-67.862 Z-64.097 I-2.855 J-2.396
N400 X88.252 Y-68.136 Z-65.083 I-3.053 J-2.138
N405 X88.402 Y-68.425 Z-66.069 I-3.228 J-1.864
N410 X88.527 Y-68.725 Z-67.056 I-3.378 J-1.575
N415 X88.624 Y-69.035 Z-68.042 I-3.503 J-1.275
N420 X88.695 Y-69.353 Z-69.028 I-3.6 J-0.965
N425 X88.752 Y-70. Z-70. I-3.671 J-0.647
N430 X81.297 I-3.728 J0.
N435 X88.752 I3.728 J0.
N440 X85.024 I-1.864 J0.
N445 G0 Z5.
N450 X94.784
N455 G1 Z0. F1000.
N460 G3 X94.747 Y-70.851 Z-0.986 I-9.76 J0.
N465 X94.636 Y-71.695 Z-1.972 I-9.723 J0.851
N470 X94.451 Y-72.526 Z-2.958 I-9.612 J1.695
N475 X94.195 Y-73.338 Z-3.944 I-9.427 J2.526
N480 X93.87 Y-74.125 Z-4.931 I-9.171 J3.338
N485 X93.476 Y-74.88 Z-5.917 I-8.846 J4.125
N490 X93.019 Y-75.598 Z-6.903 I-8.452 J4.88
N495 X92.501 Y-76.274 Z-7.889 I-7.995 J5.598
N500 X91.925 Y-76.901 Z-8.875 I-7.477 J6.274
N505 X91.298 Y-77.477 Z-9.861 I-6.901 J6.901
N510 X90.622 Y-77.995 Z-10.847 I-6.274 J7.477
N515 X89.904 Y-78.452 Z-11.833 I-5.598 J7.995
N520 X89.149 Y-78.846 Z-12.819 I-4.88 J8.452
N525 X88.362 Y-79.171 Z-13.806 I-4.125 J8.846
N530 X87.55 Y-79.427 Z-14.792 I-3.338 J9.171
N535 X86.719 Y-79.612 Z-15.778 I-2.526 J9.427
N540 X85.875 Y-79.723 Z-16.764 I-1.695 J9.612
N545 X85.024 Y-79.76 Z-17.75 I-0.851 J9.723
N550 X84.173 Y-79.723 Z-18.736 I0. J9.76
N555 X83.329 Y-79.612 Z-19.722 I0.851 J9.723
N560 X82.498 Y-79.427 Z-20.708 I1.695 J9.612
N565 X81.686 Y-79.171 Z-21.694 I2.526 J9.427
N570 X80.899 Y-78.846 Z-22.681 I3.338 J9.171
N575 X80.144 Y-78.452 Z-23.667 I4.125 J8.846
N580 X79.426 Y-77.995 Z-24.653 I4.88 J8.452
N585 X78.75 Y-77.477 Z-25.639 I5.598 J7.995
N590 X78.123 Y-76.901 Z-26.625 I6.274 J7.477
N595 X77.547 Y-76.274 Z-27.611 I6.901 J6.901
N600 X77.029 Y-75.598 Z-28.597 I7.477 J6.274
N605 X76.572 Y-74.88 Z-29.583 I7.995 J5.598
N610 X76.178 Y-74.125 Z-30.569 I8.452 J4.88
N615 X75.853 Y-73.338 Z-31.556 I8.846 J4.125
N620 X75.597 Y-72.526 Z-32.542 I9.171 J3.338
N625 X75.412 Y-71.695 Z-33.528 I9.427 J2.526
N630 X75.301 Y-70.851 Z-34.514 I9.612 J1.695
N635 X75.264 Y-70. Z-35.5 I9.723 J0.851
N640 X75.301 Y-69.149 Z-36.486 I9.76 J0.
N645 X75.412 Y-68.305 Z-37.472 I9.723 J-0.851
N650 X75.597 Y-67.474 Z-38.458 I9.612 J-1.695
N655 X75.853 Y-66.662 Z-39.444 I9.427 J-2.526
N660 X76.178 Y-65.875 Z-40.431 I9.171 J-3.338
N665 X76.572 Y-65.12 Z-41.417 I8.846 J-4.125
N670 X77.029 Y-64.402 Z-42.403 I8.452 J-4.88
N675 X77.547 Y-63.726 Z-43.389 I7.995 J-5.598
N680 X78.123 Y-63.099 Z-44.375 I7.477 J-6.274
N685 X78.75 Y-62.523 Z-45.361 I6.901 J-6.901
N690 X79.426 Y-62.005 Z-46.347 I6.274 J-7.477
N695 X80.144 Y-61.548 Z-47.333 I5.598 J-7.995
N700 X80.899 Y-61.154 Z-48.319 I4.88 J-8.452
N705 X81.686 Y-60.829 Z-49.306 I4.125 J-8.846
N710 X82.498 Y-60.573 Z-50.292 I3.338 J-9.171
N715 X83.329 Y-60.388 Z-51.278 I2.526 J-9.427
N720 X84.173 Y-60.277 Z-52.264 I1.695 J-9.612
N725 X85.024 Y-60.24 Z-53.25 I0.851 J-9.723
N730 X85.875 Y-60.277 Z-54.236 I0. J-9.76
N735 X86.719 Y-60.388 Z-55.222 I-0.851 J-9.723
N740 X87.55 Y-60.573 Z-56.208 I-1.695 J-9.612
N745 X88.362 Y-60.829 Z-57.194 I-2.526 J-9.427
N750 X89.149 Y-61.154 Z-58.181 I-3.338 J-9.171
N755 X89.904 Y-61.548 Z-59.167 I-4.125 J-8.846
N760 X90.622 Y-62.005 Z-60.153 I-4.88 J-8.452
N765 X91.298 Y-62.523 Z-61.139 I-5.598 J-7.995
N770 X91.925 Y-63.099 Z-62.125 I-6.274 J-7.477
N775 X92.501 Y-63.726 Z-63.111 I-6.901 J-6.901
N780 X93.019 Y-64.402 Z-64.097 I-7.477 J-6.274
N785 X93.476 Y-65.12 Z-65.083 I-7.995 J-5.598
N790 X93.87 Y-65.875 Z-66.069 I-8.452 J-4.88
N795 X94.195 Y-66.662 Z-67.056 I-8.846 J-4.125
N800 X94.451 Y-67.474 Z-68.042 I-9.171 J-3.338
N805 X94.636 Y-68.305 Z-69.028 I-9.427 J-2.526
N810 X94.784 Y-70. Z-70. I-9.612 J-1.695
N815 X75.264 I-9.76 J0.
N820 X94.784 I9.76 J0.
N825 X85.024 I-4.88 J0.
N830 G0 Z5.
N835 X100.817
N840 G1 Z0. F1000.
N845 G3 X100.756 Y-71.376 Z-0.986 I-15.793 J0.
N850 X100.577 Y-72.742 Z-1.972 I-15.732 J1.376
N855 X100.278 Y-74.087 Z-2.958 I-15.553 J2.742
N860 X99.864 Y-75.401 Z-3.944 I-15.254 J4.087
N865 X99.337 Y-76.674 Z-4.931 I-14.84 J5.401
N870 X98.701 Y-77.896 Z-5.917 I-14.313 J6.674
N875 X97.96 Y-79.058 Z-6.903 I-13.677 J7.896
N880 X97.122 Y-80.151 Z-7.889 I-12.936 J9.058
N885 X96.191 Y-81.167 Z-8.875 I-12.098 J10.151
N890 X95.175 Y-82.098 Z-9.861 I-11.167 J11.167
N895 X94.082 Y-82.936 Z-10.847 I-10.151 J12.098
N900 X92.92 Y-83.677 Z-11.833 I-9.058 J12.936
N905 X91.698 Y-84.313 Z-12.819 I-7.896 J13.677
N910 X90.425 Y-84.84 Z-13.806 I-6.674 J14.313
N915 X89.111 Y-85.254 Z-14.792 I-5.401 J14.84
N920 X87.766 Y-85.553 Z-15.778 I-4.087 J15.254
N925 X86.4 Y-85.732 Z-16.764 I-2.742 J15.553
N930 X85.024 Y-85.793 Z-17.75 I-1.376 J15.732
N935 X83.648 Y-85.732 Z-18.736 I0. J15.793
N940 X82.282 Y-85.553 Z-19.722 I1.376 J15.732
N945 X80.937 Y-85.254 Z-20.708 I2.742 J15.553
N950 X79.623 Y-84.84 Z-21.694 I4.087 J15.254
N955 X78.35 Y-84.313 Z-22.681 I5.401 J14.84
N960 X77.128 Y-83.677 Z-23.667 I6.674 J14.313
N965 X75.966 Y-82.936 Z-24.653 I7.896 J13.677
N970 X74.873 Y-82.098 Z-25.639 I9.058 J12.936
N975 X73.857 Y-81.167 Z-26.625 I10.151 J12.098
N980 X72.926 Y-80.151 Z-27.611 I11.167 J11.167
N985 X72.088 Y-79.058 Z-28.597 I12.098 J10.151
N990 X71.347 Y-77.896 Z-29.583 I12.936 J9.058
N995 X70.711 Y-76.674 Z-30.569 I13.677 J7.896
N1000 X70.184 Y-75.401 Z-31.556 I14.313 J6.674
N1005 X69.77 Y-74.087 Z-32.542 I14.84 J5.401
N1010 X69.471 Y-72.742 Z-33.528 I15.254 J4.087
N1015 X69.292 Y-71.376 Z-34.514 I15.553 J2.742
N1020 X69.232 Y-70. Z-35.5 I15.732 J1.376
N1025 X69.292 Y-68.624 Z-36.486 I15.793 J0.
N1030 X69.471 Y-67.258 Z-37.472 I15.732 J-1.376
N1035 X69.77 Y-65.913 Z-38.458 I15.553 J-2.742
N1040 X70.184 Y-64.599 Z-39.444 I15.254 J-4.087
N1045 X70.711 Y-63.326 Z-40.431 I14.84 J-5.401
N1050 X71.347 Y-62.104 Z-41.417 I14.313 J-6.674
N1055 X72.088 Y-60.942 Z-42.403 I13.677 J-7.896
N1060 X72.926 Y-59.849 Z-43.389 I12.936 J-9.058
N1065 X73.857 Y-58.833 Z-44.375 I12.098 J-10.151
N1070 X74.873 Y-57.902 Z-45.361 I11.167 J-11.167
N1075 X75.966 Y-57.064 Z-46.347 I10.151 J-12.098
N1080 X77.128 Y-56.323 Z-47.333 I9.058 J-12.936
N1085 X78.35 Y-55.687 Z-48.319 I7.896 J-13.677
N1090 X79.623 Y-55.16 Z-49.306 I6.674 J-14.313
N1095 X80.937 Y-54.746 Z-50.292 I5.401 J-14.84
N1100 X82.282 Y-54.447 Z-51.278 I4.087 J-15.254
N1105 X83.648 Y-54.268 Z-52.264 I2.742 J-15.553
N1110 X85.024 Y-54.207 Z-53.25 I1.376 J-15.732
N1115 X86.4 Y-54.268 Z-54.236 I0. J-15.793
N1120 X87.766 Y-54.447 Z-55.222 I-1.376 J-15.732
N1125 X89.111 Y-54.746 Z-56.208 I-2.742 J-15.553
N1130 X90.425 Y-55.16 Z-57.194 I-4.087 J-15.254
N1135 X91.698 Y-55.687 Z-58.181 I-5.401 J-14.84
N1140 X92.92 Y-56.323 Z-59.167 I-6.674 J-14.313
N1145 X94.082 Y-57.064 Z-60.153 I-7.896 J-13.677
N1150 X95.175 Y-57.902 Z-61.139 I-9.058 J-12.936
N1155 X96.191 Y-58.833 Z-62.125 I-10.151 J-12.098
N1160 X97.122 Y-59.849 Z-63.111 I-11.167 J-11.167
N1165 X97.96 Y-60.942 Z-64.097 I-12.098 J-10.151
N1170 X98.701 Y-62.104 Z-65.083 I-12.936 J-9.058
N1175 X99.337 Y-63.326 Z-66.069 I-13.677 J-7.896
N1180 X99.864 Y-64.599 Z-67.056 I-14.313 J-6.674
N1185 X100.278 Y-65.913 Z-68.042 I-14.84 J-5.401
N1190 X100.577 Y-67.258 Z-69.028 I-15.254 J-4.087
N1195 X100.817 Y-70. Z-70. I-15.553 J-2.742
N1200 X69.232 I-15.793 J0.
N1205 X100.817 I15.793 J0.
N1210 X85.024 I-7.896 J0.
N1215 G0 Z5.
N1220 X106.849
N1225 G1 Z0. F1000.
N1230 G3 X106.766 Y-71.902 Z-0.986 I-21.825 J0.
N1235 X106.517 Y-73.79 Z-1.972 I-21.742 J1.902
N1240 X106.105 Y-75.649 Z-2.958 I-21.493 J3.79
N1245 X105.533 Y-77.465 Z-3.944 I-21.081 J5.649
N1250 X104.804 Y-79.224 Z-4.931 I-20.509 J7.465
N1255 X103.925 Y-80.912 Z-5.917 I-19.78 J9.224
N1260 X102.902 Y-82.518 Z-6.903 I-18.901 J10.912
N1265 X101.743 Y-84.029 Z-7.889 I-17.878 J12.518
N1270 X100.457 Y-85.433 Z-8.875 I-16.719 J14.029
N1275 X99.053 Y-86.719 Z-9.861 I-15.433 J15.433
N1280 X97.542 Y-87.878 Z-10.847 I-14.029 J16.719
N1285 X95.937 Y-88.901 Z-11.833 I-12.518 J17.878
N1290 X94.248 Y-89.78 Z-12.819 I-10.913 J18.901
N1295 X92.489 Y-90.509 Z-13.806 I-9.224 J19.78
N1300 X90.673 Y-91.081 Z-14.792 I-7.465 J20.509
N1305 X88.814 Y-91.493 Z-15.778 I-5.649 J21.081
N1310 X86.926 Y-91.742 Z-16.764 I-3.79 J21.493
N1315 X85.024 Y-91.825 Z-17.75 I-1.902 J21.742
N1320 X83.122 Y-91.742 Z-18.736 I0. J21.825
N1325 X81.234 Y-91.493 Z-19.722 I1.902 J21.742
N1330 X79.375 Y-91.081 Z-20.708 I3.79 J21.493
N1335 X77.559 Y-90.509 Z-21.694 I5.649 J21.081
N1340 X75.8 Y-89.78 Z-22.681 I7.465 J20.509
N1345 X74.112 Y-88.901 Z-23.667 I9.224 J19.78
N1350 X72.506 Y-87.878 Z-24.653 I10.912 J18.901
N1355 X70.995 Y-86.719 Z-25.639 I12.518 J17.878
N1360 X69.591 Y-85.433 Z-26.625 I14.029 J16.719
N1365 X68.305 Y-84.029 Z-27.611 I15.433 J15.433
N1370 X67.146 Y-82.518 Z-28.597 I16.719 J14.029
N1375 X66.123 Y-80.913 Z-29.583 I17.878 J12.518
N1380 X65.244 Y-79.224 Z-30.569 I18.901 J10.913
N1385 X64.515 Y-77.465 Z-31.556 I19.78 J9.224
N1390 X63.943 Y-75.649 Z-32.542 I20.509 J7.465
N1395 X63.531 Y-73.79 Z-33.528 I21.081 J5.649
N1400 X63.282 Y-71.902 Z-34.514 I21.493 J3.79
N1405 X63.199 Y-70. Z-35.5 I21.742 J1.902
N1410 X63.282 Y-68.098 Z-36.486 I21.825 J0.
N1415 X63.531 Y-66.21 Z-37.472 I21.742 J-1.902
N1420 X63.943 Y-64.351 Z-38.458 I21.493 J-3.79
N1425 X64.515 Y-62.535 Z-39.444 I21.081 J-5.649
N1430 X65.244 Y-60.776 Z-40.431 I20.509 J-7.465
N1435 X66.123 Y-59.087 Z-41.417 I19.78 J-9.224
N1440 X67.146 Y-57.482 Z-42.403 I18.901 J-10.913
N1445 X68.305 Y-55.971 Z-43.389 I17.878 J-12.518
N1450 X69.591 Y-54.567 Z-44.375 I16.719 J-14.029
N1455 X70.995 Y-53.281 Z-45.361 I15.433 J-15.433
N1460 X72.506 Y-52.122 Z-46.347 I14.029 J-16.719
N1465 X74.112 Y-51.099 Z-47.333 I12.518 J-17.878
N1470 X75.8 Y-50.22 Z-48.319 I10.912 J-18.901
N1475 X77.559 Y-49.491 Z-49.306 I9.224 J-19.78
N1480 X79.375 Y-48.919 Z-50.292 I7.465 J-20.509
N1485 X81.234 Y-48.507 Z-51.278 I5.649 J-21.081
N1490 X83.122 Y-48.258 Z-52.264 I3.79 J-21.493
N1495 X85.024 Y-48.175 Z-53.25 I1.902 J-21.742
N1500 X86.926 Y-48.258 Z-54.236 I0. J-21.825
N1505 X88.814 Y-48.507 Z-55.222 I-1.902 J-21.742
N1510 X90.673 Y-48.919 Z-56.208 I-3.79 J-21.493
N1515 X92.489 Y-49.491 Z-57.194 I-5.649 J-21.081
N1520 X94.248 Y-50.22 Z-58.181 I-7.465 J-20.509
N1525 X95.937 Y-51.099 Z-59.167 I-9.224 J-19.78
N1530 X97.542 Y-52.122 Z-60.153 I-10.913 J-18.901
N1535 X99.053 Y-53.281 Z-61.139 I-12.518 J-17.878
N1540 X100.457 Y-54.567 Z-62.125 I-14.029 J-16.719
N1545 X101.743 Y-55.971 Z-63.111 I-15.433 J-15.433
N1550 X102.902 Y-57.482 Z-64.097 I-16.719 J-14.029
N1555 X103.925 Y-59.088 Z-65.083 I-17.878 J-12.518
N1560 X104.804 Y-60.776 Z-66.069 I-18.901 J-10.912
N1565 X105.533 Y-62.535 Z-67.056 I-19.78 J-9.224
N1570 X106.105 Y-64.351 Z-68.042 I-20.509 J-7.465
N1575 X106.517 Y-66.21 Z-69.028 I-21.081 J-5.649
N1580 X106.849 Y-70. Z-70. I-21.493 J-3.79
N1585 X63.199 I-21.825 J0.
N1590 X106.849 I21.825 J0.
N1595 X85.024 I-10.913 J0.
N1600 G0 Z5.
N1605 Z45.391
N1610 G53 G0 Z0.

(Drill8)
N1615 G55
N1620 G0 X102.244 Y-62.074
N1625 G43 Z15. H3
N1630 G0 Z5.
N1635 G1 Z3.135 F355.6
N1640 X102.271 Y-62.086 Z2.943
N1645 X102.35 Y-62.122 Z2.769
N1650 X102.475 Y-62.172 Z2.629
N1655 X102.636 Y-62.228 Z2.536
N1660 X102.82 Y-62.28 Z2.5
N1665 G3 X102.568 Y-62.206 Z1.847 I0.724 J2.928
N1670 X102.323 Y-62.11 Z1.195 I0.976 J2.854
N1675 X102.087 Y-61.993 Z0.542 I1.221 J2.758
N1680 X101.862 Y-61.856 Z-0.11 I1.457 J2.641
N1685 X101.65 Y-61.7 Z-0.763 I1.681 J2.504
N1690 X106.56 Y-59.352 Z-1. I1.893 J2.348
N1695 G1 Y-59.338
N1700 X106.552 Y-59.295
N1705 X106.531 Y-59.257
N1710 X106.498 Y-59.228
N1715 X106.457 Y-59.213
N1720 X106.413 Y-59.212
N1725 X106.372 Y-59.225
N1730 X106.337 Y-59.252
N1735 X106.326 Y-59.265
N1740 X106.304 Y-59.3
N1745 X106.294 Y-59.341
N1750 X106.298 Y-59.383
N1755 X106.36 Y-59.622
N1760 X106.375 Y-59.655
N1765 X106.401 Y-59.681
N1770 X106.435 Y-59.696
N1775 X106.471 Y-59.698
N1780 X106.506 Y-59.687
N1785 X106.534 Y-59.664
N1790 X106.553 Y-59.633
N1795 X106.56 Y-59.597
N1800 Y-59.352
N1805 G2 X108.227 Y-56.851 I2.709 J0.
N1810 G3 X109.894 Y-54.35 I-1.042 J2.501
N1815 G1 Y-43.598
N1820 X109.887 Y-43.563
N1825 X109.868 Y-43.534
N1830 X109.84 Y-43.514
N1835 X109.806 Y-43.506
N1840 X109.771 Y-43.511
N1845 X109.741 Y-43.528
N1850 X109.719 Y-43.556
N1855 X109.71 Y-43.59
N1860 G2 X102.815 Y-58.107 I-23.055 J2.053
N1865 G3 X102.652 Y-58.735 I0.436 J-0.448
N1870 G2 X104.082 Y-65.075 I-45.676 J-13.636
N1875 X104.581 Y-71.557 I-41.85 J-6.481
N1880 X104.38 Y-75.525 I-39.238 J0.
N1885 X103.83 Y-79.46 I-52.61 J5.348
N1890 G3 X104.07 Y-79.977 I0.488 J-0.087
N1895 G2 X108.321 Y-84.124 I-6.055 J-10.46
N1900 G3 X108.703 Y-84.182 I0.216 J0.132
N1905 G2 X109.556 Y-83.509 I7.165 J-8.205
N1910 G3 X109.894 Y-82.853 I-0.468 J0.656
N1915 G1 Y-54.35
N1920 G2 X111.826 Y-51.453 I3.139 J0.
N1925 G3 X113.757 Y-48.556 I-1.207 J2.897
N1930 G1 Y-38.117
N1935 G3 X113.438 Y-37.798 I-0.319 J0.
N1940 G1 X105.877
N1945 G3 X105.624 Y-38.102 I0. J-0.258
N1950 G2 X98.302 Y-56.901 I-18.871 J-3.476
N1955 G3 X98.145 Y-57.439 I0.283 J-0.374
N1960 G2 X99.311 Y-81.997 I-38.043 J-14.111
N1965 G3 X99.535 Y-82.353 I0.278 J-0.073
N1970 G2 X104.372 Y-85.184 I-1.542 J-8.179
N1975 X106.288 Y-90.451 I-6.282 J-5.267
N1980 G1 X106.243 Y-104.993
N1985 G3 X106.562 Y-105.312 I0.319 J0.
N1990 G1 X108.438
N1995 G3 X108.757 Y-104.993 I0. J0.319
N2000 G1 X108.712 Y-92.539
N2005 G2 X110.018 Y-88.429 I7.124 J0.
N2010 X113.425 Y-85.785 I6.038 J-4.265
N2015 G3 X113.757 Y-85.303 I-0.184 J0.482
N2020 G1 Y-48.556
N2025 G2 X115.041 Y-46.63 I2.086 J0.
N2030 G3 X116.325 Y-44.704 I-0.802 J1.926
N2035 G1 Y-35.23
N2040 X102.122
N2045 G2 X95.782 Y-55.536 I-15.429 J-6.325
N2050 G3 X95.277 Y-57.148 I0.722 J-1.111
N2055 G2 X96.33 Y-83.051 I-35.277 J-14.408
N2060 G3 X97.593 Y-84.776 I1.263 J-0.4
N2065 G1 X98.
N2070 G2 X103.675 Y-90.451 I0. J-5.675
N2075 G1 Y-107.88
N2080 X111.325
N2085 Y-92.555
N2090 G2 X116. Y-87.88 I4.675 J0.
N2095 G1 X116.325
N2100 Y-44.704
N2105 G3 X110.332 Y-45.188 Z-1.295 I-3.016 J0.
N2110 G1 X112.553 Y-58.868 Z-1.705
N2115 G2 X106.56 Y-59.352 Z-2. I-2.977 J-0.484
N2120 G1 Y-59.338
N2125 X106.552 Y-59.295
N2130 X106.531 Y-59.257
N2135 X106.498 Y-59.228
N2140 X106.457 Y-59.213
N2145 X106.413 Y-59.212
N2150 X106.372 Y-59.225
N2155 X106.337 Y-59.252
N2160 X106.326 Y-59.265
N2165 X106.304 Y-59.3
N2170 X106.294 Y-59.341
N2175 X106.298 Y-59.383
N2180 X106.36 Y-59.622
N2185 X106.375 Y-59.655
N2190 X106.401 Y-59.681
N2195 X106.435 Y-59.696
N2200 X106.471 Y-59.698
N2205 X106.506 Y-59.687
N2210 X106.534 Y-59.664
N2215 X106.553 Y-59.633
N2220 X106.56 Y-59.597
N2225 Y-59.352
N2230 G2 X108.227 Y-56.851 I2.709 J0.
N2235 G3 X109.894 Y-54.35 I-1.042 J2.501
N2240 G1 Y-43.598
N2245 X109.887 Y-43.563
N2250 X109.868 Y-43.534
N2255 X109.84 Y-43.514
N2260 X109.806 Y-43.506
N2265 X109.771 Y-43.511
N2270 X109.741 Y-43.528
N2275 X109.719 Y-43.556
N2280 X109.71 Y-43.59
N2285 G2 X102.815 Y-58.107 I-23.055 J2.053
N2290 G3 X102.652 Y-58.735 I0.436 J-0.448
N2295 G2 X104.082 Y-65.075 I-45.676 J-13.636
N2300 X104.581 Y-71.557 I-41.85 J-6.481
N2305 X104.38 Y-75.525 I-39.238 J0.
N2310 X103.83 Y-79.46 I-52.61 J5.348
N2315 G3 X104.07 Y-79.977 I0.488 J-0.087
N2320 G2 X108.321 Y-84.124 I-6.055 J-10.46
N2325 G3 X108.703 Y-84.182 I0.216 J0.132
N2330 G2 X109.556 Y-83.509 I7.165 J-8.205
N2335 G3 X109.894 Y-82.853 I-0.468 J0.656
N2340 G1 Y-54.35
N2345 G2 X111.826 Y-51.453 I3.139 J0.
N2350 G3 X113.757 Y-48.556 I-1.207 J2.897
N2355 G1 Y-38.117
N2360 G3 X113.438 Y-37.798 I-0.319 J0.
N2365 G1 X105.877
N2370 G3 X105.624 Y-38.102 I0. J-0.258
N2375 G2 X98.302 Y-56.901 I-18.871 J-3.476
N2380 G3 X98.145 Y-57.439 I0.283 J-0.374
N2385 G2 X99.311 Y-81.997 I-38.043 J-14.111
N2390 G3 X99.535 Y-82.353 I0.278 J-0.073
N2395 G2 X104.372 Y-85.184 I-1.542 J-8.179
N2400 X106.288 Y-90.451 I-6.282 J-5.267
N2405 G1 X106.243 Y-104.993
N2410 G3 X106.562 Y-105.312 I0.319 J0.
N2415 G1 X108.438
N2420 G3 X108.757 Y-104.993 I0. J0.319
N2425 G1 X108.712 Y-92.539
N2430 G2 X110.018 Y-88.429 I7.124 J0.
N2435 X113.425 Y-85.785 I6.038 J-4.265
N2440 G3 X113.757 Y-85.303 I-0.184 J0.482
N2445 G1 Y-48.556
N2450 G2 X115.041 Y-46.63 I2.086 J0.
N2455 G3 X116.325 Y-44.704 I-0.802 J1.926
N2460 G1 Y-35.23
N2465 X102.122
N2470 G2 X95.782 Y-55.536 I-15.429 J-6.325
N2475 G3 X95.277 Y-57.148 I0.722 J-1.111
N2480 G2 X96.33 Y-83.051 I-35.277 J-14.408
N2485 G3 X97.593 Y-84.776 I1.263 J-0.4
N2490 G1 X98.
N2495 G2 X103.675 Y-90.451 I0. J-5.675
N2500 G1 Y-107.88
N2505 X111.325
N2510 Y-92.555
N2515 G2 X116. Y-87.88 I4.675 J0.
N2520 G1 X116.325
N2525 Y-44.704
N2530 G3 X110.332 Y-45.188 Z-2.295 I-3.016 J0.
N2535 G1 X112.553 Y-58.868 Z-2.705
N2540 G2 X106.56 Y-59.352 Z-3. I-2.977 J-0.484
N2545 G1 Y-59.338
N2550 X106.552 Y-59.295
N2555 X106.531 Y-59.257
N2560 X106.498 Y-59.228
N2565 X106.457 Y-59.213
N2570 X106.413 Y-59.212
N2575 X106.372 Y-59.225
N2580 X106.337 Y-59.252
N2585 X106.326 Y-59.265
N2590 X106.304 Y-59.3
N2595 X106.294 Y-59.341
N2600 X106.298 Y-59.383
N2605 X106.36 Y-59.622
N2610 X106.375 Y-59.655
N2615 X106.401 Y-59.681
N2620 X106.435 Y-59.696
N2625 X106.471 Y-59.698
N2630 X106.506 Y-59.687
N2635 X106.534 Y-59.664
N2640 X106.553 Y-59.633
N2645 X106.56 Y-59.597
N2650 Y-59.352
N2655 G2 X108.227 Y-56.851 I2.709 J0.
N2660 G3 X109.894 Y-54.35 I-1.042 J2.501
N2665 G1 Y-43.598
N2670 X109.887 Y-43.563
N2675 X109.868 Y-43.534
N2680 X109.84 Y-43.514
N2685 X109.806 Y-43.506
N2690 X109.771 Y-43.511
N2695 X109.741 Y-43.528
N2700 X109.719 Y-43.556
N2705 X109.71 Y-43.59
N2710 G2 X102.815 Y-58.107 I-23.055 J2.053
N2715 G3 X102.652 Y-58.735 I0.436 J-0.448
N2720 G2 X104.082 Y-65.075 I-45.676 J-13.636
N2725 X104.581 Y-71.557 I-41.85 J-6.481
N2730 X104.38 Y-75.525 I-39.238 J0.
N2735 X103.83 Y-79.46 I-52.61 J5.348
N2740 G3 X104.07 Y-79.977 I0.488 J-0.087
N2745 G2 X108.321 Y-84.124 I-6.055 J-10.46
N2750 G3 X108.703 Y-84.182 I0.216 J0.132
N2755 G2 X109.556 Y-83.509 I7.165 J-8.205
N2760 G3 X109.894 Y-82.853 I-0.468 J0.656
N2765 G1 Y-54.35
N2770 G2 X111.826 Y-51.453 I3.139 J0.
N2775 G3 X113.757 Y-48.556 I-1.207 J2.897
N2780 G1 Y-38.117
N2785 G3 X113.438 Y-37.798 I-0.319 J0.
N2790 G1 X105.877
N2795 G3 X105.624 Y-38.102 I0. J-0.258
N2800 G2 X98.302 Y-56.901 I-18.871 J-3.476
N2805 G3 X98.145 Y-57.439 I0.283 J-0.374
N2810 G2 X99.311 Y-81.997 I-38.043 J-14.111
N2815 G3 X99.535 Y-82.353 I0.278 J-0.073
N2820 G2 X104.372 Y-85.184 I-1.542 J-8.179
N2825 X106.288 Y-90.451 I-6.282 J-5.267
N2830 G1 X106.243 Y-104.993
N2835 G3 X106.562 Y-105.312 I0.319 J0.
N2840 G1 X108.438
N2845 G3 X108.757 Y-104.993 I0. J0.319
N2850 G1 X108.712 Y-92.539
N2855 G2 X110.018 Y-88.429 I7.124 J0.
N2860 X113.425 Y-85.785 I6.038 J-4.265
N2865 G3 X113.757 Y-85.303 I-0.184 J0.482
N2870 G1 Y-48.556
N2875 G2 X115.041 Y-46.63 I2.086 J0.
N2880 G3 X116.325 Y-44.704 I-0.802 J1.926
N2885 G1 Y-35.23
N2890 X102.122
N2895 G2 X95.782 Y-55.536 I-15.429 J-6.325
N2900 G3 X95.277 Y-57.148 I0.722 J-1.111
N2905 G2 X96.33 Y-83.051 I-35.277 J-14.408
N2910 G3 X97.593 Y-84.776 I1.263 J-0.4
N2915 G1 X98.
N2920 G2 X103.675 Y-90.451 I0. J-5.675
N2925 G1 Y-107.88
N2930 X111.325
N2935 Y-92.555
N2940 G2 X116. Y-87.88 I4.675 J0.
N2945 G1 X116.325
N2950 Y-44.704
N2955 G3 X110.332 Y-45.188 Z-3.295 I-3.016 J0.
N2960 G1 X112.553 Y-58.868 Z-3.705
N2965 G2 X106.56 Y-59.352 Z-4. I-2.977 J-0.484
N2970 G1 Y-59.338
N2975 X106.552 Y-59.295
N2980 X106.531 Y-59.257
N2985 X106.498 Y-59.228
N2990 X106.457 Y-59.213
N2995 X106.413 Y-59.212
N3000 X106.372 Y-59.225
N3005 X106.337 Y-59.252
N3010 X106.326 Y-59.265
N3015 X106.304 Y-59.3
N3020 X106.294 Y-59.341
N3025 X106.298 Y-59.383
N3030 X106.36 Y-59.622
N3035 X106.375 Y-59.655
N3040 X106.401 Y-59.681
N3045 X106.435 Y-59.696
N3050 X106.471 Y-59.698
N3055 X106.506 Y-59.687
N3060 X106.534 Y-59.664
N3065 X106.553 Y-59.633
N3070 X106.56 Y-59.597
N3075 Y-59.352
N3080 G2 X108.227 Y-56.851 I2.709 J0.
N3085 G3 X109.894 Y-54.35 I-1.042 J2.501
N3090 G1 Y-43.598
N3095 X109.887 Y-43.563
N3100 X109.868 Y-43.534
N3105 X109.84 Y-43.514
N3110 X109.806 Y-43.506
N3115 X109.771 Y-43.511
N3120 X109.741 Y-43.528
N3125 X109.719 Y-43.556
N3130 X109.71 Y-43.59
N3135 G2 X102.815 Y-58.107 I-23.055 J2.053
N3140 G3 X102.652 Y-58.735 I0.436 J-0.448
N3145 G2 X104.082 Y-65.075 I-45.676 J-13.636
N3150 X104.581 Y-71.557 I-41.85 J-6.481
N3155 X104.38 Y-75.525 I-39.238 J0.
N3160 X103.83 Y-79.46 I-52.61 J5.348
N3165 G3 X104.07 Y-79.977 I0.488 J-0.087
N3170 G2 X108.321 Y-84.124 I-6.055 J-10.46
N3175 G3 X108.703 Y-84.182 I0.216 J0.132
N3180 G2 X109.556 Y-83.509 I7.165 J-8.205
N3185 G3 X109.894 Y-82.853 I-0.468 J0.656
N3190 G1 Y-54.35
N3195 G2 X111.826 Y-51.453 I3.139 J0.
N3200 G3 X113.757 Y-48.556 I-1.207 J2.897
N3205 G1 Y-38.117
N3210 G3 X113.438 Y-37.798 I-0.319 J0.
N3215 G1 X105.877
N3220 G3 X105.624 Y-38.102 I0. J-0.258
N3225 G2 X98.302 Y-56.901 I-18.871 J-3.476
N3230 G3 X98.145 Y-57.439 I0.283 J-0.374
N3235 G2 X99.311 Y-81.997 I-38.043 J-14.111
N3240 G3 X99.535 Y-82.353 I0.278 J-0.073
N3245 G2 X104.372 Y-85.184 I-1.542 J-8.179
N3250 X106.288 Y-90.451 I-6.282 J-5.267
N3255 G1 X106.243 Y-104.993
N3260 G3 X106.562 Y-105.312 I0.319 J0.
N3265 G1 X108.438
N3270 G3 X108.757 Y-104.993 I0. J0.319
N3275 G1 X108.712 Y-92.539
N3280 G2 X110.018 Y-88.429 I7.124 J0.
N3285 X113.425 Y-85.785 I6.038 J-4.265
N3290 G3 X113.757 Y-85.303 I-0.184 J0.482
N3295 G1 Y-48.556
N3300 G2 X115.041 Y-46.63 I2.086 J0.
N3305 G3 X116.325 Y-44.704 I-0.802 J1.926
N3310 G1 Y-35.23
N3315 X102.122
N3320 G2 X95.782 Y-55.536 I-15.429 J-6.325
N3325 G3 X95.277 Y-57.148 I0.722 J-1.111
N3330 G2 X96.33 Y-83.051 I-35.277 J-14.408
N3335 G3 X97.593 Y-84.776 I1.263 J-0.4
N3340 G1 X98.
N3345 G2 X103.675 Y-90.451 I0. J-5.675
N3350 G1 Y-107.88
N3355 X111.325
N3360 Y-92.555
N3365 G2 X116. Y-87.88 I4.675 J0.
N3370 G1 X116.325
N3375 Y-44.704
N3380 G3 X110.332 Y-45.188 Z-4.295 I-3.016 J0.
N3385 G1 X112.553 Y-58.868 Z-4.705
N3390 G2 X106.56 Y-59.352 Z-5. I-2.977 J-0.484
N3395 G1 Y-59.338
N3400 X106.552 Y-59.295
N3405 X106.531 Y-59.257
N3410 X106.498 Y-59.228
N3415 X106.457 Y-59.213
N3420 X106.413 Y-59.212
N3425 X106.372 Y-59.225
N3430 X106.337 Y-59.252
N3435 X106.326 Y-59.265
N3440 X106.304 Y-59.3
N3445 X106.294 Y-59.341
N3450 X106.298 Y-59.383
N3455 X106.36 Y-59.622
N3460 X106.375 Y-59.655
N3465 X106.401 Y-59.681
N3470 X106.435 Y-59.696
N3475 X106.471 Y-59.698
N3480 X106.506 Y-59.687
N3485 X106.534 Y-59.664
N3490 X106.553 Y-59.633
N3495 X106.56 Y-59.597
N3500 Y-59.352
N3505 G2 X108.227 Y-56.851 I2.709 J0.
N3510 G3 X109.894 Y-54.35 I-1.042 J2.501
N3515 G1 Y-43.598
N3520 X109.887 Y-43.563
N3525 X109.868 Y-43.534
N3530 X109.84 Y-43.514
N3535 X109.806 Y-43.506
N3540 X109.771 Y-43.511
N3545 X109.741 Y-43.528
N3550 X109.719 Y-43.556
N3555 X109.71 Y-43.59
N3560 G2 X102.815 Y-58.107 I-23.055 J2.053
N3565 G3 X102.652 Y-58.735 I0.436 J-0.448
N3570 G2 X104.082 Y-65.075 I-45.676 J-13.636
N3575 X104.581 Y-71.557 I-41.85 J-6.481
N3580 X104.38 Y-75.525 I-39.238 J0.
N3585 X103.83 Y-79.46 I-52.61 J5.348
N3590 G3 X104.07 Y-79.977 I0.488 J-0.087
N3595 G2 X108.321 Y-84.124 I-6.055 J-10.46
N3600 G3 X108.703 Y-84.182 I0.216 J0.132
N3605 G2 X109.556 Y-83.509 I7.165 J-8.205
N3610 G3 X109.894 Y-82.853 I-0.468 J0.656
N3615 G1 Y-54.35
N3620 G2 X111.826 Y-51.453 I3.139 J0.
N3625 G3 X113.757 Y-48.556 I-1.207 J2.897
N3630 G1 Y-38.117
N3635 G3 X113.438 Y-37.798 I-0.319 J0.
N3640 G1 X105.877
N3645 G3 X105.624 Y-38.102 I0. J-0.258
N3650 G2 X98.302 Y-56.901 I-18.871 J-3.476
N3655 G3 X98.145 Y-57.439 I0.283 J-0.374
N3660 G2 X99.311 Y-81.997 I-38.043 J-14.111
N3665 G3 X99.535 Y-82.353 I0.278 J-0.073
N3670 G2 X104.372 Y-85.184 I-1.542 J-8.179
N3675 X106.288 Y-90.451 I-6.282 J-5.267
N3680 G1 X106.243 Y-104.993
N3685 G3 X106.562 Y-105.312 I0.319 J0.
N3690 G1 X108.438
N3695 G3 X108.757 Y-104.993 I0. J0.319
N3700 G1 X108.712 Y-92.539
N3705 G2 X110.018 Y-88.429 I7.124 J0.
N3710 X113.425 Y-85.785 I6.038 J-4.265
N3715 G3 X113.757 Y-85.303 I-0.184 J0.482
N3720 G1 Y-48.556
N3725 G2 X115.041 Y-46.63 I2.086 J0.
N3730 G3 X116.325 Y-44.704 I-0.802 J1.926
N3735 G1 Y-35.23
N3740 X102.122
N3745 G2 X95.782 Y-55.536 I-15.429 J-6.325
N3750 G3 X95.277 Y-57.148 I0.722 J-1.111
N3755 G2 X96.33 Y-83.051 I-35.277 J-14.408
N3760 G3 X97.593 Y-84.776 I1.263 J-0.4
N3765 G1 X98.
N3770 G2 X103.675 Y-90.451 I0. J-5.675
N3775 G1 Y-107.88
N3780 X111.325
N3785 Y-92.555
N3790 G2 X116. Y-87.88 I4.675 J0.
N3795 G1 X116.325
N3800 Y-44.704
N3805 G3 X110.332 Y-45.188 Z-5.295 I-3.016 J0.
N3810 G1 X112.553 Y-58.868 Z-5.705
N3815 G2 X106.56 Y-59.352 Z-6. I-2.977 J-0.484
N3820 G1 Y-59.338
N3825 X106.552 Y-59.295
N3830 X106.531 Y-59.257
N3835 X106.498 Y-59.228
N3840 X106.457 Y-59.213
N3845 X106.413 Y-59.212
N3850 X106.372 Y-59.225
N3855 X106.337 Y-59.252
N3860 X106.326 Y-59.265
N3865 X106.304 Y-59.3
N3870 X106.294 Y-59.341
N3875 X106.298 Y-59.383
N3880 X106.36 Y-59.622
N3885 X106.375 Y-59.655
N3890 X106.401 Y-59.681
N3895 X106.435 Y-59.696
N3900 X106.471 Y-59.698
N3905 X106.506 Y-59.687
N3910 X106.534 Y-59.664
N3915 X106.553 Y-59.633
N3920 X106.56 Y-59.597
N3925 Y-59.352
N3930 G2 X108.227 Y-56.851 I2.709 J0.
N3935 G3 X109.894 Y-54.35 I-1.042 J2.501
N3940 G1 Y-43.598
N3945 X109.887 Y-43.563
N3950 X109.868 Y-43.534
N3955 X109.84 Y-43.514
N3960 X109.806 Y-43.506
N3965 X109.771 Y-43.511
N3970 X109.741 Y-43.528
N3975 X109.719 Y-43.556
N3980 X109.71 Y-43.59
N3985 G2 X102.815 Y-58.107 I-23.055 J2.053
N3990 G3 X102.652 Y-58.735 I0.436 J-0.448
N3995 G2 X104.082 Y-65.075 I-45.676 J-13.636
N4000 X104.581 Y-71.557 I-41.85 J-6.481
N4005 X104.38 Y-75.525 I-39.238 J0.
N4010 X103.83 Y-79.46 I-52.61 J5.348
N4015 G3 X104.07 Y-79.977 I0.488 J-0.087
N4020 G2 X108.321 Y-84.124 I-6.055 J-10.46
N4025 G3 X108.703 Y-84.182 I0.216 J0.132
N4030 G2 X109.556 Y-83.509 I7.165 J-8.205
N4035 G3 X109.894 Y-82.853 I-0.468 J0.656
N4040 G1 Y-54.35
N4045 G2 X111.826 Y-51.453 I3.139 J0.
N4050 G3 X113.757 Y-48.556 I-1.207 J2.897
N4055 G1 Y-38.117
N4060 G3 X113.438 Y-37.798 I-0.319 J0.
N4065 G1 X105.877
N4070 G3 X105.624 Y-38.102 I0. J-0.258
N4075 G2 X98.302 Y-56.901 I-18.871 J-3.476
N4080 G3 X98.145 Y-57.439 I0.283 J-0.374
N4085 G2 X99.311 Y-81.997 I-38.043 J-14.111
N4090 G3 X99.535 Y-82.353 I0.278 J-0.073
N4095 G2 X104.372 Y-85.184 I-1.542 J-8.179
N4100 X106.288 Y-90.451 I-6.282 J-5.267
N4105 G1 X106.243 Y-104.993
N4110 G3 X106.562 Y-105.312 I0.319 J0.
N4115 G1 X108.438
N4120 G3 X108.757 Y-104.993 I0. J0.319
N4125 G1 X108.712 Y-92.539
N4130 G2 X110.018 Y-88.429 I7.124 J0.
N4135 X113.425 Y-85.785 I6.038 J-4.265
N4140 G3 X113.757 Y-85.303 I-0.184 J0.482
N4145 G1 Y-48.556
N4150 G2 X115.041 Y-46.63 I2.086 J0.
N4155 G3 X116.325 Y-44.704 I-0.802 J1.926
N4160 G1 Y-35.23
N4165 X102.122
N4170 G2 X95.782 Y-55.536 I-15.429 J-6.325
N4175 G3 X95.277 Y-57.148 I0.722 J-1.111
N4180 G2 X96.33 Y-83.051 I-35.277 J-14.408
N4185 G3 X97.593 Y-84.776 I1.263 J-0.4
N4190 G1 X98.
N4195 G2 X103.675 Y-90.451 I0. J-5.675
N4200 G1 Y-107.88
N4205 X111.325
N4210 Y-92.555
N4215 G2 X116. Y-87.88 I4.675 J0.
N4220 G1 X116.325
N4225 Y-44.704
N4230 G3 X110.332 Y-45.188 Z-6.295 I-3.016 J0.
N4235 G1 X112.553 Y-58.868 Z-6.705
N4240 G2 X106.56 Y-59.352 Z-7. I-2.977 J-0.484
N4245 G1 Y-59.338
N4250 X106.552 Y-59.295
N4255 X106.531 Y-59.257
N4260 X106.498 Y-59.228
N4265 X106.457 Y-59.213
N4270 X106.413 Y-59.212
N4275 X106.372 Y-59.225
N4280 X106.337 Y-59.252
N4285 X106.326 Y-59.265
N4290 X106.304 Y-59.3
N4295 X106.294 Y-59.341
N4300 X106.298 Y-59.383
N4305 X106.36 Y-59.622
N4310 X106.375 Y-59.655
N4315 X106.401 Y-59.681
N4320 X106.435 Y-59.696
N4325 X106.471 Y-59.698
N4330 X106.506 Y-59.687
N4335 X106.534 Y-59.664
N4340 X106.553 Y-59.633
N4345 X106.56 Y-59.597
N4350 Y-59.352
N4355 G2 X108.227 Y-56.851 I2.709 J0.
N4360 G3 X109.894 Y-54.35 I-1.042 J2.501
N4365 G1 Y-43.598
N4370 X109.887 Y-43.563
N4375 X109.868 Y-43.534
N4380 X109.84 Y-43.514
N4385 X109.806 Y-43.506
N4390 X109.771 Y-43.511
N4395 X109.741 Y-43.528
N4400 X109.719 Y-43.556
N4405 X109.71 Y-43.59
N4410 G2 X102.815 Y-58.107 I-23.055 J2.053
N4415 G3 X102.652 Y-58.735 I0.436 J-0.448
N4420 G2 X104.082 Y-65.075 I-45.676 J-13.636
N4425 X104.581 Y-71.557 I-41.85 J-6.481
N4430 X104.38 Y-75.525 I-39.238 J0.
N4435 X103.83 Y-79.46 I-52.61 J5.348
N4440 G3 X104.07 Y-79.977 I0.488 J-0.087
N4445 G2 X108.321 Y-84.124 I-6.055 J-10.46
N4450 G3 X108.703 Y-84.182 I0.216 J0.132
N4455 G2 X109.556 Y-83.509 I7.165 J-8.205
N4460 G3 X109.894 Y-82.853 I-0.468 J0.656
N4465 G1 Y-54.35
N4470 G2 X111.826 Y-51.453 I3.139 J0.
N4475 G3 X113.757 Y-48.556 I-1.207 J2.897
N4480 G1 Y-38.117
N4485 G3 X113.438 Y-37.798 I-0.319 J0.
N4490 G1 X105.877
N4495 G3 X105.624 Y-38.102 I0. J-0.258
N4500 G2 X98.302 Y-56.901 I-18.871 J-3.476
N4505 G3 X98.145 Y-57.439 I0.283 J-0.374
N4510 G2 X99.311 Y-81.997 I-38.043 J-14.111
N4515 G3 X99.535 Y-82.353 I0.278 J-0.073
N4520 G2 X104.372 Y-85.184 I-1.542 J-8.179
N4525 X106.288 Y-90.451 I-6.282 J-5.267
N4530 G1 X106.243 Y-104.993
N4535 G3 X106.562 Y-105.312 I0.319 J0.
N4540 G1 X108.438
N4545 G3 X108.757 Y-104.993 I0. J0.319
N4550 G1 X108.712 Y-92.539
N4555 G2 X110.018 Y-88.429 I7.124 J0.
N4560 X113.425 Y-85.785 I6.038 J-4.265
N4565 G3 X113.757 Y-85.303 I-0.184 J0.482
N4570 G1 Y-48.556
N4575 G2 X115.041 Y-46.63 I2.086 J0.
N4580 G3 X116.325 Y-44.704 I-0.802 J1.926
N4585 G1 Y-35.23
N4590 X102.122
N4595 G2 X95.782 Y-55.536 I-15.429 J-6.325
N4600 G3 X95.277 Y-57.148 I0.722 J-1.111
N4605 G2 X96.33 Y-83.051 I-35.277 J-14.408
N4610 G3 X97.593 Y-84.776 I1.263 J-0.4
N4615 G1 X98.
N4620 G2 X103.675 Y-90.451 I0. J-5.675
N4625 G1 Y-107.88
N4630 X111.325
N4635 Y-92.555
N4640 G2 X116. Y-87.88 I4.675 J0.
N4645 G1 X116.325
N4650 Y-44.704
N4655 G3 X110.332 Y-45.188 Z-7.295 I-3.016 J0.
N4660 G1 X112.553 Y-58.868 Z-7.705
N4665 G2 X106.56 Y-59.352 Z-8. I-2.977 J-0.484
N4670 G1 Y-59.338
N4675 X106.552 Y-59.295
N4680 X106.531 Y-59.257
N4685 X106.498 Y-59.228
N4690 X106.457 Y-59.213
N4695 X106.413 Y-59.212
N4700 X106.372 Y-59.225
N4705 X106.337 Y-59.252
N4710 X106.326 Y-59.265
N4715 X106.304 Y-59.3
N4720 X106.294 Y-59.341
N4725 X106.298 Y-59.383
N4730 X106.36 Y-59.622
N4735 X106.375 Y-59.655
N4740 X106.401 Y-59.681
N4745 X106.435 Y-59.696
N4750 X106.471 Y-59.698
N4755 X106.506 Y-59.687
N4760 X106.534 Y-59.664
N4765 X106.553 Y-59.633
N4770 X106.56 Y-59.597
N4775 Y-59.352
N4780 G2 X108.227 Y-56.851 I2.709 J0.
N4785 G3 X109.894 Y-54.35 I-1.042 J2.501
N4790 G1 Y-43.598
N4795 X109.887 Y-43.563
N4800 X109.868 Y-43.534
N4805 X109.84 Y-43.514
N4810 X109.806 Y-43.506
N4815 X109.771 Y-43.511
N4820 X109.741 Y-43.528
N4825 X109.719 Y-43.556
N4830 X109.71 Y-43.59
N4835 G2 X102.815 Y-58.107 I-23.055 J2.053
N4840 G3 X102.652 Y-58.735 I0.436 J-0.448
N4845 G2 X104.082 Y-65.075 I-45.676 J-13.636
N4850 X104.581 Y-71.557 I-41.85 J-6.481
N4855 X104.38 Y-75.525 I-39.238 J0.
N4860 X103.83 Y-79.46 I-52.61 J5.348
N4865 G3 X104.07 Y-79.977 I0.488 J-0.087
N4870 G2 X108.321 Y-84.124 I-6.055 J-10.46
N4875 G3 X108.703 Y-84.182 I0.216 J0.132
N4880 G2 X109.556 Y-83.509 I7.165 J-8.205
N4885 G3 X109.894 Y-82.853 I-0.468 J0.656
N4890 G1 Y-54.35
N4895 G2 X111.826 Y-51.453 I3.139 J0.
N4900 G3 X113.757 Y-48.556 I-1.207 J2.897
N4905 G1 Y-38.117
N4910 G3 X113.438 Y-37.798 I-0.319 J0.
N4915 G1 X105.877
N4920 G3 X105.624 Y-38.102 I0. J-0.258
N4925 G2 X98.302 Y-56.901 I-18.871 J-3.476
N4930 G3 X98.145 Y-57.439 I0.283 J-0.374
N4935 G2 X99.311 Y-81.997 I-38.043 J-14.111
N4940 G3 X99.535 Y-82.353 I0.278 J-0.073
N4945 G2 X104.372 Y-85.184 I-1.542 J-8.179
N4950 X106.288 Y-90.451 I-6.282 J-5.267
N4955 G1 X106.243 Y-104.993
N4960 G3 X106.562 Y-105.312 I0.319 J0.
N4965 G1 X108.438
N4970 G3 X108.757 Y-104.993 I0. J0.319
N4975 G1 X108.712 Y-92.539
N4980 G2 X110.018 Y-88.429 I7.124 J0.
N4985 X113.425 Y-85.785 I6.038 J-4.265
N4990 G3 X113.757 Y-85.303 I-0.184 J0.482
N4995 G1 Y-48.556
N5000 G2 X115.041 Y-46.63 I2.086 J0.
N5005 G3 X116.325 Y-44.704 I-0.802 J1.926
N5010 G1 Y-35.23
N5015 X102.122
N5020 G2 X95.782 Y-55.536 I-15.429 J-6.325
N5025 G3 X95.277 Y-57.148 I0.722 J-1.111
N5030 G2 X96.33 Y-83.051 I-35.277 J-14.408
N5035 G3 X97.593 Y-84.776 I1.263 J-0.4
N5040 G1 X98.
N5045 G2 X103.675 Y-90.451 I0. J-5.675
N5050 G1 Y-107.88
N5055 X111.325
N5060 Y-92.555
N5065 G2 X116. Y-87.88 I4.675 J0.
N5070 G1 X116.325
N5075 Y-44.704
N5080 G3 X110.332 Y-45.188 Z-8.295 I-3.016 J0.
N5085 G1 X112.553 Y-58.868 Z-8.705
N5090 G2 X106.56 Y-59.352 Z-9. I-2.977 J-0.484
N5095 G1 Y-59.338
N5100 X106.552 Y-59.295
N5105 X106.531 Y-59.257
N5110 X106.498 Y-59.228
N5115 X106.457 Y-59.213
N5120 X106.413 Y-59.212
N5125 X106.372 Y-59.225
N5130 X106.337 Y-59.252
N5135 X106.326 Y-59.265
N5140 X106.304 Y-59.3
N5145 X106.294 Y-59.341
N5150 X106.298 Y-59.383
N5155 X106.36 Y-59.622
N5160 X106.375 Y-59.655
N5165 X106.401 Y-59.681
N5170 X106.435 Y-59.696
N5175 X106.471 Y-59.698
N5180 X106.506 Y-59.687
N5185 X106.534 Y-59.664
N5190 X106.553 Y-59.633
N5195 X106.56 Y-59.597
N5200 Y-59.352
N5205 G2 X108.227 Y-56.851 I2.709 J0.
N5210 G3 X109.894 Y-54.35 I-1.042 J2.501
N5215 G1 Y-43.598
N5220 X109.887 Y-43.563
N5225 X109.868 Y-43.534
N5230 X109.84 Y-43.514
N5235 X109.806 Y-43.506
N5240 X109.771 Y-43.511
N5245 X109.741 Y-43.528
N5250 X109.719 Y-43.556
N5255 X109.71 Y-43.59
N5260 G2 X102.815 Y-58.107 I-23.055 J2.053
N5265 G3 X102.652 Y-58.735 I0.436 J-0.448
N5270 G2 X104.082 Y-65.075 I-45.676 J-13.636
N5275 X104.581 Y-71.557 I-41.85 J-6.481
N5280 X104.38 Y-75.525 I-39.238 J0.
N5285 X103.83 Y-79.46 I-52.61 J5.348
N5290 G3 X104.07 Y-79.977 I0.488 J-0.087
N5295 G2 X108.321 Y-84.124 I-6.055 J-10.46
N5300 G3 X108.703 Y-84.182 I0.216 J0.132
N5305 G2 X109.556 Y-83.509 I7.165 J-8.205
N5310 G3 X109.894 Y-82.853 I-0.468 J0.656
N5315 G1 Y-54.35
N5320 G2 X111.826 Y-51.453 I3.139 J0.
N5325 G3 X113.757 Y-48.556 I-1.207 J2.897
N5330 G1 Y-38.117
N5335 G3 X113.438 Y-37.798 I-0.319 J0.
N5340 G1 X105.877
N5345 G3 X105.624 Y-38.102 I0. J-0.258
N5350 G2 X98.302 Y-56.901 I-18.871 J-3.476
N5355 G3 X98.145 Y-57.439 I0.283 J-0.374
N5360 G2 X99.311 Y-81.997 I-38.043 J-14.111
N5365 G3 X99.535 Y-82.353 I0.278 J-0.073
N5370 G2 X104.372 Y-85.184 I-1.542 J-8.179
N5375 X106.288 Y-90.451 I-6.282 J-5.267
N5380 G1 X106.243 Y-104.993
N5385 G3 X106.562 Y-105.312 I0.319 J0.
N5390 G1 X108.438
N5395 G3 X108.757 Y-104.993 I0. J0.319
N5400 G1 X108.712 Y-92.539
N5405 G2 X110.018 Y-88.429 I7.124 J0.
N5410 X113.425 Y-85.785 I6.038 J-4.265
N5415 G3 X113.757 Y-85.303 I-0.184 J0.482
N5420 G1 Y-48.556
N5425 G2 X115.041 Y-46.63 I2.086 J0.
N5430 G3 X116.325 Y-44.704 I-0.802 J1.926
N5435 G1 Y-35.23
N5440 X102.122
N5445 G2 X95.782 Y-55.536 I-15.429 J-6.325
N5450 G3 X95.277 Y-57.148 I0.722 J-1.111
N5455 G2 X96.33 Y-83.051 I-35.277 J-14.408
N5460 G3 X97.593 Y-84.776 I1.263 J-0.4
N5465 G1 X98.
N5470 G2 X103.675 Y-90.451 I0. J-5.675
N5475 G1 Y-107.88
N5480 X111.325
N5485 Y-92.555
N5490 G2 X116. Y-87.88 I4.675 J0.
N5495 G1 X116.325
N5500 Y-44.704
N5505 G3 X110.332 Y-45.188 Z-9.295 I-3.016 J0.
N5510 G1 X112.553 Y-58.868 Z-9.705
N5515 G2 X106.56 Y-59.352 Z-10. I-2.977 J-0.484
N5520 G1 Y-59.338
N5525 X106.552 Y-59.295
N5530 X106.531 Y-59.257
N5535 X106.498 Y-59.228
N5540 X106.457 Y-59.213
N5545 X106.413 Y-59.212
N5550 X106.372 Y-59.225
N5555 X106.337 Y-59.252
N5560 X106.326 Y-59.265
N5565 X106.304 Y-59.3
N5570 X106.294 Y-59.341
N5575 X106.298 Y-59.383
N5580 X106.36 Y-59.622
N5585 X106.375 Y-59.655
N5590 X106.401 Y-59.681
N5595 X106.435 Y-59.696
N5600 X106.471 Y-59.698
N5605 X106.506 Y-59.687
N5610 X106.534 Y-59.664
N5615 X106.553 Y-59.633
N5620 X106.56 Y-59.597
N5625 Y-59.352
N5630 G2 X108.227 Y-56.851 I2.709 J0.
N5635 G3 X109.894 Y-54.35 I-1.042 J2.501
N5640 G1 Y-43.598
N5645 X109.887 Y-43.563
N5650 X109.868 Y-43.534
N5655 X109.84 Y-43.514
N5660 X109.806 Y-43.506
N5665 X109.771 Y-43.511
N5670 X109.741 Y-43.528
N5675 X109.719 Y-43.556
N5680 X109.71 Y-43.59
N5685 G2 X102.815 Y-58.107 I-23.055 J2.053
N5690 G3 X102.652 Y-58.735 I0.436 J-0.448
N5695 G2 X104.082 Y-65.075 I-45.676 J-13.636
N5700 X104.581 Y-71.557 I-41.85 J-6.481
N5705 X104.38 Y-75.525 I-39.238 J0.
N5710 X103.83 Y-79.46 I-52.61 J5.348
N5715 G3 X104.07 Y-79.977 I0.488 J-0.087
N5720 G2 X108.321 Y-84.124 I-6.055 J-10.46
N5725 G3 X108.703 Y-84.182 I0.216 J0.132
N5730 G2 X109.556 Y-83.509 I7.165 J-8.205
N5735 G3 X109.894 Y-82.853 I-0.468 J0.656
N5740 G1 Y-54.35
N5745 G2 X111.826 Y-51.453 I3.139 J0.
N5750 G3 X113.757 Y-48.556 I-1.207 J2.897
N5755 G1 Y-38.117
N5760 G3 X113.438 Y-37.798 I-0.319 J0.
N5765 G1 X105.877
N5770 G3 X105.624 Y-38.102 I0. J-0.258
N5775 G2 X98.302 Y-56.901 I-18.871 J-3.476
N5780 G3 X98.145 Y-57.439 I0.283 J-0.374
N5785 G2 X99.311 Y-81.997 I-38.043 J-14.111
N5790 G3 X99.535 Y-82.353 I0.278 J-0.073
N5795 G2 X104.372 Y-85.184 I-1.542 J-8.179
N5800 X106.288 Y-90.451 I-6.282 J-5.267
N5805 G1 X106.243 Y-104.993
N5810 G3 X106.562 Y-105.312 I0.319 J0.
N5815 G1 X108.438
N5820 G3 X108.757 Y-104.993 I0. J0.319
N5825 G1 X108.712 Y-92.539
N5830 G2 X110.018 Y-88.429 I7.124 J0.
N5835 X113.425 Y-85.785 I6.038 J-4.265
N5840 G3 X113.757 Y-85.303 I-0.184 J0.482
N5845 G1 Y-48.556
N5850 G2 X115.041 Y-46.63 I2.086 J0.
N5855 G3 X116.325 Y-44.704 I-0.802 J1.926
N5860 G1 Y-35.23
N5865 X102.122
N5870 G2 X95.782 Y-55.536 I-15.429 J-6.325
N5875 G3 X95.277 Y-57.148 I0.722 J-1.111
N5880 G2 X96.33 Y-83.051 I-35.277 J-14.408
N5885 G3 X97.593 Y-84.776 I1.263 J-0.4
N5890 G1 X98.
N5895 G2 X103.675 Y-90.451 I0. J-5.675
N5900 G1 Y-107.88
N5905 X111.325
N5910 Y-92.555
N5915 G2 X116. Y-87.88 I4.675 J0.
N5920 G1 X116.325
N5925 Y-44.704
N5930 G3 X110.332 Y-45.188 Z-10.295 I-3.016 J0.
N5935 G1 X112.553 Y-58.868 Z-10.705
N5940 G2 X106.56 Y-59.352 Z-11. I-2.977 J-0.484
N5945 G1 Y-59.338
N5950 X106.552 Y-59.295
N5955 X106.531 Y-59.257
N5960 X106.498 Y-59.228
N5965 X106.457 Y-59.213
N5970 X106.413 Y-59.212
N5975 X106.372 Y-59.225
N5980 X106.337 Y-59.252
N5985 X106.326 Y-59.265
N5990 X106.304 Y-59.3
N5995 X106.294 Y-59.341
N6000 X106.298 Y-59.383
N6005 X106.36 Y-59.622
N6010 X106.375 Y-59.655
N6015 X106.401 Y-59.681
N6020 X106.435 Y-59.696
N6025 X106.471 Y-59.698
N6030 X106.506 Y-59.687
N6035 X106.534 Y-59.664
N6040 X106.553 Y-59.633
N6045 X106.56 Y-59.597
N6050 Y-59.352
N6055 G2 X108.227 Y-56.851 I2.709 J0.
N6060 G3 X109.894 Y-54.35 I-1.042 J2.501
N6065 G1 Y-43.598
N6070 X109.887 Y-43.563
N6075 X109.868 Y-43.534
N6080 X109.84 Y-43.514
N6085 X109.806 Y-43.506
N6090 X109.771 Y-43.511
N6095 X109.741 Y-43.528
N6100 X109.719 Y-43.556
N6105 X109.71 Y-43.59
N6110 G2 X102.815 Y-58.107 I-23.055 J2.053
N6115 G3 X102.652 Y-58.735 I0.436 J-0.448
N6120 G2 X104.082 Y-65.075 I-45.676 J-13.636
N6125 X104.581 Y-71.557 I-41.85 J-6.481
N6130 X104.38 Y-75.525 I-39.238 J0.
N6135 X103.83 Y-79.46 I-52.61 J5.348
N6140 G3 X104.07 Y-79.977 I0.488 J-0.087
N6145 G2 X108.321 Y-84.124 I-6.055 J-10.46
N6150 G3 X108.703 Y-84.182 I0.216 J0.132
N6155 G2 X109.556 Y-83.509 I7.165 J-8.205
N6160 G3 X109.894 Y-82.853 I-0.468 J0.656
N6165 G1 Y-54.35
N6170 G2 X111.826 Y-51.453 I3.139 J0.
N6175 G3 X113.757 Y-48.556 I-1.207 J2.897
N6180 G1 Y-38.117
N6185 G3 X113.438 Y-37.798 I-0.319 J0.
N6190 G1 X105.877
N6195 G3 X105.624 Y-38.102 I0. J-0.258
N6200 G2 X98.302 Y-56.901 I-18.871 J-3.476
N6205 G3 X98.145 Y-57.439 I0.283 J-0.374
N6210 G2 X99.311 Y-81.997 I-38.043 J-14.111
N6215 G3 X99.535 Y-82.353 I0.278 J-0.073
N6220 G2 X104.372 Y-85.184 I-1.542 J-8.179
N6225 X106.288 Y-90.451 I-6.282 J-5.267
N6230 G1 X106.243 Y-104.993
N6235 G3 X106.562 Y-105.312 I0.319 J0.
N6240 G1 X108.438
N6245 G3 X108.757 Y-104.993 I0. J0.319
N6250 G1 X108.712 Y-92.539
N6255 G2 X110.018 Y-88.429 I7.124 J0.
N6260 X113.425 Y-85.785 I6.038 J-4.265
N6265 G3 X113.757 Y-85.303 I-0.184 J0.482
N6270 G1 Y-48.556
N6275 G2 X115.041 Y-46.63 I2.086 J0.
N6280 G3 X116.325 Y-44.704 I-0.802 J1.926
N6285 G1 Y-35.23
N6290 X102.122
N6295 G2 X95.782 Y-55.536 I-15.429 J-6.325
N6300 G3 X95.277 Y-57.148 I0.722 J-1.111
N6305 G2 X96.33 Y-83.051 I-35.277 J-14.408
N6310 G3 X97.593 Y-84.776 I1.263 J-0.4
N6315 G1 X98.
N6320 G2 X103.675 Y-90.451 I0. J-5.675
N6325 G1 Y-107.88
N6330 X111.325
N6335 Y-92.555
N6340 G2 X116. Y-87.88 I4.675 J0.
N6345 G1 X116.325
N6350 Y-44.704
N6355 G3 X110.332 Y-45.188 Z-11.295 I-3.016 J0.
N6360 G1 X112.553 Y-58.868 Z-11.705
N6365 G2 X106.56 Y-59.352 Z-12. I-2.977 J-0.484
N6370 G1 Y-59.338
N6375 X106.552 Y-59.295
N6380 X106.531 Y-59.257
N6385 X106.498 Y-59.228
N6390 X106.457 Y-59.213
N6395 X106.413 Y-59.212
N6400 X106.372 Y-59.225
N6405 X106.337 Y-59.252
N6410 X106.326 Y-59.265
N6415 X106.304 Y-59.3
N6420 X106.294 Y-59.341
N6425 X106.298 Y-59.383
N6430 X106.36 Y-59.622
N6435 X106.375 Y-59.655
N6440 X106.401 Y-59.681
N6445 X106.435 Y-59.696
N6450 X106.471 Y-59.698
N6455 X106.506 Y-59.687
N6460 X106.534 Y-59.664
N6465 X106.553 Y-59.633
N6470 X106.56 Y-59.597
N6475 Y-59.352
N6480 G2 X108.227 Y-56.851 I2.709 J0.
N6485 G3 X109.894 Y-54.35 I-1.042 J2.501
N6490 G1 Y-43.598
N6495 X109.887 Y-43.563
N6500 X109.868 Y-43.534
N6505 X109.84 Y-43.514
N6510 X109.806 Y-43.506
N6515 X109.771 Y-43.511
N6520 X109.741 Y-43.528
N6525 X109.719 Y-43.556
N6530 X109.71 Y-43.59
N6535 G2 X102.815 Y-58.107 I-23.055 J2.053
N6540 G3 X102.652 Y-58.735 I0.436 J-0.448
N6545 G2 X104.082 Y-65.075 I-45.676 J-13.636
N6550 X104.581 Y-71.557 I-41.85 J-6.481
N6555 X104.38 Y-75.525 I-39.238 J0.
N6560 X103.83 Y-79.46 I-52.61 J5.348
N6565 G3 X104.07 Y-79.977 I0.488 J-0.087
N6570 G2 X108.321 Y-84.124 I-6.055 J-10.46
N6575 G3 X108.703 Y-84.182 I0.216 J0.132
N6580 G2 X109.556 Y-83.509 I7.165 J-8.205
N6585 G3 X109.894 Y-82.853 I-0.468 J0.656
N6590 G1 Y-54.35
N6595 G2 X111.826 Y-51.453 I3.139 J0.
N6600 G3 X113.757 Y-48.556 I-1.207 J2.897
N6605 G1 Y-38.117
N6610 G3 X113.438 Y-37.798 I-0.319 J0.
N6615 G1 X105.877
N6620 G3 X105.624 Y-38.102 I0. J-0.258
N6625 G2 X98.302 Y-56.901 I-18.871 J-3.476
N6630 G3 X98.145 Y-57.439 I0.283 J-0.374
N6635 G2 X99.311 Y-81.997 I-38.043 J-14.111
N6640 G3 X99.535 Y-82.353 I0.278 J-0.073
N6645 G2 X104.372 Y-85.184 I-1.542 J-8.179
N6650 X106.288 Y-90.451 I-6.282 J-5.267
N6655 G1 X106.243 Y-104.993
N6660 G3 X106.562 Y-105.312 I0.319 J0.
N6665 G1 X108.438
N6670 G3 X108.757 Y-104.993 I0. J0.319
N6675 G1 X108.712 Y-92.539
N6680 G2 X110.018 Y-88.429 I7.124 J0.
N6685 X113.425 Y-85.785 I6.038 J-4.265
N6690 G3 X113.757 Y-85.303 I-0.184 J0.482
N6695 G1 Y-48.556
N6700 G2 X115.041 Y-46.63 I2.086 J0.
N6705 G3 X116.325 Y-44.704 I-0.802 J1.926
N6710 G1 Y-35.23
N6715 X102.122
N6720 G2 X95.782 Y-55.536 I-15.429 J-6.325
N6725 G3 X95.277 Y-57.148 I0.722 J-1.111
N6730 G2 X96.33 Y-83.051 I-35.277 J-14.408
N6735 G3 X97.593 Y-84.776 I1.263 J-0.4
N6740 G1 X98.
N6745 G2 X103.675 Y-90.451 I0. J-5.675
N6750 G1 Y-107.88
N6755 X111.325
N6760 Y-92.555
N6765 G2 X116. Y-87.88 I4.675 J0.
N6770 G1 X116.325
N6775 Y-44.704
N6780 G3 X110.332 Y-45.188 Z-12.295 I-3.016 J0.
N6785 G1 X112.553 Y-58.868 Z-12.705
N6790 G2 X106.56 Y-59.352 Z-13. I-2.977 J-0.484
N6795 G1 Y-59.338
N6800 X106.552 Y-59.295
N6805 X106.531 Y-59.257
N6810 X106.498 Y-59.228
N6815 X106.457 Y-59.213
N6820 X106.413 Y-59.212
N6825 X106.372 Y-59.225
N6830 X106.337 Y-59.252
N6835 X106.326 Y-59.265
N6840 X106.304 Y-59.3
N6845 X106.294 Y-59.341
N6850 X106.298 Y-59.383
N6855 X106.36 Y-59.622
N6860 X106.375 Y-59.655
N6865 X106.401 Y-59.681
N6870 X106.435 Y-59.696
N6875 X106.471 Y-59.698
N6880 X106.506 Y-59.687
N6885 X106.534 Y-59.664
N6890 X106.553 Y-59.633
N6895 X106.56 Y-59.597
N6900 Y-59.352
N6905 G2 X108.227 Y-56.851 I2.709 J0.
N6910 G3 X109.894 Y-54.35 I-1.042 J2.501
N6915 G1 Y-43.598
N6920 X109.887 Y-43.563
N6925 X109.868 Y-43.534
N6930 X109.84 Y-43.514
N6935 X109.806 Y-43.506
N6940 X109.771 Y-43.511
N6945 X109.741 Y-43.528
N6950 X109.719 Y-43.556
N6955 X109.71 Y-43.59
N6960 G2 X102.815 Y-58.107 I-23.055 J2.053
N6965 G3 X102.652 Y-58.735 I0.436 J-0.448
N6970 G2 X104.082 Y-65.075 I-45.676 J-13.636
N6975 X104.581 Y-71.557 I-41.85 J-6.481
N6980 X104.38 Y-75.525 I-39.238 J0.
N6985 X103.83 Y-79.46 I-52.61 J5.348
N6990 G3 X104.07 Y-79.977 I0.488 J-0.087
N6995 G2 X108.321 Y-84.124 I-6.055 J-10.46
N7000 G3 X108.703 Y-84.182 I0.216 J0.132
N7005 G2 X109.556 Y-83.509 I7.165 J-8.205
N7010 G3 X109.894 Y-82.853 I-0.468 J0.656
N7015 G1 Y-54.35
N7020 G2 X111.826 Y-51.453 I3.139 J0.
N7025 G3 X113.757 Y-48.556 I-1.207 J2.897
N7030 G1 Y-38.117
N7035 G3 X113.438 Y-37.798 I-0.319 J0.
N7040 G1 X105.877
N7045 G3 X105.624 Y-38.102 I0. J-0.258
N7050 G2 X98.302 Y-56.901 I-18.871 J-3.476
N7055 G3 X98.145 Y-57.439 I0.283 J-0.374
N7060 G2 X99.311 Y-81.997 I-38.043 J-14.111
N7065 G3 X99.535 Y-82.353 I0.278 J-0.073
N7070 G2 X104.372 Y-85.184 I-1.542 J-8.179
N7075 X106.288 Y-90.451 I-6.282 J-5.267
N7080 G1 X106.243 Y-104.993
N7085 G3 X106.562 Y-105.312 I0.319 J0.
N7090 G1 X108.438
N7095 G3 X108.757 Y-104.993 I0. J0.319
N7100 G1 X108.712 Y-92.539
N7105 G2 X110.018 Y-88.429 I7.124 J0.
N7110 X113.425 Y-85.785 I6.038 J-4.265
N7115 G3 X113.757 Y-85.303 I-0.184 J0.482
N7120 G1 Y-48.556
N7125 G2 X115.041 Y-46.63 I2.086 J0.
N7130 G3 X116.325 Y-44.704 I-0.802 J1.926
N7135 G1 Y-35.23
N7140 X102.122
N7145 G2 X95.782 Y-55.536 I-15.429 J-6.325
N7150 G3 X95.277 Y-57.148 I0.722 J-1.111
N7155 G2 X96.33 Y-83.051 I-35.277 J-14.408
N7160 G3 X97.593 Y-84.776 I1.263 J-0.4
N7165 G1 X98.
N7170 G2 X103.675 Y-90.451 I0. J-5.675
N7175 G1 Y-107.88
N7180 X111.325
N7185 Y-92.555
N7190 G2 X116. Y-87.88 I4.675 J0.
N7195 G1 X116.325
N7200 Y-44.704
N7205 G3 X110.332 Y-45.188 Z-13.295 I-3.016 J0.
N7210 G1 X112.553 Y-58.868 Z-13.705
N7215 G2 X106.56 Y-59.352 Z-14. I-2.977 J-0.484
N7220 G1 Y-59.338
N7225 X106.552 Y-59.295
N7230 X106.531 Y-59.257
N7235 X106.498 Y-59.228
N7240 X106.457 Y-59.213
N7245 X106.413 Y-59.212
N7250 X106.372 Y-59.225
N7255 X106.337 Y-59.252
N7260 X106.326 Y-59.265
N7265 X106.304 Y-59.3
N7270 X106.294 Y-59.341
N7275 X106.298 Y-59.383
N7280 X106.36 Y-59.622
N7285 X106.375 Y-59.655
N7290 X106.401 Y-59.681
N7295 X106.435 Y-59.696
N7300 X106.471 Y-59.698
N7305 X106.506 Y-59.687
N7310 X106.534 Y-59.664
N7315 X106.553 Y-59.633
N7320 X106.56 Y-59.597
N7325 Y-59.352
N7330 G2 X108.227 Y-56.851 I2.709 J0.
N7335 G3 X109.894 Y-54.35 I-1.042 J2.501
N7340 G1 Y-43.598
N7345 X109.887 Y-43.563
N7350 X109.868 Y-43.534
N7355 X109.84 Y-43.514
N7360 X109.806 Y-43.506
N7365 X109.771 Y-43.511
N7370 X109.741 Y-43.528
N7375 X109.719 Y-43.556
N7380 X109.71 Y-43.59
N7385 G2 X102.815 Y-58.107 I-23.055 J2.053
N7390 G3 X102.652 Y-58.735 I0.436 J-0.448
N7395 G2 X104.082 Y-65.075 I-45.676 J-13.636
N7400 X104.581 Y-71.557 I-41.85 J-6.481
N7405 X104.38 Y-75.525 I-39.238 J0.
N7410 X103.83 Y-79.46 I-52.61 J5.348
N7415 G3 X104.07 Y-79.977 I0.488 J-0.087
N7420 G2 X108.321 Y-84.124 I-6.055 J-10.46
N7425 G3 X108.703 Y-84.182 I0.216 J0.132
N7430 G2 X109.556 Y-83.509 I7.165 J-8.205
N7435 G3 X109.894 Y-82.853 I-0.468 J0.656
N7440 G1 Y-54.35
N7445 G2 X111.826 Y-51.453 I3.139 J0.
N7450 G3 X113.757 Y-48.556 I-1.207 J2.897
N7455 G1 Y-38.117
N7460 G3 X113.438 Y-37.798 I-0.319 J0.
N7465 G1 X105.877
N7470 G3 X105.624 Y-38.102 I0. J-0.258
N7475 G2 X98.302 Y-56.901 I-18.871 J-3.476
N7480 G3 X98.145 Y-57.439 I0.283 J-0.374
N7485 G2 X99.311 Y-81.997 I-38.043 J-14.111
N7490 G3 X99.535 Y-82.353 I0.278 J-0.073
N7495 G2 X104.372 Y-85.184 I-1.542 J-8.179
N7500 X106.288 Y-90.451 I-6.282 J-5.267
N7505 G1 X106.243 Y-104.993
N7510 G3 X106.562 Y-105.312 I0.319 J0.
N7515 G1 X108.438
N7520 G3 X108.757 Y-104.993 I0. J0.319
N7525 G1 X108.712 Y-92.539
N7530 G2 X110.018 Y-88.429 I7.124 J0.
N7535 X113.425 Y-85.785 I6.038 J-4.265
N7540 G3 X113.757 Y-85.303 I-0.184 J0.482
N7545 G1 Y-48.556
N7550 G2 X115.041 Y-46.63 I2.086 J0.
N7555 G3 X116.325 Y-44.704 I-0.802 J1.926
N7560 G1 Y-35.23
N7565 X102.122
N7570 G2 X95.782 Y-55.536 I-15.429 J-6.325
N7575 G3 X95.277 Y-57.148 I0.722 J-1.111
N7580 G2 X96.33 Y-83.051 I-35.277 J-14.408
N7585 G3 X97.593 Y-84.776 I1.263 J-0.4
N7590 G1 X98.
N7595 G2 X103.675 Y-90.451 I0. J-5.675
N7600 G1 Y-107.88
N7605 X111.325
N7610 Y-92.555
N7615 G2 X116. Y-87.88 I4.675 J0.
N7620 G1 X116.325
N7625 Y-44.704
N7630 G3 X110.332 Y-45.188 Z-14.295 I-3.016 J0.
N7635 G1 X112.553 Y-58.868 Z-14.705
N7640 G2 X106.56 Y-59.352 Z-15. I-2.977 J-0.484
N7645 G1 Y-59.338
N7650 X106.552 Y-59.295
N7655 X106.531 Y-59.257
N7660 X106.498 Y-59.228
N7665 X106.457 Y-59.213
N7670 X106.413 Y-59.212
N7675 X106.372 Y-59.225
N7680 X106.337 Y-59.252
N7685 X106.326 Y-59.265
N7690 X106.304 Y-59.3
N7695 X106.294 Y-59.341
N7700 X106.298 Y-59.383
N7705 X106.36 Y-59.622
N7710 X106.375 Y-59.655
N7715 X106.401 Y-59.681
N7720 X106.435 Y-59.696
N7725 X106.471 Y-59.698
N7730 X106.506 Y-59.687
N7735 X106.534 Y-59.664
N7740 X106.553 Y-59.633
N7745 X106.56 Y-59.597
N7750 Y-59.352
N7755 G2 X108.227 Y-56.851 I2.709 J0.
N7760 G3 X109.894 Y-54.35 I-1.042 J2.501
N7765 G1 Y-43.598
N7770 X109.887 Y-43.563
N7775 X109.868 Y-43.534
N7780 X109.84 Y-43.514
N7785 X109.806 Y-43.506
N7790 X109.771 Y-43.511
N7795 X109.741 Y-43.528
N7800 X109.719 Y-43.556
N7805 X109.71 Y-43.59
N7810 G2 X102.815 Y-58.107 I-23.055 J2.053
N7815 G3 X102.652 Y-58.735 I0.436 J-0.448
N7820 G2 X104.082 Y-65.075 I-45.676 J-13.636
N7825 X104.581 Y-71.557 I-41.85 J-6.481
N7830 X104.38 Y-75.525 I-39.238 J0.
N7835 X103.83 Y-79.46 I-52.61 J5.348
N7840 G3 X104.07 Y-79.977 I0.488 J-0.087
N7845 G2 X108.321 Y-84.124 I-6.055 J-10.46
N7850 G3 X108.703 Y-84.182 I0.216 J0.132
N7855 G2 X109.556 Y-83.509 I7.165 J-8.205
N7860 G3 X109.894 Y-82.853 I-0.468 J0.656
N7865 G1 Y-54.35
N7870 G2 X111.826 Y-51.453 I3.139 J0.
N7875 G3 X113.757 Y-48.556 I-1.207 J2.897
N7880 G1 Y-38.117
N7885 G3 X113.438 Y-37.798 I-0.319 J0.
N7890 G1 X105.877
N7895 G3 X105.624 Y-38.102 I0. J-0.258
N7900 G2 X98.302 Y-56.901 I-18.871 J-3.476
N7905 G3 X98.145 Y-57.439 I0.283 J-0.374
N7910 G2 X99.311 Y-81.997 I-38.043 J-14.111
N7915 G3 X99.535 Y-82.353 I0.278 J-0.073
N7920 G2 X104.372 Y-85.184 I-1.542 J-8.179
N7925 X106.288 Y-90.451 I-6.282 J-5.267
N7930 G1 X106.243 Y-104.993
N7935 G3 X106.562 Y-105.312 I0.319 J0.
N7940 G1 X108.438
N7945 G3 X108.757 Y-104.993 I0. J0.319
N7950 G1 X108.712 Y-92.539
N7955 G2 X110.018 Y-88.429 I7.124 J0.
N7960 X113.425 Y-85.785 I6.038 J-4.265
N7965 G3 X113.757 Y-85.303 I-0.184 J0.482
N7970 G1 Y-48.556
N7975 G2 X115.041 Y-46.63 I2.086 J0.
N7980 G3 X116.325 Y-44.704 I-0.802 J1.926
N7985 G1 Y-35.23
N7990 X102.122
N7995 G2 X95.782 Y-55.536 I-15.429 J-6.325
N8000 G3 X95.277 Y-57.148 I0.722 J-1.111
N8005 G2 X96.33 Y-83.051 I-35.277 J-14.408
N8010 G3 X97.593 Y-84.776 I1.263 J-0.4
N8015 G1 X98.
N8020 G2 X103.675 Y-90.451 I0. J-5.675
N8025 G1 Y-107.88
N8030 X111.325
N8035 Y-92.555
N8040 G2 X116. Y-87.88 I4.675 J0.
N8045 G1 X116.325
N8050 Y-44.704
N8055 G3 X110.332 Y-45.188 Z-15.295 I-3.016 J0.
N8060 G1 X112.553 Y-58.868 Z-15.705
N8065 G2 X106.56 Y-59.352 Z-16. I-2.977 J-0.484
N8070 G1 Y-59.338
N8075 X106.552 Y-59.295
N8080 X106.531 Y-59.257
N8085 X106.498 Y-59.228
N8090 X106.457 Y-59.213
N8095 X106.413 Y-59.212
N8100 X106.372 Y-59.225
N8105 X106.337 Y-59.252
N8110 X106.326 Y-59.265
N8115 X106.304 Y-59.3
N8120 X106.294 Y-59.341
N8125 X106.298 Y-59.383
N8130 X106.36 Y-59.622
N8135 X106.375 Y-59.655
N8140 X106.401 Y-59.681
N8145 X106.435 Y-59.696
N8150 X106.471 Y-59.698
N8155 X106.506 Y-59.687
N8160 X106.534 Y-59.664
N8165 X106.553 Y-59.633
N8170 X106.56 Y-59.597
N8175 Y-59.352
N8180 G2 X108.227 Y-56.851 I2.709 J0.
N8185 G3 X109.894 Y-54.35 I-1.042 J2.501
N8190 G1 Y-43.598
N8195 X109.887 Y-43.563
N8200 X109.868 Y-43.534
N8205 X109.84 Y-43.514
N8210 X109.806 Y-43.506
N8215 X109.771 Y-43.511
N8220 X109.741 Y-43.528
N8225 X109.719 Y-43.556
N8230 X109.71 Y-43.59
N8235 G2 X102.815 Y-58.107 I-23.055 J2.053
N8240 G3 X102.652 Y-58.735 I0.436 J-0.448
N8245 G2 X104.082 Y-65.075 I-45.676 J-13.636
N8250 X104.581 Y-71.557 I-41.85 J-6.481
N8255 X104.38 Y-75.525 I-39.238 J0.
N8260 X103.83 Y-79.46 I-52.61 J5.348
N8265 G3 X104.07 Y-79.977 I0.488 J-0.087
N8270 G2 X108.321 Y-84.124 I-6.055 J-10.46
N8275 G3 X108.703 Y-84.182 I0.216 J0.132
N8280 G2 X109.556 Y-83.509 I7.165 J-8.205
N8285 G3 X109.894 Y-82.853 I-0.468 J0.656
N8290 G1 Y-54.35
N8295 G2 X111.826 Y-51.453 I3.139 J0.
N8300 G3 X113.757 Y-48.556 I-1.207 J2.897
N8305 G1 Y-38.117
N8310 G3 X113.438 Y-37.798 I-0.319 J0.
N8315 G1 X105.877
N8320 G3 X105.624 Y-38.102 I0. J-0.258
N8325 G2 X98.302 Y-56.901 I-18.871 J-3.476
N8330 G3 X98.145 Y-57.439 I0.283 J-0.374
N8335 G2 X99.311 Y-81.997 I-38.043 J-14.111
N8340 G3 X99.535 Y-82.353 I0.278 J-0.073
N8345 G2 X104.372 Y-85.184 I-1.542 J-8.179
N8350 X106.288 Y-90.451 I-6.282 J-5.267
N8355 G1 X106.243 Y-104.993
N8360 G3 X106.562 Y-105.312 I0.319 J0.
N8365 G1 X108.438
N8370 G3 X108.757 Y-104.993 I0. J0.319
N8375 G1 X108.712 Y-92.539
N8380 G2 X110.018 Y-88.429 I7.124 J0.
N8385 X113.425 Y-85.785 I6.038 J-4.265
N8390 G3 X113.757 Y-85.303 I-0.184 J0.482
N8395 G1 Y-48.556
N8400 G2 X115.041 Y-46.63 I2.086 J0.
N8405 G3 X116.325 Y-44.704 I-0.802 J1.926
N8410 G1 Y-35.23
N8415 X102.122
N8420 G2 X95.782 Y-55.536 I-15.429 J-6.325
N8425 G3 X95.277 Y-57.148 I0.722 J-1.111
N8430 G2 X96.33 Y-83.051 I-35.277 J-14.408
N8435 G3 X97.593 Y-84.776 I1.263 J-0.4
N8440 G1 X98.
N8445 G2 X103.675 Y-90.451 I0. J-5.675
N8450 G1 Y-107.88
N8455 X111.325
N8460 Y-92.555
N8465 G2 X116. Y-87.88 I4.675 J0.
N8470 G1 X116.325
N8475 Y-44.704
N8480 G3 X110.332 Y-45.188 Z-16.295 I-3.016 J0.
N8485 G1 X112.553 Y-58.868 Z-16.705
N8490 G2 X106.56 Y-59.352 Z-17. I-2.977 J-0.484
N8495 G1 Y-59.338
N8500 X106.552 Y-59.295
N8505 X106.531 Y-59.257
N8510 X106.498 Y-59.228
N8515 X106.457 Y-59.213
N8520 X106.413 Y-59.212
N8525 X106.372 Y-59.225
N8530 X106.337 Y-59.252
N8535 X106.326 Y-59.265
N8540 X106.304 Y-59.3
N8545 X106.294 Y-59.341
N8550 X106.298 Y-59.383
N8555 X106.36 Y-59.622
N8560 X106.375 Y-59.655
N8565 X106.401 Y-59.681
N8570 X106.435 Y-59.696
N8575 X106.471 Y-59.698
N8580 X106.506 Y-59.687
N8585 X106.534 Y-59.664
N8590 X106.553 Y-59.633
N8595 X106.56 Y-59.597
N8600 Y-59.352
N8605 G2 X108.227 Y-56.851 I2.709 J0.
N8610 G3 X109.894 Y-54.35 I-1.042 J2.501
N8615 G1 Y-43.598
N8620 X109.887 Y-43.563
N8625 X109.868 Y-43.534
N8630 X109.84 Y-43.514
N8635 X109.806 Y-43.506
N8640 X109.771 Y-43.511
N8645 X109.741 Y-43.528
N8650 X109.719 Y-43.556
N8655 X109.71 Y-43.59
N8660 G2 X102.815 Y-58.107 I-23.055 J2.053
N8665 G3 X102.652 Y-58.735 I0.436 J-0.448
N8670 G2 X104.082 Y-65.075 I-45.676 J-13.636
N8675 X104.581 Y-71.557 I-41.85 J-6.481
N8680 X104.38 Y-75.525 I-39.238 J0.
N8685 X103.83 Y-79.46 I-52.61 J5.348
N8690 G3 X104.07 Y-79.977 I0.488 J-0.087
N8695 G2 X108.321 Y-84.124 I-6.055 J-10.46
N8700 G3 X108.703 Y-84.182 I0.216 J0.132
N8705 G2 X109.556 Y-83.509 I7.165 J-8.205
N8710 G3 X109.894 Y-82.853 I-0.468 J0.656
N8715 G1 Y-54.35
N8720 G2 X111.826 Y-51.453 I3.139 J0.
N8725 G3 X113.757 Y-48.556 I-1.207 J2.897
N8730 G1 Y-38.117
N8735 G3 X113.438 Y-37.798 I-0.319 J0.
N8740 G1 X105.877
N8745 G3 X105.624 Y-38.102 I0. J-0.258
N8750 G2 X98.302 Y-56.901 I-18.871 J-3.476
N8755 G3 X98.145 Y-57.439 I0.283 J-0.374
N8760 G2 X99.311 Y-81.997 I-38.043 J-14.111
N8765 G3 X99.535 Y-82.353 I0.278 J-0.073
N8770 G2 X104.372 Y-85.184 I-1.542 J-8.179
N8775 X106.288 Y-90.451 I-6.282 J-5.267
N8780 G1 X106.243 Y-104.993
N8785 G3 X106.562 Y-105.312 I0.319 J0.
N8790 G1 X108.438
N8795 G3 X108.757 Y-104.993 I0. J0.319
N8800 G1 X108.712 Y-92.539
N8805 G2 X110.018 Y-88.429 I7.124 J0.
N8810 X113.425 Y-85.785 I6.038 J-4.265
N8815 G3 X113.757 Y-85.303 I-0.184 J0.482
N8820 G1 Y-48.556
N8825 G2 X115.041 Y-46.63 I2.086 J0.
N8830 G3 X116.325 Y-44.704 I-0.802 J1.926
N8835 G1 Y-35.23
N8840 X102.122
N8845 G2 X95.782 Y-55.536 I-15.429 J-6.325
N8850 G3 X95.277 Y-57.148 I0.722 J-1.111
N8855 G2 X96.33 Y-83.051 I-35.277 J-14.408
N8860 G3 X97.593 Y-84.776 I1.263 J-0.4
N8865 G1 X98.
N8870 G2 X103.675 Y-90.451 I0. J-5.675
N8875 G1 Y-107.88
N8880 X111.325
N8885 Y-92.555
N8890 G2 X116. Y-87.88 I4.675 J0.
N8895 G1 X116.325
N8900 Y-44.704
N8905 G3 X110.332 Y-45.188 Z-17.295 I-3.016 J0.
N8910 G1 X112.553 Y-58.868 Z-17.705
N8915 G2 X106.56 Y-59.352 Z-18. I-2.977 J-0.484
N8920 G1 Y-59.338
N8925 X106.552 Y-59.295
N8930 X106.531 Y-59.257
N8935 X106.498 Y-59.228
N8940 X106.457 Y-59.213
N8945 X106.413 Y-59.212
N8950 X106.372 Y-59.225
N8955 X106.337 Y-59.252
N8960 X106.326 Y-59.265
N8965 X106.304 Y-59.3
N8970 X106.294 Y-59.341
N8975 X106.298 Y-59.383
N8980 X106.36 Y-59.622
N8985 X106.375 Y-59.655
N8990 X106.401 Y-59.681
N8995 X106.435 Y-59.696
N9000 X106.471 Y-59.698
N9005 X106.506 Y-59.687
N9010 X106.534 Y-59.664
N9015 X106.553 Y-59.633
N9020 X106.56 Y-59.597
N9025 Y-59.352
N9030 G2 X108.227 Y-56.851 I2.709 J0.
N9035 G3 X109.894 Y-54.35 I-1.042 J2.501
N9040 G1 Y-43.598
N9045 X109.887 Y-43.563
N9050 X109.868 Y-43.534
N9055 X109.84 Y-43.514
N9060 X109.806 Y-43.506
N9065 X109.771 Y-43.511
N9070 X109.741 Y-43.528
N9075 X109.719 Y-43.556
N9080 X109.71 Y-43.59
N9085 G2 X102.815 Y-58.107 I-23.055 J2.053
N9090 G3 X102.652 Y-58.735 I0.436 J-0.448
N9095 G2 X104.082 Y-65.075 I-45.676 J-13.636
N9100 X104.581 Y-71.557 I-41.85 J-6.481
N9105 X104.38 Y-75.525 I-39.238 J0.
N9110 X103.83 Y-79.46 I-52.61 J5.348
N9115 G3 X104.07 Y-79.977 I0.488 J-0.087
N9120 G2 X108.321 Y-84.124 I-6.055 J-10.46
N9125 G3 X108.703 Y-84.182 I0.216 J0.132
N9130 G2 X109.556 Y-83.509 I7.165 J-8.205
N9135 G3 X109.894 Y-82.853 I-0.468 J0.656
N9140 G1 Y-54.35
N9145 G2 X111.826 Y-51.453 I3.139 J0.
N9150 G3 X113.757 Y-48.556 I-1.207 J2.897
N9155 G1 Y-38.117
N9160 G3 X113.438 Y-37.798 I-0.319 J0.
N9165 G1 X105.877
N9170 G3 X105.624 Y-38.102 I0. J-0.258
N9175 G2 X98.302 Y-56.901 I-18.871 J-3.476
N9180 G3 X98.145 Y-57.439 I0.283 J-0.374
N9185 G2 X99.311 Y-81.997 I-38.043 J-14.111
N9190 G3 X99.535 Y-82.353 I0.278 J-0.073
N9195 G2 X104.372 Y-85.184 I-1.542 J-8.179
N9200 X106.288 Y-90.451 I-6.282 J-5.267
N9205 G1 X106.243 Y-104.993
N9210 G3 X106.562 Y-105.312 I0.319 J0.
N9215 G1 X108.438
N9220 G3 X108.757 Y-104.993 I0. J0.319
N9225 G1 X108.712 Y-92.539
N9230 G2 X110.018 Y-88.429 I7.124 J0.
N9235 X113.425 Y-85.785 I6.038 J-4.265
N9240 G3 X113.757 Y-85.303 I-0.184 J0.482
N9245 G1 Y-48.556
N9250 G2 X115.041 Y-46.63 I2.086 J0.
N9255 G3 X116.325 Y-44.704 I-0.802 J1.926
N9260 G1 Y-35.23
N9265 X102.122
N9270 G2 X95.782 Y-55.536 I-15.429 J-6.325
N9275 G3 X95.277 Y-57.148 I0.722 J-1.111
N9280 G2 X96.33 Y-83.051 I-35.277 J-14.408
N9285 G3 X97.593 Y-84.776 I1.263 J-0.4
N9290 G1 X98.
N9295 G2 X103.675 Y-90.451 I0. J-5.675
N9300 G1 Y-107.88
N9305 X111.325
N9310 Y-92.555
N9315 G2 X116. Y-87.88 I4.675 J0.
N9320 G1 X116.325
N9325 Y-44.704
N9330 G3 X110.332 Y-45.188 Z-18.295 I-3.016 J0.
N9335 G1 X112.553 Y-58.868 Z-18.705
N9340 G2 X106.56 Y-59.352 Z-19. I-2.977 J-0.484
N9345 G1 Y-59.338
N9350 X106.552 Y-59.295
N9355 X106.531 Y-59.257
N9360 X106.498 Y-59.228
N9365 X106.457 Y-59.213
N9370 X106.413 Y-59.212
N9375 X106.372 Y-59.225
N9380 X106.337 Y-59.252
N9385 X106.326 Y-59.265
N9390 X106.304 Y-59.3
N9395 X106.294 Y-59.341
N9400 X106.298 Y-59.383
N9405 X106.36 Y-59.622
N9410 X106.375 Y-59.655
N9415 X106.401 Y-59.681
N9420 X106.435 Y-59.696
N9425 X106.471 Y-59.698
N9430 X106.506 Y-59.687
N9435 X106.534 Y-59.664
N9440 X106.553 Y-59.633
N9445 X106.56 Y-59.597
N9450 Y-59.352
N9455 G2 X108.227 Y-56.851 I2.709 J0.
N9460 G3 X109.894 Y-54.35 I-1.042 J2.501
N9465 G1 Y-43.598
N9470 X109.887 Y-43.563
N9475 X109.868 Y-43.534
N9480 X109.84 Y-43.514
N9485 X109.806 Y-43.506
N9490 X109.771 Y-43.511
N9495 X109.741 Y-43.528
N9500 X109.719 Y-43.556
N9505 X109.71 Y-43.59
N9510 G2 X102.815 Y-58.107 I-23.055 J2.053
N9515 G3 X102.652 Y-58.735 I0.436 J-0.448
N9520 G2 X104.082 Y-65.075 I-45.676 J-13.636
N9525 X104.581 Y-71.557 I-41.85 J-6.481
N9530 X104.38 Y-75.525 I-39.238 J0.
N9535 X103.83 Y-79.46 I-52.61 J5.348
N9540 G3 X104.07 Y-79.977 I0.488 J-0.087
N9545 G2 X108.321 Y-84.124 I-6.055 J-10.46
N9550 G3 X108.703 Y-84.182 I0.216 J0.132
N9555 G2 X109.556 Y-83.509 I7.165 J-8.205
N9560 G3 X109.894 Y-82.853 I-0.468 J0.656
N9565 G1 Y-54.35
N9570 G2 X111.826 Y-51.453 I3.139 J0.
N9575 G3 X113.757 Y-48.556 I-1.207 J2.897
N9580 G1 Y-38.117
N9585 G3 X113.438 Y-37.798 I-0.319 J0.
N9590 G1 X105.877
N9595 G3 X105.624 Y-38.102 I0. J-0.258
N9600 G2 X98.302 Y-56.901 I-18.871 J-3.476
N9605 G3 X98.145 Y-57.439 I0.283 J-0.374
N9610 G2 X99.311 Y-81.997 I-38.043 J-14.111
N9615 G3 X99.535 Y-82.353 I0.278 J-0.073
N9620 G2 X104.372 Y-85.184 I-1.542 J-8.179
N9625 X106.288 Y-90.451 I-6.282 J-5.267
N9630 G1 X106.243 Y-104.993
N9635 G3 X106.562 Y-105.312 I0.319 J0.
N9640 G1 X108.438
N9645 G3 X108.757 Y-104.993 I0. J0.319
N9650 G1 X108.712 Y-92.539
N9655 G2 X110.018 Y-88.429 I7.124 J0.
N9660 X113.425 Y-85.785 I6.038 J-4.265
N9665 G3 X113.757 Y-85.303 I-0.184 J0.482
N9670 G1 Y-48.556
N9675 G2 X115.041 Y-46.63 I2.086 J0.
N9680 G3 X116.325 Y-44.704 I-0.802 J1.926
N9685 G1 Y-35.23
N9690 X102.122
N9695 G2 X95.782 Y-55.536 I-15.429 J-6.325
N9700 G3 X95.277 Y-57.148 I0.722 J-1.111
N9705 G2 X96.33 Y-83.051 I-35.277 J-14.408
N9710 G3 X97.593 Y-84.776 I1.263 J-0.4
N9715 G1 X98.
N9720 G2 X103.675 Y-90.451 I0. J-5.675
N9725 G1 Y-107.88
N9730 X111.325
N9735 Y-92.555
N9740 G2 X116. Y-87.88 I4.675 J0.
N9745 G1 X116.325
N9750 Y-44.704
N9755 G3 X110.332 Y-45.188 Z-19.295 I-3.016 J0.
N9760 G1 X112.553 Y-58.868 Z-19.705
N9765 G2 X106.56 Y-59.352 Z-20. I-2.977 J-0.484
N9770 G1 Y-59.338
N9775 X106.552 Y-59.295
N9780 X106.531 Y-59.257
N9785 X106.498 Y-59.228
N9790 X106.457 Y-59.213
N9795 X106.413 Y-59.212
N9800 X106.372 Y-59.225
N9805 X106.337 Y-59.252
N9810 X106.326 Y-59.265
N9815 X106.304 Y-59.3
N9820 X106.294 Y-59.341
N9825 X106.298 Y-59.383
N9830 X106.36 Y-59.622
N9835 X106.375 Y-59.655
N9840 X106.401 Y-59.681
N9845 X106.435 Y-59.696
N9850 X106.471 Y-59.698
N9855 X106.506 Y-59.687
N9860 X106.534 Y-59.664
N9865 X106.553 Y-59.633
N9870 X106.56 Y-59.597
N9875 Y-59.352
N9880 G2 X108.227 Y-56.851 I2.709 J0.
N9885 G3 X109.894 Y-54.35 I-1.042 J2.501
N9890 G1 Y-43.598
N9895 X109.887 Y-43.563
N9900 X109.868 Y-43.534
N9905 X109.84 Y-43.514
N9910 X109.806 Y-43.506
N9915 X109.771 Y-43.511
N9920 X109.741 Y-43.528
N9925 X109.719 Y-43.556
N9930 X109.71 Y-43.59
N9935 G2 X102.815 Y-58.107 I-23.055 J2.053
N9940 G3 X102.652 Y-58.735 I0.436 J-0.448
N9945 G2 X104.082 Y-65.075 I-45.676 J-13.636
N9950 X104.581 Y-71.557 I-41.85 J-6.481
N9955 X104.38 Y-75.525 I-39.238 J0.
N9960 X103.83 Y-79.46 I-52.61 J5.348
N9965 G3 X104.07 Y-79.977 I0.488 J-0.087
N9970 G2 X108.321 Y-84.124 I-6.055 J-10.46
N9975 G3 X108.703 Y-84.182 I0.216 J0.132
N9980 G2 X109.556 Y-83.509 I7.165 J-8.205
N9985 G3 X109.894 Y-82.853 I-0.468 J0.656
N9990 G1 Y-54.35
N9995 G2 X111.826 Y-51.453 I3.139 J0.
N10000 G3 X113.757 Y-48.556 I-1.207 J2.897
N10005 G1 Y-38.117
N10010 G3 X113.438 Y-37.798 I-0.319 J0.
N10015 G1 X105.877
N10020 G3 X105.624 Y-38.102 I0. J-0.258
N10025 G2 X98.302 Y-56.901 I-18.871 J-3.476
N10030 G3 X98.145 Y-57.439 I0.283 J-0.374
N10035 G2 X99.311 Y-81.997 I-38.043 J-14.111
N10040 G3 X99.535 Y-82.353 I0.278 J-0.073
N10045 G2 X104.372 Y-85.184 I-1.542 J-8.179
N10050 X106.288 Y-90.451 I-6.282 J-5.267
N10055 G1 X106.243 Y-104.993
N10060 G3 X106.562 Y-105.312 I0.319 J0.
N10065 G1 X108.438
N10070 G3 X108.757 Y-104.993 I0. J0.319
N10075 G1 X108.712 Y-92.539
N10080 G2 X110.018 Y-88.429 I7.124 J0.
N10085 X113.425 Y-85.785 I6.038 J-4.265
N10090 G3 X113.757 Y-85.303 I-0.184 J0.482
N10095 G1 Y-48.556
N10100 G2 X115.041 Y-46.63 I2.086 J0.
N10105 G3 X116.325 Y-44.704 I-0.802 J1.926
N10110 G1 Y-35.23
N10115 X102.122
N10120 G2 X95.782 Y-55.536 I-15.429 J-6.325
N10125 G3 X95.277 Y-57.148 I0.722 J-1.111
N10130 G2 X96.33 Y-83.051 I-35.277 J-14.408
N10135 G3 X97.593 Y-84.776 I1.263 J-0.4
N10140 G1 X98.
N10145 G2 X103.675 Y-90.451 I0. J-5.675
N10150 G1 Y-107.88
N10155 X111.325
N10160 Y-92.555
N10165 G2 X116. Y-87.88 I4.675 J0.
N10170 G1 X116.325
N10175 Y-44.704
N10180 G3 X110.332 Y-45.188 Z-20.295 I-3.016 J0.
N10185 G1 X112.553 Y-58.868 Z-20.705
N10190 G2 X106.56 Y-59.352 Z-21. I-2.977 J-0.484
N10195 G1 Y-59.338
N10200 X106.552 Y-59.295
N10205 X106.531 Y-59.257
N10210 X106.498 Y-59.228
N10215 X106.457 Y-59.213
N10220 X106.413 Y-59.212
N10225 X106.372 Y-59.225
N10230 X106.337 Y-59.252
N10235 X106.326 Y-59.265
N10240 X106.304 Y-59.3
N10245 X106.294 Y-59.341
N10250 X106.298 Y-59.383
N10255 X106.36 Y-59.622
N10260 X106.375 Y-59.655
N10265 X106.401 Y-59.681
N10270 X106.435 Y-59.696
N10275 X106.471 Y-59.698
N10280 X106.506 Y-59.687
N10285 X106.534 Y-59.664
N10290 X106.553 Y-59.633
N10295 X106.56 Y-59.597
N10300 Y-59.352
N10305 G2 X108.227 Y-56.851 I2.709 J0.
N10310 G3 X109.894 Y-54.35 I-1.042 J2.501
N10315 G1 Y-43.598
N10320 X109.887 Y-43.563
N10325 X109.868 Y-43.534
N10330 X109.84 Y-43.514
N10335 X109.806 Y-43.506
N10340 X109.771 Y-43.511
N10345 X109.741 Y-43.528
N10350 X109.719 Y-43.556
N10355 X109.71 Y-43.59
N10360 G2 X102.815 Y-58.107 I-23.055 J2.053
N10365 G3 X102.652 Y-58.735 I0.436 J-0.448
N10370 G2 X104.082 Y-65.075 I-45.676 J-13.636
N10375 X104.581 Y-71.557 I-41.85 J-6.481
N10380 X104.38 Y-75.525 I-39.238 J0.
N10385 X103.83 Y-79.46 I-52.61 J5.348
N10390 G3 X104.07 Y-79.977 I0.488 J-0.087
N10395 G2 X108.321 Y-84.124 I-6.055 J-10.46
N10400 G3 X108.703 Y-84.182 I0.216 J0.132
N10405 G2 X109.556 Y-83.509 I7.165 J-8.205
N10410 G3 X109.894 Y-82.853 I-0.468 J0.656
N10415 G1 Y-54.35
N10420 G2 X111.826 Y-51.453 I3.139 J0.
N10425 G3 X113.757 Y-48.556 I-1.207 J2.897
N10430 G1 Y-38.117
N10435 G3 X113.438 Y-37.798 I-0.319 J0.
N10440 G1 X105.877
N10445 G3 X105.624 Y-38.102 I0. J-0.258
N10450 G2 X98.302 Y-56.901 I-18.871 J-3.476
N10455 G3 X98.145 Y-57.439 I0.283 J-0.374
N10460 G2 X99.311 Y-81.997 I-38.043 J-14.111
N10465 G3 X99.535 Y-82.353 I0.278 J-0.073
N10470 G2 X104.372 Y-85.184 I-1.542 J-8.179
N10475 X106.288 Y-90.451 I-6.282 J-5.267
N10480 G1 X106.243 Y-104.993
N10485 G3 X106.562 Y-105.312 I0.319 J0.
N10490 G1 X108.438
N10495 G3 X108.757 Y-104.993 I0. J0.319
N10500 G1 X108.712 Y-92.539
N10505 G2 X110.018 Y-88.429 I7.124 J0.
N10510 X113.425 Y-85.785 I6.038 J-4.265
N10515 G3 X113.757 Y-85.303 I-0.184 J0.482
N10520 G1 Y-48.556
N10525 G2 X115.041 Y-46.63 I2.086 J0.
N10530 G3 X116.325 Y-44.704 I-0.802 J1.926
N10535 G1 Y-35.23
N10540 X102.122
N10545 G2 X95.782 Y-55.536 I-15.429 J-6.325
N10550 G3 X95.277 Y-57.148 I0.722 J-1.111
N10555 G2 X96.33 Y-83.051 I-35.277 J-14.408
N10560 G3 X97.593 Y-84.776 I1.263 J-0.4
N10565 G1 X98.
N10570 G2 X103.675 Y-90.451 I0. J-5.675
N10575 G1 Y-107.88
N10580 X111.325
N10585 Y-92.555
N10590 G2 X116. Y-87.88 I4.675 J0.
N10595 G1 X116.325
N10600 Y-44.704
N10605 G3 X110.332 Y-45.188 Z-21.295 I-3.016 J0.
N10610 G1 X112.553 Y-58.868 Z-21.705
N10615 G2 X106.56 Y-59.352 Z-22. I-2.977 J-0.484
N10620 G1 Y-59.338
N10625 X106.552 Y-59.295
N10630 X106.531 Y-59.257
N10635 X106.498 Y-59.228
N10640 X106.457 Y-59.213
N10645 X106.413 Y-59.212
N10650 X106.372 Y-59.225
N10655 X106.337 Y-59.252
N10660 X106.326 Y-59.265
N10665 X106.304 Y-59.3
N10670 X106.294 Y-59.341
N10675 X106.298 Y-59.383
N10680 X106.36 Y-59.622
N10685 X106.375 Y-59.655
N10690 X106.401 Y-59.681
N10695 X106.435 Y-59.696
N10700 X106.471 Y-59.698
N10705 X106.506 Y-59.687
N10710 X106.534 Y-59.664
N10715 X106.553 Y-59.633
N10720 X106.56 Y-59.597
N10725 Y-59.352
N10730 G2 X108.227 Y-56.851 I2.709 J0.
N10735 G3 X109.894 Y-54.35 I-1.042 J2.501
N10740 G1 Y-43.598
N10745 X109.887 Y-43.563
N10750 X109.868 Y-43.534
N10755 X109.84 Y-43.514
N10760 X109.806 Y-43.506
N10765 X109.771 Y-43.511
N10770 X109.741 Y-43.528
N10775 X109.719 Y-43.556
N10780 X109.71 Y-43.59
N10785 G2 X102.815 Y-58.107 I-23.055 J2.053
N10790 G3 X102.652 Y-58.735 I0.436 J-0.448
N10795 G2 X104.082 Y-65.075 I-45.676 J-13.636
N10800 X104.581 Y-71.557 I-41.85 J-6.481
N10805 X104.38 Y-75.525 I-39.238 J0.
N10810 X103.83 Y-79.46 I-52.61 J5.348
N10815 G3 X104.07 Y-79.977 I0.488 J-0.087
N10820 G2 X108.321 Y-84.124 I-6.055 J-10.46
N10825 G3 X108.703 Y-84.182 I0.216 J0.132
N10830 G2 X109.556 Y-83.509 I7.165 J-8.205
N10835 G3 X109.894 Y-82.853 I-0.468 J0.656
N10840 G1 Y-54.35
N10845 G2 X111.826 Y-51.453 I3.139 J0.
N10850 G3 X113.757 Y-48.556 I-1.207 J2.897
N10855 G1 Y-38.117
N10860 G3 X113.438 Y-37.798 I-0.319 J0.
N10865 G1 X105.877
N10870 G3 X105.624 Y-38.102 I0. J-0.258
N10875 G2 X98.302 Y-56.901 I-18.871 J-3.476
N10880 G3 X98.145 Y-57.439 I0.283 J-0.374
N10885 G2 X99.311 Y-81.997 I-38.043 J-14.111
N10890 G3 X99.535 Y-82.353 I0.278 J-0.073
N10895 G2 X104.372 Y-85.184 I-1.542 J-8.179
N10900 X106.288 Y-90.451 I-6.282 J-5.267
N10905 G1 X106.243 Y-104.993
N10910 G3 X106.562 Y-105.312 I0.319 J0.
N10915 G1 X108.438
N10920 G3 X108.757 Y-104.993 I0. J0.319
N10925 G1 X108.712 Y-92.539
N10930 G2 X110.018 Y-88.429 I7.124 J0.
N10935 X113.425 Y-85.785 I6.038 J-4.265
N10940 G3 X113.757 Y-85.303 I-0.184 J0.482
N10945 G1 Y-48.556
N10950 G2 X115.041 Y-46.63 I2.086 J0.
N10955 G3 X116.325 Y-44.704 I-0.802 J1.926
N10960 G1 Y-35.23
N10965 X102.122
N10970 G2 X95.782 Y-55.536 I-15.429 J-6.325
N10975 G3 X95.277 Y-57.148 I0.722 J-1.111
N10980 G2 X96.33 Y-83.051 I-35.277 J-14.408
N10985 G3 X97.593 Y-84.776 I1.263 J-0.4
N10990 G1 X98.
N10995 G2 X103.675 Y-90.451 I0. J-5.675
N11000 G1 Y-107.88
N11005 X111.325
N11010 Y-92.555
N11015 G2 X116. Y-87.88 I4.675 J0.
N11020 G1 X116.325
N11025 Y-44.704
N11030 G3 X110.332 Y-45.188 Z-22.295 I-3.016 J0.
N11035 G1 X112.553 Y-58.868 Z-22.705
N11040 G2 X106.56 Y-59.352 Z-23. I-2.977 J-0.484
N11045 G1 Y-59.338
N11050 X106.552 Y-59.295
N11055 X106.531 Y-59.257
N11060 X106.498 Y-59.228
N11065 X106.457 Y-59.213
N11070 X106.413 Y-59.212
N11075 X106.372 Y-59.225
N11080 X106.337 Y-59.252
N11085 X106.326 Y-59.265
N11090 X106.304 Y-59.3
N11095 X106.294 Y-59.341
N11100 X106.298 Y-59.383
N11105 X106.36 Y-59.622
N11110 X106.375 Y-59.655
N11115 X106.401 Y-59.681
N11120 X106.435 Y-59.696
N11125 X106.471 Y-59.698
N11130 X106.506 Y-59.687
N11135 X106.534 Y-59.664
N11140 X106.553 Y-59.633
N11145 X106.56 Y-59.597
N11150 Y-59.352
N11155 G2 X108.227 Y-56.851 I2.709 J0.
N11160 G3 X109.894 Y-54.35 I-1.042 J2.501
N11165 G1 Y-43.598
N11170 X109.887 Y-43.563
N11175 X109.868 Y-43.534
N11180 X109.84 Y-43.514
N11185 X109.806 Y-43.506
N11190 X109.771 Y-43.511
N11195 X109.741 Y-43.528
N11200 X109.719 Y-43.556
N11205 X109.71 Y-43.59
N11210 G2 X102.815 Y-58.107 I-23.055 J2.053
N11215 G3 X102.652 Y-58.735 I0.436 J-0.448
N11220 G2 X104.082 Y-65.075 I-45.676 J-13.636
N11225 X104.581 Y-71.557 I-41.85 J-6.481
N11230 X104.38 Y-75.525 I-39.238 J0.
N11235 X103.83 Y-79.46 I-52.61 J5.348
N11240 G3 X104.07 Y-79.977 I0.488 J-0.087
N11245 G2 X108.321 Y-84.124 I-6.055 J-10.46
N11250 G3 X108.703 Y-84.182 I0.216 J0.132
N11255 G2 X109.556 Y-83.509 I7.165 J-8.205
N11260 G3 X109.894 Y-82.853 I-0.468 J0.656
N11265 G1 Y-54.35
N11270 G2 X111.826 Y-51.453 I3.139 J0.
N11275 G3 X113.757 Y-48.556 I-1.207 J2.897
N11280 G1 Y-38.117
N11285 G3 X113.438 Y-37.798 I-0.319 J0.
N11290 G1 X105.877
N11295 G3 X105.624 Y-38.102 I0. J-0.258
N11300 G2 X98.302 Y-56.901 I-18.871 J-3.476
N11305 G3 X98.145 Y-57.439 I0.283 J-0.374
N11310 G2 X99.311 Y-81.997 I-38.043 J-14.111
N11315 G3 X99.535 Y-82.353 I0.278 J-0.073
N11320 G2 X104.372 Y-85.184 I-1.542 J-8.179
N11325 X106.288 Y-90.451 I-6.282 J-5.267
N11330 G1 X106.243 Y-104.993
N11335 G3 X106.562 Y-105.312 I0.319 J0.
N11340 G1 X108.438
N11345 G3 X108.757 Y-104.993 I0. J0.319
N11350 G1 X108.712 Y-92.539
N11355 G2 X110.018 Y-88.429 I7.124 J0.
N11360 X113.425 Y-85.785 I6.038 J-4.265
N11365 G3 X113.757 Y-85.303 I-0.184 J0.482
N11370 G1 Y-48.556
N11375 G2 X115.041 Y-46.63 I2.086 J0.
N11380 G3 X116.325 Y-44.704 I-0.802 J1.926
N11385 G1 Y-35.23
N11390 X102.122
N11395 G2 X95.782 Y-55.536 I-15.429 J-6.325
N11400 G3 X95.277 Y-57.148 I0.722 J-1.111
N11405 G2 X96.33 Y-83.051 I-35.277 J-14.408
N11410 G3 X97.593 Y-84.776 I1.263 J-0.4
N11415 G1 X98.
N11420 G2 X103.675 Y-90.451 I0. J-5.675
N11425 G1 Y-107.88
N11430 X111.325
N11435 Y-92.555
N11440 G2 X116. Y-87.88 I4.675 J0.
N11445 G1 X116.325
N11450 Y-44.704
N11455 G3 X110.332 Y-45.188 Z-23.295 I-3.016 J0.
N11460 G1 X112.553 Y-58.868 Z-23.705
N11465 G2 X106.56 Y-59.352 Z-24. I-2.977 J-0.484
N11470 G1 Y-59.338
N11475 X106.552 Y-59.295
N11480 X106.531 Y-59.257
N11485 X106.498 Y-59.228
N11490 X106.457 Y-59.213
N11495 X106.413 Y-59.212
N11500 X106.372 Y-59.225
N11505 X106.337 Y-59.252
N11510 X106.326 Y-59.265
N11515 X106.304 Y-59.3
N11520 X106.294 Y-59.341
N11525 X106.298 Y-59.383
N11530 X106.36 Y-59.622
N11535 X106.375 Y-59.655
N11540 X106.401 Y-59.681
N11545 X106.435 Y-59.696
N11550 X106.471 Y-59.698
N11555 X106.506 Y-59.687
N11560 X106.534 Y-59.664
N11565 X106.553 Y-59.633
N11570 X106.56 Y-59.597
N11575 Y-59.352
N11580 G2 X108.227 Y-56.851 I2.709 J0.
N11585 G3 X109.894 Y-54.35 I-1.042 J2.501
N11590 G1 Y-43.598
N11595 X109.887 Y-43.563
N11600 X109.868 Y-43.534
N11605 X109.84 Y-43.514
N11610 X109.806 Y-43.506
N11615 X109.771 Y-43.511
N11620 X109.741 Y-43.528
N11625 X109.719 Y-43.556
N11630 X109.71 Y-43.59
N11635 G2 X102.815 Y-58.107 I-23.055 J2.053
N11640 G3 X102.652 Y-58.735 I0.436 J-0.448
N11645 G2 X104.082 Y-65.075 I-45.676 J-13.636
N11650 X104.581 Y-71.557 I-41.85 J-6.481
N11655 X104.38 Y-75.525 I-39.238 J0.
N11660 X103.83 Y-79.46 I-52.61 J5.348
N11665 G3 X104.07 Y-79.977 I0.488 J-0.087
N11670 G2 X108.321 Y-84.124 I-6.055 J-10.46
N11675 G3 X108.703 Y-84.182 I0.216 J0.132
N11680 G2 X109.556 Y-83.509 I7.165 J-8.205
N11685 G3 X109.894 Y-82.853 I-0.468 J0.656
N11690 G1 Y-54.35
N11695 G2 X111.826 Y-51.453 I3.139 J0.
N11700 G3 X113.757 Y-48.556 I-1.207 J2.897
N11705 G1 Y-38.117
N11710 G3 X113.438 Y-37.798 I-0.319 J0.
N11715 G1 X105.877
N11720 G3 X105.624 Y-38.102 I0. J-0.258
N11725 G2 X98.302 Y-56.901 I-18.871 J-3.476
N11730 G3 X98.145 Y-57.439 I0.283 J-0.374
N11735 G2 X99.311 Y-81.997 I-38.043 J-14.111
N11740 G3 X99.535 Y-82.353 I0.278 J-0.073
N11745 G2 X104.372 Y-85.184 I-1.542 J-8.179
N11750 X106.288 Y-90.451 I-6.282 J-5.267
N11755 G1 X106.243 Y-104.993
N11760 G3 X106.562 Y-105.312 I0.319 J0.
N11765 G1 X108.438
N11770 G3 X108.757 Y-104.993 I0. J0.319
N11775 G1 X108.712 Y-92.539
N11780 G2 X110.018 Y-88.429 I7.124 J0.
N11785 X113.425 Y-85.785 I6.038 J-4.265
N11790 G3 X113.757 Y-85.303 I-0.184 J0.482
N11795 G1 Y-48.556
N11800 G2 X115.041 Y-46.63 I2.086 J0.
N11805 G3 X116.325 Y-44.704 I-0.802 J1.926
N11810 G1 Y-35.23
N11815 X102.122
N11820 G2 X95.782 Y-55.536 I-15.429 J-6.325
N11825 G3 X95.277 Y-57.148 I0.722 J-1.111
N11830 G2 X96.33 Y-83.051 I-35.277 J-14.408
N11835 G3 X97.593 Y-84.776 I1.263 J-0.4
N11840 G1 X98.
N11845 G2 X103.675 Y-90.451 I0. J-5.675
N11850 G1 Y-107.88
N11855 X111.325
N11860 Y-92.555
N11865 G2 X116. Y-87.88 I4.675 J0.
N11870 G1 X116.325
N11875 Y-44.704
N11880 G3 X110.332 Y-45.188 Z-24.295 I-3.016 J0.
N11885 G1 X112.553 Y-58.868 Z-24.705
N11890 G2 X106.56 Y-59.352 Z-25. I-2.977 J-0.484
N11895 G1 Y-59.338
N11900 X106.552 Y-59.295
N11905 X106.531 Y-59.257
N11910 X106.498 Y-59.228
N11915 X106.457 Y-59.213
N11920 X106.413 Y-59.212
N11925 X106.372 Y-59.225
N11930 X106.337 Y-59.252
N11935 X106.326 Y-59.265
N11940 X106.304 Y-59.3
N11945 X106.294 Y-59.341
N11950 X106.298 Y-59.383
N11955 X106.36 Y-59.622
N11960 X106.375 Y-59.655
N11965 X106.401 Y-59.681
N11970 X106.435 Y-59.696
N11975 X106.471 Y-59.698
N11980 X106.506 Y-59.687
N11985 X106.534 Y-59.664
N11990 X106.553 Y-59.633
N11995 X106.56 Y-59.597
N12000 Y-59.352
N12005 G2 X108.227 Y-56.851 I2.709 J0.
N12010 G3 X109.894 Y-54.35 I-1.042 J2.501
N12015 G1 Y-43.598
N12020 X109.887 Y-43.563
N12025 X109.868 Y-43.534
N12030 X109.84 Y-43.514
N12035 X109.806 Y-43.506
N12040 X109.771 Y-43.511
N12045 X109.741 Y-43.528
N12050 X109.719 Y-43.556
N12055 X109.71 Y-43.59
N12060 G2 X102.815 Y-58.107 I-23.055 J2.053
N12065 G3 X102.652 Y-58.735 I0.436 J-0.448
N12070 G2 X104.082 Y-65.075 I-45.676 J-13.636
N12075 X104.581 Y-71.557 I-41.85 J-6.481
N12080 X104.38 Y-75.525 I-39.238 J0.
N12085 X103.83 Y-79.46 I-52.61 J5.348
N12090 G3 X104.07 Y-79.977 I0.488 J-0.087
N12095 G2 X108.321 Y-84.124 I-6.055 J-10.46
N12100 G3 X108.703 Y-84.182 I0.216 J0.132
N12105 G2 X109.556 Y-83.509 I7.165 J-8.205
N12110 G3 X109.894 Y-82.853 I-0.468 J0.656
N12115 G1 Y-54.35
N12120 G2 X111.826 Y-51.453 I3.139 J0.
N12125 G3 X113.757 Y-48.556 I-1.207 J2.897
N12130 G1 Y-38.117
N12135 G3 X113.438 Y-37.798 I-0.319 J0.
N12140 G1 X105.877
N12145 G3 X105.624 Y-38.102 I0. J-0.258
N12150 G2 X98.302 Y-56.901 I-18.871 J-3.476
N12155 G3 X98.145 Y-57.439 I0.283 J-0.374
N12160 G2 X99.311 Y-81.997 I-38.043 J-14.111
N12165 G3 X99.535 Y-82.353 I0.278 J-0.073
N12170 G2 X104.372 Y-85.184 I-1.542 J-8.179
N12175 X106.288 Y-90.451 I-6.282 J-5.267
N12180 G1 X106.243 Y-104.993
N12185 G3 X106.562 Y-105.312 I0.319 J0.
N12190 G1 X108.438
N12195 G3 X108.757 Y-104.993 I0. J0.319
N12200 G1 X108.712 Y-92.539
N12205 G2 X110.018 Y-88.429 I7.124 J0.
N12210 X113.425 Y-85.785 I6.038 J-4.265
N12215 G3 X113.757 Y-85.303 I-0.184 J0.482
N12220 G1 Y-48.556
N12225 G2 X115.041 Y-46.63 I2.086 J0.
N12230 G3 X116.325 Y-44.704 I-0.802 J1.926
N12235 G1 Y-35.23
N12240 X102.122
N12245 G2 X95.782 Y-55.536 I-15.429 J-6.325
N12250 G3 X95.277 Y-57.148 I0.722 J-1.111
N12255 G2 X96.33 Y-83.051 I-35.277 J-14.408
N12260 G3 X97.593 Y-84.776 I1.263 J-0.4
N12265 G1 X98.
N12270 G2 X103.675 Y-90.451 I0. J-5.675
N12275 G1 Y-107.88
N12280 X111.325
N12285 Y-92.555
N12290 G2 X116. Y-87.88 I4.675 J0.
N12295 G1 X116.325
N12300 Y-44.704
N12305 G3 X110.332 Y-45.188 Z-25.295 I-3.016 J0.
N12310 G1 X112.553 Y-58.868 Z-25.705
N12315 G2 X106.56 Y-59.352 Z-26. I-2.977 J-0.484
N12320 G1 Y-59.338
N12325 X106.552 Y-59.295
N12330 X106.531 Y-59.257
N12335 X106.498 Y-59.228
N12340 X106.457 Y-59.213
N12345 X106.413 Y-59.212
N12350 X106.372 Y-59.225
N12355 X106.337 Y-59.252
N12360 X106.326 Y-59.265
N12365 X106.304 Y-59.3
N12370 X106.294 Y-59.341
N12375 X106.298 Y-59.383
N12380 X106.36 Y-59.622
N12385 X106.375 Y-59.655
N12390 X106.401 Y-59.681
N12395 X106.435 Y-59.696
N12400 X106.471 Y-59.698
N12405 X106.506 Y-59.687
N12410 X106.534 Y-59.664
N12415 X106.553 Y-59.633
N12420 X106.56 Y-59.597
N12425 Y-59.352
N12430 G2 X108.227 Y-56.851 I2.709 J0.
N12435 G3 X109.894 Y-54.35 I-1.042 J2.501
N12440 G1 Y-43.598
N12445 X109.887 Y-43.563
N12450 X109.868 Y-43.534
N12455 X109.84 Y-43.514
N12460 X109.806 Y-43.506
N12465 X109.771 Y-43.511
N12470 X109.741 Y-43.528
N12475 X109.719 Y-43.556
N12480 X109.71 Y-43.59
N12485 G2 X102.815 Y-58.107 I-23.055 J2.053
N12490 G3 X102.652 Y-58.735 I0.436 J-0.448
N12495 G2 X104.082 Y-65.075 I-45.676 J-13.636
N12500 X104.581 Y-71.557 I-41.85 J-6.481
N12505 X104.38 Y-75.525 I-39.238 J0.
N12510 X103.83 Y-79.46 I-52.61 J5.348
N12515 G3 X104.07 Y-79.977 I0.488 J-0.087
N12520 G2 X108.321 Y-84.124 I-6.055 J-10.46
N12525 G3 X108.703 Y-84.182 I0.216 J0.132
N12530 G2 X109.556 Y-83.509 I7.165 J-8.205
N12535 G3 X109.894 Y-82.853 I-0.468 J0.656
N12540 G1 Y-54.35
N12545 G2 X111.826 Y-51.453 I3.139 J0.
N12550 G3 X113.757 Y-48.556 I-1.207 J2.897
N12555 G1 Y-38.117
N12560 G3 X113.438 Y-37.798 I-0.319 J0.
N12565 G1 X105.877
N12570 G3 X105.624 Y-38.102 I0. J-0.258
N12575 G2 X98.302 Y-56.901 I-18.871 J-3.476
N12580 G3 X98.145 Y-57.439 I0.283 J-0.374
N12585 G2 X99.311 Y-81.997 I-38.043 J-14.111
N12590 G3 X99.535 Y-82.353 I0.278 J-0.073
N12595 G2 X104.372 Y-85.184 I-1.542 J-8.179
N12600 X106.288 Y-90.451 I-6.282 J-5.267
N12605 G1 X106.243 Y-104.993
N12610 G3 X106.562 Y-105.312 I0.319 J0.
N12615 G1 X108.438
N12620 G3 X108.757 Y-104.993 I0. J0.319
N12625 G1 X108.712 Y-92.539
N12630 G2 X110.018 Y-88.429 I7.124 J0.
N12635 X113.425 Y-85.785 I6.038 J-4.265
N12640 G3 X113.757 Y-85.303 I-0.184 J0.482
N12645 G1 Y-48.556
N12650 G2 X115.041 Y-46.63 I2.086 J0.
N12655 G3 X116.325 Y-44.704 I-0.802 J1.926
N12660 G1 Y-35.23
N12665 X102.122
N12670 G2 X95.782 Y-55.536 I-15.429 J-6.325
N12675 G3 X95.277 Y-57.148 I0.722 J-1.111
N12680 G2 X96.33 Y-83.051 I-35.277 J-14.408
N12685 G3 X97.593 Y-84.776 I1.263 J-0.4
N12690 G1 X98.
N12695 G2 X103.675 Y-90.451 I0. J-5.675
N12700 G1 Y-107.88
N12705 X111.325
N12710 Y-92.555
N12715 G2 X116. Y-87.88 I4.675 J0.
N12720 G1 X116.325
N12725 Y-44.704
N12730 G3 X110.332 Y-45.188 Z-26.295 I-3.016 J0.
N12735 G1 X112.553 Y-58.868 Z-26.705
N12740 G2 X106.56 Y-59.352 Z-27. I-2.977 J-0.484
N12745 G1 Y-59.338
N12750 X106.552 Y-59.295
N12755 X106.531 Y-59.257
N12760 X106.498 Y-59.228
N12765 X106.457 Y-59.213
N12770 X106.413 Y-59.212
N12775 X106.372 Y-59.225
N12780 X106.337 Y-59.252
N12785 X106.326 Y-59.265
N12790 X106.304 Y-59.3
N12795 X106.294 Y-59.341
N12800 X106.298 Y-59.383
N12805 X106.36 Y-59.622
N12810 X106.375 Y-59.655
N12815 X106.401 Y-59.681
N12820 X106.435 Y-59.696
N12825 X106.471 Y-59.698
N12830 X106.506 Y-59.687
N12835 X106.534 Y-59.664
N12840 X106.553 Y-59.633
N12845 X106.56 Y-59.597
N12850 Y-59.352
N12855 G2 X108.227 Y-56.851 I2.709 J0.
N12860 G3 X109.894 Y-54.35 I-1.042 J2.501
N12865 G1 Y-43.598
N12870 X109.887 Y-43.563
N12875 X109.868 Y-43.534
N12880 X109.84 Y-43.514
N12885 X109.806 Y-43.506
N12890 X109.771 Y-43.511
N12895 X109.741 Y-43.528
N12900 X109.719 Y-43.556
N12905 X109.71 Y-43.59
N12910 G2 X102.815 Y-58.107 I-23.055 J2.053
N12915 G3 X102.652 Y-58.735 I0.436 J-0.448
N12920 G2 X104.082 Y-65.075 I-45.676 J-13.636
N12925 X104.581 Y-71.557 I-41.85 J-6.481
N12930 X104.38 Y-75.525 I-39.238 J0.
N12935 X103.83 Y-79.46 I-52.61 J5.348
N12940 G3 X104.07 Y-79.977 I0.488 J-0.087
N12945 G2 X108.321 Y-84.124 I-6.055 J-10.46
N12950 G3 X108.703 Y-84.182 I0.216 J0.132
N12955 G2 X109.556 Y-83.509 I7.165 J-8.205
N12960 G3 X109.894 Y-82.853 I-0.468 J0.656
N12965 G1 Y-54.35
N12970 G2 X111.826 Y-51.453 I3.139 J0.
N12975 G3 X113.757 Y-48.556 I-1.207 J2.897
N12980 G1 Y-38.117
N12985 G3 X113.438 Y-37.798 I-0.319 J0.
N12990 G1 X105.877
N12995 G3 X105.624 Y-38.102 I0. J-0.258
N13000 G2 X98.302 Y-56.901 I-18.871 J-3.476
N13005 G3 X98.145 Y-57.439 I0.283 J-0.374
N13010 G2 X99.311 Y-81.997 I-38.043 J-14.111
N13015 G3 X99.535 Y-82.353 I0.278 J-0.073
N13020 G2 X104.372 Y-85.184 I-1.542 J-8.179
N13025 X106.288 Y-90.451 I-6.282 J-5.267
N13030 G1 X106.243 Y-104.993
N13035 G3 X106.562 Y-105.312 I0.319 J0.
N13040 G1 X108.438
N13045 G3 X108.757 Y-104.993 I0. J0.319
N13050 G1 X108.712 Y-92.539
N13055 G2 X110.018 Y-88.429 I7.124 J0.
N13060 X113.425 Y-85.785 I6.038 J-4.265
N13065 G3 X113.757 Y-85.303 I-0.184 J0.482
N13070 G1 Y-48.556
N13075 G2 X115.041 Y-46.63 I2.086 J0.
N13080 G3 X116.325 Y-44.704 I-0.802 J1.926
N13085 G1 Y-35.23
N13090 X102.122
N13095 G2 X95.782 Y-55.536 I-15.429 J-6.325
N13100 G3 X95.277 Y-57.148 I0.722 J-1.111
N13105 G2 X96.33 Y-83.051 I-35.277 J-14.408
N13110 G3 X97.593 Y-84.776 I1.263 J-0.4
N13115 G1 X98.
N13120 G2 X103.675 Y-90.451 I0. J-5.675
N13125 G1 Y-107.88
N13130 X111.325
N13135 Y-92.555
N13140 G2 X116. Y-87.88 I4.675 J0.
N13145 G1 X116.325
N13150 Y-44.704
N13155 G3 X110.332 Y-45.188 Z-27.295 I-3.016 J0.
N13160 G1 X112.553 Y-58.868 Z-27.705
N13165 G2 X106.56 Y-59.352 Z-28. I-2.977 J-0.484
N13170 G1 Y-59.338
N13175 X106.552 Y-59.295
N13180 X106.531 Y-59.257
N13185 X106.498 Y-59.228
N13190 X106.457 Y-59.213
N13195 X106.413 Y-59.212
N13200 X106.372 Y-59.225
N13205 X106.337 Y-59.252
N13210 X106.326 Y-59.265
N13215 X106.304 Y-59.3
N13220 X106.294 Y-59.341
N13225 X106.298 Y-59.383
N13230 X106.36 Y-59.622
N13235 X106.375 Y-59.655
N13240 X106.401 Y-59.681
N13245 X106.435 Y-59.696
N13250 X106.471 Y-59.698
N13255 X106.506 Y-59.687
N13260 X106.534 Y-59.664
N13265 X106.553 Y-59.633
N13270 X106.56 Y-59.597
N13275 Y-59.352
N13280 G2 X108.227 Y-56.851 I2.709 J0.
N13285 G3 X109.894 Y-54.35 I-1.042 J2.501
N13290 G1 Y-43.598
N13295 X109.887 Y-43.563
N13300 X109.868 Y-43.534
N13305 X109.84 Y-43.514
N13310 X109.806 Y-43.506
N13315 X109.771 Y-43.511
N13320 X109.741 Y-43.528
N13325 X109.719 Y-43.556
N13330 X109.71 Y-43.59
N13335 G2 X102.815 Y-58.107 I-23.055 J2.053
N13340 G3 X102.652 Y-58.735 I0.436 J-0.448
N13345 G2 X104.082 Y-65.075 I-45.676 J-13.636
N13350 X104.581 Y-71.557 I-41.85 J-6.481
N13355 X104.38 Y-75.525 I-39.238 J0.
N13360 X103.83 Y-79.46 I-52.61 J5.348
N13365 G3 X104.07 Y-79.977 I0.488 J-0.087
N13370 G2 X108.321 Y-84.124 I-6.055 J-10.46
N13375 G3 X108.703 Y-84.182 I0.216 J0.132
N13380 G2 X109.556 Y-83.509 I7.165 J-8.205
N13385 G3 X109.894 Y-82.853 I-0.468 J0.656
N13390 G1 Y-54.35
N13395 G2 X111.826 Y-51.453 I3.139 J0.
N13400 G3 X113.757 Y-48.556 I-1.207 J2.897
N13405 G1 Y-38.117
N13410 G3 X113.438 Y-37.798 I-0.319 J0.
N13415 G1 X105.877
N13420 G3 X105.624 Y-38.102 I0. J-0.258
N13425 G2 X98.302 Y-56.901 I-18.871 J-3.476
N13430 G3 X98.145 Y-57.439 I0.283 J-0.374
N13435 G2 X99.311 Y-81.997 I-38.043 J-14.111
N13440 G3 X99.535 Y-82.353 I0.278 J-0.073
N13445 G2 X104.372 Y-85.184 I-1.542 J-8.179
N13450 X106.288 Y-90.451 I-6.282 J-5.267
N13455 G1 X106.243 Y-104.993
N13460 G3 X106.562 Y-105.312 I0.319 J0.
N13465 G1 X108.438
N13470 G3 X108.757 Y-104.993 I0. J0.319
N13475 G1 X108.712 Y-92.539
N13480 G2 X110.018 Y-88.429 I7.124 J0.
N13485 X113.425 Y-85.785 I6.038 J-4.265
N13490 G3 X113.757 Y-85.303 I-0.184 J0.482
N13495 G1 Y-48.556
N13500 G2 X115.041 Y-46.63 I2.086 J0.
N13505 G3 X116.325 Y-44.704 I-0.802 J1.926
N13510 G1 Y-35.23
N13515 X102.122
N13520 G2 X95.782 Y-55.536 I-15.429 J-6.325
N13525 G3 X95.277 Y-57.148 I0.722 J-1.111
N13530 G2 X96.33 Y-83.051 I-35.277 J-14.408
N13535 G3 X97.593 Y-84.776 I1.263 J-0.4
N13540 G1 X98.
N13545 G2 X103.675 Y-90.451 I0. J-5.675
N13550 G1 Y-107.88
N13555 X111.325
N13560 Y-92.555
N13565 G2 X116. Y-87.88 I4.675 J0.
N13570 G1 X116.325
N13575 Y-44.704
N13580 G3 X110.332 Y-45.188 Z-28.295 I-3.016 J0.
N13585 G1 X112.553 Y-58.868 Z-28.705
N13590 G2 X106.56 Y-59.352 Z-29. I-2.977 J-0.484
N13595 G1 Y-59.338
N13600 X106.552 Y-59.295
N13605 X106.531 Y-59.257
N13610 X106.498 Y-59.228
N13615 X106.457 Y-59.213
N13620 X106.413 Y-59.212
N13625 X106.372 Y-59.225
N13630 X106.337 Y-59.252
N13635 X106.326 Y-59.265
N13640 X106.304 Y-59.3
N13645 X106.294 Y-59.341
N13650 X106.298 Y-59.383
N13655 X106.36 Y-59.622
N13660 X106.375 Y-59.655
N13665 X106.401 Y-59.681
N13670 X106.435 Y-59.696
N13675 X106.471 Y-59.698
N13680 X106.506 Y-59.687
N13685 X106.534 Y-59.664
N13690 X106.553 Y-59.633
N13695 X106.56 Y-59.597
N13700 Y-59.352
N13705 G2 X108.227 Y-56.851 I2.709 J0.
N13710 G3 X109.894 Y-54.35 I-1.042 J2.501
N13715 G1 Y-43.598
N13720 X109.887 Y-43.563
N13725 X109.868 Y-43.534
N13730 X109.84 Y-43.514
N13735 X109.806 Y-43.506
N13740 X109.771 Y-43.511
N13745 X109.741 Y-43.528
N13750 X109.719 Y-43.556
N13755 X109.71 Y-43.59
N13760 G2 X102.815 Y-58.107 I-23.055 J2.053
N13765 G3 X102.652 Y-58.735 I0.436 J-0.448
N13770 G2 X104.082 Y-65.075 I-45.676 J-13.636
N13775 X104.581 Y-71.557 I-41.85 J-6.481
N13780 X104.38 Y-75.525 I-39.238 J0.
N13785 X103.83 Y-79.46 I-52.61 J5.348
N13790 G3 X104.07 Y-79.977 I0.488 J-0.087
N13795 G2 X108.321 Y-84.124 I-6.055 J-10.46
N13800 G3 X108.703 Y-84.182 I0.216 J0.132
N13805 G2 X109.556 Y-83.509 I7.165 J-8.205
N13810 G3 X109.894 Y-82.853 I-0.468 J0.656
N13815 G1 Y-54.35
N13820 G2 X111.826 Y-51.453 I3.139 J0.
N13825 G3 X113.757 Y-48.556 I-1.207 J2.897
N13830 G1 Y-38.117
N13835 G3 X113.438 Y-37.798 I-0.319 J0.
N13840 G1 X105.877
N13845 G3 X105.624 Y-38.102 I0. J-0.258
N13850 G2 X98.302 Y-56.901 I-18.871 J-3.476
N13855 G3 X98.145 Y-57.439 I0.283 J-0.374
N13860 G2 X99.311 Y-81.997 I-38.043 J-14.111
N13865 G3 X99.535 Y-82.353 I0.278 J-0.073
N13870 G2 X104.372 Y-85.184 I-1.542 J-8.179
N13875 X106.288 Y-90.451 I-6.282 J-5.267
N13880 G1 X106.243 Y-104.993
N13885 G3 X106.562 Y-105.312 I0.319 J0.
N13890 G1 X108.438
N13895 G3 X108.757 Y-104.993 I0. J0.319
N13900 G1 X108.712 Y-92.539
N13905 G2 X110.018 Y-88.429 I7.124 J0.
N13910 X113.425 Y-85.785 I6.038 J-4.265
N13915 G3 X113.757 Y-85.303 I-0.184 J0.482
N13920 G1 Y-48.556
N13925 G2 X115.041 Y-46.63 I2.086 J0.
N13930 G3 X116.325 Y-44.704 I-0.802 J1.926
N13935 G1 Y-35.23
N13940 X102.122
N13945 G2 X95.782 Y-55.536 I-15.429 J-6.325
N13950 G3 X95.277 Y-57.148 I0.722 J-1.111
N13955 G2 X96.33 Y-83.051 I-35.277 J-14.408
N13960 G3 X97.593 Y-84.776 I1.263 J-0.4
N13965 G1 X98.
N13970 G2 X103.675 Y-90.451 I0. J-5.675
N13975 G1 Y-107.88
N13980 X111.325
N13985 Y-92.555
N13990 G2 X116. Y-87.88 I4.675 J0.
N13995 G1 X116.325
N14000 Y-44.704
N14005 G3 X110.332 Y-45.188 Z-29.295 I-3.016 J0.
N14010 G1 X112.553 Y-58.868 Z-29.705
N14015 G2 X106.56 Y-59.352 Z-30. I-2.977 J-0.484
N14020 G1 Y-59.338
N14025 X106.552 Y-59.295
N14030 X106.531 Y-59.257
N14035 X106.498 Y-59.228
N14040 X106.457 Y-59.213
N14045 X106.413 Y-59.212
N14050 X106.372 Y-59.225
N14055 X106.337 Y-59.252
N14060 X106.326 Y-59.265
N14065 X106.304 Y-59.3
N14070 X106.294 Y-59.341
N14075 X106.298 Y-59.383
N14080 X106.36 Y-59.622
N14085 X106.375 Y-59.655
N14090 X106.401 Y-59.681
N14095 X106.435 Y-59.696
N14100 X106.471 Y-59.698
N14105 X106.506 Y-59.687
N14110 X106.534 Y-59.664
N14115 X106.553 Y-59.633
N14120 X106.56 Y-59.597
N14125 Y-59.352
N14130 G2 X108.227 Y-56.851 I2.709 J0.
N14135 G3 X109.894 Y-54.35 I-1.042 J2.501
N14140 G1 Y-43.598
N14145 X109.887 Y-43.563
N14150 X109.868 Y-43.534
N14155 X109.84 Y-43.514
N14160 X109.806 Y-43.506
N14165 X109.771 Y-43.511
N14170 X109.741 Y-43.528
N14175 X109.719 Y-43.556
N14180 X109.71 Y-43.59
N14185 G2 X102.815 Y-58.107 I-23.055 J2.053
N14190 G3 X102.652 Y-58.735 I0.436 J-0.448
N14195 G2 X104.082 Y-65.075 I-45.676 J-13.636
N14200 X104.581 Y-71.557 I-41.85 J-6.481
N14205 X104.38 Y-75.525 I-39.238 J0.
N14210 X103.83 Y-79.46 I-52.61 J5.348
N14215 G3 X104.07 Y-79.977 I0.488 J-0.087
N14220 G2 X108.321 Y-84.124 I-6.055 J-10.46
N14225 G3 X108.703 Y-84.182 I0.216 J0.132
N14230 G2 X109.556 Y-83.509 I7.165 J-8.205
N14235 G3 X109.894 Y-82.853 I-0.468 J0.656
N14240 G1 Y-54.35
N14245 G2 X111.826 Y-51.453 I3.139 J0.
N14250 G3 X113.757 Y-48.556 I-1.207 J2.897
N14255 G1 Y-38.117
N14260 G3 X113.438 Y-37.798 I-0.319 J0.
N14265 G1 X105.877
N14270 G3 X105.624 Y-38.102 I0. J-0.258
N14275 G2 X98.302 Y-56.901 I-18.871 J-3.476
N14280 G3 X98.145 Y-57.439 I0.283 J-0.374
N14285 G2 X99.311 Y-81.997 I-38.043 J-14.111
N14290 G3 X99.535 Y-82.353 I0.278 J-0.073
N14295 G2 X104.372 Y-85.184 I-1.542 J-8.179
N14300 X106.288 Y-90.451 I-6.282 J-5.267
N14305 G1 X106.243 Y-104.993
N14310 G3 X106.562 Y-105.312 I0.319 J0.
N14315 G1 X108.438
N14320 G3 X108.757 Y-104.993 I0. J0.319
N14325 G1 X108.712 Y-92.539
N14330 G2 X110.018 Y-88.429 I7.124 J0.
N14335 X113.425 Y-85.785 I6.038 J-4.265
N14340 G3 X113.757 Y-85.303 I-0.184 J0.482
N14345 G1 Y-48.556
N14350 G2 X115.041 Y-46.63 I2.086 J0.
N14355 G3 X116.325 Y-44.704 I-0.802 J1.926
N14360 G1 Y-35.23
N14365 X102.122
N14370 G2 X95.782 Y-55.536 I-15.429 J-6.325
N14375 G3 X95.277 Y-57.148 I0.722 J-1.111
N14380 G2 X96.33 Y-83.051 I-35.277 J-14.408
N14385 G3 X97.593 Y-84.776 I1.263 J-0.4
N14390 G1 X98.
N14395 G2 X103.675 Y-90.451 I0. J-5.675
N14400 G1 Y-107.88
N14405 X111.325
N14410 Y-92.555
N14415 G2 X116. Y-87.88 I4.675 J0.
N14420 G1 X116.325
N14425 Y-44.704
N14430 G3 X110.332 Y-45.188 Z-30.295 I-3.016 J0.
N14435 G1 X112.553 Y-58.868 Z-30.705
N14440 G2 X106.56 Y-59.352 Z-31. I-2.977 J-0.484
N14445 G1 Y-59.338
N14450 X106.552 Y-59.295
N14455 X106.531 Y-59.257
N14460 X106.498 Y-59.228
N14465 X106.457 Y-59.213
N14470 X106.413 Y-59.212
N14475 X106.372 Y-59.225
N14480 X106.337 Y-59.252
N14485 X106.326 Y-59.265
N14490 X106.304 Y-59.3
N14495 X106.294 Y-59.341
N14500 X106.298 Y-59.383
N14505 X106.36 Y-59.622
N14510 X106.375 Y-59.655
N14515 X106.401 Y-59.681
N14520 X106.435 Y-59.696
N14525 X106.471 Y-59.698
N14530 X106.506 Y-59.687
N14535 X106.534 Y-59.664
N14540 X106.553 Y-59.633
N14545 X106.56 Y-59.597
N14550 Y-59.352
N14555 G2 X108.227 Y-56.851 I2.709 J0.
N14560 G3 X109.894 Y-54.35 I-1.042 J2.501
N14565 G1 Y-43.598
N14570 X109.887 Y-43.563
N14575 X109.868 Y-43.534
N14580 X109.84 Y-43.514
N14585 X109.806 Y-43.506
N14590 X109.771 Y-43.511
N14595 X109.741 Y-43.528
N14600 X109.719 Y-43.556
N14605 X109.71 Y-43.59
N14610 G2 X102.815 Y-58.107 I-23.055 J2.053
N14615 G3 X102.652 Y-58.735 I0.436 J-0.448
N14620 G2 X104.082 Y-65.075 I-45.676 J-13.636
N14625 X104.581 Y-71.557 I-41.85 J-6.481
N14630 X104.38 Y-75.525 I-39.238 J0.
N14635 X103.83 Y-79.46 I-52.61 J5.348
N14640 G3 X104.07 Y-79.977 I0.488 J-0.087
N14645 G2 X108.321 Y-84.124 I-6.055 J-10.46
N14650 G3 X108.703 Y-84.182 I0.216 J0.132
N14655 G2 X109.556 Y-83.509 I7.165 J-8.205
N14660 G3 X109.894 Y-82.853 I-0.468 J0.656
N14665 G1 Y-54.35
N14670 G2 X111.826 Y-51.453 I3.139 J0.
N14675 G3 X113.757 Y-48.556 I-1.207 J2.897
N14680 G1 Y-38.117
N14685 G3 X113.438 Y-37.798 I-0.319 J0.
N14690 G1 X105.877
N14695 G3 X105.624 Y-38.102 I0. J-0.258
N14700 G2 X98.302 Y-56.901 I-18.871 J-3.476
N14705 G3 X98.145 Y-57.439 I0.283 J-0.374
N14710 G2 X99.311 Y-81.997 I-38.043 J-14.111
N14715 G3 X99.535 Y-82.353 I0.278 J-0.073
N14720 G2 X104.372 Y-85.184 I-1.542 J-8.179
N14725 X106.288 Y-90.451 I-6.282 J-5.267
N14730 G1 X106.243 Y-104.993
N14735 G3 X106.562 Y-105.312 I0.319 J0.
N14740 G1 X108.438
N14745 G3 X108.757 Y-104.993 I0. J0.319
N14750 G1 X108.712 Y-92.539
N14755 G2 X110.018 Y-88.429 I7.124 J0.
N14760 X113.425 Y-85.785 I6.038 J-4.265
N14765 G3 X113.757 Y-85.303 I-0.184 J0.482
N14770 G1 Y-48.556
N14775 G2 X115.041 Y-46.63 I2.086 J0.
N14780 G3 X116.325 Y-44.704 I-0.802 J1.926
N14785 G1 Y-35.23
N14790 X102.122
N14795 G2 X95.782 Y-55.536 I-15.429 J-6.325
N14800 G3 X95.277 Y-57.148 I0.722 J-1.111
N14805 G2 X96.33 Y-83.051 I-35.277 J-14.408
N14810 G3 X97.593 Y-84.776 I1.263 J-0.4
N14815 G1 X98.
N14820 G2 X103.675 Y-90.451 I0. J-5.675
N14825 G1 Y-107.88
N14830 X111.325
N14835 Y-92.555
N14840 G2 X116. Y-87.88 I4.675 J0.
N14845 G1 X116.325
N14850 Y-44.704
N14855 G3 X110.332 Y-45.188 Z-31.295 I-3.016 J0.
N14860 G1 X112.553 Y-58.868 Z-31.705
N14865 G2 X106.56 Y-59.352 Z-32. I-2.977 J-0.484
N14870 G1 Y-59.338
N14875 X106.552 Y-59.295
N14880 X106.531 Y-59.257
N14885 X106.498 Y-59.228
N14890 X106.457 Y-59.213
N14895 X106.413 Y-59.212
N14900 X106.372 Y-59.225
N14905 X106.337 Y-59.252
N14910 X106.326 Y-59.265
N14915 X106.304 Y-59.3
N14920 X106.294 Y-59.341
N14925 X106.298 Y-59.383
N14930 X106.36 Y-59.622
N14935 X106.375 Y-59.655
N14940 X106.401 Y-59.681
N14945 X106.435 Y-59.696
N14950 X106.471 Y-59.698
N14955 X106.506 Y-59.687
N14960 X106.534 Y-59.664
N14965 X106.553 Y-59.633
N14970 X106.56 Y-59.597
N14975 Y-59.352
N14980 G2 X108.227 Y-56.851 I2.709 J0.
N14985 G3 X109.894 Y-54.35 I-1.042 J2.501
N14990 G1 Y-43.598
N14995 X109.887 Y-43.563
N15000 X109.868 Y-43.534
N15005 X109.84 Y-43.514
N15010 X109.806 Y-43.506
N15015 X109.771 Y-43.511
N15020 X109.741 Y-43.528
N15025 X109.719 Y-43.556
N15030 X109.71 Y-43.59
N15035 G2 X102.815 Y-58.107 I-23.055 J2.053
N15040 G3 X102.652 Y-58.735 I0.436 J-0.448
N15045 G2 X104.082 Y-65.075 I-45.676 J-13.636
N15050 X104.581 Y-71.557 I-41.85 J-6.481
N15055 X104.38 Y-75.525 I-39.238 J0.
N15060 X103.83 Y-79.46 I-52.61 J5.348
N15065 G3 X104.07 Y-79.977 I0.488 J-0.087
N15070 G2 X108.321 Y-84.124 I-6.055 J-10.46
N15075 G3 X108.703 Y-84.182 I0.216 J0.132
N15080 G2 X109.556 Y-83.509 I7.165 J-8.205
N15085 G3 X109.894 Y-82.853 I-0.468 J0.656
N15090 G1 Y-54.35
N15095 G2 X111.826 Y-51.453 I3.139 J0.
N15100 G3 X113.757 Y-48.556 I-1.207 J2.897
N15105 G1 Y-38.117
N15110 G3 X113.438 Y-37.798 I-0.319 J0.
