%
O01001
(Using high feed G1 F500. instead of G0.)
(T1 D=50.8 CR=0. - ZMIN=-50. - face mill)
(T8 D=6.35 CR=3.175 - ZMIN=-49.994 - ball end mill)
N10 G90 G94 G17
N15 G21
N20 G53 G0 Z0.

(Face2)
N25 T1 M6
N30 S6500 M3
N35 G54
N40 M8
N45 G0 X130.536 Y-96.207
N50 G43 Z15. H1
N55 T8
N60 G0 Z5.
N65 G1 Z-6.92 F1651.
N70 G18 G3 X125.456 Z-12. I-5.08 K0.
N75 G1 X97.516
N80 X-97.516
N85 G17 G2 Y-48.579 I0. J23.814
N90 G1 X97.516
N95 G3 Y-0.951 I0. J23.814
N100 G1 X-97.516
N105 G2 Y46.677 I0. J23.814
N110 G1 X97.516
N115 G3 Y94.305 I0. J23.814
N120 G1 X-97.516
N125 G18 G3 X-102.596 Z-6.92 I0. K5.08
N130 G0 Z15.

(2D Contour2)
N135 S1910 M3
N140 G1 X-1.27 Y123.078 F500.
N145 G0 Z15.
N150 Z5.
N155 G1 Z2. F58.21
N160 Z0.27
N165 G19 G2 Y121.808 Z-1. J-1.27 K0.
N170 G1 Y120.538 F242.55
N175 G17 G3 X0. Y119.268 I1.27 J0.
N180 G1 X97.516
N185 G2 X97.866 Y118.918 I0. J-0.35
N190 G1 Y-118.918
N195 G2 X97.516 Y-119.268 I-0.35 J0.
N200 G1 X-97.516
N205 G2 X-97.866 Y-118.918 I0. J0.35
N210 G1 Y118.918
N215 G2 X-97.516 Y119.268 I0.35 J0.
N220 G1 X0.
N225 G3 X1.27 Y120.538 I0. J1.27
N230 G1 Y121.808
N235 G19 G3 Y123.078 Z0.27 J0. K1.27
N240 G0 Z5.
N245 X-1.27
N250 G1 Z1. F58.21
N255 Z-0.73
N260 G2 Y121.808 Z-2. J-1.27 K0.
N265 G1 Y120.538 F242.55
N270 G17 G3 X0. Y119.268 I1.27 J0.
N275 G1 X97.516
N280 G2 X97.866 Y118.918 I0. J-0.35
N285 G1 Y-118.918
N290 G2 X97.516 Y-119.268 I-0.35 J0.
N295 G1 X-97.516
N300 G2 X-97.866 Y-118.918 I0. J0.35
N305 G1 Y118.918
N310 G2 X-97.516 Y119.268 I0.35 J0.
N315 G1 X0.
N320 G3 X1.27 Y120.538 I0. J1.27
N325 G1 Y121.808
N330 G19 G3 Y123.078 Z-0.73 J0. K1.27
N335 G0 Z5.
N340 X-1.27
N345 G1 Z0. F58.21
N350 Z-1.73
N355 G2 Y121.808 Z-3. J-1.27 K0.
N360 G1 Y120.538 F242.55
N365 G17 G3 X0. Y119.268 I1.27 J0.
N370 G1 X97.516
N375 G2 X97.866 Y118.918 I0. J-0.35
N380 G1 Y-118.918
N385 G2 X97.516 Y-119.268 I-0.35 J0.
N390 G1 X-97.516
N395 G2 X-97.866 Y-118.918 I0. J0.35
N400 G1 Y118.918
N405 G2 X-97.516 Y119.268 I0.35 J0.
N410 G1 X0.
N415 G3 X1.27 Y120.538 I0. J1.27
N420 G1 Y121.808
N425 G19 G3 Y123.078 Z-1.73 J0. K1.27
N430 G0 Z5.
N435 X-1.27
N440 G1 Z-1. F58.21
N445 Z-2.73
N450 G2 Y121.808 Z-4. J-1.27 K0.
N455 G1 Y120.538 F242.55
N460 G17 G3 X0. Y119.268 I1.27 J0.
N465 G1 X97.516
N470 G2 X97.866 Y118.918 I0. J-0.35
N475 G1 Y-118.918
N480 G2 X97.516 Y-119.268 I-0.35 J0.
N485 G1 X-97.516
N490 G2 X-97.866 Y-118.918 I0. J0.35
N495 G1 Y118.918
N500 G2 X-97.516 Y119.268 I0.35 J0.
N505 G1 X0.
N510 G3 X1.27 Y120.538 I0. J1.27
N515 G1 Y121.808
N520 G19 G3 Y123.078 Z-2.73 J0. K1.27
N525 G0 Z5.
N530 X-1.27
N535 G1 Z-2. F58.21
N540 Z-3.73
N545 G2 Y121.808 Z-5. J-1.27 K0.
N550 G1 Y120.538 F242.55
N555 G17 G3 X0. Y119.268 I1.27 J0.
N560 G1 X97.516
N565 G2 X97.866 Y118.918 I0. J-0.35
N570 G1 Y-118.918
N575 G2 X97.516 Y-119.268 I-0.35 J0.
N580 G1 X-97.516
N585 G2 X-97.866 Y-118.918 I0. J0.35
N590 G1 Y118.918
N595 G2 X-97.516 Y119.268 I0.35 J0.
N600 G1 X0.
N605 G3 X1.27 Y120.538 I0. J1.27
N610 G1 Y121.808
N615 G19 G3 Y123.078 Z-3.73 J0. K1.27
N620 G0 Z5.
N625 X-1.27
N630 G1 Z-3. F58.21
N635 Z-4.73
N640 G2 Y121.808 Z-6. J-1.27 K0.
N645 G1 Y120.538 F242.55
N650 G17 G3 X0. Y119.268 I1.27 J0.
N655 G1 X97.516
N660 G2 X97.866 Y118.918 I0. J-0.35
N665 G1 Y-118.918
N670 G2 X97.516 Y-119.268 I-0.35 J0.
N675 G1 X-97.516
N680 G2 X-97.866 Y-118.918 I0. J0.35
N685 G1 Y118.918
N690 G2 X-97.516 Y119.268 I0.35 J0.
N695 G1 X0.
N700 G3 X1.27 Y120.538 I0. J1.27
N705 G1 Y121.808
N710 G19 G3 Y123.078 Z-4.73 J0. K1.27
N715 G0 Z5.
N720 X-1.27
N725 G1 Z-4. F58.21
N730 Z-5.73
N735 G2 Y121.808 Z-7. J-1.27 K0.
N740 G1 Y120.538 F242.55
N745 G17 G3 X0. Y119.268 I1.27 J0.
N750 G1 X97.516
N755 G2 X97.866 Y118.918 I0. J-0.35
N760 G1 Y-118.918
N765 G2 X97.516 Y-119.268 I-0.35 J0.
N770 G1 X-97.516
N775 G2 X-97.866 Y-118.918 I0. J0.35
N780 G1 Y118.918
N785 G2 X-97.516 Y119.268 I0.35 J0.
N790 G1 X0.
N795 G3 X1.27 Y120.538 I0. J1.27
N800 G1 Y121.808
N805 G19 G3 Y123.078 Z-5.73 J0. K1.27
N810 G0 Z5.
N815 X-1.27
N820 G1 Z-5. F58.21
N825 Z-6.73
N830 G2 Y121.808 Z-8. J-1.27 K0.
N835 G1 Y120.538 F242.55
N840 G17 G3 X0. Y119.268 I1.27 J0.
N845 G1 X97.516
N850 G2 X97.866 Y118.918 I0. J-0.35
N855 G1 Y-118.918
N860 G2 X97.516 Y-119.268 I-0.35 J0.
N865 G1 X-97.516
N870 G2 X-97.866 Y-118.918 I0. J0.35
N875 G1 Y118.918
N880 G2 X-97.516 Y119.268 I0.35 J0.
N885 G1 X0.
N890 G3 X1.27 Y120.538 I0. J1.27
N895 G1 Y121.808
N900 G19 G3 Y123.078 Z-6.73 J0. K1.27
N905 G0 Z5.
N910 X-1.27
N915 G1 Z-6. F58.21
N920 Z-7.73
N925 G2 Y121.808 Z-9. J-1.27 K0.
N930 G1 Y120.538 F242.55
N935 G17 G3 X0. Y119.268 I1.27 J0.
N940 G1 X97.516
N945 G2 X97.866 Y118.918 I0. J-0.35
N950 G1 Y-118.918
N955 G2 X97.516 Y-119.268 I-0.35 J0.
N960 G1 X-97.516
N965 G2 X-97.866 Y-118.918 I0. J0.35
N970 G1 Y118.918
N975 G2 X-97.516 Y119.268 I0.35 J0.
N980 G1 X0.
N985 G3 X1.27 Y120.538 I0. J1.27
N990 G1 Y121.808
N995 G19 G3 Y123.078 Z-7.73 J0. K1.27
N1000 G0 Z5.
N1005 X-1.27
N1010 G1 Z-7. F58.21
N1015 Z-8.73
N1020 G2 Y121.808 Z-10. J-1.27 K0.
N1025 G1 Y120.538 F242.55
N1030 G17 G3 X0. Y119.268 I1.27 J0.
N1035 G1 X97.516
N1040 G2 X97.866 Y118.918 I0. J-0.35
N1045 G1 Y-118.918
N1050 G2 X97.516 Y-119.268 I-0.35 J0.
N1055 G1 X-97.516
N1060 G2 X-97.866 Y-118.918 I0. J0.35
N1065 G1 Y118.918
N1070 G2 X-97.516 Y119.268 I0.35 J0.
N1075 G1 X0.
N1080 G3 X1.27 Y120.538 I0. J1.27
N1085 G1 Y121.808
N1090 G19 G3 Y123.078 Z-8.73 J0. K1.27
N1095 G0 Z5.
N1100 X-1.27
N1105 G1 Z-8. F58.21
N1110 Z-9.73
N1115 G2 Y121.808 Z-11. J-1.27 K0.
N1120 G1 Y120.538 F242.55
N1125 G17 G3 X0. Y119.268 I1.27 J0.
N1130 G1 X97.516
N1135 G2 X97.866 Y118.918 I0. J-0.35
N1140 G1 Y-118.918
N1145 G2 X97.516 Y-119.268 I-0.35 J0.
N1150 G1 X-97.516
N1155 G2 X-97.866 Y-118.918 I0. J0.35
N1160 G1 Y118.918
N1165 G2 X-97.516 Y119.268 I0.35 J0.
N1170 G1 X0.
N1175 G3 X1.27 Y120.538 I0. J1.27
N1180 G1 Y121.808
N1185 G19 G3 Y123.078 Z-9.73 J0. K1.27
N1190 G0 Z5.
N1195 X-1.27
N1200 G1 Z-9. F58.21
N1205 Z-10.73
N1210 G2 Y121.808 Z-12. J-1.27 K0.
N1215 G1 Y120.538 F242.55
N1220 G17 G3 X0. Y119.268 I1.27 J0.
N1225 G1 X97.516
N1230 G2 X97.866 Y118.918 I0. J-0.35
N1235 G1 Y-118.918
N1240 G2 X97.516 Y-119.268 I-0.35 J0.
N1245 G1 X-97.516
N1250 G2 X-97.866 Y-118.918 I0. J0.35
N1255 G1 Y118.918
N1260 G2 X-97.516 Y119.268 I0.35 J0.
N1265 G1 X0.
N1270 G3 X1.27 Y120.538 I0. J1.27
N1275 G1 Y121.808
N1280 G19 G3 Y123.078 Z-10.73 J0. K1.27
N1285 G0 Z5.
N1290 X-1.27
N1295 G1 Z-10. F58.21
N1300 Z-11.73
N1305 G2 Y121.808 Z-13. J-1.27 K0.
N1310 G1 Y120.538 F242.55
N1315 G17 G3 X0. Y119.268 I1.27 J0.
N1320 G1 X97.516
N1325 G2 X97.866 Y118.918 I0. J-0.35
N1330 G1 Y-118.918
N1335 G2 X97.516 Y-119.268 I-0.35 J0.
N1340 G1 X-97.516
N1345 G2 X-97.866 Y-118.918 I0. J0.35
N1350 G1 Y118.918
N1355 G2 X-97.516 Y119.268 I0.35 J0.
N1360 G1 X0.
N1365 G3 X1.27 Y120.538 I0. J1.27
N1370 G1 Y121.808
N1375 G19 G3 Y123.078 Z-11.73 J0. K1.27
N1380 G0 Z5.
N1385 X-1.27
N1390 G1 Z-11. F58.21
N1395 Z-12.73
N1400 G2 Y121.808 Z-14. J-1.27 K0.
N1405 G1 Y120.538 F242.55
N1410 G17 G3 X0. Y119.268 I1.27 J0.
N1415 G1 X97.516
N1420 G2 X97.866 Y118.918 I0. J-0.35
N1425 G1 Y-118.918
N1430 G2 X97.516 Y-119.268 I-0.35 J0.
N1435 G1 X-97.516
N1440 G2 X-97.866 Y-118.918 I0. J0.35
N1445 G1 Y118.918
N1450 G2 X-97.516 Y119.268 I0.35 J0.
N1455 G1 X0.
N1460 G3 X1.27 Y120.538 I0. J1.27
N1465 G1 Y121.808
N1470 G19 G3 Y123.078 Z-12.73 J0. K1.27
N1475 G0 Z5.
N1480 X-1.27
N1485 G1 Z-12. F58.21
N1490 Z-13.73
N1495 G2 Y121.808 Z-15. J-1.27 K0.
N1500 G1 Y120.538 F242.55
N1505 G17 G3 X0. Y119.268 I1.27 J0.
N1510 G1 X97.516
N1515 G2 X97.866 Y118.918 I0. J-0.35
N1520 G1 Y-118.918
N1525 G2 X97.516 Y-119.268 I-0.35 J0.
N1530 G1 X-97.516
N1535 G2 X-97.866 Y-118.918 I0. J0.35
N1540 G1 Y118.918
N1545 G2 X-97.516 Y119.268 I0.35 J0.
N1550 G1 X0.
N1555 G3 X1.27 Y120.538 I0. J1.27
N1560 G1 Y121.808
N1565 G19 G3 Y123.078 Z-13.73 J0. K1.27
N1570 G0 Z5.
N1575 X-1.27
N1580 G1 Z-13. F58.21
N1585 Z-14.73
N1590 G2 Y121.808 Z-16. J-1.27 K0.
N1595 G1 Y120.538 F242.55
N1600 G17 G3 X0. Y119.268 I1.27 J0.
N1605 G1 X97.516
N1610 G2 X97.866 Y118.918 I0. J-0.35
N1615 G1 Y-118.918
N1620 G2 X97.516 Y-119.268 I-0.35 J0.
N1625 G1 X-97.516
N1630 G2 X-97.866 Y-118.918 I0. J0.35
N1635 G1 Y118.918
N1640 G2 X-97.516 Y119.268 I0.35 J0.
N1645 G1 X0.
N1650 G3 X1.27 Y120.538 I0. J1.27
N1655 G1 Y121.808
N1660 G19 G3 Y123.078 Z-14.73 J0. K1.27
N1665 G0 Z5.
N1670 X-1.27
N1675 G1 Z-14. F58.21
N1680 Z-15.73
N1685 G2 Y121.808 Z-17. J-1.27 K0.
N1690 G1 Y120.538 F242.55
N1695 G17 G3 X0. Y119.268 I1.27 J0.
N1700 G1 X97.516
N1705 G2 X97.866 Y118.918 I0. J-0.35
N1710 G1 Y-118.918
N1715 G2 X97.516 Y-119.268 I-0.35 J0.
N1720 G1 X-97.516
N1725 G2 X-97.866 Y-118.918 I0. J0.35
N1730 G1 Y118.918
N1735 G2 X-97.516 Y119.268 I0.35 J0.
N1740 G1 X0.
N1745 G3 X1.27 Y120.538 I0. J1.27
N1750 G1 Y121.808
N1755 G19 G3 Y123.078 Z-15.73 J0. K1.27
N1760 G0 Z5.
N1765 X-1.27
N1770 G1 Z-15. F58.21
N1775 Z-16.73
N1780 G2 Y121.808 Z-18. J-1.27 K0.
N1785 G1 Y120.538 F242.55
N1790 G17 G3 X0. Y119.268 I1.27 J0.
N1795 G1 X97.516
N1800 G2 X97.866 Y118.918 I0. J-0.35
N1805 G1 Y-118.918
N1810 G2 X97.516 Y-119.268 I-0.35 J0.
N1815 G1 X-97.516
N1820 G2 X-97.866 Y-118.918 I0. J0.35
N1825 G1 Y118.918
N1830 G2 X-97.516 Y119.268 I0.35 J0.
N1835 G1 X0.
N1840 G3 X1.27 Y120.538 I0. J1.27
N1845 G1 Y121.808
N1850 G19 G3 Y123.078 Z-16.73 J0. K1.27
N1855 G0 Z5.
N1860 X-1.27
N1865 G1 Z-16. F58.21
N1870 Z-17.73
N1875 G2 Y121.808 Z-19. J-1.27 K0.
N1880 G1 Y120.538 F242.55
N1885 G17 G3 X0. Y119.268 I1.27 J0.
N1890 G1 X97.516
N1895 G2 X97.866 Y118.918 I0. J-0.35
N1900 G1 Y-118.918
N1905 G2 X97.516 Y-119.268 I-0.35 J0.
N1910 G1 X-97.516
N1915 G2 X-97.866 Y-118.918 I0. J0.35
N1920 G1 Y118.918
N1925 G2 X-97.516 Y119.268 I0.35 J0.
N1930 G1 X0.
N1935 G3 X1.27 Y120.538 I0. J1.27
N1940 G1 Y121.808
N1945 G19 G3 Y123.078 Z-17.73 J0. K1.27
N1950 G0 Z5.
N1955 X-1.27
N1960 G1 Z-17. F58.21
N1965 Z-18.73
N1970 G2 Y121.808 Z-20. J-1.27 K0.
N1975 G1 Y120.538 F242.55
N1980 G17 G3 X0. Y119.268 I1.27 J0.
N1985 G1 X97.516
N1990 G2 X97.866 Y118.918 I0. J-0.35
N1995 G1 Y-118.918
N2000 G2 X97.516 Y-119.268 I-0.35 J0.
N2005 G1 X-97.516
N2010 G2 X-97.866 Y-118.918 I0. J0.35
N2015 G1 Y118.918
N2020 G2 X-97.516 Y119.268 I0.35 J0.
N2025 G1 X0.
N2030 G3 X1.27 Y120.538 I0. J1.27
N2035 G1 Y121.808
N2040 G19 G3 Y123.078 Z-18.73 J0. K1.27
N2045 G0 Z5.
N2050 X-1.27
N2055 G1 Z-18. F58.21
N2060 Z-19.73
N2065 G2 Y121.808 Z-21. J-1.27 K0.
N2070 G1 Y120.538 F242.55
N2075 G17 G3 X0. Y119.268 I1.27 J0.
N2080 G1 X97.516
N2085 G2 X97.866 Y118.918 I0. J-0.35
N2090 G1 Y-118.918
N2095 G2 X97.516 Y-119.268 I-0.35 J0.
N2100 G1 X-97.516
N2105 G2 X-97.866 Y-118.918 I0. J0.35
N2110 G1 Y118.918
N2115 G2 X-97.516 Y119.268 I0.35 J0.
N2120 G1 X0.
N2125 G3 X1.27 Y120.538 I0. J1.27
N2130 G1 Y121.808
N2135 G19 G3 Y123.078 Z-19.73 J0. K1.27
N2140 G0 Z5.
N2145 X-1.27
N2150 G1 Z-19. F58.21
N2155 Z-20.73
N2160 G2 Y121.808 Z-22. J-1.27 K0.
N2165 G1 Y120.538 F242.55
N2170 G17 G3 X0. Y119.268 I1.27 J0.
N2175 G1 X97.516
N2180 G2 X97.866 Y118.918 I0. J-0.35
N2185 G1 Y-118.918
N2190 G2 X97.516 Y-119.268 I-0.35 J0.
N2195 G1 X-97.516
N2200 G2 X-97.866 Y-118.918 I0. J0.35
N2205 G1 Y118.918
N2210 G2 X-97.516 Y119.268 I0.35 J0.
N2215 G1 X0.
N2220 G3 X1.27 Y120.538 I0. J1.27
N2225 G1 Y121.808
N2230 G19 G3 Y123.078 Z-20.73 J0. K1.27
N2235 G0 Z5.
N2240 X-1.27
N2245 G1 Z-20. F58.21
N2250 Z-21.73
N2255 G2 Y121.808 Z-23. J-1.27 K0.
N2260 G1 Y120.538 F242.55
N2265 G17 G3 X0. Y119.268 I1.27 J0.
N2270 G1 X97.516
N2275 G2 X97.866 Y118.918 I0. J-0.35
N2280 G1 Y-118.918
N2285 G2 X97.516 Y-119.268 I-0.35 J0.
N2290 G1 X-97.516
N2295 G2 X-97.866 Y-118.918 I0. J0.35
N2300 G1 Y118.918
N2305 G2 X-97.516 Y119.268 I0.35 J0.
N2310 G1 X0.
N2315 G3 X1.27 Y120.538 I0. J1.27
N2320 G1 Y121.808
N2325 G19 G3 Y123.078 Z-21.73 J0. K1.27
N2330 G0 Z5.
N2335 X-1.27
N2340 G1 Z-21. F58.21
N2345 Z-22.73
N2350 G2 Y121.808 Z-24. J-1.27 K0.
N2355 G1 Y120.538 F242.55
N2360 G17 G3 X0. Y119.268 I1.27 J0.
N2365 G1 X97.516
N2370 G2 X97.866 Y118.918 I0. J-0.35
N2375 G1 Y-118.918
N2380 G2 X97.516 Y-119.268 I-0.35 J0.
N2385 G1 X-97.516
N2390 G2 X-97.866 Y-118.918 I0. J0.35
N2395 G1 Y118.918
N2400 G2 X-97.516 Y119.268 I0.35 J0.
N2405 G1 X0.
N2410 G3 X1.27 Y120.538 I0. J1.27
N2415 G1 Y121.808
N2420 G19 G3 Y123.078 Z-22.73 J0. K1.27
N2425 G0 Z5.
N2430 X-1.27
N2435 G1 Z-22. F58.21
N2440 Z-23.73
N2445 G2 Y121.808 Z-25. J-1.27 K0.
N2450 G1 Y120.538 F242.55
N2455 G17 G3 X0. Y119.268 I1.27 J0.
N2460 G1 X97.516
N2465 G2 X97.866 Y118.918 I0. J-0.35
N2470 G1 Y-118.918
N2475 G2 X97.516 Y-119.268 I-0.35 J0.
N2480 G1 X-97.516
N2485 G2 X-97.866 Y-118.918 I0. J0.35
N2490 G1 Y118.918
N2495 G2 X-97.516 Y119.268 I0.35 J0.
N2500 G1 X0.
N2505 G3 X1.27 Y120.538 I0. J1.27
N2510 G1 Y121.808
N2515 G19 G3 Y123.078 Z-23.73 J0. K1.27
N2520 G0 Z5.
N2525 X-1.27
N2530 G1 Z-23. F58.21
N2535 Z-24.73
N2540 G2 Y121.808 Z-26. J-1.27 K0.
N2545 G1 Y120.538 F242.55
N2550 G17 G3 X0. Y119.268 I1.27 J0.
N2555 G1 X97.516
N2560 G2 X97.866 Y118.918 I0. J-0.35
N2565 G1 Y-118.918
N2570 G2 X97.516 Y-119.268 I-0.35 J0.
N2575 G1 X-97.516
N2580 G2 X-97.866 Y-118.918 I0. J0.35
N2585 G1 Y118.918
N2590 G2 X-97.516 Y119.268 I0.35 J0.
N2595 G1 X0.
N2600 G3 X1.27 Y120.538 I0. J1.27
N2605 G1 Y121.808
N2610 G19 G3 Y123.078 Z-24.73 J0. K1.27
N2615 G0 Z5.
N2620 X-1.27
N2625 G1 Z-24. F58.21
N2630 Z-25.73
N2635 G2 Y121.808 Z-27. J-1.27 K0.
N2640 G1 Y120.538 F242.55
N2645 G17 G3 X0. Y119.268 I1.27 J0.
N2650 G1 X97.516
N2655 G2 X97.866 Y118.918 I0. J-0.35
N2660 G1 Y-118.918
N2665 G2 X97.516 Y-119.268 I-0.35 J0.
N2670 G1 X-97.516
N2675 G2 X-97.866 Y-118.918 I0. J0.35
N2680 G1 Y118.918
N2685 G2 X-97.516 Y119.268 I0.35 J0.
N2690 G1 X0.
N2695 G3 X1.27 Y120.538 I0. J1.27
N2700 G1 Y121.808
N2705 G19 G3 Y123.078 Z-25.73 J0. K1.27
N2710 G0 Z5.
N2715 X-1.27
N2720 G1 Z-25. F58.21
N2725 Z-26.73
N2730 G2 Y121.808 Z-28. J-1.27 K0.
N2735 G1 Y120.538 F242.55
N2740 G17 G3 X0. Y119.268 I1.27 J0.
N2745 G1 X97.516
N2750 G2 X97.866 Y118.918 I0. J-0.35
N2755 G1 Y-118.918
N2760 G2 X97.516 Y-119.268 I-0.35 J0.
N2765 G1 X-97.516
N2770 G2 X-97.866 Y-118.918 I0. J0.35
N2775 G1 Y118.918
N2780 G2 X-97.516 Y119.268 I0.35 J0.
N2785 G1 X0.
N2790 G3 X1.27 Y120.538 I0. J1.27
N2795 G1 Y121.808
N2800 G19 G3 Y123.078 Z-26.73 J0. K1.27
N2805 G0 Z5.
N2810 X-1.27
N2815 G1 Z-26. F58.21
N2820 Z-27.73
N2825 G2 Y121.808 Z-29. J-1.27 K0.
N2830 G1 Y120.538 F242.55
N2835 G17 G3 X0. Y119.268 I1.27 J0.
N2840 G1 X97.516
N2845 G2 X97.866 Y118.918 I0. J-0.35
N2850 G1 Y-118.918
N2855 G2 X97.516 Y-119.268 I-0.35 J0.
N2860 G1 X-97.516
N2865 G2 X-97.866 Y-118.918 I0. J0.35
N2870 G1 Y118.918
N2875 G2 X-97.516 Y119.268 I0.35 J0.
N2880 G1 X0.
N2885 G3 X1.27 Y120.538 I0. J1.27
N2890 G1 Y121.808
N2895 G19 G3 Y123.078 Z-27.73 J0. K1.27
N2900 G0 Z5.
N2905 X-1.27
N2910 G1 Z-27. F58.21
N2915 Z-28.73
N2920 G2 Y121.808 Z-30. J-1.27 K0.
N2925 G1 Y120.538 F242.55
N2930 G17 G3 X0. Y119.268 I1.27 J0.
N2935 G1 X97.516
N2940 G2 X97.866 Y118.918 I0. J-0.35
N2945 G1 Y-118.918
N2950 G2 X97.516 Y-119.268 I-0.35 J0.
N2955 G1 X-97.516
N2960 G2 X-97.866 Y-118.918 I0. J0.35
N2965 G1 Y118.918
N2970 G2 X-97.516 Y119.268 I0.35 J0.
N2975 G1 X0.
N2980 G3 X1.27 Y120.538 I0. J1.27
N2985 G1 Y121.808
N2990 G19 G3 Y123.078 Z-28.73 J0. K1.27
N2995 G0 Z5.
N3000 X-1.27
N3005 G1 Z-28. F58.21
N3010 Z-29.73
N3015 G2 Y121.808 Z-31. J-1.27 K0.
N3020 G1 Y120.538 F242.55
N3025 G17 G3 X0. Y119.268 I1.27 J0.
N3030 G1 X97.516
N3035 G2 X97.866 Y118.918 I0. J-0.35
N3040 G1 Y-118.918
N3045 G2 X97.516 Y-119.268 I-0.35 J0.
N3050 G1 X-97.516
N3055 G2 X-97.866 Y-118.918 I0. J0.35
N3060 G1 Y118.918
N3065 G2 X-97.516 Y119.268 I0.35 J0.
N3070 G1 X0.
N3075 G3 X1.27 Y120.538 I0. J1.27
N3080 G1 Y121.808
N3085 G19 G3 Y123.078 Z-29.73 J0. K1.27
N3090 G0 Z5.
N3095 X-1.27
N3100 G1 Z-29. F58.21
N3105 Z-30.73
N3110 G2 Y121.808 Z-32. J-1.27 K0.
N3115 G1 Y120.538 F242.55
N3120 G17 G3 X0. Y119.268 I1.27 J0.
N3125 G1 X97.516
N3130 G2 X97.866 Y118.918 I0. J-0.35
N3135 G1 Y-118.918
N3140 G2 X97.516 Y-119.268 I-0.35 J0.
N3145 G1 X-97.516
N3150 G2 X-97.866 Y-118.918 I0. J0.35
N3155 G1 Y118.918
N3160 G2 X-97.516 Y119.268 I0.35 J0.
N3165 G1 X0.
N3170 G3 X1.27 Y120.538 I0. J1.27
N3175 G1 Y121.808
N3180 G19 G3 Y123.078 Z-30.73 J0. K1.27
N3185 G0 Z5.
N3190 X-1.27
N3195 G1 Z-30. F58.21
N3200 Z-31.73
N3205 G2 Y121.808 Z-33. J-1.27 K0.
N3210 G1 Y120.538 F242.55
N3215 G17 G3 X0. Y119.268 I1.27 J0.
N3220 G1 X97.516
N3225 G2 X97.866 Y118.918 I0. J-0.35
N3230 G1 Y-118.918
N3235 G2 X97.516 Y-119.268 I-0.35 J0.
N3240 G1 X-97.516
N3245 G2 X-97.866 Y-118.918 I0. J0.35
N3250 G1 Y118.918
N3255 G2 X-97.516 Y119.268 I0.35 J0.
N3260 G1 X0.
N3265 G3 X1.27 Y120.538 I0. J1.27
N3270 G1 Y121.808
N3275 G19 G3 Y123.078 Z-31.73 J0. K1.27
N3280 G0 Z5.
N3285 X-1.27
N3290 G1 Z-31. F58.21
N3295 Z-32.73
N3300 G2 Y121.808 Z-34. J-1.27 K0.
N3305 G1 Y120.538 F242.55
N3310 G17 G3 X0. Y119.268 I1.27 J0.
N3315 G1 X97.516
N3320 G2 X97.866 Y118.918 I0. J-0.35
N3325 G1 Y-118.918
N3330 G2 X97.516 Y-119.268 I-0.35 J0.
N3335 G1 X-97.516
N3340 G2 X-97.866 Y-118.918 I0. J0.35
N3345 G1 Y118.918
N3350 G2 X-97.516 Y119.268 I0.35 J0.
N3355 G1 X0.
N3360 G3 X1.27 Y120.538 I0. J1.27
N3365 G1 Y121.808
N3370 G19 G3 Y123.078 Z-32.73 J0. K1.27
N3375 G0 Z5.
N3380 X-1.27
N3385 G1 Z-32. F58.21
N3390 Z-33.73
N3395 G2 Y121.808 Z-35. J-1.27 K0.
N3400 G1 Y120.538 F242.55
N3405 G17 G3 X0. Y119.268 I1.27 J0.
N3410 G1 X97.516
N3415 G2 X97.866 Y118.918 I0. J-0.35
N3420 G1 Y-118.918
N3425 G2 X97.516 Y-119.268 I-0.35 J0.
N3430 G1 X-97.516
N3435 G2 X-97.866 Y-118.918 I0. J0.35
N3440 G1 Y118.918
N3445 G2 X-97.516 Y119.268 I0.35 J0.
N3450 G1 X0.
N3455 G3 X1.27 Y120.538 I0. J1.27
N3460 G1 Y121.808
N3465 G19 G3 Y123.078 Z-33.73 J0. K1.27
N3470 G0 Z5.
N3475 X-1.27
N3480 G1 Z-33. F58.21
N3485 Z-34.73
N3490 G2 Y121.808 Z-36. J-1.27 K0.
N3495 G1 Y120.538 F242.55
N3500 G17 G3 X0. Y119.268 I1.27 J0.
N3505 G1 X97.516
N3510 G2 X97.866 Y118.918 I0. J-0.35
N3515 G1 Y-118.918
N3520 G2 X97.516 Y-119.268 I-0.35 J0.
N3525 G1 X-97.516
N3530 G2 X-97.866 Y-118.918 I0. J0.35
N3535 G1 Y118.918
N3540 G2 X-97.516 Y119.268 I0.35 J0.
N3545 G1 X0.
N3550 G3 X1.27 Y120.538 I0. J1.27
N3555 G1 Y121.808
N3560 G19 G3 Y123.078 Z-34.73 J0. K1.27
N3565 G0 Z5.
N3570 X-1.27
N3575 G1 Z-34. F58.21
N3580 Z-35.73
N3585 G2 Y121.808 Z-37. J-1.27 K0.
N3590 G1 Y120.538 F242.55
N3595 G17 G3 X0. Y119.268 I1.27 J0.
N3600 G1 X97.516
N3605 G2 X97.866 Y118.918 I0. J-0.35
N3610 G1 Y-118.918
N3615 G2 X97.516 Y-119.268 I-0.35 J0.
N3620 G1 X-97.516
N3625 G2 X-97.866 Y-118.918 I0. J0.35
N3630 G1 Y118.918
N3635 G2 X-97.516 Y119.268 I0.35 J0.
N3640 G1 X0.
N3645 G3 X1.27 Y120.538 I0. J1.27
N3650 G1 Y121.808
N3655 G19 G3 Y123.078 Z-35.73 J0. K1.27
N3660 G0 Z5.
N3665 X-1.27
N3670 G1 Z-35. F58.21
N3675 Z-36.73
N3680 G2 Y121.808 Z-38. J-1.27 K0.
N3685 G1 Y120.538 F242.55
N3690 G17 G3 X0. Y119.268 I1.27 J0.
N3695 G1 X97.516
N3700 G2 X97.866 Y118.918 I0. J-0.35
N3705 G1 Y-118.918
N3710 G2 X97.516 Y-119.268 I-0.35 J0.
N3715 G1 X-97.516
N3720 G2 X-97.866 Y-118.918 I0. J0.35
N3725 G1 Y118.918
N3730 G2 X-97.516 Y119.268 I0.35 J0.
N3735 G1 X0.
N3740 G3 X1.27 Y120.538 I0. J1.27
N3745 G1 Y121.808
N3750 G19 G3 Y123.078 Z-36.73 J0. K1.27
N3755 G0 Z5.
N3760 X-1.27
N3765 G1 Z-36. F58.21
N3770 Z-37.73
N3775 G2 Y121.808 Z-39. J-1.27 K0.
N3780 G1 Y120.538 F242.55
N3785 G17 G3 X0. Y119.268 I1.27 J0.
N3790 G1 X97.516
N3795 G2 X97.866 Y118.918 I0. J-0.35
N3800 G1 Y-118.918
N3805 G2 X97.516 Y-119.268 I-0.35 J0.
N3810 G1 X-97.516
N3815 G2 X-97.866 Y-118.918 I0. J0.35
N3820 G1 Y118.918
N3825 G2 X-97.516 Y119.268 I0.35 J0.
N3830 G1 X0.
N3835 G3 X1.27 Y120.538 I0. J1.27
N3840 G1 Y121.808
N3845 G19 G3 Y123.078 Z-37.73 J0. K1.27
N3850 G0 Z5.
N3855 X-1.27
N3860 G1 Z-37. F58.21
N3865 Z-38.73
N3870 G2 Y121.808 Z-40. J-1.27 K0.
N3875 G1 Y120.538 F242.55
N3880 G17 G3 X0. Y119.268 I1.27 J0.
N3885 G1 X97.516
N3890 G2 X97.866 Y118.918 I0. J-0.35
N3895 G1 Y-118.918
N3900 G2 X97.516 Y-119.268 I-0.35 J0.
N3905 G1 X-97.516
N3910 G2 X-97.866 Y-118.918 I0. J0.35
N3915 G1 Y118.918
N3920 G2 X-97.516 Y119.268 I0.35 J0.
N3925 G1 X0.
N3930 G3 X1.27 Y120.538 I0. J1.27
N3935 G1 Y121.808
N3940 G19 G3 Y123.078 Z-38.73 J0. K1.27
N3945 G0 Z5.
N3950 X-1.27
N3955 G1 Z-38. F58.21
N3960 Z-39.73
N3965 G2 Y121.808 Z-41. J-1.27 K0.
N3970 G1 Y120.538 F242.55
N3975 G17 G3 X0. Y119.268 I1.27 J0.
N3980 G1 X97.516
N3985 G2 X97.866 Y118.918 I0. J-0.35
N3990 G1 Y-118.918
N3995 G2 X97.516 Y-119.268 I-0.35 J0.
N4000 G1 X-97.516
N4005 G2 X-97.866 Y-118.918 I0. J0.35
N4010 G1 Y118.918
N4015 G2 X-97.516 Y119.268 I0.35 J0.
N4020 G1 X0.
N4025 G3 X1.27 Y120.538 I0. J1.27
N4030 G1 Y121.808
N4035 G19 G3 Y123.078 Z-39.73 J0. K1.27
N4040 G0 Z5.
N4045 X-1.27
N4050 G1 Z-39. F58.21
N4055 Z-40.73
N4060 G2 Y121.808 Z-42. J-1.27 K0.
N4065 G1 Y120.538 F242.55
N4070 G17 G3 X0. Y119.268 I1.27 J0.
N4075 G1 X97.516
N4080 G2 X97.866 Y118.918 I0. J-0.35
N4085 G1 Y-118.918
N4090 G2 X97.516 Y-119.268 I-0.35 J0.
N4095 G1 X-97.516
N4100 G2 X-97.866 Y-118.918 I0. J0.35
N4105 G1 Y118.918
N4110 G2 X-97.516 Y119.268 I0.35 J0.
N4115 G1 X0.
N4120 G3 X1.27 Y120.538 I0. J1.27
N4125 G1 Y121.808
N4130 G19 G3 Y123.078 Z-40.73 J0. K1.27
N4135 G0 Z5.
N4140 X-1.27
N4145 G1 Z-40. F58.21
N4150 Z-41.73
N4155 G2 Y121.808 Z-43. J-1.27 K0.
N4160 G1 Y120.538 F242.55
N4165 G17 G3 X0. Y119.268 I1.27 J0.
N4170 G1 X97.516
N4175 G2 X97.866 Y118.918 I0. J-0.35
N4180 G1 Y-118.918
N4185 G2 X97.516 Y-119.268 I-0.35 J0.
N4190 G1 X-97.516
N4195 G2 X-97.866 Y-118.918 I0. J0.35
N4200 G1 Y118.918
N4205 G2 X-97.516 Y119.268 I0.35 J0.
N4210 G1 X0.
N4215 G3 X1.27 Y120.538 I0. J1.27
N4220 G1 Y121.808
N4225 G19 G3 Y123.078 Z-41.73 J0. K1.27
N4230 G0 Z5.
N4235 X-1.27
N4240 G1 Z-41. F58.21
N4245 Z-42.73
N4250 G2 Y121.808 Z-44. J-1.27 K0.
N4255 G1 Y120.538 F242.55
N4260 G17 G3 X0. Y119.268 I1.27 J0.
N4265 G1 X97.516
N4270 G2 X97.866 Y118.918 I0. J-0.35
N4275 G1 Y-118.918
N4280 G2 X97.516 Y-119.268 I-0.35 J0.
N4285 G1 X-97.516
N4290 G2 X-97.866 Y-118.918 I0. J0.35
N4295 G1 Y118.918
N4300 G2 X-97.516 Y119.268 I0.35 J0.
N4305 G1 X0.
N4310 G3 X1.27 Y120.538 I0. J1.27
N4315 G1 Y121.808
N4320 G19 G3 Y123.078 Z-42.73 J0. K1.27
N4325 G0 Z5.
N4330 X-1.27
N4335 G1 Z-42. F58.21
N4340 Z-43.73
N4345 G2 Y121.808 Z-45. J-1.27 K0.
N4350 G1 Y120.538 F242.55
N4355 G17 G3 X0. Y119.268 I1.27 J0.
N4360 G1 X97.516
N4365 G2 X97.866 Y118.918 I0. J-0.35
N4370 G1 Y-118.918
N4375 G2 X97.516 Y-119.268 I-0.35 J0.
N4380 G1 X-97.516
N4385 G2 X-97.866 Y-118.918 I0. J0.35
N4390 G1 Y118.918
N4395 G2 X-97.516 Y119.268 I0.35 J0.
N4400 G1 X0.
N4405 G3 X1.27 Y120.538 I0. J1.27
N4410 G1 Y121.808
N4415 G19 G3 Y123.078 Z-43.73 J0. K1.27
N4420 G0 Z5.
N4425 X-1.27
N4430 G1 Z-43. F58.21
N4435 Z-44.73
N4440 G2 Y121.808 Z-46. J-1.27 K0.
N4445 G1 Y120.538 F242.55
N4450 G17 G3 X0. Y119.268 I1.27 J0.
N4455 G1 X97.516
N4460 G2 X97.866 Y118.918 I0. J-0.35
N4465 G1 Y-118.918
N4470 G2 X97.516 Y-119.268 I-0.35 J0.
N4475 G1 X-97.516
N4480 G2 X-97.866 Y-118.918 I0. J0.35
N4485 G1 Y118.918
N4490 G2 X-97.516 Y119.268 I0.35 J0.
N4495 G1 X0.
N4500 G3 X1.27 Y120.538 I0. J1.27
N4505 G1 Y121.808
N4510 G19 G3 Y123.078 Z-44.73 J0. K1.27
N4515 G0 Z5.
N4520 X-1.27
N4525 G1 Z-44. F58.21
N4530 Z-45.73
N4535 G2 Y121.808 Z-47. J-1.27 K0.
N4540 G1 Y120.538 F242.55
N4545 G17 G3 X0. Y119.268 I1.27 J0.
N4550 G1 X97.516
N4555 G2 X97.866 Y118.918 I0. J-0.35
N4560 G1 Y-118.918
N4565 G2 X97.516 Y-119.268 I-0.35 J0.
N4570 G1 X-97.516
N4575 G2 X-97.866 Y-118.918 I0. J0.35
N4580 G1 Y118.918
N4585 G2 X-97.516 Y119.268 I0.35 J0.
N4590 G1 X0.
N4595 G3 X1.27 Y120.538 I0. J1.27
N4600 G1 Y121.808
N4605 G19 G3 Y123.078 Z-45.73 J0. K1.27
N4610 G0 Z5.
N4615 X-1.27
N4620 G1 Z-45. F58.21
N4625 Z-46.73
N4630 G2 Y121.808 Z-48. J-1.27 K0.
N4635 G1 Y120.538 F242.55
N4640 G17 G3 X0. Y119.268 I1.27 J0.
N4645 G1 X97.516
N4650 G2 X97.866 Y118.918 I0. J-0.35
N4655 G1 Y-118.918
N4660 G2 X97.516 Y-119.268 I-0.35 J0.
N4665 G1 X-97.516
N4670 G2 X-97.866 Y-118.918 I0. J0.35
N4675 G1 Y118.918
N4680 G2 X-97.516 Y119.268 I0.35 J0.
N4685 G1 X0.
N4690 G3 X1.27 Y120.538 I0. J1.27
N4695 G1 Y121.808
N4700 G19 G3 Y123.078 Z-46.73 J0. K1.27
N4705 G0 Z5.
N4710 X-1.27
N4715 G1 Z-46. F58.21
N4720 Z-47.73
N4725 G2 Y121.808 Z-49. J-1.27 K0.
N4730 G1 Y120.538 F242.55
N4735 G17 G3 X0. Y119.268 I1.27 J0.
N4740 G1 X97.516
N4745 G2 X97.866 Y118.918 I0. J-0.35
N4750 G1 Y-118.918
N4755 G2 X97.516 Y-119.268 I-0.35 J0.
N4760 G1 X-97.516
N4765 G2 X-97.866 Y-118.918 I0. J0.35
N4770 G1 Y118.918
N4775 G2 X-97.516 Y119.268 I0.35 J0.
N4780 G1 X0.
N4785 G3 X1.27 Y120.538 I0. J1.27
N4790 G1 Y121.808
N4795 G19 G3 Y123.078 Z-47.73 J0. K1.27
N4800 G0 Z5.
N4805 X-1.27
N4810 G1 Z-47. F58.21
N4815 Z-48.73
N4820 G2 Y121.808 Z-50. J-1.27 K0.
N4825 G1 Y120.538 F242.55
N4830 G17 G3 X0. Y119.268 I1.27 J0.
N4835 G1 X97.516
N4840 G2 X97.866 Y118.918 I0. J-0.35
N4845 G1 Y-118.918
N4850 G2 X97.516 Y-119.268 I-0.35 J0.
N4855 G1 X-97.516
N4860 G2 X-97.866 Y-118.918 I0. J0.35
N4865 G1 Y118.918
N4870 G2 X-97.516 Y119.268 I0.35 J0.
N4875 G1 X0.
N4880 G3 X1.27 Y120.538 I0. J1.27
N4885 G1 Y121.808
N4890 G19 G3 Y123.078 Z-48.73 J0. K1.27
N4895 G0 Z15.

(2D Adaptive2)
N4900 G1 X107.457 Y27.113 F500.
N4905 G0 Z15.
N4910 Z5.
N4915 Z-7.46
N4920 G1 Z-8.73 F242.55
N4925 X107.453 Y27.12 Z-8.872
N4930 X107.441 Y27.14 Z-9.013
N4935 X107.421 Y27.175 Z-9.149
N4940 X107.394 Y27.222 Z-9.281
N4945 X107.359 Y27.281 Z-9.406
N4950 X107.318 Y27.353 Z-9.522
N4955 X107.27 Y27.435 Z-9.628
N4960 X107.217 Y27.526 Z-9.723
N4965 X107.158 Y27.627 Z-9.805
N4970 X107.096 Y27.735 Z-9.874
N4975 X107.03 Y27.848 Z-9.929
N4980 X106.961 Y27.967 Z-9.968
N4985 X106.89 Y28.088 Z-9.992
N4990 X106.819 Y28.211 Z-10.
N4995 G17 G3 X103.884 Y29.333 I-2.162 J-1.256
N5000 G1 X103.154 Y29.067
N5005 X103.016 Y29.009
N5010 X102.744 Y28.767
N5015 X102.438 Y28.449
N5020 X102.1 Y28.036
N5025 X101.732 Y27.504
N5030 X101.338 Y26.823
N5035 X100.918 Y25.942
N5040 X100.477 Y24.784
N5045 X100.115 Y23.544
N5050 X99.833 Y22.283
N5055 X99.612 Y21.01
N5060 X99.438 Y19.729
N5065 X99.301 Y18.445
N5070 X99.193 Y17.157
N5075 X99.108 Y15.868
N5080 X99.041 Y14.578
N5085 X98.988 Y13.287
N5090 X98.946 Y11.995
N5095 X98.912 Y10.704
N5100 X98.886 Y9.412
N5105 X98.865 Y8.12
N5110 X98.849 Y6.828
N5115 X98.836 Y5.536
N5120 X98.825 Y4.244
N5125 X98.817 Y2.952
N5130 X98.811 Y1.66
N5135 X98.806 Y0.368
N5140 X98.798 Y-2.216
N5145 X98.792 Y-6.092
N5150 X98.789 Y-11.261
N5155 X98.787 Y-20.305
N5160 X98.786 Y-70.695
N5165 Y-113.333
N5170 X98.411 Y-114.569
N5175 X97.665 Y-115.625
N5180 X96.717 Y-116.502
N5185 X95.645 Y-117.223
N5190 X94.494 Y-117.81
N5195 X93.292 Y-118.285
N5200 X92.058 Y-118.668
N5205 X90.804 Y-118.976
N5210 X89.535 Y-119.223
N5215 X88.258 Y-119.42
N5220 X86.976 Y-119.578
N5225 X85.69 Y-119.703
N5230 X84.402 Y-119.803
N5235 X83.112 Y-119.883
N5240 X81.822 Y-119.946
N5245 X80.531 Y-119.996
N5250 X79.239 Y-120.036
N5255 X77.948 Y-120.067
N5260 X76.656 Y-120.092
N5265 X75.364 Y-120.112
N5270 X74.072 Y-120.128
N5275 X72.78 Y-120.14
N5280 X71.488 Y-120.15
N5285 X70.196 Y-120.158
N5290 X68.904 Y-120.164
N5295 X67.612 Y-120.169
N5300 X65.028 Y-120.176
N5305 X61.151 Y-120.182
N5310 X55.983 Y-120.186
N5315 X45.647 Y-120.188
N5320 X43.063
N5325 X17.222
N5330 X16.835 Y-120.226
N5335 X16.463 Y-120.339
N5340 X16.12 Y-120.522
N5345 X15.819 Y-120.769
N5350 X15.573 Y-121.069
N5355 X15.389 Y-121.412
N5360 X15.276 Y-121.784
N5365 X15.238 Y-122.171
N5370 G3 X15.499 Y-122.899 I1.269 J0.044
N5375 G1 X15.586 Y-123.012 Z-9.992
N5380 X15.671 Y-123.123 Z-9.968
N5385 X15.754 Y-123.232 Z-9.929
N5390 X15.834 Y-123.336 Z-9.874
N5395 X15.91 Y-123.435 Z-9.805
N5400 X15.98 Y-123.528 Z-9.723
N5405 X16.045 Y-123.612 Z-9.628
N5410 X16.103 Y-123.687 Z-9.522
N5415 X16.153 Y-123.753 Z-9.406
N5420 X16.195 Y-123.807 Z-9.281
N5425 X16.228 Y-123.851 Z-9.149
N5430 X16.252 Y-123.882 Z-9.013
N5435 X16.266 Y-123.901 Z-8.872
N5440 X16.271 Y-123.907 Z-8.73
N5445 G0 Z5.
N5450 G1 X105.186 Y28.88 F500.
N5455 G0 Z-7.46
N5460 G1 Z-8.73 F242.55
N5465 X105.178 Y28.882 Z-8.872
N5470 X105.155 Y28.886 Z-9.013
N5475 X105.116 Y28.893 Z-9.149
N5480 X105.062 Y28.904 Z-9.281
N5485 X104.995 Y28.916 Z-9.406
N5490 X104.914 Y28.932 Z-9.522
N5495 X104.821 Y28.949 Z-9.628
N5500 X104.716 Y28.969 Z-9.723
N5505 X104.602 Y28.991 Z-9.805
N5510 X104.48 Y29.014 Z-9.874
N5515 X104.35 Y29.039 Z-9.929
N5520 X104.216 Y29.064 Z-9.968
N5525 X104.078 Y29.09 Z-9.992
N5530 X103.938 Y29.117 Z-10.
N5535 G3 X103.154 Y29.067 I-0.295 J-1.555
N5540 G1 X100.847 Y28.227
N5545 X100.411 Y28.043
N5550 X100.056 Y27.859
N5555 X99.664 Y27.613
N5560 X99.26 Y27.312
N5565 X98.814 Y26.921
N5570 X98.356 Y26.449
N5575 X97.87 Y25.859
N5580 X97.359 Y25.127
N5585 X96.836 Y24.232
N5590 X96.296 Y23.111
N5595 X95.831 Y21.906
N5600 X95.449 Y20.672
N5605 X95.134 Y19.419
N5610 X94.875 Y18.153
N5615 X94.663 Y16.878
N5620 X94.489 Y15.598
N5625 X94.346 Y14.314
N5630 X94.228 Y13.027
N5635 X94.132 Y11.739
N5640 X94.054 Y10.449
N5645 X93.989 Y9.159
N5650 X93.937 Y7.868
N5655 X93.894 Y6.576
N5660 X93.859 Y5.285
N5665 X93.83 Y3.993
N5670 X93.807 Y2.701
N5675 X93.788 Y1.409
N5680 X93.773 Y0.117
N5685 X93.76 Y-1.175
N5690 X93.75 Y-2.467
N5695 X93.742 Y-3.759
N5700 X93.735 Y-5.051
N5705 X93.729 Y-6.343
N5710 X93.721 Y-8.927
N5715 X93.716 Y-11.511
N5720 X93.711 Y-15.387
N5725 X93.708 Y-20.555
N5730 X93.706 Y-33.476
N5735 Y-70.946
N5740 Y-105.831
N5745 X93.616 Y-107.12
N5750 X93.183 Y-108.337
N5755 X92.489 Y-109.427
N5760 X91.612 Y-110.376
N5765 X90.607 Y-111.188
N5770 X89.512 Y-111.874
N5775 X88.354 Y-112.448
N5780 X87.154 Y-112.927
N5785 X85.925 Y-113.324
N5790 X84.675 Y-113.651
N5795 X83.411 Y-113.921
N5800 X82.138 Y-114.142
N5805 X80.859 Y-114.322
N5810 X79.575 Y-114.47
N5815 X78.289 Y-114.59
N5820 X77.001 Y-114.688
N5825 X75.711 Y-114.768
N5830 X74.42 Y-114.833
N5835 X73.129 Y-114.886
N5840 X71.838 Y-114.928
N5845 X70.547 Y-114.963
N5850 X69.255 Y-114.991
N5855 X67.963 Y-115.013
N5860 X66.671 Y-115.032
N5865 X65.379 Y-115.046
N5870 X64.087 Y-115.058
N5875 X62.795 Y-115.068
N5880 X61.503 Y-115.076
N5885 X60.211 Y-115.082
N5890 X57.627 Y-115.091
N5895 X55.043 Y-115.097
N5900 X51.167 Y-115.102
N5905 X44.706 Y-115.106
N5910 X31.786 Y-115.108
N5915 X22.741
N5920 X21.449 Y-115.116
N5925 X20.158 Y-115.168
N5930 X19.028 Y-115.287
N5935 X18.122 Y-115.457
N5940 X17.322 Y-115.674
N5945 X17.025 Y-115.782
N5950 X16.648 Y-115.951
N5955 X16.301 Y-116.176
N5960 X15.992 Y-116.452
N5965 X15.73 Y-116.771
N5970 X15.518 Y-117.126
N5975 X15.364 Y-117.51
N5980 X15.27 Y-117.912
N5985 X15.238 Y-118.324
N5990 Y-118.705
N5995 G3 X15.499 Y-119.433 I1.269 J0.044
N6000 G1 X15.586 Y-119.546 Z-9.992
N6005 X15.671 Y-119.657 Z-9.968
N6010 X15.754 Y-119.766 Z-9.929
N6015 X15.834 Y-119.87 Z-9.874
N6020 X15.91 Y-119.969 Z-9.805
N6025 X15.98 Y-120.061 Z-9.723
N6030 X16.045 Y-120.146 Z-9.628
N6035 X16.103 Y-120.221 Z-9.522
N6040 X16.153 Y-120.287 Z-9.406
N6045 X16.195 Y-120.341 Z-9.281
N6050 X16.228 Y-120.385 Z-9.149
N6055 X16.252 Y-120.416 Z-9.013
N6060 X16.266 Y-120.435 Z-8.872
N6065 X16.271 Y-120.441 Z-8.73
N6070 G0 Z5.
N6075 G1 X102.879 Y28.04 F500.
N6080 G0 Z-7.46
N6085 G1 Z-8.73 F242.55
N6090 X102.871 Y28.042 Z-8.872
N6095 X102.848 Y28.046 Z-9.013
N6100 X102.809 Y28.054 Z-9.149
N6105 X102.755 Y28.064 Z-9.281
N6110 X102.688 Y28.077 Z-9.406
N6115 X102.607 Y28.092 Z-9.522
N6120 X102.513 Y28.11 Z-9.628
N6125 X102.409 Y28.129 Z-9.723
N6130 X102.295 Y28.151 Z-9.805
N6135 X102.172 Y28.174 Z-9.874
N6140 X102.043 Y28.199 Z-9.929
N6145 X101.909 Y28.224 Z-9.968
N6150 X101.771 Y28.251 Z-9.992
N6155 X101.631 Y28.277 Z-10.
N6160 G3 X100.847 Y28.227 I-0.295 J-1.555
N6165 G1 X96.664 Y26.705
N6170 X96.241 Y26.526
N6175 X95.81 Y26.302
N6180 X95.373 Y26.029
N6185 X94.885 Y25.665
N6190 X94.389 Y25.23
N6195 X93.849 Y24.672
N6200 X93.298 Y24.004
N6205 X92.724 Y23.181
N6210 X92.128 Y22.163
N6215 X91.568 Y20.999
N6220 X91.095 Y19.797
N6225 X90.696 Y18.568
N6230 X90.36 Y17.32
N6235 X90.077 Y16.059
N6240 X89.839 Y14.79
N6245 X89.639 Y13.513
N6250 X89.471 Y12.232
N6255 X89.33 Y10.948
N6260 X89.212 Y9.661
N6265 X89.114 Y8.373
N6270 X89.031 Y7.083
N6275 X88.963 Y5.793
N6280 X88.905 Y4.502
N6285 X88.857 Y3.211
N6290 X88.818 Y1.92
N6295 X88.785 Y0.628
N6300 X88.757 Y-0.664
N6305 X88.734 Y-1.956
N6310 X88.715 Y-3.248
N6315 X88.7 Y-4.54
N6320 X88.687 Y-5.832
N6325 X88.676 Y-7.124
N6330 X88.667 Y-8.416
N6335 X88.66 Y-9.708
N6340 X88.654 Y-11.
N6345 X88.645 Y-13.584
N6350 X88.639 Y-16.168
N6355 X88.633 Y-20.044
N6360 X88.632 Y-21.336
N6365 X88.628 Y-27.796
N6370 X88.626 Y-42.009
N6375 Y-71.726
N6380 Y-100.151
N6385 X88.475 Y-101.435
N6390 X88.042 Y-102.652
N6395 X87.377 Y-103.759
N6400 X86.535 Y-104.74
N6405 X85.563 Y-105.591
N6410 X84.498 Y-106.322
N6415 X83.365 Y-106.943
N6420 X82.184 Y-107.468
N6425 X80.969 Y-107.908
N6430 X79.731 Y-108.276
N6435 X78.476 Y-108.583
N6440 X77.209 Y-108.838
N6445 X75.934 Y-109.049
N6450 X74.654 Y-109.224
N6455 X73.37 Y-109.368
N6460 X72.083 Y-109.487
N6465 X70.795 Y-109.584
N6470 X69.506 Y-109.665
N6475 X68.215 Y-109.731
N6480 X66.924 Y-109.785
N6485 X65.633 Y-109.829
N6490 X64.341 Y-109.866
N6495 X63.05 Y-109.896
N6500 X61.758 Y-109.92
N6505 X60.466 Y-109.94
N6510 X59.174 Y-109.956
N6515 X57.882 Y-109.969
N6520 X56.59 Y-109.98
N6525 X55.298 Y-109.989
N6530 X54.006 Y-109.996
N6535 X52.714 Y-110.002
N6540 X50.13 Y-110.011
N6545 X47.546 Y-110.017
N6550 X43.67 Y-110.022
N6555 X37.209 Y-110.026
N6560 X28.165 Y-110.028
N6565 X26.873 Y-110.029
N6570 X25.581 Y-110.036
N6575 X24.289 Y-110.057
N6580 X22.998 Y-110.105
N6585 X21.709 Y-110.194
N6590 X20.425 Y-110.338
N6595 X19.152 Y-110.558
N6600 X18.146 Y-110.816
N6605 X17.282 Y-111.113
N6610 X17.016 Y-111.229
N6615 X16.636 Y-111.428
N6620 X16.29 Y-111.681
N6625 X15.983 Y-111.981
N6630 X15.722 Y-112.322
N6635 X15.514 Y-112.697
N6640 X15.362 Y-113.098
N6645 X15.269 Y-113.517
N6650 X15.238 Y-113.945
N6655 Y-118.324
N6660 G3 X15.499 Y-119.052 I1.269 J0.044
N6665 G1 X15.586 Y-119.165 Z-9.992
N6670 X15.671 Y-119.276 Z-9.968
N6675 X15.754 Y-119.385 Z-9.929
N6680 X15.834 Y-119.49 Z-9.874
N6685 X15.91 Y-119.589 Z-9.805
N6690 X15.98 Y-119.681 Z-9.723
N6695 X16.045 Y-119.765 Z-9.628
N6700 X16.103 Y-119.84 Z-9.522
N6705 X16.153 Y-119.906 Z-9.406
N6710 X16.195 Y-119.961 Z-9.281
N6715 X16.228 Y-120.004 Z-9.149
N6720 X16.252 Y-120.035 Z-9.013
N6725 X16.266 Y-120.054 Z-8.872
N6730 X16.271 Y-120.061 Z-8.73
N6735 G0 Z5.
N6740 G1 X98.696 Y26.518 F500.
N6745 G0 Z-7.46
N6750 G1 Z-8.73 F242.55
N6755 X98.688 Y26.519 Z-8.872
N6760 X98.664 Y26.524 Z-9.013
N6765 X98.626 Y26.531 Z-9.149
N6770 X98.572 Y26.541 Z-9.281
N6775 X98.504 Y26.554 Z-9.406
N6780 X98.423 Y26.569 Z-9.522
N6785 X98.33 Y26.587 Z-9.628
N6790 X98.226 Y26.607 Z-9.723
N6795 X98.112 Y26.629 Z-9.805
N6800 X97.989 Y26.652 Z-9.874
N6805 X97.86 Y26.676 Z-9.929
N6810 X97.725 Y26.702 Z-9.968
N6815 X97.587 Y26.728 Z-9.992
N6820 X97.448 Y26.754 Z-10.
N6825 G3 X96.664 Y26.705 I-0.295 J-1.555
N6830 G1 X92.316 Y25.122
N6835 X91.681 Y24.854
N6840 X91.241 Y24.626
N6845 X90.761 Y24.325
N6850 X90.258 Y23.95
N6855 X89.72 Y23.478
N6860 X89.146 Y22.886
N6865 X88.562 Y22.178
N6870 X87.947 Y21.297
N6875 X87.311 Y20.208
N6880 X86.751 Y19.044
N6885 X86.271 Y17.844
N6890 X85.862 Y16.619
N6895 X85.512 Y15.375
N6900 X85.214 Y14.118
N6905 X84.96 Y12.851
N6910 X84.743 Y11.577
N6915 X84.559 Y10.298
N6920 X84.402 Y9.016
N6925 X84.268 Y7.731
N6930 X84.155 Y6.444
N6935 X84.059 Y5.155
N6940 X83.978 Y3.866
N6945 X83.909 Y2.576
N6950 X83.851 Y1.285
N6955 X83.802 Y-0.006
N6960 X83.761 Y-1.298
N6965 X83.726 Y-2.589
N6970 X83.697 Y-3.881
N6975 X83.672 Y-5.173
N6980 X83.651 Y-6.465
N6985 X83.634 Y-7.757
N6990 X83.619 Y-9.049
N6995 X83.607 Y-10.341
N7000 X83.597 Y-11.633
N7005 X83.588 Y-12.925
N7010 X83.581 Y-14.217
N7015 X83.57 Y-16.801
N7020 X83.563 Y-19.385
N7025 X83.556 Y-23.261
N7030 X83.551 Y-28.429
N7035 X83.547 Y-36.182
N7040 X83.546 Y-58.147
N7045 Y-73.651
N7050 Y-94.324
N7055 X83.449 Y-95.613
N7060 X83.097 Y-96.856
N7065 X82.51 Y-98.006
N7070 X81.734 Y-99.04
N7075 X80.817 Y-99.95
N7080 X79.794 Y-100.739
N7085 X78.695 Y-101.418
N7090 X77.539 Y-101.996
N7095 X76.343 Y-102.485
N7100 X75.119 Y-102.898
N7105 X73.874 Y-103.245
N7110 X72.615 Y-103.535
N7115 X71.346 Y-103.777
N7120 X70.07 Y-103.979
N7125 X68.789 Y-104.147
N7130 X67.504 Y-104.286
N7135 X66.217 Y-104.402
N7140 X64.929 Y-104.498
N7145 X63.639 Y-104.577
N7150 X62.349 Y-104.642
N7155 X61.058 Y-104.696
N7160 X59.767 Y-104.741
N7165 X58.475 Y-104.778
N7170 X57.183 Y-104.808
N7175 X55.892 Y-104.833
N7180 X54.6 Y-104.854
N7185 X53.308 Y-104.87
N7190 X52.016 Y-104.884
N7195 X50.724 Y-104.896
N7200 X49.432 Y-104.905
N7205 X48.14 Y-104.913
N7210 X46.848 Y-104.919
N7215 X44.264 Y-104.929
N7220 X41.68 Y-104.935
N7225 X37.803 Y-104.941
N7230 X31.343 Y-104.946
N7235 X30.051 Y-104.95
N7240 X28.759 Y-104.958
N7245 X27.467 Y-104.976
N7250 X26.175 Y-105.008
N7255 X24.885 Y-105.064
N7260 X23.595 Y-105.15
N7265 X22.309 Y-105.274
N7270 X21.029 Y-105.446
N7275 X19.758 Y-105.68
N7280 X18.577 Y-105.975
N7285 X17.615 Y-106.299
N7290 X16.795 Y-106.652
N7295 X16.413 Y-106.893
N7300 X16.072 Y-107.191
N7305 X15.782 Y-107.537
N7310 X15.548 Y-107.925
N7315 X15.378 Y-108.343
N7320 X15.273 Y-108.783
N7325 X15.238 Y-109.234
N7330 Y-113.945
N7335 G3 X15.499 Y-114.672 I1.269 J0.044
N7340 G1 X15.586 Y-114.785 Z-9.992
N7345 X15.671 Y-114.897 Z-9.968
N7350 X15.754 Y-115.005 Z-9.929
N7355 X15.834 Y-115.11 Z-9.874
N7360 X15.91 Y-115.209 Z-9.805
N7365 X15.98 Y-115.301 Z-9.723
N7370 X16.045 Y-115.385 Z-9.628
N7375 X16.103 Y-115.461 Z-9.522
N7380 X16.153 Y-115.526 Z-9.406
N7385 X16.195 Y-115.581 Z-9.281
N7390 X16.228 Y-115.624 Z-9.149
N7395 X16.252 Y-115.655 Z-9.013
N7400 X16.266 Y-115.674 Z-8.872
N7405 X16.271 Y-115.681 Z-8.73
N7410 G0 Z5.
N7415 G1 X94.347 Y24.935 F500.
N7420 G0 Z-7.46
N7425 G1 Z-8.73 F242.55
N7430 X94.339 Y24.937 Z-8.872
N7435 X94.316 Y24.941 Z-9.013
N7440 X94.277 Y24.948 Z-9.149
N7445 X94.224 Y24.959 Z-9.281
N7450 X94.156 Y24.971 Z-9.406
N7455 X94.075 Y24.987 Z-9.522
N7460 X93.982 Y25.004 Z-9.628
N7465 X93.878 Y25.024 Z-9.723
N7470 X93.763 Y25.046 Z-9.805
N7475 X93.641 Y25.069 Z-9.874
N7480 X93.512 Y25.094 Z-9.929
N7485 X93.377 Y25.119 Z-9.968
N7490 X93.239 Y25.145 Z-9.992
N7495 X93.1 Y25.172 Z-10.
N7500 G3 X92.316 Y25.122 I-0.295 J-1.555
N7505 G1 X87.363 Y23.319
N7510 X86.963 Y23.151
N7515 X86.517 Y22.919
N7520 X86.014 Y22.604
N7525 X85.499 Y22.22
N7530 X84.938 Y21.727
N7535 X84.347 Y21.118
N7540 X83.737 Y20.379
N7545 X83.096 Y19.46
N7550 X82.444 Y18.345
N7555 X81.882 Y17.182
N7560 X81.398 Y15.984
N7565 X80.981 Y14.761
N7570 X80.621 Y13.52
N7575 X80.312 Y12.265
N7580 X80.046 Y11.001
N7585 X79.817 Y9.73
N7590 X79.62 Y8.453
N7595 X79.451 Y7.172
N7600 X79.306 Y5.888
N7605 X79.182 Y4.602
N7610 X79.075 Y3.314
N7615 X78.984 Y2.025
N7620 X78.906 Y0.735
N7625 X78.84 Y-0.555
N7630 X78.783 Y-1.846
N7635 X78.734 Y-3.137
N7640 X78.693 Y-4.428
N7645 X78.658 Y-5.72
N7650 X78.628 Y-7.012
N7655 X78.603 Y-8.303
N7660 X78.582 Y-9.595
N7665 X78.563 Y-10.887
N7670 X78.548 Y-12.179
N7675 X78.535 Y-13.471
N7680 X78.524 Y-14.763
N7685 X78.515 Y-16.055
N7690 X78.507 Y-17.347
N7695 X78.5 Y-18.639
N7700 X78.49 Y-21.223
N7705 X78.483 Y-23.807
N7710 X78.48 Y-25.099
N7715 X78.474 Y-28.976
N7720 X78.47 Y-34.144
N7725 X78.467 Y-43.188
N7730 X78.466 Y-75.49
N7735 Y-88.41
N7740 X78.449 Y-89.702
N7745 X78.211 Y-90.972
N7750 X77.734 Y-92.173
N7755 X77.051 Y-93.27
N7760 X76.208 Y-94.249
N7765 X75.242 Y-95.107
N7770 X74.186 Y-95.851
N7775 X73.063 Y-96.491
N7780 X71.892 Y-97.036
N7785 X70.686 Y-97.499
N7790 X69.454 Y-97.889
N7795 X68.205 Y-98.218
N7800 X66.942 Y-98.495
N7805 X65.671 Y-98.726
N7810 X64.394 Y-98.919
N7815 X63.112 Y-99.08
N7820 X61.827 Y-99.215
N7825 X60.539 Y-99.327
N7830 X59.251 Y-99.42
N7835 X57.961 Y-99.497
N7840 X56.671 Y-99.561
N7845 X55.38 Y-99.614
N7850 X54.088 Y-99.658
N7855 X52.797 Y-99.695
N7860 X51.505 Y-99.725
N7865 X50.213 Y-99.75
N7870 X48.921 Y-99.771
N7875 X47.629 Y-99.788
N7880 X46.337 Y-99.802
N7885 X45.045 Y-99.813
N7890 X43.753 Y-99.823
N7895 X42.461 Y-99.831
N7900 X41.169 Y-99.837
N7905 X38.585 Y-99.847
N7910 X34.709 Y-99.858
N7915 X33.417 Y-99.863
N7920 X32.125 Y-99.871
N7925 X30.833 Y-99.884
N7930 X29.541 Y-99.906
N7935 X28.25 Y-99.941
N7940 X26.959 Y-99.994
N7945 X25.669 Y-100.069
N7950 X24.381 Y-100.171
N7955 X23.096 Y-100.306
N7960 X21.816 Y-100.481
N7965 X20.544 Y-100.708
N7970 X19.284 Y-100.996
N7975 X18.153 Y-101.335
N7980 X17.227 Y-101.695
N7985 X16.909 Y-101.85
N7990 X16.501 Y-102.09
N7995 X16.136 Y-102.392
N8000 X15.824 Y-102.748
N8005 X15.573 Y-103.149
N8010 X15.389 Y-103.585
N8015 X15.276 Y-104.044
N8020 X15.238 Y-104.516
N8025 Y-109.234
N8030 G3 X15.499 Y-109.962 I1.269 J0.044
N8035 G1 X15.586 Y-110.075 Z-9.992
N8040 X15.671 Y-110.186 Z-9.968
N8045 X15.754 Y-110.295 Z-9.929
N8050 X15.834 Y-110.399 Z-9.874
N8055 X15.91 Y-110.498 Z-9.805
N8060 X15.98 Y-110.591 Z-9.723
N8065 X16.045 Y-110.675 Z-9.628
N8070 X16.103 Y-110.75 Z-9.522
N8075 X16.153 Y-110.816 Z-9.406
N8080 X16.195 Y-110.871 Z-9.281
N8085 X16.228 Y-110.914 Z-9.149
N8090 X16.252 Y-110.945 Z-9.013
N8095 X16.266 Y-110.964 Z-8.872
N8100 X16.271 Y-110.97 Z-8.73
N8105 G0 Z5.
N8110 G1 X89.395 Y23.133 F500.
N8115 G0 Z-7.46
N8120 G1 Z-8.73 F242.55
N8125 X89.387 Y23.134 Z-8.872
N8130 X89.363 Y23.138 Z-9.013
N8135 X89.325 Y23.146 Z-9.149
N8140 X89.271 Y23.156 Z-9.281
N8145 X89.203 Y23.169 Z-9.406
N8150 X89.122 Y23.184 Z-9.522
N8155 X89.029 Y23.202 Z-9.628
N8160 X88.925 Y23.222 Z-9.723
N8165 X88.811 Y23.243 Z-9.805
N8170 X88.688 Y23.266 Z-9.874
N8175 X88.559 Y23.291 Z-9.929
N8180 X88.425 Y23.316 Z-9.968
N8185 X88.287 Y23.343 Z-9.992
N8190 X88.147 Y23.369 Z-10.
N8195 G3 X87.363 Y23.319 I-0.295 J-1.555
N8200 G1 X82.791 Y21.655
N8205 X82.13 Y21.377
N8210 X81.68 Y21.142
N8215 X81.167 Y20.821
N8220 X80.644 Y20.431
N8225 X80.071 Y19.928
N8230 X79.468 Y19.306
N8235 X78.844 Y18.549
N8240 X78.187 Y17.608
N8245 X77.535 Y16.493
N8250 X76.971 Y15.33
N8255 X76.482 Y14.134
N8260 X76.059 Y12.914
N8265 X75.692 Y11.675
N8270 X75.375 Y10.422
N8275 X75.1 Y9.16
N8280 X74.862 Y7.89
N8285 X74.657 Y6.614
N8290 X74.479 Y5.334
N8295 X74.325 Y4.052
N8300 X74.192 Y2.766
N8305 X74.078 Y1.479
N8310 X73.979 Y0.191
N8315 X73.894 Y-1.098
N8320 X73.82 Y-2.388
N8325 X73.757 Y-3.679
N8330 X73.703 Y-4.97
N8335 X73.657 Y-6.261
N8340 X73.617 Y-7.552
N8345 X73.582 Y-8.844
N8350 X73.553 Y-10.136
N8355 X73.528 Y-11.427
N8360 X73.507 Y-12.719
N8365 X73.489 Y-14.011
N8370 X73.473 Y-15.303
N8375 X73.46 Y-16.595
N8380 X73.448 Y-17.887
N8385 X73.439 Y-19.179
N8390 X73.431 Y-20.471
N8395 X73.424 Y-21.763
N8400 X73.413 Y-24.347
N8405 X73.409 Y-25.639
N8410 X73.402 Y-28.223
N8415 X73.396 Y-32.1
N8420 X73.391 Y-37.268
N8425 X73.388 Y-45.02
N8430 X73.386 Y-65.693
N8435 Y-76.029
N8440 Y-82.49
N8445 X73.385 Y-83.782
N8450 X73.272 Y-85.069
N8455 X72.924 Y-86.313
N8460 X72.352 Y-87.472
N8465 X71.599 Y-88.522
N8470 X70.702 Y-89.452
N8475 X69.698 Y-90.265
N8480 X68.615 Y-90.969
N8485 X67.473 Y-91.573
N8490 X66.288 Y-92.088
N8495 X65.072 Y-92.525
N8500 X63.834 Y-92.895
N8505 X62.58 Y-93.207
N8510 X61.315 Y-93.468
N8515 X60.041 Y-93.688
N8520 X58.763 Y-93.872
N8525 X57.48 Y-94.026
N8530 X56.194 Y-94.154
N8535 X54.906 Y-94.261
N8540 X53.617 Y-94.35
N8545 X52.327 Y-94.425
N8550 X51.037 Y-94.487
N8555 X49.746 Y-94.538
N8560 X48.455 Y-94.581
N8565 X47.163 Y-94.616
N8570 X45.871 Y-94.646
N8575 X44.579 Y-94.67
N8580 X43.288 Y-94.69
N8585 X41.996 Y-94.707
N8590 X40.704 Y-94.721
N8595 X39.412 Y-94.733
N8600 X35.536 Y-94.765
N8605 X34.244 Y-94.778
N8610 X32.952 Y-94.797
N8615 X31.66 Y-94.822
N8620 X30.368 Y-94.857
N8625 X29.077 Y-94.906
N8630 X27.787 Y-94.971
N8635 X26.498 Y-95.057
N8640 X25.21 Y-95.167
N8645 X23.926 Y-95.306
N8650 X22.645 Y-95.478
N8655 X21.371 Y-95.693
N8660 X20.107 Y-95.961
N8665 X18.858 Y-96.293
N8670 X17.777 Y-96.663
N8675 X16.884 Y-97.052
N8680 X16.804 Y-97.095
N8685 X16.419 Y-97.341
N8690 X16.077 Y-97.643
N8695 X15.785 Y-97.994
N8700 X15.55 Y-98.385
N8705 X15.378 Y-98.808
N8710 X15.274 Y-99.253
N8715 X15.238 Y-99.708
N8720 Y-104.516
N8725 G3 X15.499 Y-105.244 I1.269 J0.044
N8730 G1 X15.586 Y-105.357 Z-9.992
N8735 X15.671 Y-105.468 Z-9.968
N8740 X15.754 Y-105.577 Z-9.929
N8745 X15.834 Y-105.681 Z-9.874
N8750 X15.91 Y-105.78 Z-9.805
N8755 X15.98 Y-105.873 Z-9.723
N8760 X16.045 Y-105.957 Z-9.628
N8765 X16.103 Y-106.032 Z-9.522
N8770 X16.153 Y-106.098 Z-9.406
N8775 X16.195 Y-106.152 Z-9.281
N8780 X16.228 Y-106.196 Z-9.149
N8785 X16.252 Y-106.227 Z-9.013
N8790 X16.266 Y-106.246 Z-8.872
N8795 X16.271 Y-106.252 Z-8.73
N8800 G0 Z5.
N8805 G1 X84.823 Y21.469 F500.
N8810 G0 Z-7.46
N8815 G1 Z-8.73 F242.55
N8820 X84.815 Y21.47 Z-8.872
N8825 X84.792 Y21.475 Z-9.013
N8830 X84.753 Y21.482 Z-9.149
N8835 X84.699 Y21.492 Z-9.281
N8840 X84.632 Y21.505 Z-9.406
N8845 X84.551 Y21.52 Z-9.522
N8850 X84.457 Y21.538 Z-9.628
N8855 X84.353 Y21.558 Z-9.723
N8860 X84.239 Y21.579 Z-9.805
N8865 X84.117 Y21.603 Z-9.874
N8870 X83.987 Y21.627 Z-9.929
N8875 X83.853 Y21.653 Z-9.968
N8880 X83.715 Y21.679 Z-9.992
N8885 X83.575 Y21.705 Z-10.
N8890 G3 X82.791 Y21.655 I-0.295 J-1.555
N8895 G1 X82.41 Y21.517
N8900 X82.029 Y21.37
N8905 X77.458 Y19.56
N8910 X77.009 Y19.353
N8915 X76.527 Y19.083
N8920 X76.017 Y18.739
N8925 X75.459 Y18.295
N8930 X74.884 Y17.757
N8935 X74.266 Y17.076
N8940 X73.615 Y16.233
N8945 X72.94 Y15.196
N8950 X72.325 Y14.06
N8955 X71.791 Y12.884
N8960 X71.327 Y11.678
N8965 X70.925 Y10.45
N8970 X70.575 Y9.206
N8975 X70.272 Y7.95
N8980 X70.008 Y6.685
N8985 X69.779 Y5.414
N8990 X69.581 Y4.137
N8995 X69.408 Y2.856
N9000 X69.258 Y1.573
N9005 X69.128 Y0.288
N9010 X69.015 Y-0.999
N9015 X68.917 Y-2.288
N9020 X68.832 Y-3.577
N9025 X68.759 Y-4.867
N9030 X68.695 Y-6.158
N9035 X68.641 Y-7.448
N9040 X68.593 Y-8.74
N9045 X68.552 Y-10.031
N9050 X68.517 Y-11.323
N9055 X68.487 Y-12.614
N9060 X68.461 Y-13.906
N9065 X68.438 Y-15.198
N9070 X68.419 Y-16.49
N9075 X68.402 Y-17.782
N9080 X68.388 Y-19.074
N9085 X68.376 Y-20.366
N9090 X68.366 Y-21.658
N9095 X68.357 Y-22.95
N9100 X68.349 Y-24.242
N9105 X68.337 Y-26.826
N9110 X68.332 Y-28.118
N9115 X68.325 Y-30.702
N9120 X68.318 Y-34.578
N9125 X68.312 Y-39.746
N9130 X68.308 Y-47.499
N9135 X68.306 Y-64.295
N9140 Y-78.508
N9145 X68.204 Y-79.796
N9150 X67.875 Y-81.046
N9155 X67.323 Y-82.214
N9160 X66.586 Y-83.275
N9165 X65.704 Y-84.219
N9170 X64.712 Y-85.047
N9175 X63.638 Y-85.765
N9180 X62.502 Y-86.382
N9185 X61.323 Y-86.909
N9190 X60.111 Y-87.357
N9195 X58.876 Y-87.737
N9200 X57.625 Y-88.058
N9205 X56.361 Y-88.329
N9210 X55.089 Y-88.556
N9215 X53.811 Y-88.746
N9220 X52.529 Y-88.906
N9225 X51.244 Y-89.04
N9230 X49.957 Y-89.151
N9235 X48.668 Y-89.245
N9240 X47.378 Y-89.322
N9245 X46.088 Y-89.387
N9250 X44.797 Y-89.442
N9255 X43.506 Y-89.487
N9260 X42.214 Y-89.525
N9265 X40.923 Y-89.557
N9270 X39.631 Y-89.585
N9275 X37.047 Y-89.636
N9280 X35.755 Y-89.663
N9285 X34.464 Y-89.692
N9290 X33.172 Y-89.727
N9295 X31.881 Y-89.77
N9300 X30.59 Y-89.824
N9305 X29.3 Y-89.891
N9310 X28.01 Y-89.973
N9315 X26.722 Y-90.075
N9320 X25.436 Y-90.201
N9325 X24.153 Y-90.355
N9330 X22.875 Y-90.542
N9335 X21.603 Y-90.768
N9340 X20.34 Y-91.04
N9345 X19.09 Y-91.369
N9350 X17.949 Y-91.75
N9355 X17.027 Y-92.142
N9360 X16.826 Y-92.247
N9365 X16.437 Y-92.491
N9370 X16.089 Y-92.793
N9375 X15.793 Y-93.146
N9380 X15.555 Y-93.539
N9385 X15.38 Y-93.965
N9390 X15.274 Y-94.413
N9395 X15.238 Y-94.872
N9400 Y-99.708
N9405 G3 X15.499 Y-100.436 I1.269 J0.044
N9410 G1 X15.586 Y-100.549 Z-9.992
N9415 X15.671 Y-100.66 Z-9.968
N9420 X15.754 Y-100.769 Z-9.929
N9425 X15.834 Y-100.873 Z-9.874
N9430 X15.91 Y-100.972 Z-9.805
N9435 X15.98 Y-101.064 Z-9.723
N9440 X16.045 Y-101.149 Z-9.628
N9445 X16.103 Y-101.224 Z-9.522
N9450 X16.153 Y-101.29 Z-9.406
N9455 X16.195 Y-101.344 Z-9.281
N9460 X16.228 Y-101.388 Z-9.149
N9465 X16.252 Y-101.419 Z-9.013
N9470 X16.266 Y-101.438 Z-8.872
N9475 X16.271 Y-101.444 Z-8.73
N9480 G0 Z5.
N9485 G1 X79.494 Y19.43 F500.
N9490 G0 Z-7.46
N9495 G1 Z-8.73 F242.55
N9500 X79.486 Y19.431 Z-8.872
N9505 X79.462 Y19.435 Z-9.013
N9510 X79.423 Y19.441 Z-9.149
N9515 X79.37 Y19.45 Z-9.281
N9520 X79.302 Y19.461 Z-9.406
N9525 X79.22 Y19.474 Z-9.522
N9530 X79.126 Y19.489 Z-9.628
N9535 X79.022 Y19.506 Z-9.723
N9540 X78.907 Y19.524 Z-9.805
N9545 X78.784 Y19.544 Z-9.874
N9550 X78.654 Y19.565 Z-9.929
N9555 X78.519 Y19.587 Z-9.968
N9560 X78.38 Y19.609 Z-9.992
N9565 X78.24 Y19.631 Z-10.
N9570 G3 X77.458 Y19.56 I-0.251 J-1.563
N9575 G1 X77.077 Y19.406
N9580 X76.696 Y19.252
N9585 X76.306 Y19.092
N9590 X72.19 Y17.188
N9595 X71.596 Y16.877
N9600 X71.096 Y16.561
N9605 X70.581 Y16.175
N9610 X70.014 Y15.673
N9615 X69.42 Y15.056
N9620 X68.797 Y14.294
N9625 X68.139 Y13.345
N9630 X67.491 Y12.227
N9635 X66.93 Y11.063
N9640 X66.443 Y9.866
N9645 X66.021 Y8.645
N9650 X65.654 Y7.406
N9655 X65.335 Y6.154
N9660 X65.058 Y4.892
N9665 X64.816 Y3.623
N9670 X64.606 Y2.348
N9675 X64.423 Y1.069
N9680 X64.264 Y-0.213
N9685 X64.126 Y-1.498
N9690 X64.006 Y-2.784
N9695 X63.901 Y-4.072
N9700 X63.81 Y-5.361
N9705 X63.731 Y-6.65
N9710 X63.662 Y-7.941
N9715 X63.603 Y-9.231
N9720 X63.551 Y-10.522
N9725 X63.506 Y-11.814
N9730 X63.467 Y-13.105
N9735 X63.434 Y-14.397
N9740 X63.405 Y-15.688
N9745 X63.38 Y-16.98
N9750 X63.358 Y-18.272
N9755 X63.339 Y-19.564
N9760 X63.323 Y-20.856
N9765 X63.309 Y-22.148
N9770 X63.297 Y-23.44
N9775 X63.287 Y-24.732
N9780 X63.278 Y-26.024
N9785 X63.271 Y-27.316
N9790 X63.258 Y-29.9
N9795 X63.254 Y-31.192
N9800 X63.246 Y-33.776
N9805 X63.238 Y-37.652
N9810 X63.232 Y-42.821
N9815 X63.228 Y-50.573
N9820 X63.226 Y-66.078
N9825 Y-72.538
N9830 X63.217 Y-73.83
N9835 X63.034 Y-75.109
N9840 X62.621 Y-76.333
N9845 X62. Y-77.466
N9850 X61.21 Y-78.488
N9855 X60.287 Y-79.393
N9860 X59.265 Y-80.184
N9865 X58.169 Y-80.868
N9870 X57.019 Y-81.455
N9875 X55.828 Y-81.957
N9880 X54.608 Y-82.384
N9885 X53.368 Y-82.746
N9890 X52.113 Y-83.051
N9895 X50.846 Y-83.308
N9900 X49.573 Y-83.525
N9905 X48.293 Y-83.706
N9910 X47.01 Y-83.859
N9915 X45.725 Y-83.987
N9920 X44.437 Y-84.094
N9925 X43.148 Y-84.185
N9930 X41.858 Y-84.262
N9935 X40.568 Y-84.329
N9940 X39.277 Y-84.388
N9945 X37.987 Y-84.442
N9950 X35.404 Y-84.546
N9955 X34.114 Y-84.601
N9960 X32.823 Y-84.661
N9965 X31.533 Y-84.729
N9970 X30.243 Y-84.807
N9975 X28.954 Y-84.899
N9980 X27.667 Y-85.008
N9985 X26.381 Y-85.137
N9990 X25.098 Y-85.288
N9995 X23.818 Y-85.467
N10000 X22.544 Y-85.677
N10005 X21.276 Y-85.929
N10010 X20.019 Y-86.228
N10015 X18.777 Y-86.585
N10020 X17.681 Y-86.982
N10025 X16.782 Y-87.393
N10030 X16.759 Y-87.406
N10035 X16.384 Y-87.654
N10040 X16.051 Y-87.955
N10045 X15.768 Y-88.304
N10050 X15.54 Y-88.691
N10055 X15.374 Y-89.109
N10060 X15.272 Y-89.546
N10065 X15.238 Y-89.994
N10070 Y-94.872
N10075 G3 X15.499 Y-95.599 I1.269 J0.044
N10080 G1 X15.586 Y-95.712 Z-9.992
N10085 X15.671 Y-95.824 Z-9.968
N10090 X15.754 Y-95.932 Z-9.929
N10095 X15.834 Y-96.037 Z-9.874
N10100 X15.91 Y-96.136 Z-9.805
N10105 X15.98 Y-96.228 Z-9.723
N10110 X16.045 Y-96.312 Z-9.628
N10115 X16.103 Y-96.388 Z-9.522
N10120 X16.153 Y-96.453 Z-9.406
N10125 X16.195 Y-96.508 Z-9.281
N10130 X16.228 Y-96.551 Z-9.149
N10135 X16.252 Y-96.583 Z-9.013
N10140 X16.266 Y-96.601 Z-8.872
N10145 X16.271 Y-96.608 Z-8.73
N10150 G0 Z5.
N10155 G1 X74.23 Y17.173 F500.
N10160 G0 Z-7.46
N10165 G1 Z-8.73 F242.55
N10170 X74.222 Y17.174 Z-8.872
N10175 X74.198 Y17.176 Z-9.013
N10180 X74.159 Y17.18 Z-9.149
N10185 X74.105 Y17.186 Z-9.281
N10190 X74.036 Y17.193 Z-9.406
N10195 X73.954 Y17.201 Z-9.522
N10200 X73.86 Y17.211 Z-9.628
N10205 X73.754 Y17.222 Z-9.723
N10210 X73.639 Y17.234 Z-9.805
N10215 X73.515 Y17.247 Z-9.874
N10220 X73.384 Y17.26 Z-9.929
N10225 X73.248 Y17.275 Z-9.968
N10230 X73.108 Y17.289 Z-9.992
N10235 X72.967 Y17.304 Z-10.
N10240 G3 X72.19 Y17.188 I-0.163 J-1.574
N10245 G1 X71.743 Y16.982
N10250 X71.362 Y16.803
N10255 X70.6 Y16.424
N10260 X70.219 Y16.228
N10265 X66.409 Y14.2
N10270 X66.062 Y13.992
N10275 X65.554 Y13.63
N10280 X65.03 Y13.189
N10285 X64.459 Y12.623
N10290 X63.852 Y11.917
N10295 X63.223 Y11.054
N10300 X62.56 Y9.972
N10305 X61.975 Y8.819
N10310 X61.471 Y7.63
N10315 X61.034 Y6.414
N10320 X60.655 Y5.179
N10325 X60.326 Y3.929
N10330 X60.041 Y2.669
N10335 X59.793 Y1.401
N10340 X59.578 Y0.127
N10345 X59.39 Y-1.151
N10350 X59.227 Y-2.433
N10355 X59.085 Y-3.717
N10360 X58.961 Y-5.003
N10365 X58.854 Y-6.291
N10370 X58.76 Y-7.58
N10375 X58.678 Y-8.869
N10380 X58.607 Y-10.159
N10385 X58.545 Y-11.45
N10390 X58.492 Y-12.741
N10395 X58.445 Y-14.032
N10400 X58.405 Y-15.323
N10405 X58.369 Y-16.615
N10410 X58.339 Y-17.907
N10415 X58.312 Y-19.198
N10420 X58.29 Y-20.49
N10425 X58.27 Y-21.782
N10430 X58.253 Y-23.074
N10435 X58.238 Y-24.366
N10440 X58.225 Y-25.658
N10445 X58.214 Y-26.95
N10450 X58.204 Y-28.242
N10455 X58.196 Y-29.534
N10460 X58.183 Y-32.118
N10465 X58.173 Y-34.702
N10470 X58.166 Y-37.286
N10475 X58.158 Y-41.162
N10480 X58.153 Y-46.331
N10485 X58.149 Y-54.083
N10490 X58.147 Y-67.004
N10495 X58.145 Y-68.296
N10500 X58.031 Y-69.583
N10505 X57.692 Y-70.829
N10510 X57.135 Y-71.995
N10515 X56.396 Y-73.055
N10520 X55.514 Y-73.999
N10525 X54.523 Y-74.828
N10530 X53.45 Y-75.548
N10535 X52.316 Y-76.168
N10540 X51.138 Y-76.699
N10545 X49.928 Y-77.151
N10550 X48.694 Y-77.535
N10555 X47.444 Y-77.86
N10560 X46.181 Y-78.135
N10565 X44.91 Y-78.367
N10570 X43.633 Y-78.565
N10575 X42.352 Y-78.733
N10580 X41.068 Y-78.877
N10585 X39.782 Y-79.002
N10590 X38.495 Y-79.114
N10595 X37.207 Y-79.215
N10600 X35.918 Y-79.31
N10605 X33.341 Y-79.494
N10610 X32.052 Y-79.59
N10615 X30.764 Y-79.692
N10620 X29.477 Y-79.805
N10625 X28.191 Y-79.931
N10630 X26.907 Y-80.073
N10635 X25.625 Y-80.235
N10640 X24.347 Y-80.421
N10645 X23.073 Y-80.636
N10650 X21.804 Y-80.882
N10655 X20.545 Y-81.171
N10660 X19.299 Y-81.512
N10665 X18.073 Y-81.922
N10670 X17.101 Y-82.336
N10675 X16.821 Y-82.483
N10680 X16.428 Y-82.73
N10685 X16.079 Y-83.035
N10690 X15.781 Y-83.391
N10695 X15.543 Y-83.789
N10700 X15.37 Y-84.22
N10705 X15.266 Y-84.672
N10710 X15.234 Y-85.135
N10715 X15.238 Y-85.588
N10720 Y-89.994
N10725 G3 X15.499 Y-90.722 I1.269 J0.044
N10730 G1 X15.586 Y-90.835 Z-9.992
N10735 X15.671 Y-90.946 Z-9.968
N10740 X15.754 Y-91.055 Z-9.929
N10745 X15.834 Y-91.159 Z-9.874
N10750 X15.91 Y-91.258 Z-9.805
N10755 X15.98 Y-91.351 Z-9.723
N10760 X16.045 Y-91.435 Z-9.628
N10765 X16.103 Y-91.51 Z-9.522
N10770 X16.153 Y-91.576 Z-9.406
N10775 X16.195 Y-91.63 Z-9.281
N10780 X16.228 Y-91.674 Z-9.149
N10785 X16.252 Y-91.705 Z-9.013
N10790 X16.266 Y-91.724 Z-8.872
N10795 X16.271 Y-91.73 Z-8.73
N10800 G0 Z5.
N10805 G1 X68.447 Y14.299 F500.
N10810 G0 Z-7.46
N10815 G1 Z-8.73 F242.55
N10820 X68.439 Z-8.872
N10825 X68.415 Y14.3 Z-9.013
N10830 X68.376 Y14.302 Z-9.149
N10835 X68.322 Y14.305 Z-9.281
N10840 X68.253 Y14.308 Z-9.406
N10845 X68.17 Y14.312 Z-9.522
N10850 X68.076 Y14.316 Z-9.628
N10855 X67.97 Y14.321 Z-9.723
N10860 X67.854 Y14.327 Z-9.805
N10865 X67.729 Y14.333 Z-9.874
N10870 X67.598 Y14.339 Z-9.929
N10875 X67.461 Y14.345 Z-9.968
N10880 X67.321 Y14.352 Z-9.992
N10885 X67.179 Y14.359 Z-10.
N10890 G3 X66.409 Y14.2 I-0.075 J-1.581
N10895 G1 X65.591 Y13.762
N10900 X65.267 Y13.574
N10905 X61.076 Y11.032
N10910 X60.435 Y10.598
N10915 X59.926 Y10.19
N10920 X59.398 Y9.693
N10925 X58.829 Y9.062
N10930 X58.224 Y8.274
N10935 X57.591 Y7.294
N10940 X56.979 Y6.156
N10945 X56.453 Y4.976
N10950 X56. Y3.766
N10955 X55.61 Y2.534
N10960 X55.273 Y1.286
N10965 X54.982 Y0.028
N10970 X54.729 Y-1.239
N10975 X54.51 Y-2.513
N10980 X54.321 Y-3.791
N10985 X54.156 Y-5.072
N10990 X54.013 Y-6.356
N10995 X53.888 Y-7.643
N11000 X53.78 Y-8.93
N11005 X53.686 Y-10.219
N11010 X53.604 Y-11.508
N11015 X53.533 Y-12.798
N11020 X53.471 Y-14.089
N11025 X53.417 Y-15.38
N11030 X53.37 Y-16.671
N11035 X53.33 Y-17.962
N11040 X53.294 Y-19.254
N11045 X53.263 Y-20.546
N11050 X53.237 Y-21.837
N11055 X53.214 Y-23.129
N11060 X53.194 Y-24.421
N11065 X53.176 Y-25.713
N11070 X53.161 Y-27.005
N11075 X53.148 Y-28.297
N11080 X53.137 Y-29.589
N11085 X53.127 Y-30.881
N11090 X53.118 Y-32.173
N11095 X53.105 Y-34.757
N11100 X53.095 Y-37.341
N11105 X53.087 Y-39.925
N11110 X53.079 Y-43.801
N11115 X53.073 Y-48.97
N11120 X53.069 Y-55.43
N11125 X53.068 Y-61.89
N11130 X53.065 Y-63.182
N11135 X52.95 Y-64.469
N11140 X52.613 Y-65.716
N11145 X52.058 Y-66.883
N11150 X51.32 Y-67.944
N11155 X50.44 Y-68.89
N11160 X49.451 Y-69.722
N11165 X48.38 Y-70.444
N11170 X47.248 Y-71.067
N11175 X46.072 Y-71.602
N11180 X44.864 Y-72.06
N11185 X43.633 Y-72.452
N11190 X42.385 Y-72.787
N11195 X41.125 Y-73.075
N11200 X39.857 Y-73.323
N11205 X38.584 Y-73.54
N11210 X37.306 Y-73.732
N11215 X36.025 Y-73.905
N11220 X34.743 Y-74.064
N11225 X33.46 Y-74.215
N11230 X30.893 Y-74.508
N11235 X29.609 Y-74.659
N11240 X28.327 Y-74.817
N11245 X27.046 Y-74.988
N11250 X25.768 Y-75.174
N11255 X24.492 Y-75.38
N11260 X23.221 Y-75.611
N11265 X21.956 Y-75.873
N11270 X20.698 Y-76.171
N11275 X19.453 Y-76.515
N11280 X18.228 Y-76.926
N11285 X17.208 Y-77.355
N11290 X16.349 Y-77.8
N11295 X16.156 Y-77.921
N11300 X15.805 Y-78.178
N11305 X15.496 Y-78.483
N11310 X15.234 Y-78.831
N11315 X15.026 Y-79.213
N11320 X14.877 Y-79.622
N11325 X14.788 Y-80.048
N11330 X14.764 Y-80.482
N11335 X14.803 Y-80.915
N11340 X14.82 Y-81.02
N11345 X15.129 Y-83.685
N11350 X15.168 Y-84.066
N11355 X15.205 Y-84.446
N11360 X15.231 Y-84.827
N11365 X15.234 Y-85.135
N11370 G3 X15.501 Y-85.86 I1.269 J0.056
N11375 G1 X15.589 Y-85.972 Z-9.992
N11380 X15.675 Y-86.083 Z-9.968
N11385 X15.759 Y-86.191 Z-9.929
N11390 X15.84 Y-86.294 Z-9.874
N11395 X15.917 Y-86.393 Z-9.805
N11400 X15.989 Y-86.484 Z-9.723
N11405 X16.054 Y-86.568 Z-9.628
N11410 X16.112 Y-86.643 Z-9.522
N11415 X16.163 Y-86.708 Z-9.406
N11420 X16.205 Y-86.762 Z-9.281
N11425 X16.239 Y-86.805 Z-9.149
N11430 X16.263 Y-86.836 Z-9.013
N11435 X16.278 Y-86.855 Z-8.872
N11440 X16.283 Y-86.861 Z-8.73
N11445 G0 Z5.
N11450 G1 X63.105 Y11.245 F500.
N11455 G0 Z-7.46
N11460 G1 Z-8.73 F242.55
N11465 X63.097 Z-8.872
N11470 X63.073 Y11.244 Z-9.013
N11475 X63.034 Z-9.149
N11480 X62.979 Z-9.281
N11485 X62.91 Y11.243 Z-9.406
N11490 X62.828 Y11.242 Z-9.522
N11495 X62.733 Y11.241 Z-9.628
N11500 X62.627 Z-9.723
N11505 X62.511 Y11.239 Z-9.805
N11510 X62.386 Y11.238 Z-9.874
N11515 X62.254 Y11.237 Z-9.929
N11520 X62.117 Y11.236 Z-9.968
N11525 X61.977 Y11.235 Z-9.992
N11530 X61.835 Y11.234 Z-10.
N11535 G3 X61.076 Y11.032 I0.014 J-1.583
N11540 G1 X60.557 Y10.717
N11545 X59.933 Y10.307
N11550 X59.552 Y10.051
N11555 X55.528 Y7.291
N11560 X55.361 Y7.173
N11565 X54.501 Y6.458
N11570 X53.988 Y5.957
N11575 X53.433 Y5.32
N11580 X52.847 Y4.526
N11585 X52.235 Y3.542
N11590 X51.644 Y2.394
N11595 X51.139 Y1.204
N11600 X50.706 Y-0.013
N11605 X50.336 Y-1.251
N11610 X50.018 Y-2.503
N11615 X49.744 Y-3.766
N11620 X49.509 Y-5.037
N11625 X49.305 Y-6.313
N11630 X49.129 Y-7.593
N11635 X48.977 Y-8.876
N11640 X48.846 Y-10.161
N11645 X48.732 Y-11.448
N11650 X48.633 Y-12.736
N11655 X48.547 Y-14.025
N11660 X48.473 Y-15.315
N11665 X48.408 Y-16.606
N11670 X48.352 Y-17.897
N11675 X48.303 Y-19.188
N11680 X48.261 Y-20.479
N11685 X48.224 Y-21.771
N11690 X48.192 Y-23.062
N11695 X48.165 Y-24.354
N11700 X48.141 Y-25.646
N11705 X48.12 Y-26.938
N11710 X48.102 Y-28.23
N11715 X48.086 Y-29.522
N11720 X48.072 Y-30.814
N11725 X48.061 Y-32.106
N11730 X48.05 Y-33.398
N11735 X48.042 Y-34.69
N11740 X48.034 Y-35.982
N11745 X48.022 Y-38.566
N11750 X48.012 Y-41.15
N11755 X48.003 Y-45.026
N11760 X47.997 Y-48.902
N11765 X47.992 Y-54.07
N11770 X47.989 Y-57.947
N11775 X47.894 Y-59.235
N11780 X47.58 Y-60.489
N11785 X47.048 Y-61.666
N11790 X46.33 Y-62.74
N11795 X45.467 Y-63.702
N11800 X44.493 Y-64.551
N11805 X43.435 Y-65.293
N11810 X42.316 Y-65.937
N11815 X41.15 Y-66.495
N11820 X39.952 Y-66.979
N11825 X38.73 Y-67.398
N11830 X37.491 Y-67.765
N11835 X36.24 Y-68.087
N11840 X34.98 Y-68.374
N11845 X33.714 Y-68.634
N11850 X32.445 Y-68.874
N11855 X31.173 Y-69.099
N11860 X29.899 Y-69.317
N11865 X28.625 Y-69.532
N11870 X27.351 Y-69.749
N11875 X26.079 Y-69.975
N11880 X24.809 Y-70.213
N11885 X23.543 Y-70.469
N11890 X22.281 Y-70.749
N11895 X21.027 Y-71.058
N11900 X19.783 Y-71.409
N11905 X18.555 Y-71.811
N11910 X17.351 Y-72.278
N11915 X16.358 Y-72.752
N11920 X15.528 Y-73.233
N11925 X14.819 Y-73.725
N11930 X14.573 Y-73.927
N11935 X14.246 Y-74.241
N11940 X13.973 Y-74.603
N11945 X13.762 Y-75.004
N11950 X13.617 Y-75.434
N11955 X13.543 Y-75.881
N11960 X13.54 Y-76.335
N11965 X13.61 Y-76.783
N11970 X13.75 Y-77.214
N11975 X13.835 Y-77.439
N11980 X14.028 Y-77.975
N11985 X14.158 Y-78.356
N11990 X14.395 Y-79.117
N11995 X14.597 Y-79.855
N12000 G3 X15.041 Y-80.488 I1.212 J0.378
N12005 G1 X15.154 Y-80.574 Z-9.992
N12010 X15.266 Y-80.659 Z-9.968
N12015 X15.374 Y-80.741 Z-9.929
N12020 X15.479 Y-80.821 Z-9.874
N12025 X15.578 Y-80.897 Z-9.805
N12030 X15.671 Y-80.967 Z-9.723
N12035 X15.755 Y-81.031 Z-9.628
N12040 X15.831 Y-81.089 Z-9.522
N12045 X15.897 Y-81.138 Z-9.406
N12050 X15.951 Y-81.18 Z-9.281
N12055 X15.995 Y-81.213 Z-9.149
N12060 X16.026 Y-81.237 Z-9.013
N12065 X16.045 Y-81.251 Z-8.872
N12070 X16.051 Y-81.256 Z-8.73
N12075 G0 Z5.
N12080 G1 X57.37 Y7.528 F500.
N12085 G0 Z-7.46
N12090 G1 Z-8.73 F242.55
N12095 X57.362 Y7.527 Z-8.872
N12100 X57.339 Y7.525 Z-9.013
N12105 X57.299 Y7.522 Z-9.149
N12110 X57.245 Y7.518 Z-9.281
N12115 X57.176 Y7.512 Z-9.406
N12120 X57.094 Y7.506 Z-9.522
N12125 X56.999 Y7.498 Z-9.628
N12130 X56.894 Y7.49 Z-9.723
N12135 X56.778 Y7.481 Z-9.805
N12140 X56.654 Y7.471 Z-9.874
N12145 X56.522 Y7.461 Z-9.929
N12150 X56.386 Y7.45 Z-9.968
N12155 X56.246 Y7.439 Z-9.992
N12160 X56.104 Y7.427 Z-10.
N12165 G3 X55.361 Y7.173 I0.125 J-1.578
N12170 G1 X54.599 Y6.602
N12175 X50.789 Y3.662
N12180 X50.563 Y3.485
N12185 X50.409 Y3.363
N12190 X50.098 Y3.104
N12195 X49.266 Y2.384
N12200 X48.729 Y1.87
N12205 X48.207 Y1.284
N12210 X47.651 Y0.548
N12215 X47.07 Y-0.365
N12220 X46.467 Y-1.508
N12225 X45.956 Y-2.694
N12230 X45.522 Y-3.912
N12235 X45.153 Y-5.15
N12240 X44.839 Y-6.403
N12245 X44.57 Y-7.667
N12250 X44.34 Y-8.938
N12255 X44.143 Y-10.215
N12260 X43.974 Y-11.496
N12265 X43.829 Y-12.78
N12270 X43.703 Y-14.066
N12275 X43.595 Y-15.354
N12280 X43.502 Y-16.642
N12285 X43.422 Y-17.932
N12290 X43.352 Y-19.222
N12295 X43.292 Y-20.513
N12300 X43.24 Y-21.804
N12305 X43.195 Y-23.095
N12310 X43.157 Y-24.386
N12315 X43.123 Y-25.678
N12320 X43.094 Y-26.97
N12325 X43.068 Y-28.262
N12330 X43.046 Y-29.553
N12335 X43.027 Y-30.845
N12340 X43.011 Y-32.137
N12345 X42.997 Y-33.429
N12350 X42.984 Y-34.721
N12355 X42.974 Y-36.013
N12360 X42.965 Y-37.305
N12365 X42.957 Y-38.597
N12370 X42.944 Y-41.181
N12375 X42.934 Y-43.765
N12380 X42.927 Y-46.35
N12385 X42.919 Y-50.226
N12390 X42.915 Y-52.81
N12395 X42.826 Y-54.099
N12400 X42.524 Y-55.355
N12405 X42.006 Y-56.539
N12410 X41.307 Y-57.625
N12415 X40.462 Y-58.603
N12420 X39.506 Y-59.472
N12425 X38.466 Y-60.239
N12430 X37.364 Y-60.913
N12435 X36.216 Y-61.505
N12440 X35.034 Y-62.027
N12445 X33.827 Y-62.489
N12450 X32.603 Y-62.903
N12455 X31.366 Y-63.277
N12460 X30.121 Y-63.622
N12465 X28.87 Y-63.944
N12470 X27.615 Y-64.253
N12475 X25.102 Y-64.855
N12480 X23.847 Y-65.162
N12485 X22.596 Y-65.482
N12490 X21.349 Y-65.822
N12495 X20.11 Y-66.188
N12500 X18.883 Y-66.594
N12505 X17.673 Y-67.047
N12510 X16.485 Y-67.556
N12515 X15.328 Y-68.13
N12520 X14.389 Y-68.689
N12525 X13.624 Y-69.231
N12530 X12.985 Y-69.767
N12535 X12.418 Y-70.325
N12540 X12.119 Y-70.671
N12545 X11.884 Y-70.992
N12550 X11.704 Y-71.347
N12555 X11.584 Y-71.726
N12560 X11.526 Y-72.12
N12565 X11.533 Y-72.518
N12570 X11.604 Y-72.91
N12575 X11.738 Y-73.285
N12580 X11.93 Y-73.634
N12585 X12.26 Y-74.169
N12590 X12.479 Y-74.549
N12595 X12.888 Y-75.311
N12600 X13.081 Y-75.691
N12605 X13.263 Y-76.072
N12610 X13.434 Y-76.453
N12615 X13.75 Y-77.214
N12620 G3 X14.271 Y-77.785 I1.155 J0.529
N12625 G1 X14.394 Y-77.856 Z-9.992
N12630 X14.515 Y-77.927 Z-9.968
N12635 X14.634 Y-77.995 Z-9.929
N12640 X14.748 Y-78.061 Z-9.874
N12645 X14.856 Y-78.123 Z-9.805
N12650 X14.957 Y-78.181 Z-9.723
N12655 X15.049 Y-78.234 Z-9.628
N12660 X15.131 Y-78.282 Z-9.522
N12665 X15.202 Y-78.323 Z-9.406
N12670 X15.262 Y-78.357 Z-9.281
N12675 X15.309 Y-78.384 Z-9.149
N12680 X15.343 Y-78.404 Z-9.013
N12685 X15.364 Y-78.416 Z-8.872
N12690 X15.371 Y-78.42 Z-8.73
N12695 G0 Z5.
N12700 G1 X51.23 Y2.933 F500.
N12705 G0 Z-7.46
N12710 G1 Z-8.73 F242.55
N12715 X51.223 Y2.932 Z-8.872
N12720 X51.199 Y2.928 Z-9.013
N12725 X51.16 Y2.921 Z-9.149
N12730 X51.107 Y2.911 Z-9.281
N12735 X51.039 Y2.899 Z-9.406
N12740 X50.958 Y2.884 Z-9.522
N12745 X50.864 Y2.868 Z-9.628
N12750 X50.76 Y2.849 Z-9.723
N12755 X50.645 Y2.829 Z-9.805
N12760 X50.523 Y2.807 Z-9.874
N12765 X50.393 Y2.784 Z-9.929
N12770 X50.258 Y2.76 Z-9.968
N12775 X50.12 Y2.735 Z-9.992
N12780 X49.98 Y2.71 Z-10.
N12785 G3 X49.266 Y2.384 I0.278 J-1.558
N12790 G1 X45.837 Y-0.583
N12795 X45.7 Y-0.702
N12800 X43.735 Y-2.606
N12805 X43.019 Y-3.372
N12810 X42.507 Y-4.017
N12815 X41.962 Y-4.829
N12820 X41.391 Y-5.85
N12825 X40.852 Y-7.024
N12830 X40.4 Y-8.234
N12835 X40.019 Y-9.469
N12840 X39.698 Y-10.72
N12845 X39.426 Y-11.984
N12850 X39.195 Y-13.255
N12855 X38.999 Y-14.532
N12860 X38.832 Y-15.813
N12865 X38.69 Y-17.097
N12870 X38.568 Y-18.384
N12875 X38.464 Y-19.672
N12880 X38.375 Y-20.961
N12885 X38.299 Y-22.25
N12890 X38.233 Y-23.541
N12895 X38.177 Y-24.832
N12900 X38.129 Y-26.123
N12905 X38.087 Y-27.414
N12910 X38.051 Y-28.706
N12915 X38.02 Y-29.997
N12920 X37.994 Y-31.289
N12925 X37.971 Y-32.581
N12930 X37.951 Y-33.873
N12935 X37.934 Y-35.165
N12940 X37.919 Y-36.457
N12945 X37.906 Y-37.749
N12950 X37.895 Y-39.041
N12955 X37.886 Y-40.333
N12960 X37.878 Y-41.625
N12965 X37.864 Y-44.209
N12970 X37.855 Y-46.793
N12975 X37.845 Y-48.085
N12980 X37.709 Y-49.37
N12985 X37.363 Y-50.615
N12990 X36.817 Y-51.786
N12995 X36.103 Y-52.862
N13000 X35.254 Y-53.837
N13005 X34.303 Y-54.711
N13010 X33.274 Y-55.492
N13015 X32.186 Y-56.189
N13020 X31.054 Y-56.813
N13025 X29.891 Y-57.375
N13030 X28.704 Y-57.885
N13035 X27.501 Y-58.356
N13040 X26.286 Y-58.796
N13045 X25.063 Y-59.215
N13050 X23.837 Y-59.621
N13055 X22.609 Y-60.024
N13060 X21.383 Y-60.431
N13065 X20.161 Y-60.85
N13070 X18.945 Y-61.288
N13075 X17.741 Y-61.755
N13080 X16.551 Y-62.259
N13085 X15.381 Y-62.807
N13090 X14.238 Y-63.409
N13095 X13.129 Y-64.073
N13100 X12.481 Y-64.519
N13105 X12.157 Y-64.777
N13110 X11.873 Y-65.078
N13115 X11.633 Y-65.415
N13120 X11.442 Y-65.783
N13125 X11.304 Y-66.174
N13130 X11.223 Y-66.579
N13135 X10.831 Y-69.601
N13140 X10.783 Y-69.981
N13145 X10.739 Y-70.362
N13150 X10.742 Y-70.743
N13155 X10.759 Y-71.123
N13160 X10.787 Y-71.399
N13165 X10.804 Y-71.504
N13170 X10.912 Y-71.885
N13175 X11.059 Y-72.265
N13180 X11.168 Y-72.468
N13185 X11.271 Y-72.646
N13190 X11.549 Y-73.063
N13195 X11.78 Y-73.407
N13200 X11.93 Y-73.634
N13205 G3 X12.549 Y-74.096 I1.033 J0.738
N13210 G1 X12.684 Y-74.142 Z-9.992
N13215 X12.817 Y-74.188 Z-9.968
N13220 X12.946 Y-74.233 Z-9.929
N13225 X13.07 Y-74.276 Z-9.874
N13230 X13.188 Y-74.316 Z-9.805
N13235 X13.298 Y-74.354 Z-9.723
N13240 X13.398 Y-74.389 Z-9.628
N13245 X13.488 Y-74.42 Z-9.522
N13250 X13.566 Y-74.447 Z-9.406
N13255 X13.631 Y-74.469 Z-9.281
N13260 X13.683 Y-74.487 Z-9.149
N13265 X13.72 Y-74.5 Z-9.013
N13270 X13.742 Y-74.508 Z-8.872
N13275 X13.75 Y-74.51 Z-8.73
N13280 G0 Z5.
N13285 G1 X45.666 Y-1.947 F500.
N13290 G0 Z-7.46
N13295 G1 Z-8.73 F242.55
N13300 X45.658 Y-1.949 Z-8.872
N13305 X45.635 Y-1.955 Z-9.013
N13310 X45.597 Y-1.964 Z-9.149
N13315 X45.544 Y-1.976 Z-9.281
N13320 X45.476 Y-1.992 Z-9.406
N13325 X45.396 Y-2.011 Z-9.522
N13330 X45.304 Y-2.033 Z-9.628
N13335 X45.201 Y-2.058 Z-9.723
N13340 X45.088 Y-2.085 Z-9.805
N13345 X44.966 Y-2.113 Z-9.874
N13350 X44.838 Y-2.144 Z-9.929
N13355 X44.705 Y-2.175 Z-9.968
N13360 X44.569 Y-2.208 Z-9.992
N13365 X44.43 Y-2.24 Z-10.
N13370 G3 X43.735 Y-2.606 I0.365 J-1.54
N13375 G1 X41.646 Y-4.629
N13380 X40.884 Y-5.421
N13385 X40.667 Y-5.651
N13390 X37.856 Y-8.696
N13395 X37.335 Y-9.32
N13400 X36.832 Y-10.032
N13405 X36.298 Y-10.933
N13410 X35.738 Y-12.081
N13415 X35.266 Y-13.284
N13420 X34.872 Y-14.514
N13425 X34.544 Y-15.764
N13430 X34.269 Y-17.026
N13435 X34.038 Y-18.298
N13440 X33.843 Y-19.575
N13445 X33.679 Y-20.857
N13450 X33.541 Y-22.141
N13455 X33.424 Y-23.428
N13460 X33.325 Y-24.716
N13465 X33.24 Y-26.006
N13470 X33.169 Y-27.296
N13475 X33.108 Y-28.586
N13480 X33.056 Y-29.877
N13485 X33.012 Y-31.169
N13490 X32.974 Y-32.46
N13495 X32.941 Y-33.752
N13500 X32.914 Y-35.043
N13505 X32.89 Y-36.335
N13510 X32.87 Y-37.627
N13515 X32.852 Y-38.919
N13520 X32.837 Y-40.211
N13525 X32.813 Y-42.795
N13530 X32.721 Y-44.084
N13535 X32.445 Y-45.346
N13540 X31.977 Y-46.55
N13545 X31.339 Y-47.674
N13550 X30.562 Y-48.707
N13555 X29.677 Y-49.648
N13560 X28.708 Y-50.502
N13565 X27.674 Y-51.277
N13570 X26.592 Y-51.984
N13575 X25.475 Y-52.632
N13580 X24.331 Y-53.234
N13585 X23.17 Y-53.8
N13590 X21.996 Y-54.339
N13595 X20.815 Y-54.863
N13600 X19.63 Y-55.38
N13605 X18.447 Y-55.898
N13610 X17.267 Y-56.426
N13615 X16.096 Y-56.97
N13620 X14.936 Y-57.54
N13625 X13.793 Y-58.142
N13630 X13.704 Y-58.194
N13635 X13.355 Y-58.433
N13640 X13.043 Y-58.719
N13645 X12.775 Y-59.047
N13650 X12.556 Y-59.409
N13655 X12.392 Y-59.799
N13660 X12.284 Y-60.209
N13665 X11.595 Y-63.891
N13670 X11.479 Y-64.652
N13675 X11.423 Y-65.033
N13680 X11.223 Y-66.579
N13685 G3 X11.388 Y-67.335 I1.264 J-0.119
N13690 G1 X11.459 Y-67.458 Z-9.992
N13695 X11.529 Y-67.579 Z-9.968
N13700 X11.598 Y-67.698 Z-9.929
N13705 X11.663 Y-67.812 Z-9.874
N13710 X11.726 Y-67.919 Z-9.805
N13715 X11.784 Y-68.02 Z-9.723
N13720 X11.837 Y-68.112 Z-9.628
N13725 X11.885 Y-68.194 Z-9.522
N13730 X11.926 Y-68.265 Z-9.406
N13735 X11.96 Y-68.325 Z-9.281
N13740 X11.988 Y-68.372 Z-9.149
N13745 X12.007 Y-68.406 Z-9.013
N13750 X12.019 Y-68.427 Z-8.872
N13755 X12.023 Y-68.434 Z-8.73
N13760 G0 Z5.
N13765 G1 X39.747 Y-7.931 F500.
N13770 G0 Z-7.46
N13775 G1 Z-8.73 F242.55
N13780 X39.739 Y-7.933 Z-8.872
N13785 X39.716 Y-7.94 Z-9.013
N13790 X39.678 Y-7.951 Z-9.149
N13795 X39.626 Y-7.967 Z-9.281
N13800 X39.56 Y-7.986 Z-9.406
N13805 X39.481 Y-8.01 Z-9.522
N13810 X39.39 Y-8.037 Z-9.628
N13815 X39.288 Y-8.067 Z-9.723
N13820 X39.177 Y-8.1 Z-9.805
N13825 X39.058 Y-8.136 Z-9.874
N13830 X38.931 Y-8.173 Z-9.929
N13835 X38.8 Y-8.212 Z-9.968
N13840 X38.666 Y-8.252 Z-9.992
N13845 X38.529 Y-8.293 Z-10.
N13850 G3 X37.856 Y-8.696 I0.451 J-1.517
N13855 G1 X37.074 Y-9.555
N13860 X36.839 Y-9.838
N13865 X34.015 Y-13.264
N13870 X33.705 Y-13.645
N13875 X33.1 Y-14.406
N13880 X32.884 Y-14.69
N13885 X31.975 Y-15.929
N13890 X31.31 Y-16.936
N13895 X30.796 Y-17.869
N13900 X30.267 Y-19.047
N13905 X29.832 Y-20.264
N13910 X29.474 Y-21.506
N13915 X29.178 Y-22.763
N13920 X28.933 Y-24.032
N13925 X28.729 Y-25.308
N13930 X28.56 Y-26.589
N13935 X28.419 Y-27.873
N13940 X28.301 Y-29.16
N13945 X28.202 Y-30.448
N13950 X28.119 Y-31.737
N13955 X28.049 Y-33.028
N13960 X27.991 Y-34.318
N13965 X27.942 Y-35.609
N13970 X27.858 Y-38.192
N13975 X27.727 Y-39.478
N13980 X27.432 Y-40.735
N13985 X26.968 Y-41.941
N13990 X26.35 Y-43.076
N13995 X25.605 Y-44.132
N14000 X24.759 Y-45.108
N14005 X23.833 Y-46.009
N14010 X22.845 Y-46.843
N14015 X21.811 Y-47.617
N14020 X20.742 Y-48.342
N14025 X19.648 Y-49.029
N14030 X18.536 Y-49.687
N14035 X17.413 Y-50.326
N14040 X15.28 Y-51.516
N14045 X14.94 Y-51.737
N14050 X14.634 Y-52.002
N14055 X14.367 Y-52.307
N14060 X14.144 Y-52.645
N14065 X13.969 Y-53.011
N14070 X13.845 Y-53.397
N14075 X12.763 Y-57.8
N14080 X12.692 Y-58.109
N14085 X12.522 Y-58.942
N14090 X12.379 Y-59.704
N14095 X12.284 Y-60.209
N14100 G0 Z5.
N14105 G1 X33.768 Y-14.956 F500.
N14110 G0 Z-7.46
N14115 G1 Z-8.73 F242.55
N14120 X33.761 Y-14.96 Z-8.872
N14125 X33.739 Y-14.969 Z-9.013
N14130 X33.703 Y-14.984 Z-9.149
N14135 X33.652 Y-15.005 Z-9.281
N14140 X33.589 Y-15.032 Z-9.406
N14145 X33.513 Y-15.065 Z-9.522
N14150 X33.426 Y-15.102 Z-9.628
N14155 X33.328 Y-15.143 Z-9.723
N14160 X33.221 Y-15.188 Z-9.805
N14165 X33.106 Y-15.237 Z-9.874
N14170 X32.985 Y-15.288 Z-9.929
N14175 X32.859 Y-15.342 Z-9.968
N14180 X32.73 Y-15.397 Z-9.992
N14185 X32.599 Y-15.452 Z-10.
N14190 G3 X31.975 Y-15.929 I0.618 J-1.457
N14195 G1 X30.018 Y-18.593
N14200 X29.836 Y-18.846
N14205 X29.455 Y-19.394
N14210 X29.229 Y-19.735
N14215 X26.998 Y-23.161
N14220 X26.751 Y-23.542
N14225 X26.263 Y-24.303
N14230 X25.661 Y-25.446
N14235 X25.161 Y-26.493
N14240 X24.7 Y-27.7
N14245 X24.325 Y-28.937
N14250 X24.02 Y-30.192
N14255 X23.771 Y-31.46
N14260 X23.566 Y-32.736
N14265 X23.374 Y-34.014
N14270 X23.11 Y-35.278
N14275 X22.725 Y-36.512
N14280 X22.21 Y-37.697
N14285 X21.576 Y-38.822
N14290 X20.838 Y-39.883
N14295 X20.015 Y-40.879
N14300 X19.123 Y-41.814
N14305 X18.178 Y-42.695
N14310 X17.49 Y-43.275
N14315 X17.214 Y-43.54
N14320 X16.975 Y-43.839
N14325 X16.776 Y-44.165
N14330 X16.621 Y-44.515
N14335 X16.074 Y-46.
N14340 X15.944 Y-46.381
N14345 X15.695 Y-47.142
N14350 X14.216 Y-51.974
N14355 X14.181 Y-52.091
N14360 X14.073 Y-52.471
N14365 X13.845 Y-53.397
N14370 G3 X13.925 Y-54.165 I1.243 J-0.26
N14375 G1 X13.982 Y-54.296 Z-9.992
N14380 X14.038 Y-54.424 Z-9.968
N14385 X14.093 Y-54.55 Z-9.929
N14390 X14.146 Y-54.67 Z-9.874
N14395 X14.196 Y-54.784 Z-9.805
N14400 X14.242 Y-54.891 Z-9.723
N14405 X14.285 Y-54.988 Z-9.628
N14410 X14.323 Y-55.075 Z-9.522
N14415 X14.356 Y-55.151 Z-9.406
N14420 X14.383 Y-55.214 Z-9.281
N14425 X14.405 Y-55.264 Z-9.149
N14430 X14.421 Y-55.3 Z-9.013
N14435 X14.431 Y-55.322 Z-8.872
N14440 X14.434 Y-55.329 Z-8.73
N14445 G0 Z5.
N14450 G1 X27.992 Y-23.22 F500.
N14455 G0 Z-7.46
N14460 G1 Z-8.73 F242.55
N14465 X27.985 Y-23.223 Z-8.872
N14470 X27.963 Y-23.234 Z-9.013
N14475 X27.928 Y-23.252 Z-9.149
N14480 X27.879 Y-23.276 Z-9.281
N14485 X27.818 Y-23.307 Z-9.406
N14490 X27.744 Y-23.344 Z-9.522
N14495 X27.659 Y-23.386 Z-9.628
N14500 X27.564 Y-23.434 Z-9.723
N14505 X27.46 Y-23.486 Z-9.805
N14510 X27.349 Y-23.542 Z-9.874
N14515 X27.231 Y-23.6 Z-9.929
N14520 X27.109 Y-23.662 Z-9.968
N14525 X26.983 Y-23.725 Z-9.992
N14530 X26.856 Y-23.788 Z-10.
N14535 G3 X26.263 Y-24.303 I0.708 J-1.415
N14540 G1 X26.026 Y-24.704
N14545 X23.415 Y-29.251
N14550 X23.359 Y-29.349
N14555 X22.978 Y-30.072
N14560 X21.67 Y-32.677
N14565 X20.906 Y-34.2
N14570 X20.533 Y-34.961
N14575 X20.351 Y-35.342
N14580 X18.04 Y-40.671
N14585 X18.026 Y-40.706
N14590 X16.883 Y-43.805
N14595 X16.621 Y-44.515
N14600 X16.6 Y-44.621 Z-9.992
N14605 X16.58 Y-44.726 Z-9.97
N14610 X16.56 Y-44.826 Z-9.933
N14615 X16.557 Y-44.912 Z-9.888
N14620 X16.567 Y-44.992 Z-9.832
N14625 X16.577 Y-45.065 Z-9.767
N14630 X16.585 Y-45.129 Z-9.692
N14635 X16.591 Y-45.183 Z-9.611
N14640 X16.597 Y-45.227 Z-9.523
N14645 X16.606 Y-45.26 Z-9.423
N14650 X16.612 Y-45.281 Z-9.32
N14655 X16.614 Y-45.288 Z-9.215
N14660 G0 Z5.
N14665 G1 X107.457 Y27.113 F500.
N14670 G0 Z-17.46
N14675 G1 Z-18.73 F242.55
N14680 X107.453 Y27.12 Z-18.872
N14685 X107.441 Y27.14 Z-19.013
N14690 X107.421 Y27.175 Z-19.149
N14695 X107.394 Y27.222 Z-19.281
N14700 X107.359 Y27.281 Z-19.406
N14705 X107.318 Y27.353 Z-19.522
N14710 X107.27 Y27.435 Z-19.628
N14715 X107.217 Y27.526 Z-19.723
N14720 X107.158 Y27.627 Z-19.805
N14725 X107.096 Y27.735 Z-19.874
N14730 X107.03 Y27.848 Z-19.929
N14735 X106.961 Y27.967 Z-19.968
N14740 X106.89 Y28.088 Z-19.992
N14745 X106.819 Y28.211 Z-20.
N14750 G3 X103.884 Y29.333 I-2.162 J-1.256
N14755 G1 X103.154 Y29.067
N14760 X103.016 Y29.009
N14765 X102.744 Y28.767
N14770 X102.438 Y28.449
N14775 X102.1 Y28.036
N14780 X101.732 Y27.504
N14785 X101.338 Y26.823
N14790 X100.918 Y25.942
N14795 X100.477 Y24.784
N14800 X100.115 Y23.544
N14805 X99.833 Y22.283
N14810 X99.612 Y21.01
N14815 X99.438 Y19.729
N14820 X99.301 Y18.445
N14825 X99.193 Y17.157
N14830 X99.108 Y15.868
N14835 X99.041 Y14.578
N14840 X98.988 Y13.287
N14845 X98.946 Y11.995
N14850 X98.912 Y10.704
N14855 X98.886 Y9.412
N14860 X98.865 Y8.12
N14865 X98.849 Y6.828
N14870 X98.836 Y5.536
N14875 X98.825 Y4.244
N14880 X98.817 Y2.952
N14885 X98.811 Y1.66
N14890 X98.806 Y0.368
N14895 X98.798 Y-2.216
N14900 X98.792 Y-6.092
N14905 X98.789 Y-11.261
N14910 X98.787 Y-20.305
N14915 X98.786 Y-70.695
N14920 Y-113.333
N14925 X98.411 Y-114.569
N14930 X97.665 Y-115.625
N14935 X96.717 Y-116.502
N14940 X95.645 Y-117.223
N14945 X94.494 Y-117.81
N14950 X93.292 Y-118.285
N14955 X92.058 Y-118.668
N14960 X90.804 Y-118.976
N14965 X89.535 Y-119.223
N14970 X88.258 Y-119.42
N14975 X86.976 Y-119.578
N14980 X85.69 Y-119.703
N14985 X84.402 Y-119.803
N14990 X83.112 Y-119.883
N14995 X81.822 Y-119.946
N15000 X80.531 Y-119.996
N15005 X79.239 Y-120.036
N15010 X77.948 Y-120.067
N15015 X76.656 Y-120.092
N15020 X75.364 Y-120.112
N15025 X74.072 Y-120.128
N15030 X72.78 Y-120.14
N15035 X71.488 Y-120.15
N15040 X70.196 Y-120.158
N15045 X68.904 Y-120.164
N15050 X67.612 Y-120.169
N15055 X65.028 Y-120.176
N15060 X61.151 Y-120.182
N15065 X55.983 Y-120.186
N15070 X45.647 Y-120.188
N15075 X43.063
N15080 X17.222
N15085 X16.835 Y-120.226
N15090 X16.463 Y-120.339
N15095 X16.12 Y-120.522
N15100 X15.819 Y-120.769
N15105 X15.573 Y-121.069
N15110 X15.389 Y-121.412
N15115 X15.276 Y-121.784
N15120 X15.238 Y-122.171
N15125 G3 X15.499 Y-122.899 I1.269 J0.044
N15130 G1 X15.586 Y-123.012 Z-19.992
N15135 X15.671 Y-123.123 Z-19.968
N15140 X15.754 Y-123.232 Z-19.929
N15145 X15.834 Y-123.336 Z-19.874
N15150 X15.91 Y-123.435 Z-19.805
N15155 X15.98 Y-123.528 Z-19.723
N15160 X16.045 Y-123.612 Z-19.628
N15165 X16.103 Y-123.687 Z-19.522
N15170 X16.153 Y-123.753 Z-19.406
N15175 X16.195 Y-123.807 Z-19.281
N15180 X16.228 Y-123.851 Z-19.149
N15185 X16.252 Y-123.882 Z-19.013
N15190 X16.266 Y-123.901 Z-18.872
N15195 X16.271 Y-123.907 Z-18.73
N15200 G0 Z5.
N15205 G1 X105.186 Y28.88 F500.
N15210 G0 Z-17.46
N15215 G1 Z-18.73 F242.55
N15220 X105.178 Y28.882 Z-18.872
N15225 X105.155 Y28.886 Z-19.013
N15230 X105.116 Y28.893 Z-19.149
N15235 X105.062 Y28.904 Z-19.281
N15240 X104.995 Y28.916 Z-19.406
N15245 X104.914 Y28.932 Z-19.522
N15250 X104.821 Y28.949 Z-19.628
N15255 X104.716 Y28.969 Z-19.723
N15260 X104.602 Y28.991 Z-19.805
N15265 X104.48 Y29.014 Z-19.874
N15270 X104.35 Y29.039 Z-19.929
N15275 X104.216 Y29.064 Z-19.968
N15280 X104.078 Y29.09 Z-19.992
N15285 X103.938 Y29.117 Z-20.
N15290 G3 X103.154 Y29.067 I-0.295 J-1.555
N15295 G1 X100.847 Y28.227
N15300 X100.411 Y28.043
N15305 X100.056 Y27.859
N15310 X99.664 Y27.613
N15315 X99.26 Y27.312
N15320 X98.814 Y26.921
N15325 X98.356 Y26.449
N15330 X97.87 Y25.859
N15335 X97.359 Y25.127
N15340 X96.836 Y24.232
N15345 X96.296 Y23.111
N15350 X95.831 Y21.906
N15355 X95.449 Y20.672
N15360 X95.134 Y19.419
N15365 X94.875 Y18.153
N15370 X94.663 Y16.878
N15375 X94.489 Y15.598
N15380 X94.346 Y14.314
N15385 X94.228 Y13.027
N15390 X94.132 Y11.739
N15395 X94.054 Y10.449
N15400 X93.989 Y9.159
N15405 X93.937 Y7.868
N15410 X93.894 Y6.576
N15415 X93.859 Y5.285
N15420 X93.83 Y3.993
N15425 X93.807 Y2.701
N15430 X93.788 Y1.409
N15435 X93.773 Y0.117
N15440 X93.76 Y-1.175
N15445 X93.75 Y-2.467
N15450 X93.742 Y-3.759
N15455 X93.735 Y-5.051
N15460 X93.729 Y-6.343
N15465 X93.721 Y-8.927
N15470 X93.716 Y-11.511
N15475 X93.711 Y-15.387
N15480 X93.708 Y-20.555
N15485 X93.706 Y-33.476
N15490 Y-70.946
N15495 Y-105.831
N15500 X93.616 Y-107.12
N15505 X93.183 Y-108.337
N15510 X92.489 Y-109.427
N15515 X91.612 Y-110.376
N15520 X90.607 Y-111.188
N15525 X89.512 Y-111.874
N15530 X88.354 Y-112.448
N15535 X87.154 Y-112.927
N15540 X85.925 Y-113.324
N15545 X84.675 Y-113.651
N15550 X83.411 Y-113.921
N15555 X82.138 Y-114.142
N15560 X80.859 Y-114.322
N15565 X79.575 Y-114.47
N15570 X78.289 Y-114.59
N15575 X77.001 Y-114.688
N15580 X75.711 Y-114.768
N15585 X74.42 Y-114.833
N15590 X73.129 Y-114.886
N15595 X71.838 Y-114.928
N15600 X70.547 Y-114.963
N15605 X69.255 Y-114.991
N15610 X67.963 Y-115.013
N15615 X66.671 Y-115.032
N15620 X65.379 Y-115.046
N15625 X64.087 Y-115.058
N15630 X62.795 Y-115.068
N15635 X61.503 Y-115.076
N15640 X60.211 Y-115.082
N15645 X57.627 Y-115.091
N15650 X55.043 Y-115.097
N15655 X51.167 Y-115.102
N15660 X44.706 Y-115.106
N15665 X31.786 Y-115.108
N15670 X22.741
N15675 X21.449 Y-115.116
N15680 X20.158 Y-115.168
N15685 X19.028 Y-115.287
N15690 X18.122 Y-115.457
N15695 X17.322 Y-115.674
N15700 X17.025 Y-115.782
N15705 X16.648 Y-115.951
N15710 X16.301 Y-116.176
N15715 X15.992 Y-116.452
N15720 X15.73 Y-116.771
N15725 X15.518 Y-117.126
N15730 X15.364 Y-117.51
N15735 X15.27 Y-117.912
N15740 X15.238 Y-118.324
N15745 Y-118.705
N15750 G3 X15.499 Y-119.433 I1.269 J0.044
N15755 G1 X15.586 Y-119.546 Z-19.992
N15760 X15.671 Y-119.657 Z-19.968
N15765 X15.754 Y-119.766 Z-19.929
N15770 X15.834 Y-119.87 Z-19.874
N15775 X15.91 Y-119.969 Z-19.805
N15780 X15.98 Y-120.061 Z-19.723
N15785 X16.045 Y-120.146 Z-19.628
N15790 X16.103 Y-120.221 Z-19.522
N15795 X16.153 Y-120.287 Z-19.406
N15800 X16.195 Y-120.341 Z-19.281
N15805 X16.228 Y-120.385 Z-19.149
N15810 X16.252 Y-120.416 Z-19.013
N15815 X16.266 Y-120.435 Z-18.872
N15820 X16.271 Y-120.441 Z-18.73
N15825 G0 Z5.
N15830 G1 X102.879 Y28.04 F500.
N15835 G0 Z-17.46
N15840 G1 Z-18.73 F242.55
N15845 X102.871 Y28.042 Z-18.872
N15850 X102.848 Y28.046 Z-19.013
N15855 X102.809 Y28.054 Z-19.149
N15860 X102.755 Y28.064 Z-19.281
N15865 X102.688 Y28.077 Z-19.406
N15870 X102.607 Y28.092 Z-19.522
N15875 X102.513 Y28.11 Z-19.628
N15880 X102.409 Y28.129 Z-19.723
N15885 X102.295 Y28.151 Z-19.805
N15890 X102.172 Y28.174 Z-19.874
N15895 X102.043 Y28.199 Z-19.929
N15900 X101.909 Y28.224 Z-19.968
N15905 X101.771 Y28.251 Z-19.992
N15910 X101.631 Y28.277 Z-20.
N15915 G3 X100.847 Y28.227 I-0.295 J-1.555
N15920 G1 X96.664 Y26.705
N15925 X96.241 Y26.526
N15930 X95.81 Y26.302
N15935 X95.373 Y26.029
N15940 X94.885 Y25.665
N15945 X94.389 Y25.23
N15950 X93.849 Y24.672
N15955 X93.298 Y24.004
N15960 X92.724 Y23.181
N15965 X92.128 Y22.163
N15970 X91.568 Y20.999
N15975 X91.095 Y19.797
N15980 X90.696 Y18.568
N15985 X90.36 Y17.32
N15990 X90.077 Y16.059
N15995 X89.839 Y14.79
N16000 X89.639 Y13.513
N16005 X89.471 Y12.232
N16010 X89.33 Y10.948
N16015 X89.212 Y9.661
N16020 X89.114 Y8.373
N16025 X89.031 Y7.083
N16030 X88.963 Y5.793
N16035 X88.905 Y4.502
N16040 X88.857 Y3.211
N16045 X88.818 Y1.92
N16050 X88.785 Y0.628
N16055 X88.757 Y-0.664
N16060 X88.734 Y-1.956
N16065 X88.715 Y-3.248
N16070 X88.7 Y-4.54
N16075 X88.687 Y-5.832
N16080 X88.676 Y-7.124
N16085 X88.667 Y-8.416
N16090 X88.66 Y-9.708
N16095 X88.654 Y-11.
N16100 X88.645 Y-13.584
N16105 X88.639 Y-16.168
N16110 X88.633 Y-20.044
N16115 X88.632 Y-21.336
N16120 X88.628 Y-27.796
N16125 X88.626 Y-42.009
N16130 Y-71.726
N16135 Y-100.151
N16140 X88.475 Y-101.435
N16145 X88.042 Y-102.652
N16150 X87.377 Y-103.759
N16155 X86.535 Y-104.74
N16160 X85.563 Y-105.591
N16165 X84.498 Y-106.322
N16170 X83.365 Y-106.943
N16175 X82.184 Y-107.468
N16180 X80.969 Y-107.908
N16185 X79.731 Y-108.276
N16190 X78.476 Y-108.583
N16195 X77.209 Y-108.838
N16200 X75.934 Y-109.049
N16205 X74.654 Y-109.224
N16210 X73.37 Y-109.368
N16215 X72.083 Y-109.487
N16220 X70.795 Y-109.584
N16225 X69.506 Y-109.665
N16230 X68.215 Y-109.731
N16235 X66.924 Y-109.785
N16240 X65.633 Y-109.829
N16245 X64.341 Y-109.866
N16250 X63.05 Y-109.896
N16255 X61.758 Y-109.92
N16260 X60.466 Y-109.94
N16265 X59.174 Y-109.956
N16270 X57.882 Y-109.969
N16275 X56.59 Y-109.98
N16280 X55.298 Y-109.989
N16285 X54.006 Y-109.996
N16290 X52.714 Y-110.002
N16295 X50.13 Y-110.011
N16300 X47.546 Y-110.017
N16305 X43.67 Y-110.022
N16310 X37.209 Y-110.026
N16315 X28.165 Y-110.028
N16320 X26.873 Y-110.029
N16325 X25.581 Y-110.036
N16330 X24.289 Y-110.057
N16335 X22.998 Y-110.105
N16340 X21.709 Y-110.194
N16345 X20.425 Y-110.338
N16350 X19.152 Y-110.558
N16355 X18.146 Y-110.816
N16360 X17.282 Y-111.113
N16365 X17.016 Y-111.229
N16370 X16.636 Y-111.428
N16375 X16.29 Y-111.681
N16380 X15.983 Y-111.981
N16385 X15.722 Y-112.322
N16390 X15.514 Y-112.697
N16395 X15.362 Y-113.098
N16400 X15.269 Y-113.517
N16405 X15.238 Y-113.945
N16410 Y-118.324
N16415 G3 X15.499 Y-119.052 I1.269 J0.044
N16420 G1 X15.586 Y-119.165 Z-19.992
N16425 X15.671 Y-119.276 Z-19.968
N16430 X15.754 Y-119.385 Z-19.929
N16435 X15.834 Y-119.49 Z-19.874
N16440 X15.91 Y-119.589 Z-19.805
N16445 X15.98 Y-119.681 Z-19.723
N16450 X16.045 Y-119.765 Z-19.628
N16455 X16.103 Y-119.84 Z-19.522
N16460 X16.153 Y-119.906 Z-19.406
N16465 X16.195 Y-119.961 Z-19.281
N16470 X16.228 Y-120.004 Z-19.149
N16475 X16.252 Y-120.035 Z-19.013
N16480 X16.266 Y-120.054 Z-18.872
N16485 X16.271 Y-120.061 Z-18.73
N16490 G0 Z5.
N16495 G1 X98.696 Y26.518 F500.
N16500 G0 Z-17.46
N16505 G1 Z-18.73 F242.55
N16510 X98.688 Y26.519 Z-18.872
N16515 X98.664 Y26.524 Z-19.013
N16520 X98.626 Y26.531 Z-19.149
N16525 X98.572 Y26.541 Z-19.281
N16530 X98.504 Y26.554 Z-19.406
N16535 X98.423 Y26.569 Z-19.522
N16540 X98.33 Y26.587 Z-19.628
N16545 X98.226 Y26.607 Z-19.723
N16550 X98.112 Y26.629 Z-19.805
N16555 X97.989 Y26.652 Z-19.874
N16560 X97.86 Y26.676 Z-19.929
N16565 X97.725 Y26.702 Z-19.968
N16570 X97.587 Y26.728 Z-19.992
N16575 X97.448 Y26.754 Z-20.
N16580 G3 X96.664 Y26.705 I-0.295 J-1.555
N16585 G1 X92.316 Y25.122
N16590 X91.681 Y24.854
N16595 X91.241 Y24.626
N16600 X90.761 Y24.325
N16605 X90.258 Y23.95
N16610 X89.72 Y23.478
N16615 X89.146 Y22.886
N16620 X88.562 Y22.178
N16625 X87.947 Y21.297
N16630 X87.311 Y20.208
N16635 X86.751 Y19.044
N16640 X86.271 Y17.844
N16645 X85.862 Y16.619
N16650 X85.512 Y15.375
N16655 X85.214 Y14.118
N16660 X84.96 Y12.851
N16665 X84.743 Y11.577
N16670 X84.559 Y10.298
N16675 X84.402 Y9.016
N16680 X84.268 Y7.731
N16685 X84.155 Y6.444
N16690 X84.059 Y5.155
N16695 X83.978 Y3.866
N16700 X83.909 Y2.576
N16705 X83.851 Y1.285
N16710 X83.802 Y-0.006
N16715 X83.761 Y-1.298
N16720 X83.726 Y-2.589
N16725 X83.697 Y-3.881
N16730 X83.672 Y-5.173
N16735 X83.651 Y-6.465
N16740 X83.634 Y-7.757
N16745 X83.619 Y-9.049
N16750 X83.607 Y-10.341
N16755 X83.597 Y-11.633
N16760 X83.588 Y-12.925
N16765 X83.581 Y-14.217
N16770 X83.57 Y-16.801
N16775 X83.563 Y-19.385
N16780 X83.556 Y-23.261
N16785 X83.551 Y-28.429
N16790 X83.547 Y-36.182
N16795 X83.546 Y-58.147
N16800 Y-73.651
N16805 Y-94.324
N16810 X83.449 Y-95.613
N16815 X83.097 Y-96.856
N16820 X82.51 Y-98.006
N16825 X81.734 Y-99.04
N16830 X80.817 Y-99.95
N16835 X79.794 Y-100.739
N16840 X78.695 Y-101.418
N16845 X77.539 Y-101.996
N16850 X76.343 Y-102.485
N16855 X75.119 Y-102.898
N16860 X73.874 Y-103.245
N16865 X72.615 Y-103.535
N16870 X71.346 Y-103.777
N16875 X70.07 Y-103.979
N16880 X68.789 Y-104.147
N16885 X67.504 Y-104.286
N16890 X66.217 Y-104.402
N16895 X64.929 Y-104.498
N16900 X63.639 Y-104.577
N16905 X62.349 Y-104.642
N16910 X61.058 Y-104.696
N16915 X59.767 Y-104.741
N16920 X58.475 Y-104.778
N16925 X57.183 Y-104.808
N16930 X55.892 Y-104.833
N16935 X54.6 Y-104.854
N16940 X53.308 Y-104.87
N16945 X52.016 Y-104.884
N16950 X50.724 Y-104.896
N16955 X49.432 Y-104.905
N16960 X48.14 Y-104.913
N16965 X46.848 Y-104.919
N16970 X44.264 Y-104.929
N16975 X41.68 Y-104.935
N16980 X37.803 Y-104.941
N16985 X31.343 Y-104.946
N16990 X30.051 Y-104.95
N16995 X28.759 Y-104.958
N17000 X27.467 Y-104.976
N17005 X26.175 Y-105.008
N17010 X24.885 Y-105.064
N17015 X23.595 Y-105.15
N17020 X22.309 Y-105.274
N17025 X21.029 Y-105.446
N17030 X19.758 Y-105.68
N17035 X18.577 Y-105.975
N17040 X17.615 Y-106.299
N17045 X16.795 Y-106.652
N17050 X16.413 Y-106.893
N17055 X16.072 Y-107.191
N17060 X15.782 Y-107.537
N17065 X15.548 Y-107.925
N17070 X15.378 Y-108.343
N17075 X15.273 Y-108.783
N17080 X15.238 Y-109.234
N17085 Y-113.945
N17090 G3 X15.499 Y-114.672 I1.269 J0.044
N17095 G1 X15.586 Y-114.785 Z-19.992
N17100 X15.671 Y-114.897 Z-19.968
N17105 X15.754 Y-115.005 Z-19.929
N17110 X15.834 Y-115.11 Z-19.874
N17115 X15.91 Y-115.209 Z-19.805
N17120 X15.98 Y-115.301 Z-19.723
N17125 X16.045 Y-115.385 Z-19.628
N17130 X16.103 Y-115.461 Z-19.522
N17135 X16.153 Y-115.526 Z-19.406
N17140 X16.195 Y-115.581 Z-19.281
N17145 X16.228 Y-115.624 Z-19.149
N17150 X16.252 Y-115.655 Z-19.013
N17155 X16.266 Y-115.674 Z-18.872
N17160 X16.271 Y-115.681 Z-18.73
N17165 G0 Z5.
N17170 G1 X94.347 Y24.935 F500.
N17175 G0 Z-17.46
N17180 G1 Z-18.73 F242.55
N17185 X94.339 Y24.937 Z-18.872
N17190 X94.316 Y24.941 Z-19.013
N17195 X94.277 Y24.948 Z-19.149
N17200 X94.224 Y24.959 Z-19.281
N17205 X94.156 Y24.971 Z-19.406
N17210 X94.075 Y24.987 Z-19.522
N17215 X93.982 Y25.004 Z-19.628
N17220 X93.878 Y25.024 Z-19.723
N17225 X93.763 Y25.046 Z-19.805
N17230 X93.641 Y25.069 Z-19.874
N17235 X93.512 Y25.094 Z-19.929
N17240 X93.377 Y25.119 Z-19.968
N17245 X93.239 Y25.145 Z-19.992
N17250 X93.1 Y25.172 Z-20.
N17255 G3 X92.316 Y25.122 I-0.295 J-1.555
N17260 G1 X87.363 Y23.319
N17265 X86.963 Y23.151
N17270 X86.517 Y22.919
N17275 X86.014 Y22.604
N17280 X85.499 Y22.22
N17285 X84.938 Y21.727
N17290 X84.347 Y21.118
N17295 X83.737 Y20.379
N17300 X83.096 Y19.46
N17305 X82.444 Y18.345
N17310 X81.882 Y17.182
N17315 X81.398 Y15.984
N17320 X80.981 Y14.761
N17325 X80.621 Y13.52
N17330 X80.312 Y12.265
N17335 X80.046 Y11.001
N17340 X79.817 Y9.73
N17345 X79.62 Y8.453
N17350 X79.451 Y7.172
N17355 X79.306 Y5.888
N17360 X79.182 Y4.602
N17365 X79.075 Y3.314
N17370 X78.984 Y2.025
N17375 X78.906 Y0.735
N17380 X78.84 Y-0.555
N17385 X78.783 Y-1.846
N17390 X78.734 Y-3.137
N17395 X78.693 Y-4.428
N17400 X78.658 Y-5.72
N17405 X78.628 Y-7.012
N17410 X78.603 Y-8.303
N17415 X78.582 Y-9.595
N17420 X78.563 Y-10.887
N17425 X78.548 Y-12.179
N17430 X78.535 Y-13.471
N17435 X78.524 Y-14.763
N17440 X78.515 Y-16.055
N17445 X78.507 Y-17.347
N17450 X78.5 Y-18.639
N17455 X78.49 Y-21.223
N17460 X78.483 Y-23.807
N17465 X78.48 Y-25.099
N17470 X78.474 Y-28.976
N17475 X78.47 Y-34.144
N17480 X78.467 Y-43.188
N17485 X78.466 Y-75.49
N17490 Y-88.41
N17495 X78.449 Y-89.702
N17500 X78.211 Y-90.972
N17505 X77.734 Y-92.173
N17510 X77.051 Y-93.27
N17515 X76.208 Y-94.249
N17520 X75.242 Y-95.107
N17525 X74.186 Y-95.851
N17530 X73.063 Y-96.491
N17535 X71.892 Y-97.036
N17540 X70.686 Y-97.499
N17545 X69.454 Y-97.889
N17550 X68.205 Y-98.218
N17555 X66.942 Y-98.495
N17560 X65.671 Y-98.726
N17565 X64.394 Y-98.919
N17570 X63.112 Y-99.08
N17575 X61.827 Y-99.215
N17580 X60.539 Y-99.327
N17585 X59.251 Y-99.42
N17590 X57.961 Y-99.497
N17595 X56.671 Y-99.561
N17600 X55.38 Y-99.614
N17605 X54.088 Y-99.658
N17610 X52.797 Y-99.695
N17615 X51.505 Y-99.725
N17620 X50.213 Y-99.75
N17625 X48.921 Y-99.771
N17630 X47.629 Y-99.788
N17635 X46.337 Y-99.802
N17640 X45.045 Y-99.813
N17645 X43.753 Y-99.823
N17650 X42.461 Y-99.831
N17655 X41.169 Y-99.837
N17660 X38.585 Y-99.847
N17665 X34.709 Y-99.858
N17670 X33.417 Y-99.863
N17675 X32.125 Y-99.871
N17680 X30.833 Y-99.884
N17685 X29.541 Y-99.906
N17690 X28.25 Y-99.941
N17695 X26.959 Y-99.994
N17700 X25.669 Y-100.069
N17705 X24.381 Y-100.171
N17710 X23.096 Y-100.306
N17715 X21.816 Y-100.481
N17720 X20.544 Y-100.708
N17725 X19.284 Y-100.996
N17730 X18.153 Y-101.335
N17735 X17.227 Y-101.695
N17740 X16.909 Y-101.85
N17745 X16.501 Y-102.09
N17750 X16.136 Y-102.392
N17755 X15.824 Y-102.748
N17760 X15.573 Y-103.149
N17765 X15.389 Y-103.585
N17770 X15.276 Y-104.044
N17775 X15.238 Y-104.516
N17780 Y-109.234
N17785 G3 X15.499 Y-109.962 I1.269 J0.044
N17790 G1 X15.586 Y-110.075 Z-19.992
N17795 X15.671 Y-110.186 Z-19.968
N17800 X15.754 Y-110.295 Z-19.929
N17805 X15.834 Y-110.399 Z-19.874
N17810 X15.91 Y-110.498 Z-19.805
N17815 X15.98 Y-110.591 Z-19.723
N17820 X16.045 Y-110.675 Z-19.628
N17825 X16.103 Y-110.75 Z-19.522
N17830 X16.153 Y-110.816 Z-19.406
N17835 X16.195 Y-110.871 Z-19.281
N17840 X16.228 Y-110.914 Z-19.149
N17845 X16.252 Y-110.945 Z-19.013
N17850 X16.266 Y-110.964 Z-18.872
N17855 X16.271 Y-110.97 Z-18.73
N17860 G0 Z5.
N17865 G1 X89.395 Y23.133 F500.
N17870 G0 Z-17.46
N17875 G1 Z-18.73 F242.55
N17880 X89.387 Y23.134 Z-18.872
N17885 X89.363 Y23.138 Z-19.013
N17890 X89.325 Y23.146 Z-19.149
N17895 X89.271 Y23.156 Z-19.281
N17900 X89.203 Y23.169 Z-19.406
N17905 X89.122 Y23.184 Z-19.522
N17910 X89.029 Y23.202 Z-19.628
N17915 X88.925 Y23.222 Z-19.723
N17920 X88.811 Y23.243 Z-19.805
N17925 X88.688 Y23.266 Z-19.874
N17930 X88.559 Y23.291 Z-19.929
N17935 X88.425 Y23.316 Z-19.968
N17940 X88.287 Y23.343 Z-19.992
N17945 X88.147 Y23.369 Z-20.
N17950 G3 X87.363 Y23.319 I-0.295 J-1.555
N17955 G1 X82.791 Y21.655
N17960 X82.13 Y21.377
N17965 X81.68 Y21.142
N17970 X81.167 Y20.821
N17975 X80.644 Y20.431
N17980 X80.071 Y19.928
N17985 X79.468 Y19.306
N17990 X78.844 Y18.549
N17995 X78.187 Y17.608
N18000 X77.535 Y16.493
N18005 X76.971 Y15.33
N18010 X76.482 Y14.134
N18015 X76.059 Y12.914
N18020 X75.692 Y11.675
N18025 X75.375 Y10.422
N18030 X75.1 Y9.16
N18035 X74.862 Y7.89
N18040 X74.657 Y6.614
N18045 X74.479 Y5.334
N18050 X74.325 Y4.052
N18055 X74.192 Y2.766
N18060 X74.078 Y1.479
N18065 X73.979 Y0.191
N18070 X73.894 Y-1.098
N18075 X73.82 Y-2.388
N18080 X73.757 Y-3.679
N18085 X73.703 Y-4.97
N18090 X73.657 Y-6.261
N18095 X73.617 Y-7.552
N18100 X73.582 Y-8.844
N18105 X73.553 Y-10.136
N18110 X73.528 Y-11.427
N18115 X73.507 Y-12.719
N18120 X73.489 Y-14.011
N18125 X73.473 Y-15.303
N18130 X73.46 Y-16.595
N18135 X73.448 Y-17.887
N18140 X73.439 Y-19.179
N18145 X73.431 Y-20.471
N18150 X73.424 Y-21.763
N18155 X73.413 Y-24.347
N18160 X73.409 Y-25.639
N18165 X73.402 Y-28.223
N18170 X73.396 Y-32.1
N18175 X73.391 Y-37.268
N18180 X73.388 Y-45.02
N18185 X73.386 Y-65.693
N18190 Y-76.029
N18195 Y-82.49
N18200 X73.385 Y-83.782
N18205 X73.272 Y-85.069
N18210 X72.924 Y-86.313
N18215 X72.352 Y-87.472
N18220 X71.599 Y-88.522
N18225 X70.702 Y-89.452
N18230 X69.698 Y-90.265
N18235 X68.615 Y-90.969
N18240 X67.473 Y-91.573
N18245 X66.288 Y-92.088
N18250 X65.072 Y-92.525
N18255 X63.834 Y-92.895
N18260 X62.58 Y-93.207
N18265 X61.315 Y-93.468
N18270 X60.041 Y-93.688
N18275 X58.763 Y-93.872
N18280 X57.48 Y-94.026
N18285 X56.194 Y-94.154
N18290 X54.906 Y-94.261
N18295 X53.617 Y-94.35
N18300 X52.327 Y-94.425
N18305 X51.037 Y-94.487
N18310 X49.746 Y-94.538
N18315 X48.455 Y-94.581
N18320 X47.163 Y-94.616
N18325 X45.871 Y-94.646
N18330 X44.579 Y-94.67
N18335 X43.288 Y-94.69
N18340 X41.996 Y-94.707
N18345 X40.704 Y-94.721
N18350 X39.412 Y-94.733
N18355 X35.536 Y-94.765
N18360 X34.244 Y-94.778
N18365 X32.952 Y-94.797
N18370 X31.66 Y-94.822
N18375 X30.368 Y-94.857
N18380 X29.077 Y-94.906
N18385 X27.787 Y-94.971
N18390 X26.498 Y-95.057
N18395 X25.21 Y-95.167
N18400 X23.926 Y-95.306
N18405 X22.645 Y-95.478
N18410 X21.371 Y-95.693
N18415 X20.107 Y-95.961
N18420 X18.858 Y-96.293
N18425 X17.777 Y-96.663
N18430 X16.884 Y-97.052
N18435 X16.804 Y-97.095
N18440 X16.419 Y-97.341
N18445 X16.077 Y-97.643
N18450 X15.785 Y-97.994
N18455 X15.55 Y-98.385
N18460 X15.378 Y-98.808
N18465 X15.274 Y-99.253
N18470 X15.238 Y-99.708
N18475 Y-104.516
N18480 G3 X15.499 Y-105.244 I1.269 J0.044
N18485 G1 X15.586 Y-105.357 Z-19.992
N18490 X15.671 Y-105.468 Z-19.968
N18495 X15.754 Y-105.577 Z-19.929
N18500 X15.834 Y-105.681 Z-19.874
N18505 X15.91 Y-105.78 Z-19.805
N18510 X15.98 Y-105.873 Z-19.723
N18515 X16.045 Y-105.957 Z-19.628
N18520 X16.103 Y-106.032 Z-19.522
N18525 X16.153 Y-106.098 Z-19.406
N18530 X16.195 Y-106.152 Z-19.281
N18535 X16.228 Y-106.196 Z-19.149
N18540 X16.252 Y-106.227 Z-19.013
N18545 X16.266 Y-106.246 Z-18.872
N18550 X16.271 Y-106.252 Z-18.73
N18555 G0 Z5.
N18560 G1 X84.823 Y21.469 F500.
N18565 G0 Z-17.46
N18570 G1 Z-18.73 F242.55
N18575 X84.815 Y21.47 Z-18.872
N18580 X84.792 Y21.475 Z-19.013
N18585 X84.753 Y21.482 Z-19.149
N18590 X84.699 Y21.492 Z-19.281
N18595 X84.632 Y21.505 Z-19.406
N18600 X84.551 Y21.52 Z-19.522
N18605 X84.457 Y21.538 Z-19.628
N18610 X84.353 Y21.558 Z-19.723
N18615 X84.239 Y21.579 Z-19.805
N18620 X84.117 Y21.603 Z-19.874
N18625 X83.987 Y21.627 Z-19.929
N18630 X83.853 Y21.653 Z-19.968
N18635 X83.715 Y21.679 Z-19.992
N18640 X83.575 Y21.705 Z-20.
N18645 G3 X82.791 Y21.655 I-0.295 J-1.555
N18650 G1 X82.41 Y21.517
N18655 X82.029 Y21.37
N18660 X77.458 Y19.56
N18665 X77.009 Y19.353
N18670 X76.527 Y19.083
N18675 X76.017 Y18.739
N18680 X75.459 Y18.295
N18685 X74.884 Y17.757
N18690 X74.266 Y17.076
N18695 X73.615 Y16.233
N18700 X72.94 Y15.196
N18705 X72.325 Y14.06
N18710 X71.791 Y12.884
N18715 X71.327 Y11.678
N18720 X70.925 Y10.45
N18725 X70.575 Y9.206
N18730 X70.272 Y7.95
N18735 X70.008 Y6.685
N18740 X69.779 Y5.414
N18745 X69.581 Y4.137
N18750 X69.408 Y2.856
N18755 X69.258 Y1.573
N18760 X69.128 Y0.288
N18765 X69.015 Y-0.999
N18770 X68.917 Y-2.288
N18775 X68.832 Y-3.577
N18780 X68.759 Y-4.867
N18785 X68.695 Y-6.158
N18790 X68.641 Y-7.448
N18795 X68.593 Y-8.74
N18800 X68.552 Y-10.031
N18805 X68.517 Y-11.323
N18810 X68.487 Y-12.614
N18815 X68.461 Y-13.906
N18820 X68.438 Y-15.198
N18825 X68.419 Y-16.49
N18830 X68.402 Y-17.782
N18835 X68.388 Y-19.074
N18840 X68.376 Y-20.366
N18845 X68.366 Y-21.658
N18850 X68.357 Y-22.95
N18855 X68.349 Y-24.242
N18860 X68.337 Y-26.826
N18865 X68.332 Y-28.118
N18870 X68.325 Y-30.702
N18875 X68.318 Y-34.578
N18880 X68.312 Y-39.746
N18885 X68.308 Y-47.499
N18890 X68.306 Y-64.295
N18895 Y-78.508
N18900 X68.204 Y-79.796
N18905 X67.875 Y-81.046
N18910 X67.323 Y-82.214
N18915 X66.586 Y-83.275
N18920 X65.704 Y-84.219
N18925 X64.712 Y-85.047
N18930 X63.638 Y-85.765
N18935 X62.502 Y-86.382
N18940 X61.323 Y-86.909
N18945 X60.111 Y-87.357
N18950 X58.876 Y-87.737
N18955 X57.625 Y-88.058
N18960 X56.361 Y-88.329
N18965 X55.089 Y-88.556
N18970 X53.811 Y-88.746
N18975 X52.529 Y-88.906
N18980 X51.244 Y-89.04
N18985 X49.957 Y-89.151
N18990 X48.668 Y-89.245
N18995 X47.378 Y-89.322
N19000 X46.088 Y-89.387
