;Fusion 360 CAM 2.0.7805
; Posts processor: DIYCNC_Marlin20.cps
; Gcode generated: Sat Mar 14 13:33:19 2020 GMT
; Document: MillerPlaque v6
; Setup: Setup2
; 
; Ranges table:
; X: Min=-37.497 Max=45.066 Size=82.563
; Y: Min=-42.858 Max=41.72 Size=84.578
; Z: Min=-3.175 Max=3 Size=6.175
; 
; Tools table:
; T3 D=3.175 CR=0 TAPER=22.5deg - ZMIN=-3.175 - chamfer mill 

; *** START begin ***
G90
G21
M84 S0
G92 X0 Y0 Z5
; *** START end ***

; *** SECTION begin ***
;Engrave3 - Milling - Tool: 3 -  chamfer mill
; X Min: -37.497 - X Max: 45.066
; Y Min: -42.858 - Y Max: 41.72
; Z Min: -3.175 - Z Max: 3
; COMMAND_START_SPINDLE
; COMMAND_SPINDLE_CLOCKWISE
; COMMAND_COOLANT_ON
; MOVEMENT_LEAD_IN
G1 X-34.346 Y38.944 Z3 F480
G1 Z0
; MOVEMENT_CUTTING
G1 X-33.048 Y37.544 Z-3.175
G1 X-32.884 Y37.533
G1 X-32.881
G1 X-32.083 Y37.485
G1 X-32.08
G1 X-31.282 Y37.438
G1 X-31.279
G1 X-30.481 Y37.394
G1 X-30.478 Y37.393
G1 X-29.68 Y37.351
G1 X-29.677 Y37.35
G1 X-28.879 Y37.309
G1 X-28.876
G1 X-28.462 Y37.289
G1 X-28.072 Y37.338 Z-3.009
G1 X-27.644 Y37.391 Z-2.833
G1 X-27.215 Y37.443 Z-2.66
G1 X-26.789 Y37.492 Z-2.494
G1 X-26.364 Y37.541 Z-2.332
G1 X-25.941 Y37.587 Z-2.177
G1 X-25.519 Y37.632 Z-2.026
G1 X-25.099 Y37.675 Z-1.881
G1 X-24.679 Y37.716 Z-1.741
G1 X-24.262 Y37.756 Z-1.606
G1 X-23.846 Y37.794 Z-1.477
G1 X-23.434 Y37.83 Z-1.353
G1 X-23.359 Y37.835 Z-1.337
G1 X-23.285 Y37.834 Z-1.331
G1 X-23.243 Y37.832 Z-1.333
G1 X-23.154 Y37.823 Z-1.348
G1 X-23.066 Y37.807 Z-1.38
G1 X-22.978 Y37.784 Z-1.427
G1 X-22.89 Y37.755 Z-1.49
G1 X-22.803 Y37.719 Z-1.569
G1 X-22.715 Y37.677 Z-1.663
G1 X-22.628 Y37.628 Z-1.774
G1 X-22.541 Y37.573 Z-1.9
G1 X-22.453 Y37.51 Z-2.046
G1 X-22.379 Y37.452 Z-2.18
G1 X-21.927 Y37.51 Z-2.005
G1 X-21.41 Y37.571 Z-1.82
G1 X-20.848 Y37.629 Z-1.639
G1 X-20.377 Y37.673 Z-1.502
G1 X-19.861 Y37.715 Z-1.368
G1 X-19.345 Y37.751 Z-1.25
G1 X-18.829 Y37.781 Z-1.148
G1 X-18.311 Y37.805 Z-1.062
G1 X-17.791 Y37.823 Z-0.991
G1 X-17.269 Y37.836 Z-0.936
G1 X-16.745 Y37.843 Z-0.896
G1 X-16.218 Y37.844 Z-0.872
G1 X-15.687 Y37.84 Z-0.864
G1 X-15.152 Y37.83 Z-0.87
G1 X-14.613 Y37.814 Z-0.892
G1 X-14.07 Y37.792 Z-0.928
G1 X-13.527 Y37.765 Z-0.977
G1 X-12.987 Y37.733 Z-1.038
G1 X-12.451 Y37.697 Z-1.111
G1 X-11.917 Y37.656 Z-1.196
G1 X-11.386 Y37.61 Z-1.292
G1 X-10.857 Y37.56 Z-1.401
G1 X-10.329 Y37.504 Z-1.522
G1 X-9.804 Y37.444 Z-1.655
G1 X-9.28 Y37.379 Z-1.801
G1 X-8.756 Y37.308 Z-1.96
G1 X-8.234 Y37.233 Z-2.131
G1 X-7.712 Y37.152 Z-2.316
G1 X-7.189 Y37.066 Z-2.514
G1 X-6.667 Y36.974 Z-2.726
G1 X-6.143 Y36.877 Z-2.952
G1 X-5.656 Y36.782 Z-3.174
G1 X-6.143 Y36.877 Z-2.952
G1 X-6.667 Y36.974 Z-2.726
G1 X-7.189 Y37.066 Z-2.514
G1 X-7.712 Y37.152 Z-2.316
G1 X-8.234 Y37.233 Z-2.131
G1 X-8.756 Y37.308 Z-1.96
G1 X-9.28 Y37.379 Z-1.801
G1 X-9.804 Y37.444 Z-1.655
G1 X-10.329 Y37.504 Z-1.522
G1 X-10.857 Y37.56 Z-1.401
G1 X-11.386 Y37.61 Z-1.292
G1 X-11.917 Y37.656 Z-1.196
G1 X-12.451 Y37.697 Z-1.111
G1 X-12.987 Y37.733 Z-1.038
G1 X-13.527 Y37.765 Z-0.977
G1 X-14.07 Y37.792 Z-0.928
G1 X-14.613 Y37.814 Z-0.892
G1 X-15.152 Y37.83 Z-0.87
G1 X-15.687 Y37.84 Z-0.864
G1 X-16.218 Y37.844 Z-0.872
G1 X-16.745 Y37.843 Z-0.896
G1 X-17.269 Y37.836 Z-0.936
G1 X-17.791 Y37.823 Z-0.991
G1 X-18.311 Y37.805 Z-1.062
G1 X-18.829 Y37.781 Z-1.148
G1 X-19.345 Y37.751 Z-1.25
G1 X-19.861 Y37.715 Z-1.368
G1 X-20.377 Y37.673 Z-1.502
G1 X-20.848 Y37.629 Z-1.639
G1 X-21.41 Y37.571 Z-1.82
G1 X-21.927 Y37.51 Z-2.005
G1 X-22.379 Y37.452 Z-2.18
G1 X-22.442 Y37.349 Z-1.985
G1 X-22.5 Y37.261 Z-1.827
G1 X-22.56 Y37.18 Z-1.685
G1 X-22.623 Y37.105 Z-1.559
G1 X-22.687 Y37.036 Z-1.449
G1 X-22.753 Y36.973 Z-1.355
G1 X-22.834 Y36.907 Z-1.265
G1 X-22.905 Y36.857 Z-1.207
G1 X-22.979 Y36.813 Z-1.166
G1 X-23.055 Y36.775 Z-1.141
G1 X-23.139 Y36.742 Z-1.133
G1 X-23.321 Y36.678 Z-1.135
G1 X-23.502 Y36.61 Z-1.138
G1 X-23.686 Y36.538 Z-1.135
G1 X-23.779 Y36.501 Z-1.133
G1 X-23.966 Y36.423 Z-1.129
G1 X-24.157 Y36.341 Z-1.12
G1 X-24.253 Y36.298 Z-1.115
G1 X-24.447 Y36.209 Z-1.105
G1 X-24.743 Y36.067 Z-1.084
G1 X-24.944 Y35.966 Z-1.069
G1 X-25.153 Y35.858 Z-1.049
G1 X-25.353 Y35.75 Z-1.032
G1 X-25.473 Y35.685 Z-1.021
G1 X-25.604 Y35.616 Z-1.014
G1 X-25.771 Y35.527 Z-1.015
G1 X-25.97 Y35.424 Z-1.019
G1 X-26.07 Y35.372 Z-1.024
G1 X-26.117 Y35.345 Z-1.034
G1 X-26.166 Y35.313 Z-1.053
G1 X-26.211 Y35.28 Z-1.079
G1 X-26.257 Y35.242 Z-1.115
G1 X-26.299 Y35.204 Z-1.157
G1 X-26.343 Y35.159 Z-1.211
G1 X-26.383 Y35.114 Z-1.27
G1 X-26.425 Y35.063 Z-1.343
G1 X-26.462 Y35.012 Z-1.417
G1 X-26.502 Y34.953 Z-1.51
G1 X-26.537 Y34.897 Z-1.601
G1 X-26.574 Y34.831 Z-1.713
G1 X-26.607 Y34.768 Z-1.822
G1 X-26.656 Y34.665 Z-2.008
G1 X-26.784 Y34.636 Z-1.957
G1 X-27.029 Y34.58 Z-1.87
G1 X-27.198 Y34.542 Z-1.817
G1 X-27.319 Y34.515 Z-1.781
G1 X-27.56 Y34.461 Z-1.718
G1 X-27.795 Y34.409 Z-1.665
G1 X-28.027 Y34.361 Z-1.616
G1 X-28.26 Y34.317 Z-1.571
G1 X-28.492 Y34.277 Z-1.531
G1 X-28.694 Y34.246 Z-1.499
G1 X-28.956 Y34.209 Z-1.463
G1 X-29.15 Y34.186 Z-1.439
G1 X-29.42 Y34.157 Z-1.413
G1 X-29.603 Y34.141 Z-1.398
G1 X-29.883 Y34.121 Z-1.381
G1 X-30.055 Y34.112 Z-1.373
G1 X-30.28 Y34.103 Z-1.368
G1 X-30.506 Y34.098 Z-1.367
G1 X-30.611 Y34.097 Z-1.368
G1 X-30.687 Y34.098 Z-1.374
G1 X-30.813 Y34.105 Z-1.393
G1 X-30.94 Y34.115 Z-1.417
G1 X-31.067 Y34.127 Z-1.445
G1 X-31.195 Y34.142 Z-1.478
G1 X-31.321 Y34.16 Z-1.515
G1 X-31.49 Y34.187 Z-1.573
G1 X-31.578 Y34.203 Z-1.605
G1 X-31.716 Y34.23 Z-1.661
G1 X-31.838 Y34.257 Z-1.714
G1 X-31.969 Y34.288 Z-1.777
G1 X-32.1 Y34.322 Z-1.845
G1 X-32.234 Y34.36 Z-1.918
G1 X-32.385 Y34.406 Z-2.007
G1 X-32.503 Y34.444 Z-2.08
G1 X-32.64 Y34.49 Z-2.17
G1 X-32.823 Y34.557 Z-2.297
G1 X-32.917 Y34.594 Z-2.365
G1 X-33.057 Y34.65 Z-2.471
G1 X-33.204 Y34.704 Z-2.601
G1 X-33.285 Y34.731 Z-2.684
G1 X-33.316 Y34.802 Z-2.608
G1 X-33.379 Y34.95 Z-2.452
G1 X-33.439 Y35.097 Z-2.303
G1 X-33.497 Y35.245 Z-2.159
G1 X-33.545 Y35.371 Z-2.04
G1 X-33.577 Y35.464 Z-1.958
G1 X-33.604 Y35.556 Z-1.89
G1 X-33.626 Y35.649 Z-1.836
G1 X-33.644 Y35.76 Z-1.788
G1 X-33.655 Y35.872 Z-1.759
G1 X-33.657 Y35.983 Z-1.749
G1 X-33.652 Y36.094 Z-1.759
G1 X-33.639 Y36.205 Z-1.788
G1 X-33.617 Y36.316 Z-1.836
G1 X-33.588 Y36.427 Z-1.904
G1 X-33.551 Y36.538 Z-1.991
G1 X-33.505 Y36.649 Z-2.097
G1 X-33.452 Y36.759 Z-2.222
G1 X-33.391 Y36.87 Z-2.367
G1 X-33.321 Y36.98 Z-2.531
G1 X-33.244 Y37.091 Z-2.715
G1 X-33.159 Y37.201 Z-2.918
G1 X-33.051 Y37.328 Z-3.175
G1 X-33.048 Y37.544
G1 X-33.051 Y37.328
G1 X-32.953 Y37.337
G1 X-32.855 Y37.338
G1 X-32.757 Y37.333
G1 X-32.66 Y37.32
G1 X-32.564 Y37.301
G1 X-32.367 Y37.253
G1 X-32.184 Y37.213
G1 X-32.002 Y37.177
G1 X-31.822 Y37.144
G1 X-31.643 Y37.116
G1 X-31.465 Y37.091
G1 X-31.289 Y37.07
G1 X-31.114 Y37.053
G1 X-30.94 Y37.04
G1 X-30.767 Y37.031
G1 X-30.596 Y37.025
G1 X-30.426 Y37.023
G1 X-30.257 Y37.025
G1 X-30.088 Y37.031
G1 X-29.922 Y37.04
G1 X-29.756 Y37.053
G1 X-29.591 Y37.07
G1 X-29.428 Y37.09
G1 X-29.264 Y37.114
G1 X-29.102 Y37.141
G1 X-28.94 Y37.173
G1 X-28.78 Y37.208
G1 X-28.62 Y37.246
G1 X-28.474 Y37.285
G1 X-28.462 Y37.289
G1 X-28.474 Y37.285
G1 X-28.62 Y37.246
G1 X-28.78 Y37.208
G1 X-28.94 Y37.173
G1 X-29.102 Y37.141
G1 X-29.264 Y37.114
G1 X-29.428 Y37.09
G1 X-29.591 Y37.07
G1 X-29.756 Y37.053
G1 X-29.922 Y37.04
G1 X-30.088 Y37.031
G1 X-30.257 Y37.025
G1 X-30.426 Y37.023
G1 X-30.596 Y37.025
G1 X-30.767 Y37.031
G1 X-30.94 Y37.04
G1 X-31.114 Y37.053
G1 X-31.289 Y37.07
G1 X-31.465 Y37.091
G1 X-31.643 Y37.116
G1 X-31.822 Y37.144
G1 X-32.002 Y37.177
G1 X-32.184 Y37.213
G1 X-32.367 Y37.253
G1 X-32.564 Y37.301
G1 X-32.66 Y37.32
G1 X-32.757 Y37.333
G1 X-32.855 Y37.338
G1 X-32.953 Y37.337
G1 X-33.051 Y37.328
G1 X-33.159 Y37.201 Z-2.918
G1 X-33.244 Y37.091 Z-2.715
G1 X-33.321 Y36.98 Z-2.531
G1 X-33.391 Y36.87 Z-2.367
G1 X-33.452 Y36.759 Z-2.222
G1 X-33.505 Y36.649 Z-2.097
G1 X-33.551 Y36.538 Z-1.991
G1 X-33.588 Y36.427 Z-1.904
G1 X-33.617 Y36.316 Z-1.836
G1 X-33.639 Y36.205 Z-1.788
G1 X-33.652 Y36.094 Z-1.759
G1 X-33.657 Y35.983 Z-1.749
G1 X-33.655 Y35.872 Z-1.759
G1 X-33.644 Y35.76 Z-1.788
G1 X-33.626 Y35.649 Z-1.836
G1 X-33.604 Y35.556 Z-1.89
G1 X-33.577 Y35.464 Z-1.958
G1 X-33.545 Y35.371 Z-2.04
G1 X-33.497 Y35.245 Z-2.159
G1 X-33.439 Y35.097 Z-2.303
G1 X-33.379 Y34.95 Z-2.452
G1 X-33.316 Y34.802 Z-2.608
G1 X-33.285 Y34.731 Z-2.684
G1 X-33.365 Y34.638 Z-2.495
G1 X-33.438 Y34.544 Z-2.322
G1 X-33.504 Y34.451 Z-2.165
G1 X-33.563 Y34.357 Z-2.024
G1 X-33.616 Y34.263 Z-1.899
G1 X-33.662 Y34.17 Z-1.791
G1 X-33.701 Y34.076 Z-1.698
G1 X-33.734 Y33.982 Z-1.622
G1 X-33.761 Y33.883 Z-1.56
G1 X-33.781 Y33.784 Z-1.515
G1 X-33.793 Y33.686 Z-1.489
G1 X-33.798 Y33.583 Z-1.48
G1 X-33.8 Y33.49 Z-1.478
G1 X-33.804 Y33.4 Z-1.47
G1 X-33.811 Y33.308 Z-1.456
G1 X-33.82 Y33.215 Z-1.436
G1 X-33.833 Y33.119 Z-1.408
G1 X-33.861 Y32.923 Z-1.347
G1 X-33.865 Y32.823 Z-1.338
G1 X-33.869 Y32.193 Z-1.347
G1 X-33.866 Y32.097 Z-1.358
G1 X-33.855 Y32.001 Z-1.386
G1 X-33.836 Y31.905 Z-1.433
G1 X-33.811 Y31.808 Z-1.499
G1 X-33.777 Y31.712 Z-1.582
G1 X-33.736 Y31.616 Z-1.684
G1 X-33.687 Y31.519 Z-1.804
G1 X-33.631 Y31.423 Z-1.943
G1 X-33.567 Y31.326 Z-2.099
G1 X-33.496 Y31.229 Z-2.274
G1 X-33.417 Y31.132 Z-2.468
G1 X-33.128 Y30.791 Z-3.175
G1 X-33.047 Y30.778
G1 X-32.854 Y30.741
G1 X-32.666 Y30.7
G1 X-32.481 Y30.656
G1 X-32.3 Y30.609
G1 X-32.123 Y30.558
G1 X-31.984 Y30.514
G1 X-31.945 Y30.517 Z-3.14
G1 X-31.849 Y30.521 Z-3.057
G1 X-31.754 Z-2.982
G1 X-31.66 Y30.517 Z-2.912
G1 X-31.567 Y30.51 Z-2.851
G1 X-31.476 Y30.498 Z-2.796
G1 X-31.386 Y30.483 Z-2.749
G1 X-31.298 Y30.464 Z-2.708
G1 X-31.211 Y30.442 Z-2.675
G1 X-31.126 Y30.415 Z-2.648
G1 X-31.043 Y30.385 Z-2.629
G1 X-30.949 Y30.346 Z-2.614
G1 X-30.84 Y30.297 Z-2.602
G1 X-30.681 Y30.221 Z-2.58
G1 X-30.526 Y30.144 Z-2.555
G1 X-30.376 Y30.067 Z-2.527
G1 X-30.182 Y29.96 Z-2.485
G1 X-30.041 Y29.88 Z-2.451
G1 X-29.905 Y29.798 Z-2.414
G1 X-29.87 Y29.776 Z-2.405
G1 X-29.738 Y29.709 Z-2.334
G1 X-29.593 Y29.632 Z-2.255
G1 X-29.45 Y29.551 Z-2.174
G1 X-29.304 Y29.466 Z-2.092
G1 X-29.059 Y29.321 Z-1.962
G1 X-28.904 Y29.224 Z-1.877
G1 X-28.805 Y29.16 Z-1.822
G1 X-28.714 Y29.096 Z-1.777
G1 X-28.644 Y29.039 Z-1.754
G1 X-28.578 Y28.979 Z-1.742
G1 X-28.542 Y28.942 Z-1.74
G1 X-28.5 Y28.895 Z-1.743
G1 X-28.459 Y28.846 Z-1.753
G1 X-28.406 Y28.774 Z-1.774
G1 X-28.357 Y28.699 Z-1.808
G1 X-28.312 Y28.62 Z-1.853
G1 X-28.271 Y28.538 Z-1.909
G1 X-28.235 Y28.452 Z-1.976
G1 X-28.203 Y28.363 Z-2.054
G1 X-28.176 Y28.272 Z-2.142
G1 X-28.153 Y28.177 Z-2.242
G1 X-28.134 Y28.081 Z-2.351
G1 X-28.12 Y27.981 Z-2.471
G1 X-28.11 Y27.88 Z-2.599
G1 X-28.104 Y27.775 Z-2.738
G1 X-28.103 Y27.564 Z-3.033
G1 Y27.46 Z-3.175
G1 X-28.054 Y27.39
G1 X-27.959 Y27.247
G1 X-27.866 Y27.101
G1 X-27.775 Y26.953
G1 X-27.687 Y26.802
G1 X-27.6 Y26.649
G1 X-27.516 Y26.493
G1 X-27.434 Y26.334
G1 X-27.354 Y26.173
G1 X-27.276 Y26.009
G1 X-27.195 Y25.831
G1 X-27.178 Y25.795
G1 X-27.089 Y25.613
G1 X-27.006 Y25.439
G1 X-26.926 Y25.264
G1 X-26.848 Y25.088
G1 X-26.773 Y24.911
G1 X-26.7 Y24.732
G1 X-26.63 Y24.552
G1 X-26.561 Y24.371
G1 X-26.496 Y24.188
G1 X-26.432 Y24.004
G1 X-26.371 Y23.819
G1 X-26.34 Y23.72
G1 X-26.233 Y23.615 Z-3.005
G1 X-26.071 Y23.45 Z-2.743
G1 X-25.915 Y23.284 Z-2.49
G1 X-25.801 Y23.158 Z-2.303
G1 X-25.731 Y23.07 Z-2.191
G1 X-25.667 Y22.982 Z-2.095
G1 X-25.609 Y22.89 Z-2.011
G1 X-25.557 Y22.797 Z-1.943
G1 X-25.513 Y22.702 Z-1.89
G1 X-25.474 Y22.605 Z-1.852
G1 X-25.443 Y22.507 Z-1.828
G1 X-25.416 Y22.397 Z-1.82
G1 X-25.4 Y22.298 Z-1.828
G1 X-25.389 Y22.198 Z-1.851
G1 X-25.385 Y22.092 Z-1.889
G1 X-25.388 Y21.985 Z-1.943
G1 X-25.398 Y21.877 Z-2.013
G1 X-25.422 Y21.734 Z-2.127
G1 X-25.434 Y21.672 Z-2.18
G1 X-25.446 Y21.594 Z-2.239
G1 X-25.455 Y21.523 Z-2.288
G1 X-25.47 Y21.395 Z-2.37
G1 X-25.484 Y21.24 Z-2.464
G1 X-25.495 Y21.06 Z-2.573
G1 X-25.505 Y20.852 Z-2.69
G1 X-25.514 Y20.634 Z-2.805
G1 X-25.517 Y20.55 Z-2.847
G1 X-25.523 Y20.44 Z-2.909
G1 X-25.534 Y20.337 Z-2.975
G1 X-25.549 Y20.233 Z-3.052
G1 X-25.578 Y20.087 Z-3.175
G1 X-25.569 Y20.03
G1 X-25.54 Y19.837
G1 X-25.513 Y19.644
G1 X-25.487 Y19.452
G1 X-25.463 Y19.261
G1 X-25.441 Y19.071
G1 X-25.42 Y18.882
G1 X-25.401 Y18.694
G1 X-25.384 Y18.508
G1 X-25.368 Y18.322
G1 X-25.367 Y18.31
G1 X-25.449 Y18.305
G1 X-25.53 Y18.295
G1 X-25.701 Y18.269
G1 X-25.85 Y18.25
G1 X-25.993 Y18.235
G1 X-26.132 Y18.225
G1 X-26.265 Y18.219
G1 X-26.393 Y18.217
G1 X-26.516 Y18.219
G1 X-26.633 Y18.224
G1 X-26.746 Y18.234
G1 X-26.853 Y18.246
G1 X-26.955 Y18.262
G1 X-27.052 Y18.281
G1 X-27.145 Y18.303
G1 X-27.233 Y18.327
G1 X-27.317 Y18.354
G1 X-27.397 Y18.384
G1 X-27.474 Y18.416
G1 X-27.547 Y18.451
G1 X-27.617 Y18.488
G1 X-27.685 Y18.528
G1 X-27.751 Y18.57
G1 X-27.815 Y18.616
G1 X-27.877 Y18.665
G1 X-27.915 Y18.698
G1 X-27.965 Y18.749
G1 X-28.042 Y18.832
G1 X-28.116 Y18.916
G1 X-28.188 Y19.002
G1 X-28.258 Y19.09
G1 X-28.325 Y19.179
G1 X-28.389 Y19.27
G1 X-28.452 Y19.362
G1 X-28.512 Y19.456
G1 X-28.57 Y19.552
G1 X-28.626 Y19.65
G1 X-28.675 Y19.743
G1 X-28.681 Y19.748 Z-3.169
G1 X-28.765 Y19.834 Z-3.081
G1 X-28.845 Y19.925 Z-3.001
G1 X-28.92 Y20.021 Z-2.93
G1 X-28.989 Y20.122 Z-2.868
G1 X-29.053 Y20.228 Z-2.817
G1 X-29.11 Y20.338 Z-2.777
G1 X-29.161 Y20.454 Z-2.748
G1 X-29.205 Y20.573 Z-2.732
G1 X-29.23 Y20.658 Z-2.728
G1 X-29.241 Y20.697 Z-2.729
G1 X-29.269 Y20.824 Z-2.739
G1 X-29.292 Y20.978 Z-2.769
G1 X-29.303 Y21.091 Z-2.798
G1 X-29.317 Y21.23 Z-2.83
G1 X-29.329 Y21.37 Z-2.859
G1 X-29.34 Y21.51 Z-2.885
G1 X-29.349 Y21.651 Z-2.909
G1 X-29.358 Y21.793 Z-2.929
G1 X-29.365 Y21.935 Z-2.947
G1 X-29.372 Y22.078 Z-2.963
G1 X-29.377 Y22.222 Z-2.975
G1 X-29.381 Y22.367 Z-2.985
G1 X-29.385 Y22.658 Z-2.997
G1 X-29.383 Y22.732 Z-3.003
G1 X-29.379 Y22.805 Z-3.014
G1 X-29.372 Y22.879 Z-3.029
G1 X-29.364 Y22.954 Z-3.049
G1 X-29.352 Y23.028 Z-3.073
G1 X-29.338 Y23.102 Z-3.102
G1 X-29.322 Y23.176 Z-3.135
G1 X-29.302 Y23.253 Z-3.175
G1 X-29.252 Y23.34
G1 X-29.197 Y23.422
G1 X-29.135 Y23.5
G1 X-29.068 Y23.574
G1 X-28.995 Y23.642
G1 X-28.918 Y23.705
G1 X-28.836 Y23.762
G1 X-28.751 Y23.813
G1 X-28.662 Y23.858
G1 X-28.57 Y23.896
G1 X-28.475 Y23.927
G1 X-28.378 Y23.952
G1 X-28.28 Y23.969
G1 X-28.181 Y23.979
G1 X-28.082 Y23.981
G1 X-28.008
G1 X-27.986 Y23.98
G1 X-27.912 Y23.978
G1 X-27.886 Y23.977
G1 X-27.812 Y23.974
G1 X-27.789 Y23.973
G1 X-27.714 Y23.968
G1 X-27.691 Y23.967
G1 X-27.615 Y23.961
G1 X-27.593 Y23.959
G1 X-27.517 Y23.952
G1 X-27.493 Y23.949
G1 X-27.417 Y23.941
G1 X-27.397 Y23.938
G1 X-27.32 Y23.928
G1 X-27.297 Y23.925
G1 X-27.219 Y23.914
G1 X-27.2 Y23.911
G1 X-27.122 Y23.899
G1 X-27.1 Y23.895
G1 X-27.022 Y23.881
G1 X-27.002 Y23.877
G1 X-26.923 Y23.862
G1 X-26.904 Y23.858
G1 X-26.825 Y23.842
G1 X-26.805 Y23.838
G1 X-26.726 Y23.82
G1 X-26.705 Y23.815
G1 X-26.625 Y23.796
G1 X-26.608 Y23.792
G1 X-26.528 Y23.772
G1 X-26.508 Y23.767
G1 X-26.427 Y23.745
G1 X-26.411 Y23.74
G1 X-26.34 Y23.72
G1 X-26.411 Y23.74
G1 X-26.427 Y23.745
G1 X-26.508 Y23.767
G1 X-26.528 Y23.772
G1 X-26.608 Y23.792
G1 X-26.625 Y23.796
G1 X-26.705 Y23.815
G1 X-26.726 Y23.82
G1 X-26.805 Y23.838
G1 X-26.825 Y23.842
G1 X-26.904 Y23.858
G1 X-26.923 Y23.862
G1 X-27.002 Y23.877
G1 X-27.022 Y23.881
G1 X-27.1 Y23.895
G1 X-27.122 Y23.899
G1 X-27.2 Y23.911
G1 X-27.219 Y23.914
G1 X-27.297 Y23.925
G1 X-27.32 Y23.928
G1 X-27.397 Y23.938
G1 X-27.417 Y23.941
G1 X-27.493 Y23.949
G1 X-27.517 Y23.952
G1 X-27.593 Y23.959
G1 X-27.615 Y23.961
G1 X-27.691 Y23.967
G1 X-27.714 Y23.968
G1 X-27.789 Y23.973
G1 X-27.812 Y23.974
G1 X-27.886 Y23.977
G1 X-27.912 Y23.978
G1 X-27.986 Y23.98
G1 X-28.008 Y23.981
G1 X-28.082
G1 X-28.181 Y23.979
G1 X-28.28 Y23.969
G1 X-28.378 Y23.952
G1 X-28.475 Y23.927
G1 X-28.57 Y23.896
G1 X-28.662 Y23.858
G1 X-28.751 Y23.813
G1 X-28.836 Y23.762
G1 X-28.918 Y23.705
G1 X-28.995 Y23.642
G1 X-29.068 Y23.574
G1 X-29.135 Y23.5
G1 X-29.197 Y23.422
G1 X-29.252 Y23.34
G1 X-29.302 Y23.253
G1 X-29.294 Y23.401
G1 X-29.284 Y23.553
G1 X-29.271 Y23.706
G1 X-29.256 Y23.859
G1 X-29.238 Y24.015
G1 X-29.218 Y24.171
G1 X-29.196 Y24.329
G1 X-29.171 Y24.487
G1 X-29.144 Y24.647
G1 X-29.115 Y24.805
G1 X-29.084 Y24.96
G1 X-29.052 Y25.111
G1 X-29.018 Y25.259
G1 X-28.982 Y25.405
G1 X-28.944 Y25.547
G1 X-28.904 Y25.687
G1 X-28.863 Y25.823
G1 X-28.82 Y25.956
G1 X-28.776 Y26.086
G1 X-28.73 Y26.214
G1 X-28.683 Y26.338
G1 X-28.633 Y26.46
G1 X-28.583 Y26.579
G1 X-28.531 Y26.694
G1 X-28.477 Y26.807
G1 X-28.423 Y26.916
G1 X-28.366 Y27.023
G1 X-28.308 Y27.128
G1 X-28.249 Y27.23
G1 X-28.188 Y27.329
G1 X-28.127 Y27.425
G1 X-28.103 Y27.46
G1 X-28.127 Y27.425
G1 X-28.188 Y27.329
G1 X-28.249 Y27.23
G1 X-28.308 Y27.128
G1 X-28.366 Y27.023
G1 X-28.423 Y26.916
G1 X-28.477 Y26.807
G1 X-28.531 Y26.694
G1 X-28.583 Y26.579
G1 X-28.633 Y26.46
G1 X-28.683 Y26.338
G1 X-28.73 Y26.214
G1 X-28.776 Y26.086
G1 X-28.82 Y25.956
G1 X-28.863 Y25.823
G1 X-28.904 Y25.687
G1 X-28.944 Y25.547
G1 X-28.982 Y25.405
G1 X-29.018 Y25.259
G1 X-29.052 Y25.111
G1 X-29.084 Y24.96
G1 X-29.115 Y24.805
G1 X-29.144 Y24.647
G1 X-29.171 Y24.487
G1 X-29.196 Y24.329
G1 X-29.218 Y24.171
G1 X-29.238 Y24.015
G1 X-29.256 Y23.859
G1 X-29.271 Y23.706
G1 X-29.284 Y23.553
G1 X-29.294 Y23.401
G1 X-29.302 Y23.253
G1 X-29.322 Y23.176 Z-3.135
G1 X-29.338 Y23.102 Z-3.102
G1 X-29.352 Y23.028 Z-3.073
G1 X-29.364 Y22.954 Z-3.049
G1 X-29.372 Y22.879 Z-3.029
G1 X-29.379 Y22.805 Z-3.014
G1 X-29.383 Y22.732 Z-3.003
G1 X-29.385 Y22.658 Z-2.997
G1 X-29.381 Y22.367 Z-2.985
G1 X-29.377 Y22.222 Z-2.975
G1 X-29.372 Y22.078 Z-2.963
G1 X-29.365 Y21.935 Z-2.947
G1 X-29.358 Y21.793 Z-2.929
G1 X-29.349 Y21.651 Z-2.909
G1 X-29.34 Y21.51 Z-2.885
G1 X-29.329 Y21.37 Z-2.859
G1 X-29.317 Y21.23 Z-2.83
G1 X-29.303 Y21.091 Z-2.798
G1 X-29.292 Y20.978 Z-2.769
G1 X-29.269 Y20.824 Z-2.739
G1 X-29.241 Y20.697 Z-2.729
G1 X-29.23 Y20.658 Z-2.728
G1 X-29.205 Y20.573 Z-2.732
G1 X-29.161 Y20.454 Z-2.748
G1 X-29.11 Y20.338 Z-2.777
G1 X-29.053 Y20.228 Z-2.817
G1 X-28.989 Y20.122 Z-2.868
G1 X-28.92 Y20.021 Z-2.93
G1 X-28.845 Y19.925 Z-3.001
G1 X-28.765 Y19.834 Z-3.081
G1 X-28.681 Y19.748 Z-3.169
G1 X-28.675 Y19.743 Z-3.175
G1 X-28.586 Y19.704
G1 X-28.493 Y19.673
G1 X-28.399 Y19.647
G1 X-28.303 Y19.629
G1 X-28.206 Y19.618
G1 X-28.108 Y19.613
G1 X-28.106
G1 X-28.101 Y19.612
G1 X-28.096 Y19.611
G1 X-28.086 Y19.609
G1 X-28.079 Y19.608
G1 X-28.07 Y19.606
G1 X-28.057 Y19.603
G1 X-28.045 Y19.601
G1 X-28.034 Y19.598
G1 X-28.021 Y19.595
G1 X-28.006 Y19.591
G1 X-27.988 Y19.586
G1 X-27.972 Y19.581
G1 X-27.955 Y19.576
G1 X-27.935 Y19.57
G1 X-27.916 Y19.563
G1 X-27.891 Y19.555
G1 X-27.808 Y19.531
G1 X-27.723 Y19.512
G1 X-27.638 Y19.498
G1 X-27.551 Y19.49
G1 X-27.465 Y19.487
G1 X-26.708
G1 X-26.606 Y19.491
G1 X-26.504 Y19.502
G1 X-26.404 Y19.522
G1 X-26.305 Y19.548
G1 X-26.208 Y19.582
G1 X-26.114 Y19.623
G1 X-26.024 Y19.671
G1 X-25.937 Y19.726
G1 X-25.855 Y19.787
G1 X-25.777 Y19.854
G1 X-25.705 Y19.927
G1 X-25.639 Y20.004
G1 X-25.578 Y20.087
G1 X-25.639 Y20.004
G1 X-25.705 Y19.927
G1 X-25.777 Y19.854
G1 X-25.855 Y19.787
G1 X-25.937 Y19.726
G1 X-26.024 Y19.671
G1 X-26.114 Y19.623
G1 X-26.208 Y19.582
G1 X-26.305 Y19.548
G1 X-26.404 Y19.522
G1 X-26.504 Y19.502
G1 X-26.606 Y19.491
G1 X-26.708 Y19.487
G1 X-27.465
G1 X-27.551 Y19.49
G1 X-27.638 Y19.498
G1 X-27.723 Y19.512
G1 X-27.808 Y19.531
G1 X-27.891 Y19.555
G1 X-27.916 Y19.563
G1 X-27.935 Y19.57
G1 X-27.955 Y19.576
G1 X-27.972 Y19.581
G1 X-27.988 Y19.586
G1 X-28.006 Y19.591
G1 X-28.021 Y19.595
G1 X-28.034 Y19.598
G1 X-28.045 Y19.601
G1 X-28.057 Y19.603
G1 X-28.07 Y19.606
G1 X-28.079 Y19.608
G1 X-28.086 Y19.609
G1 X-28.096 Y19.611
G1 X-28.101 Y19.612
G1 X-28.106 Y19.613
G1 X-28.108
G1 X-28.206 Y19.618
G1 X-28.303 Y19.629
G1 X-28.399 Y19.647
G1 X-28.493 Y19.673
G1 X-28.586 Y19.704
G1 X-28.675 Y19.743
G1 X-28.626 Y19.65
G1 X-28.57 Y19.552
G1 X-28.512 Y19.456
G1 X-28.452 Y19.362
G1 X-28.389 Y19.27
G1 X-28.325 Y19.179
G1 X-28.258 Y19.09
G1 X-28.188 Y19.002
G1 X-28.116 Y18.916
G1 X-28.042 Y18.832
G1 X-27.965 Y18.749
G1 X-27.915 Y18.698
G1 X-27.877 Y18.665
G1 X-27.815 Y18.616
G1 X-27.751 Y18.57
G1 X-27.685 Y18.528
G1 X-27.617 Y18.488
G1 X-27.547 Y18.451
G1 X-27.474 Y18.416
G1 X-27.397 Y18.384
G1 X-27.317 Y18.354
G1 X-27.233 Y18.327
G1 X-27.145 Y18.303
G1 X-27.052 Y18.281
G1 X-26.955 Y18.262
G1 X-26.853 Y18.246
G1 X-26.746 Y18.234
G1 X-26.633 Y18.224
G1 X-26.516 Y18.219
G1 X-26.393 Y18.217
G1 X-26.265 Y18.219
G1 X-26.132 Y18.225
G1 X-25.993 Y18.235
G1 X-25.85 Y18.25
G1 X-25.701 Y18.269
G1 X-25.53 Y18.295
G1 X-25.449 Y18.305
G1 X-25.367 Y18.31
G1 X-25.28 Y18.229 Z-2.98
G1 X-25.198 Y18.148 Z-2.797
G1 X-25.116 Y18.06 Z-2.615
G1 X-25.041 Y17.972 Z-2.448
G1 X-24.972 Y17.883 Z-2.294
G1 X-24.909 Y17.793 Z-2.155
G1 X-24.853 Y17.703 Z-2.03
G1 X-24.802 Y17.612 Z-1.919
G1 X-24.759 Y17.521 Z-1.823
G1 X-24.721 Y17.429 Z-1.741
G1 X-24.69 Y17.337 Z-1.674
G1 X-24.666 Y17.245 Z-1.622
G1 X-24.648 Y17.153 Z-1.583
G1 X-24.636 Y17.061 Z-1.56
G1 X-24.632 Y17.008 Z-1.553
G1 X-24.63 Y16.955 Z-1.55
G1 Y16.736 Z-1.553
G1 X-24.631 Y16.635 Z-1.554
G1 X-24.636 Y16.345 Z-1.555
G1 X-24.644 Y16.076 Z-1.562
G1 X-24.65 Y15.903 Z-1.571
G1 X-24.661 Y15.673 Z-1.587
G1 X-24.669 Y15.527 Z-1.601
G1 X-24.679 Y15.388 Z-1.619
G1 X-24.69 Y15.257 Z-1.64
G1 X-24.702 Y15.13 Z-1.665
G1 X-24.717 Y15.008 Z-1.695
G1 X-24.732 Y14.914 Z-1.727
G1 X-24.752 Y14.82 Z-1.773
G1 X-24.779 Y14.726 Z-1.834
G1 X-24.818 Y14.617 Z-1.923
G1 X-24.865 Y14.508 Z-2.032
G1 X-24.92 Y14.399 Z-2.16
G1 X-24.983 Y14.29 Z-2.308
G1 X-25.055 Y14.181 Z-2.475
G1 X-25.134 Y14.073 Z-2.662
G1 X-25.202 Y13.988 Z-2.821
G1 X-25.274 Y13.904 Z-2.992
G1 X-25.352 Y13.82 Z-3.175
G1 X-25.448 Y13.817
G1 X-26.351
G1 X-27.666 Y15.132 Z0
G1 X-26.351 Y13.817 Z-3.175
G1 Y13.292
G1 X-26.355 Y13.189
G1 X-26.367 Y13.087
G1 X-26.386 Y12.986
G1 X-26.413 Y12.887
G1 X-26.447 Y12.79
G1 X-26.488 Y12.696
G1 X-26.537 Y12.605
G1 X-26.592 Y12.518
G1 X-26.653 Y12.436
G1 X-26.72 Y12.358
G1 X-26.793 Y12.286
G1 X-26.872 Y12.219
G1 X-26.955 Y12.159
G1 X-27.042 Y12.105
G1 X-27.133 Y12.057
G1 X-27.228 Y12.017
G1 X-27.325 Y11.984
G1 X-27.425 Y11.958
G1 X-27.526 Y11.94
G1 X-27.628 Y11.929
G1 X-27.731 Y11.927
G1 X-27.855 Y11.928
G1 X-27.886 Y11.929
G1 X-28.008 Y11.933
G1 X-28.038 Y11.934
G1 X-28.157 Y11.94
G1 X-28.19 Y11.943
G1 X-28.307 Y11.952
G1 X-28.34 Y11.955
G1 X-28.454 Y11.967
G1 X-28.49 Y11.971
G1 X-28.601 Y11.985
G1 X-28.603 Y11.986
G1 X-28.586 Y11.961
G1 X-28.58 Y11.952
G1 X-28.509 Y11.846
G1 X-28.503 Y11.838
G1 X-28.433 Y11.731
G1 X-28.427 Y11.722
G1 X-28.358 Y11.615
G1 X-28.352 Y11.607
G1 X-28.283 Y11.499
G1 X-28.278 Y11.49
G1 X-28.21 Y11.382
G1 X-28.205 Y11.374
G1 X-28.138 Y11.266
G1 X-28.132 Y11.256
G1 X-28.066 Y11.147
G1 X-28.06 Y11.139
G1 X-27.995 Y11.029
G1 X-27.99 Y11.02
G1 X-27.926 Y10.911
G1 X-27.921 Y10.902
G1 X-27.857 Y10.792
G1 X-27.851 Y10.782
G1 X-27.789 Y10.672
G1 X-27.784 Y10.663
G1 X-27.722 Y10.552
G1 X-27.718 Y10.544
G1 X-27.671 Y10.458
G1 X-27.734 Y10.306 Z-2.866
G1 X-27.768 Y10.215 Z-2.69
G1 X-27.803 Y10.116 Z-2.503
G1 X-27.831 Y10.03 Z-2.348
G1 X-27.858 Y9.935 Z-2.186
G1 X-27.878 Y9.854 Z-2.051
G1 X-27.897 Y9.765 Z-1.914
G1 X-27.91 Y9.687 Z-1.801
G1 X-27.921 Y9.604 Z-1.687
G1 X-27.928 Y9.53 Z-1.594
G1 X-27.931 Y9.452 Z-1.504
G1 Y9.382 Z-1.43
G1 X-27.927 Y9.307 Z-1.361
G1 X-27.92 Y9.241 Z-1.307
G1 X-27.909 Y9.171 Z-1.259
G1 X-27.895 Y9.107 Z-1.224
G1 X-27.879 Y9.048 Z-1.2
G1 X-27.862 Y8.995 Z-1.185
G1 X-27.818 Y8.888 Z-1.157
G1 X-27.763 Y8.757 Z-1.132
G1 X-27.706 Y8.627 Z-1.119
G1 X-27.648 Y8.498 Z-1.118
G1 X-27.588 Y8.371 Z-1.13
G1 X-27.526 Y8.244 Z-1.154
G1 X-27.463 Y8.12 Z-1.191
G1 X-27.398 Y7.998 Z-1.24
G1 X-27.33 Y7.875 Z-1.302
G1 X-27.258 Y7.751 Z-1.378
G1 X-27.183 Y7.626 Z-1.469
G1 X-27.103 Y7.498 Z-1.576
G1 X-27.019 Y7.367 Z-1.699
G1 X-26.929 Y7.233 Z-1.841
G1 X-26.835 Y7.095 Z-2.001
G1 X-26.737 Y6.957 Z-2.177
G1 X-26.636 Y6.82 Z-2.366
G1 X-26.531 Y6.678 Z-2.574
G1 X-26.434 Y6.551 Z-2.772
G1 X-26.532 Y6.442 Z-2.512
G1 X-26.649 Y6.307 Z-2.203
G1 X-26.757 Y6.178 Z-1.924
G1 X-26.855 Y6.056 Z-1.672
G1 X-26.941 Y5.946 Z-1.455
G1 X-27.05 Y5.803 Z-1.185
G1 X-27.13 Y5.697 Z-0.993
G1 X-27.156 Y5.667 Z-0.94
G1 X-27.218 Y5.617 Z-0.82
G1 X-27.28 Y5.575 Z-0.719
G1 X-27.342 Y5.54 Z-0.635
G1 X-27.404 Y5.514 Z-0.571
G1 X-27.466 Y5.495 Z-0.525
G1 X-27.528 Y5.483 Z-0.497
G1 X-27.59 Y5.479 Z-0.488
G1 X-27.616 Z-0.491
G1 X-27.632 Z-0.496
G1 X-27.696 Y5.475 Z-0.53
G1 X-27.761 Y5.464 Z-0.583
G1 X-27.827 Y5.445 Z-0.655
G1 X-27.894 Y5.418 Z-0.745
G1 X-27.963 Y5.384 Z-0.854
G1 X-28.033 Y5.342 Z-0.982
G1 X-28.104 Y5.292 Z-1.128
G1 X-28.176 Y5.235 Z-1.293
G1 X-28.25 Y5.17 Z-1.477
G1 X-28.325 Y5.098 Z-1.679
G1 X-28.401 Y5.018 Z-1.9
G1 X-28.514 Y4.894 Z-2.238
G1 X-28.952 Y5.161 Z-1.777
G1 X-29.02 Y5.211 Z-1.686
G1 X-29.088 Y5.263 Z-1.589
G1 X-29.157 Y5.319 Z-1.483
G1 X-29.226 Y5.379 Z-1.367
G1 X-29.297 Y5.445 Z-1.238
G1 X-29.37 Y5.518 Z-1.095
G1 X-29.448 Y5.599 Z-0.932
G1 X-29.529 Y5.689 Z-0.748
G1 X-29.616 Y5.792 Z-0.539
G1 X-29.709 Y5.907 Z-0.3
G1 X-29.807 Y6.038 Z-0.029
G1 X-29.817 Y6.051 Z-0.001
G1 X-29.807 Y6.038 Z-0.029
G1 X-29.709 Y5.907 Z-0.3
G1 X-29.616 Y5.792 Z-0.539
G1 X-29.529 Y5.689 Z-0.748
G1 X-29.448 Y5.599 Z-0.932
G1 X-29.37 Y5.518 Z-1.095
G1 X-29.297 Y5.445 Z-1.238
G1 X-29.226 Y5.379 Z-1.367
G1 X-29.157 Y5.319 Z-1.483
G1 X-29.088 Y5.263 Z-1.589
G1 X-29.02 Y5.211 Z-1.686
G1 X-28.952 Y5.161 Z-1.777
G1 X-28.514 Y4.894 Z-2.238
G1 X-28.423 Y4.711 Z-2.149
G1 X-28.328 Y4.529 Z-2.068
G1 X-28.273 Y4.426 Z-2.025
G1 X-28.193 Y4.282 Z-1.971
G1 X-28.155 Y4.224 Z-1.939
G1 X-28.079 Y4.108 Z-1.881
G1 X-28.008 Y4.001 Z-1.835
G1 X-27.953 Y3.919 Z-1.804
G1 X-27.889 Y3.823 Z-1.772
G1 X-27.814 Y3.711 Z-1.743
G1 X-27.775 Y3.653 Z-1.731
G1 X-27.733 Y3.591 Z-1.72
G1 X-27.66 Y3.485 Z-1.707
G1 X-27.618 Y3.423 Z-1.702
G1 X-27.545 Y3.318 Z-1.7
G1 X-27.506 Y3.261 Z-1.702
G1 X-27.429 Y3.15 Z-1.711
G1 X-27.389 Y3.093 Z-1.719
G1 X-27.328 Y3.006 Z-1.735
G1 X-27.315 Y2.989 Z-1.736
G1 X-27.265 Y2.925 Z-1.748
G1 X-27.203 Y2.847 Z-1.777
G1 X-27.144 Y2.772 Z-1.814
G1 X-27.093 Y2.706 Z-1.852
G1 X-27.04 Y2.638 Z-1.899
G1 X-26.988 Y2.57 Z-1.951
G1 X-26.942 Y2.508 Z-2.003
G1 X-26.882 Y2.426 Z-2.079
G1 X-26.827 Y2.351 Z-2.156
G1 X-26.77 Y2.271 Z-2.244
G1 X-26.704 Y2.179 Z-2.355
G1 X-26.638 Y2.084 Z-2.476
G1 X-26.569 Y1.985 Z-2.611
G1 X-26.504 Y1.891 Z-2.748
G1 X-26.441 Y1.798 Z-2.889
G1 X-26.377 Y1.704 Z-3.038
G1 X-26.321 Y1.62 Z-3.175
G1 X-26.258 Y1.596
G1 X-26.222 Y1.583
G1 X-26.149 Y1.558
G1 X-26.115 Y1.546
G1 X-26.041 Y1.523
G1 X-26.006 Y1.512
G1 X-25.931 Y1.49
G1 X-25.897 Y1.481
G1 X-25.82 Y1.461
G1 X-25.787 Y1.453
G1 X-25.709 Y1.434
G1 X-25.676 Y1.427
G1 X-25.665 Y1.425
G1 X-25.579 Y1.492 Z-2.973
G1 X-25.413 Y1.626 Z-2.582
G1 X-25.193 Y1.81 Z-2.066
G1 X-25.108 Y1.885 Z-1.867
G1 X-25.031 Y1.96 Z-1.686
G1 X-24.961 Y2.035 Z-1.523
G1 X-24.899 Y2.11 Z-1.378
G1 X-24.844 Y2.186 Z-1.251
G1 X-24.796 Y2.262 Z-1.142
G1 X-24.758 Y2.334 Z-1.055
G1 X-24.726 Y2.406 Z-0.984
G1 X-24.701 Y2.478 Z-0.929
G1 X-24.683 Y2.55 Z-0.89
G1 X-24.671 Y2.622 Z-0.866
G1 X-24.665 Y2.695 Z-0.858
G1 Y2.752 Z-0.863
G1 X-24.67 Y2.809 Z-0.877
G1 X-24.678 Y2.866 Z-0.902
G1 X-24.72 Y3.1 Z-1.021
G1 X-24.767 Y3.342 Z-1.15
G1 X-24.812 Y3.568 Z-1.276
G1 X-24.869 Y3.839 Z-1.431
G1 X-24.924 Y4.094 Z-1.583
G1 X-24.983 Y4.354 Z-1.744
G1 X-25.045 Y4.619 Z-1.912
G1 X-25.109 Y4.883 Z-2.085
G1 X-25.18 Y5.164 Z-2.274
G1 X-25.252 Y5.443 Z-2.467
G1 X-25.328 Y5.727 Z-2.668
G1 X-25.407 Y6.017 Z-2.878
G1 X-25.434 Y6.108 Z-2.948
G1 X-25.464 Y6.199 Z-3.028
G1 X-25.362 Y6.291 Z-2.788
G1 X-25.27 Y6.382 Z-2.57
G1 X-25.184 Y6.473 Z-2.369
G1 X-25.106 Y6.565 Z-2.186
G1 X-25.035 Y6.656 Z-2.021
G1 X-24.971 Y6.748 Z-1.873
G1 X-24.915 Y6.84 Z-1.742
G1 X-24.866 Y6.931 Z-1.631
G1 X-24.825 Y7.022 Z-1.537
G1 X-24.791 Y7.113 Z-1.46
G1 X-24.763 Y7.205 Z-1.4
G1 X-24.743 Y7.296 Z-1.358
G1 X-24.73 Y7.388 Z-1.332
G1 X-24.724 Y7.48 Z-1.323
G1 X-24.726 Y7.582 Z-1.334
G1 X-24.735 Y7.674 Z-1.361
G1 X-24.751 Y7.766 Z-1.405
G1 X-24.783 Y7.914 Z-1.49
G1 X-24.817 Y8.063 Z-1.582
G1 X-24.854 Y8.211 Z-1.68
G1 X-24.894 Y8.36 Z-1.785
G1 X-24.937 Y8.51 Z-1.898
G1 X-24.983 Y8.66 Z-2.019
G1 X-25.033 Y8.81 Z-2.147
G1 X-25.088 Y8.966 Z-2.29
G1 X-25.148 Y9.123 Z-2.442
G1 X-25.212 Y9.282 Z-2.605
G1 X-25.28 Y9.443 Z-2.781
G1 X-25.356 Y9.61 Z-2.972
G1 X-25.436 Y9.777 Z-3.175
G1 X-25.437 Y9.778
G1 X-25.525 Y9.84
G1 X-25.575 Y9.874
G1 X-25.666 Y9.932
G1 X-25.716 Y9.964
G1 X-25.81 Y10.018
G1 X-25.862 Y10.047
G1 X-25.957 Y10.097
G1 X-26.01 Y10.124
G1 X-26.108 Y10.17
G1 X-26.162 Y10.194
G1 X-26.263 Y10.237
G1 X-26.316 Y10.258
G1 X-26.42 Y10.297
G1 X-26.473 Y10.315
G1 X-26.579 Y10.35
G1 X-26.632 Y10.366
G1 X-26.741 Y10.397
G1 X-26.793 Y10.411
G1 X-26.904 Y10.438
G1 X-26.955 Y10.449
G1 X-27.069 Y10.472
G1 X-27.169 Y10.488
G1 X-27.27 Y10.497
G1 X-27.371 Y10.498
G1 X-27.472 Y10.492
G1 X-27.572 Y10.479
G1 X-27.671 Y10.458
G1 X-27.572 Y10.479
G1 X-27.472 Y10.492
G1 X-27.371 Y10.498
G1 X-27.27 Y10.497
G1 X-27.169 Y10.488
G1 X-27.069 Y10.472
G1 X-26.955 Y10.449
G1 X-26.904 Y10.438
G1 X-26.793 Y10.411
G1 X-26.741 Y10.397
G1 X-26.632 Y10.366
G1 X-26.579 Y10.35
G1 X-26.473 Y10.315
G1 X-26.42 Y10.297
G1 X-26.316 Y10.258
G1 X-26.263 Y10.237
G1 X-26.162 Y10.194
G1 X-26.108 Y10.17
G1 X-26.01 Y10.124
G1 X-25.957 Y10.097
G1 X-25.862 Y10.047
G1 X-25.81 Y10.018
G1 X-25.716 Y9.964
G1 X-25.666 Y9.932
G1 X-25.575 Y9.874
G1 X-25.525 Y9.84
G1 X-25.437 Y9.778
G1 X-25.436 Y9.777
G1 X-25.428 Y10.131
G1 X-25.413 Y10.788
G1 X-25.399 Y11.445
G1 X-25.385 Y12.102
G1 X-25.372 Y12.76
G1 X-25.359 Y13.418
G1 X-25.352 Y13.82
G1 X-25.359 Y13.418
G1 X-25.372 Y12.76
G1 X-25.385 Y12.102
G1 X-25.399 Y11.445
G1 X-25.413 Y10.788
G1 X-25.428 Y10.131
G1 X-25.436 Y9.777
G1 X-25.356 Y9.61 Z-2.972
G1 X-25.28 Y9.443 Z-2.781
G1 X-25.212 Y9.282 Z-2.605
G1 X-25.148 Y9.123 Z-2.442
G1 X-25.088 Y8.966 Z-2.29
G1 X-25.033 Y8.81 Z-2.147
G1 X-24.983 Y8.66 Z-2.019
G1 X-24.937 Y8.51 Z-1.898
G1 X-24.894 Y8.36 Z-1.785
G1 X-24.854 Y8.211 Z-1.68
G1 X-24.817 Y8.063 Z-1.582
G1 X-24.783 Y7.914 Z-1.49
G1 X-24.751 Y7.766 Z-1.405
G1 X-24.735 Y7.674 Z-1.361
G1 X-24.726 Y7.582 Z-1.334
G1 X-24.724 Y7.48 Z-1.323
G1 X-24.73 Y7.388 Z-1.332
G1 X-24.743 Y7.296 Z-1.358
G1 X-24.763 Y7.205 Z-1.4
G1 X-24.791 Y7.113 Z-1.46
G1 X-24.825 Y7.022 Z-1.537
G1 X-24.866 Y6.931 Z-1.631
G1 X-24.915 Y6.84 Z-1.742
G1 X-24.971 Y6.748 Z-1.873
G1 X-25.035 Y6.656 Z-2.021
G1 X-25.106 Y6.565 Z-2.186
G1 X-25.184 Y6.473 Z-2.369
G1 X-25.27 Y6.382 Z-2.57
G1 X-25.362 Y6.291 Z-2.788
G1 X-25.464 Y6.199 Z-3.028
G1 X-25.537 Y6.238 Z-2.959
G1 X-25.665 Y6.301 Z-2.861
G1 X-25.705 Y6.32 Z-2.835
G1 X-25.829 Y6.373 Z-2.769
G1 X-25.871 Y6.389 Z-2.753
G1 X-25.993 Y6.434 Z-2.719
G1 X-26.036 Y6.448 Z-2.712
G1 X-26.133 Y6.479 Z-2.706
G1 X-26.202 Y6.498 Z-2.71
G1 X-26.322 Y6.528 Z-2.733
G1 X-26.372 Y6.538 Z-2.748
G1 X-26.434 Y6.551 Z-2.772
G1 X-26.372 Y6.538 Z-2.748
G1 X-26.322 Y6.528 Z-2.733
G1 X-26.202 Y6.498 Z-2.71
G1 X-26.133 Y6.479 Z-2.706
G1 X-26.036 Y6.448 Z-2.712
G1 X-25.993 Y6.434 Z-2.719
G1 X-25.871 Y6.389 Z-2.753
G1 X-25.829 Y6.373 Z-2.769
G1 X-25.705 Y6.32 Z-2.835
G1 X-25.665 Y6.301 Z-2.861
G1 X-25.537 Y6.238 Z-2.959
G1 X-25.464 Y6.199 Z-3.028
G1 X-25.434 Y6.108 Z-2.948
G1 X-25.407 Y6.017 Z-2.878
G1 X-25.328 Y5.727 Z-2.668
G1 X-25.252 Y5.443 Z-2.467
G1 X-25.18 Y5.164 Z-2.274
G1 X-25.109 Y4.883 Z-2.085
G1 X-25.045 Y4.619 Z-1.912
G1 X-24.983 Y4.354 Z-1.744
G1 X-24.924 Y4.094 Z-1.583
G1 X-24.869 Y3.839 Z-1.431
G1 X-24.812 Y3.568 Z-1.276
G1 X-24.767 Y3.342 Z-1.15
G1 X-24.72 Y3.1 Z-1.021
G1 X-24.678 Y2.866 Z-0.902
G1 X-24.67 Y2.809 Z-0.877
G1 X-24.665 Y2.752 Z-0.863
G1 Y2.695 Z-0.858
G1 X-24.671 Y2.622 Z-0.866
G1 X-24.683 Y2.55 Z-0.89
G1 X-24.701 Y2.478 Z-0.929
G1 X-24.726 Y2.406 Z-0.984
G1 X-24.758 Y2.334 Z-1.055
G1 X-24.796 Y2.262 Z-1.142
G1 X-24.844 Y2.186 Z-1.251
G1 X-24.899 Y2.11 Z-1.378
G1 X-24.961 Y2.035 Z-1.523
G1 X-25.031 Y1.96 Z-1.686
G1 X-25.108 Y1.885 Z-1.867
G1 X-25.193 Y1.81 Z-2.066
G1 X-25.413 Y1.626 Z-2.582
G1 X-25.579 Y1.492 Z-2.973
G1 X-25.665 Y1.425 Z-3.175
G1 X-25.679 Y0.987
G1 X-25.7 Y0.347
G1 X-25.721 Y-0.294
G1 X-25.742 Y-0.936
G1 X-25.755 Y-1.348
G1 X-25.651 Y-1.467 Z-2.914
G1 X-25.556 Y-1.585 Z-2.676
G1 X-25.477 Y-1.695 Z-2.475
G1 X-25.405 Y-1.804 Z-2.294
G1 X-25.342 Y-1.913 Z-2.133
G1 X-25.287 Y-2.022 Z-1.992
G1 X-25.24 Y-2.131 Z-1.87
G1 X-25.202 Y-2.24 Z-1.769
G1 X-25.175 Y-2.334 Z-1.697
G1 X-25.154 Y-2.429 Z-1.639
G1 X-25.14 Y-2.523 Z-1.598
G1 X-25.132 Y-2.617 Z-1.571
G1 X-25.13 Y-2.711 Z-1.56
G1 X-25.149 Y-3.867 Z-1.515
G1 X-25.157 Y-3.969 Z-1.524
G1 X-25.171 Y-4.071 Z-1.552
G1 X-25.194 Y-4.172 Z-1.598
G1 X-25.221 Y-4.263 Z-1.656
G1 X-25.254 Y-4.354 Z-1.729
G1 X-25.293 Y-4.445 Z-1.817
G1 X-25.339 Y-4.536 Z-1.92
G1 X-25.391 Y-4.626 Z-2.038
G1 X-25.449 Y-4.717 Z-2.171
G1 X-25.514 Y-4.807 Z-2.32
G1 X-25.583 Y-4.895 Z-2.48
G1 X-25.658 Y-4.982 Z-2.654
G1 X-25.739 Y-5.07 Z-2.843
G1 X-25.881 Y-5.21 Z-3.173
G1 X-25.739 Y-5.07 Z-2.843
G1 X-25.658 Y-4.982 Z-2.654
G1 X-25.583 Y-4.895 Z-2.48
G1 X-25.514 Y-4.807 Z-2.32
G1 X-25.449 Y-4.717 Z-2.171
G1 X-25.391 Y-4.626 Z-2.038
G1 X-25.339 Y-4.536 Z-1.92
G1 X-25.293 Y-4.445 Z-1.817
G1 X-25.254 Y-4.354 Z-1.729
G1 X-25.221 Y-4.263 Z-1.656
G1 X-25.194 Y-4.172 Z-1.598
G1 X-25.171 Y-4.071 Z-1.552
G1 X-25.157 Y-3.969 Z-1.524
G1 X-25.149 Y-3.867 Z-1.515
G1 X-25.13 Y-2.711 Z-1.56
G1 X-25.132 Y-2.617 Z-1.571
G1 X-25.14 Y-2.523 Z-1.598
G1 X-25.154 Y-2.429 Z-1.639
G1 X-25.175 Y-2.334 Z-1.697
G1 X-25.202 Y-2.24 Z-1.769
G1 X-25.24 Y-2.131 Z-1.87
G1 X-25.287 Y-2.022 Z-1.992
G1 X-25.342 Y-1.913 Z-2.133
G1 X-25.405 Y-1.804 Z-2.294
G1 X-25.477 Y-1.695 Z-2.475
G1 X-25.556 Y-1.585 Z-2.676
G1 X-25.651 Y-1.467 Z-2.914
G1 X-25.755 Y-1.348 Z-3.175
G1 X-25.85 Y-1.346
G1 X-25.945 Y-1.351
G1 X-26.039 Y-1.363
G1 X-26.133 Y-1.381
G1 X-26.224 Y-1.405
G1 X-26.314 Y-1.436
G1 X-26.402 Y-1.473
G1 X-26.415 Y-1.474
G1 X-26.444 Y-1.475
G1 X-26.465 Y-1.476
G1 X-26.493 Y-1.478
G1 X-26.514 Y-1.479
G1 X-26.542 Y-1.482
G1 X-26.563 Y-1.484
G1 X-26.591 Y-1.486
G1 X-26.612 Y-1.489
G1 X-26.64 Y-1.492
G1 X-26.661 Y-1.495
G1 X-26.688 Y-1.499
G1 X-26.709 Y-1.503
G1 X-26.737 Y-1.507
G1 X-26.758 Y-1.511
G1 X-26.784 Y-1.516
G1 X-26.805 Y-1.52
G1 X-26.833 Y-1.526
G1 X-26.854 Y-1.53
G1 X-26.879 Y-1.536
G1 X-26.9 Y-1.541
G1 X-26.927 Y-1.548
G1 X-26.93 Y-1.549
G1 X-26.916 Y-1.491
G1 X-26.911 Y-1.472
G1 X-26.899 Y-1.42
G1 X-26.881 Y-1.357
G1 X-26.878 Y-1.348
G1 X-26.848 Y-1.244
G1 X-26.845 Y-1.235
G1 X-26.816 Y-1.131
G1 X-26.814 Y-1.121
G1 X-26.785 Y-1.018
G1 X-26.783 Y-1.01
G1 X-26.755 Y-0.907
G1 X-26.753 Y-0.897
G1 X-26.726 Y-0.795
G1 X-26.724 Y-0.785
G1 X-26.698 Y-0.683
G1 X-26.696 Y-0.673
G1 X-26.671 Y-0.572
G1 X-26.669 Y-0.563
G1 X-26.644 Y-0.462
G1 X-26.642 Y-0.452
G1 X-26.619 Y-0.351
G1 X-26.617 Y-0.341
G1 X-26.594 Y-0.241
G1 X-26.592 Y-0.232
G1 X-26.571 Y-0.132
G1 X-26.568 Y-0.12
G1 X-26.548 Y-0.02
G1 X-26.546 Y-0.011
G1 X-26.526 Y0.088
G1 X-26.524 Y0.098
G1 X-26.506 Y0.197
G1 X-26.504 Y0.207
G1 X-26.486 Y0.305
G1 X-26.484 Y0.317
G1 X-26.467 Y0.415
G1 X-26.465 Y0.425
G1 X-26.449 Y0.522
G1 X-26.447 Y0.533
G1 X-26.432 Y0.63
G1 X-26.43 Y0.64
G1 X-26.416 Y0.736
G1 X-26.414 Y0.749
G1 X-26.4 Y0.845
G1 X-26.399 Y0.856
G1 X-26.386 Y0.951
G1 X-26.385 Y0.963
G1 X-26.373 Y1.058
G1 X-26.371 Y1.069
G1 X-26.363 Y1.139
G1 X-26.358 Y1.176
G1 X-26.353 Y1.21
G1 X-26.345 Y1.272
G1 X-26.341 Y1.309
G1 X-26.335 Y1.37
G1 X-26.331 Y1.406
G1 X-26.327 Y1.466
G1 X-26.325 Y1.506
G1 X-26.322 Y1.565
G1 X-26.321 Y1.604
G1 Y1.62
G1 Y1.604
G1 X-26.322 Y1.565
G1 X-26.325 Y1.506
G1 X-26.327 Y1.466
G1 X-26.331 Y1.406
G1 X-26.335 Y1.37
G1 X-26.341 Y1.309
G1 X-26.345 Y1.272
G1 X-26.353 Y1.21
G1 X-26.358 Y1.176
G1 X-26.363 Y1.139
G1 X-26.371 Y1.069
G1 X-26.373 Y1.058
G1 X-26.385 Y0.963
G1 X-26.386 Y0.951
G1 X-26.399 Y0.856
G1 X-26.4 Y0.845
G1 X-26.414 Y0.749
G1 X-26.416 Y0.736
G1 X-26.43 Y0.64
G1 X-26.432 Y0.63
G1 X-26.447 Y0.533
G1 X-26.449 Y0.522
G1 X-26.465 Y0.425
G1 X-26.467 Y0.415
G1 X-26.484 Y0.317
G1 X-26.486 Y0.305
G1 X-26.504 Y0.207
G1 X-26.506 Y0.197
G1 X-26.524 Y0.098
G1 X-26.526 Y0.088
G1 X-26.546 Y-0.011
G1 X-26.548 Y-0.02
G1 X-26.568 Y-0.12
G1 X-26.571 Y-0.132
G1 X-26.592 Y-0.232
G1 X-26.594 Y-0.241
G1 X-26.617 Y-0.341
G1 X-26.619 Y-0.351
G1 X-26.642 Y-0.452
G1 X-26.644 Y-0.462
G1 X-26.669 Y-0.563
G1 X-26.671 Y-0.572
G1 X-26.696 Y-0.673
G1 X-26.698 Y-0.683
G1 X-26.724 Y-0.785
G1 X-26.726 Y-0.795
G1 X-26.753 Y-0.897
G1 X-26.755 Y-0.907
G1 X-26.783 Y-1.01
G1 X-26.785 Y-1.018
G1 X-26.814 Y-1.121
G1 X-26.816 Y-1.131
G1 X-26.845 Y-1.235
G1 X-26.848 Y-1.244
G1 X-26.878 Y-1.348
G1 X-26.881 Y-1.357
G1 X-26.899 Y-1.42
G1 X-26.911 Y-1.472
G1 X-26.916 Y-1.491
G1 X-26.93 Y-1.549
G1 X-27.022 Y-1.643 Z-3.016
G1 X-27.111 Y-1.738 Z-2.866
G1 X-27.195 Y-1.83 Z-2.731
G1 X-27.273 Y-1.919 Z-2.611
G1 X-27.319 Y-1.973 Z-2.541
G1 X-27.393 Y-2.064 Z-2.436
G1 X-27.463 Y-2.158 Z-2.346
G1 X-27.528 Y-2.255 Z-2.273
G1 X-27.576 Y-2.332 Z-2.226
G1 X-27.619 Y-2.405 Z-2.189
G1 X-27.659 Y-2.475 Z-2.158
G1 X-27.704 Y-2.558 Z-2.128
G1 X-27.753 Y-2.651 Z-2.101
G1 X-27.799 Y-2.742 Z-2.082
G1 X-27.843 Y-2.83 Z-2.068
G1 X-27.882 Y-2.913 Z-2.06
G1 X-27.909 Y-2.97 Z-2.057
G1 X-27.947 Y-3.061 Z-2.064
G1 X-27.986 Y-3.17 Z-2.089
G1 X-28.008 Y-3.244 Z-2.117
G1 X-28.026 Y-3.278 Z-2.114
G1 X-28.072 Y-3.373 Z-2.116
G1 X-28.117 Y-3.481 Z-2.137
G1 X-28.156 Y-3.592 Z-2.177
G1 X-28.189 Y-3.708 Z-2.238
G1 X-28.214 Y-3.813 Z-2.308
G1 X-28.228 Y-3.897 Z-2.369
G1 X-28.245 Y-4.02 Z-2.476
G1 X-28.257 Y-4.151 Z-2.607
G1 X-28.264 Y-4.285 Z-2.761
G1 X-28.265 Y-4.428 Z-2.943
G1 X-28.261 Y-4.578 Z-3.151
G1 X-28.26 Y-4.594 Z-3.175
G1 X-28.195 Y-4.668
G1 X-28.123 Y-4.736
G1 X-28.048 Y-4.799
G1 X-27.967 Y-4.857
G1 X-27.883 Y-4.908
G1 X-27.795 Y-4.954
G1 X-27.705 Y-4.993
G1 X-27.611 Y-5.025
G1 X-27.516 Y-5.05
G1 X-27.419 Y-5.069
G1 X-27.321 Y-5.08
G1 X-27.222 Y-5.084
G1 X-27.2 Y-5.085
G1 X-27.189
G1 X-27.179
G1 X-27.17 Y-5.086
G1 X-27.162
G1 X-27.155 Y-5.087
G1 X-27.149
G1 X-27.059 Y-5.125
G1 X-26.967 Y-5.155
G1 X-26.872 Y-5.179
G1 X-26.777 Y-5.197
G1 X-26.68 Y-5.207
G1 X-26.583 Y-5.21
G1 X-25.881
G1 X-25.889 Y-5.44
G1 X-25.892 Y-5.539
G1 X-25.978 Y-5.502
G1 X-26.015 Y-5.486
G1 X-26.134 Y-5.438
G1 X-26.172 Y-5.423
G1 X-26.291 Y-5.379
G1 X-26.33 Y-5.365
G1 X-26.449 Y-5.325
G1 X-26.49 Y-5.313
G1 X-26.609 Y-5.276
G1 X-26.65 Y-5.265
G1 X-26.77 Y-5.233
G1 X-26.812 Y-5.222
G1 X-26.933 Y-5.194
G1 X-26.975 Y-5.185
G1 X-27.096 Y-5.16
G1 X-27.139 Y-5.152
G1 X-27.261 Y-5.132
G1 X-27.304 Y-5.125
G1 X-27.426 Y-5.109
G1 X-27.47 Y-5.104
G1 X-27.592 Y-5.091
G1 X-27.636 Y-5.088
G1 X-27.759 Y-5.079
G1 X-27.802 Y-5.077
G1 X-27.926 Y-5.072
G1 X-27.969 Y-5.071
G1 X-28.093
G1 X-28.136
G1 X-28.26 Y-5.074
G1 X-28.303 Y-5.076
G1 X-28.428 Y-5.083
G1 X-28.47 Y-5.087
G1 X-28.595 Y-5.098
G1 X-28.637 Y-5.102
G1 X-28.661 Y-5.105
G1 X-28.795 Y-5.174 Z-3.049
G1 X-28.888 Y-5.223 Z-2.967
G1 X-29.004 Y-5.278 Z-2.864
G1 X-29.131 Y-5.339 Z-2.757
G1 X-29.265 Y-5.403 Z-2.654
G1 X-29.397 Y-5.466 Z-2.56
G1 X-29.528 Y-5.527 Z-2.477
G1 X-29.633 Y-5.577 Z-2.416
G1 X-29.678 Y-5.598 Z-2.391
G1 X-29.787 Y-5.649 Z-2.336
G1 X-29.91 Y-5.708 Z-2.281
G1 X-30.035 Y-5.766 Z-2.234
G1 X-30.077 Y-5.787 Z-2.22
G1 X-30.167 Y-5.831 Z-2.186
G1 X-30.281 Y-5.888 Z-2.152
G1 X-30.403 Y-5.948 Z-2.123
G1 X-30.526 Y-6.007 Z-2.105
G1 X-30.628 Y-6.056 Z-2.096
G1 X-30.691 Y-6.087 Z-2.095
G1 X-30.797 Y-6.136 Z-2.097
G1 X-30.902 Y-6.186 Z-2.106
G1 X-31.018 Y-6.239 Z-2.124
G1 X-31.143 Y-6.297 Z-2.152
G1 X-31.27 Y-6.354 Z-2.189
G1 X-31.377 Y-6.402 Z-2.228
G1 X-31.441 Y-6.431 Z-2.255
G1 X-31.552 Y-6.481 Z-2.305
G1 X-31.665 Y-6.53 Z-2.363
G1 X-31.79 Y-6.585 Z-2.435
G1 X-31.909 Y-6.636 Z-2.51
G1 X-32.035 Y-6.689 Z-2.594
G1 X-32.162 Y-6.743 Z-2.688
G1 X-32.293 Y-6.797 Z-2.791
G1 X-32.425 Y-6.853 Z-2.904
G1 X-32.559 Y-6.91 Z-3.026
G1 X-32.712 Y-6.974 Z-3.174
G1 X-32.559 Y-6.91 Z-3.026
G1 X-32.425 Y-6.853 Z-2.904
G1 X-32.293 Y-6.797 Z-2.791
G1 X-32.162 Y-6.743 Z-2.688
G1 X-32.035 Y-6.689 Z-2.594
G1 X-31.909 Y-6.636 Z-2.51
G1 X-31.79 Y-6.585 Z-2.435
G1 X-31.665 Y-6.53 Z-2.363
G1 X-31.552 Y-6.481 Z-2.305
G1 X-31.441 Y-6.431 Z-2.255
G1 X-31.377 Y-6.402 Z-2.228
G1 X-31.27 Y-6.354 Z-2.189
G1 X-31.143 Y-6.297 Z-2.152
G1 X-31.018 Y-6.239 Z-2.124
G1 X-30.902 Y-6.186 Z-2.106
G1 X-30.797 Y-6.136 Z-2.097
G1 X-30.691 Y-6.087 Z-2.095
G1 X-30.628 Y-6.056 Z-2.096
G1 X-30.526 Y-6.007 Z-2.105
G1 X-30.403 Y-5.948 Z-2.123
G1 X-30.281 Y-5.888 Z-2.152
G1 X-30.167 Y-5.831 Z-2.186
G1 X-30.077 Y-5.787 Z-2.22
G1 X-30.035 Y-5.766 Z-2.234
G1 X-29.91 Y-5.708 Z-2.281
G1 X-29.787 Y-5.649 Z-2.336
G1 X-29.678 Y-5.598 Z-2.391
G1 X-29.633 Y-5.577 Z-2.416
G1 X-29.528 Y-5.527 Z-2.477
G1 X-29.397 Y-5.466 Z-2.56
G1 X-29.265 Y-5.403 Z-2.654
G1 X-29.131 Y-5.339 Z-2.757
G1 X-29.004 Y-5.278 Z-2.864
G1 X-28.888 Y-5.223 Z-2.967
G1 X-28.795 Y-5.174 Z-3.049
G1 X-28.661 Y-5.105 Z-3.175
G1 X-28.657 Y-5.101
G1 X-28.636 Y-5.076
G1 X-28.575 Y-5.006
G1 X-28.554 Y-4.981
G1 X-28.495 Y-4.909
G1 X-28.476 Y-4.885
G1 X-28.419 Y-4.812
G1 X-28.399 Y-4.786
G1 X-28.344 Y-4.711
G1 X-28.325 Y-4.686
G1 X-28.272 Y-4.61
G1 X-28.26 Y-4.594
G1 X-28.272 Y-4.61
G1 X-28.325 Y-4.686
G1 X-28.344 Y-4.711
G1 X-28.399 Y-4.786
G1 X-28.419 Y-4.812
G1 X-28.476 Y-4.885
G1 X-28.495 Y-4.909
G1 X-28.554 Y-4.981
G1 X-28.575 Y-5.006
G1 X-28.636 Y-5.076
G1 X-28.657 Y-5.101
G1 X-28.661 Y-5.105
G1 X-28.637 Y-5.102
G1 X-28.595 Y-5.098
G1 X-28.47 Y-5.087
G1 X-28.428 Y-5.083
G1 X-28.303 Y-5.076
G1 X-28.26 Y-5.074
G1 X-28.136 Y-5.071
G1 X-28.093
G1 X-27.969
G1 X-27.926 Y-5.072
G1 X-27.802 Y-5.077
G1 X-27.759 Y-5.079
G1 X-27.636 Y-5.088
G1 X-27.592 Y-5.091
G1 X-27.47 Y-5.104
G1 X-27.426 Y-5.109
G1 X-27.304 Y-5.125
G1 X-27.261 Y-5.132
G1 X-27.139 Y-5.152
G1 X-27.096 Y-5.16
G1 X-26.975 Y-5.185
G1 X-26.933 Y-5.194
G1 X-26.812 Y-5.222
G1 X-26.77 Y-5.233
G1 X-26.65 Y-5.265
G1 X-26.609 Y-5.276
G1 X-26.49 Y-5.313
G1 X-26.449 Y-5.325
G1 X-26.33 Y-5.365
G1 X-26.291 Y-5.379
G1 X-26.172 Y-5.423
G1 X-26.134 Y-5.438
G1 X-26.015 Y-5.486
G1 X-25.978 Y-5.502
G1 X-25.892 Y-5.539
G1 X-25.845 Y-5.615 Z-3.055
G1 X-25.743 Y-5.783 Z-2.796
G1 X-25.645 Y-5.949 Z-2.547
G1 X-25.552 Y-6.112 Z-2.31
G1 X-25.463 Y-6.274 Z-2.081
G1 X-25.388 Y-6.413 Z-1.891
G1 X-25.345 Y-6.498 Z-1.78
G1 X-25.308 Y-6.583 Z-1.684
G1 X-25.276 Y-6.668 Z-1.601
G1 X-25.25 Y-6.753 Z-1.531
G1 X-25.228 Y-6.847 Z-1.47
G1 X-25.212 Y-6.941 Z-1.425
G1 X-25.204 Y-7.034 Z-1.397
G1 X-25.203 Y-7.149 Z-1.385
G1 X-25.206 Y-7.228 Z-1.386
G1 X-25.211 Y-7.319 Z-1.392
G1 X-25.217 Y-7.4 Z-1.401
G1 X-25.227 Y-7.499 Z-1.417
G1 X-25.24 Y-7.604 Z-1.439
G1 X-25.254 Y-7.71 Z-1.466
G1 X-25.272 Y-7.822 Z-1.499
G1 X-25.277 Y-7.856 Z-1.509
G1 X-25.288 Y-8.529 Z-1.484
G1 X-25.293 Y-8.611 Z-1.49
G1 X-25.304 Y-8.692 Z-1.508
G1 X-25.321 Y-8.784 Z-1.543
G1 X-25.345 Y-8.876 Z-1.594
G1 X-25.376 Y-8.968 Z-1.66
G1 X-25.413 Y-9.059 Z-1.742
G1 X-25.456 Y-9.15 Z-1.84
G1 X-25.506 Y-9.241 Z-1.953
G1 X-25.562 Y-9.332 Z-2.081
G1 X-25.638 Y-9.44 Z-2.256
G1 X-25.723 Y-9.548 Z-2.452
G1 X-25.817 Y-9.656 Z-2.671
G1 X-25.92 Y-9.763 Z-2.912
G1 X-26.033 Y-9.87 Z-3.175
G1 X-26.134 Y-9.861
G1 X-26.234 Y-9.843
G1 X-26.333 Y-9.819
G1 X-26.43 Y-9.787
G1 X-26.524 Y-9.747
G1 X-26.615 Y-9.701
G1 X-26.791 Y-9.603
G1 X-26.943 Y-9.527
G1 X-27.09 Y-9.459
G1 X-27.233 Y-9.401
G1 X-27.371 Y-9.351
G1 X-27.506 Y-9.309
G1 X-27.637 Y-9.276
G1 X-27.765 Y-9.249
G1 X-27.889 Y-9.23
G1 X-28.01 Y-9.217
G1 X-28.129 Y-9.211
G1 X-28.246
G1 X-28.361 Y-9.218
G1 X-28.477 Y-9.23
G1 X-28.592 Y-9.249
G1 X-28.707 Y-9.274
G1 X-28.824 Y-9.306
G1 X-28.943 Y-9.345
G1 X-29.063 Y-9.391
G1 X-29.186 Y-9.446
G1 X-29.311 Y-9.508
G1 X-29.439 Y-9.579
G1 X-29.569 Y-9.66
G1 X-29.712 Y-9.756
G1 X-29.848 Y-9.853
G1 X-29.976 Y-9.949
G1 X-30.099 Y-10.048
G1 X-30.216 Y-10.148
G1 X-30.329 Y-10.251
G1 X-30.437 Y-10.355
G1 X-30.54 Y-10.462
G1 X-30.639 Y-10.57
G1 X-30.733 Y-10.682
G1 X-30.823 Y-10.795
G1 X-30.909 Y-10.911
G1 X-30.991 Y-11.029
G1 X-31.069 Y-11.15
G1 X-31.142 Y-11.274
G1 X-31.212 Y-11.401
G1 X-31.279 Y-11.53
G1 X-31.341 Y-11.663
G1 X-31.4 Y-11.8
G1 X-31.455 Y-11.94
G1 X-31.506 Y-12.083
G1 X-31.554 Y-12.23
G1 X-31.597 Y-12.381
G1 X-31.637 Y-12.536
G1 X-31.677 Y-12.715
G1 X-31.704 Y-12.815
G1 X-31.738 Y-12.912
G1 X-31.779 Y-13.007
G1 X-31.828 Y-13.099
G1 X-31.883 Y-13.186
G1 X-31.945 Y-13.269
G1 X-32.013 Y-13.347
G1 X-32.086 Y-13.42
G1 X-32.165 Y-13.487
G1 X-32.249 Y-13.548
G1 X-32.361 Z-3.032
G1 X-32.466 Z-2.914
G1 X-32.517 Z-2.864
G1 X-32.566 Z-2.819
G1 X-32.613 Z-2.779
G1 X-32.66 Z-2.744
G1 X-32.706 Z-2.713
G1 X-32.751 Z-2.687
G1 X-32.795 Z-2.666
G1 X-32.838 Z-2.648
G1 X-32.881 Z-2.634
G1 X-32.924 Z-2.625
G1 X-32.967 Z-2.619
G1 X-33.041 Z-2.618
G1 X-33.107 Z-2.627
G1 X-33.173 Z-2.646
G1 X-33.241 Z-2.674
G1 X-33.312 Z-2.713
G1 X-33.386 Z-2.765
G1 X-33.464 Z-2.829
G1 X-33.547 Z-2.91
G1 X-33.591 Z-2.957
G1 X-33.652 Y-13.652 Z-2.811
G1 X-33.708 Y-13.756 Z-2.68
G1 X-33.757 Y-13.86 Z-2.563
G1 X-33.801 Y-13.964 Z-2.459
G1 X-33.838 Y-14.068 Z-2.37
G1 X-33.87 Y-14.172 Z-2.295
G1 X-33.897 Y-14.281 Z-2.232
G1 X-33.918 Y-14.39 Z-2.185
G1 X-33.932 Y-14.499 Z-2.152
G1 X-33.94 Y-14.607 Z-2.135
G1 X-33.945 Y-14.723 Z-2.125
G1 X-33.95 Y-14.857 Z-2.117
G1 X-33.953 Y-14.99 Z-2.112
G1 X-33.955 Y-15.123
G1 X-33.954 Y-15.254 Z-2.115
G1 X-33.953 Y-15.386 Z-2.121
G1 X-33.949 Y-15.515 Z-2.132
G1 X-33.945 Y-15.646 Z-2.147
G1 X-33.938 Y-15.775 Z-2.165
G1 X-33.93 Y-15.905 Z-2.188
G1 X-33.92 Y-16.033 Z-2.215
G1 X-33.908 Y-16.162 Z-2.246
G1 X-33.894 Y-16.292 Z-2.282
G1 X-33.879 Y-16.42 Z-2.321
G1 X-33.861 Y-16.55 Z-2.366
G1 X-33.842 Y-16.679 Z-2.415
G1 X-33.821 Y-16.811 Z-2.47
G1 X-33.798 Y-16.941 Z-2.529
G1 X-33.772 Y-17.073 Z-2.594
G1 X-33.744 Y-17.205 Z-2.663
G1 X-33.714 Y-17.338 Z-2.738
G1 X-33.682 Y-17.473 Z-2.819
G1 X-33.647 Y-17.608 Z-2.906
G1 X-33.602 Y-17.775 Z-3.02
G1 X-33.539 Y-17.989 Z-3.175
G1 X-33.535 Y-17.997
G1 X-33.52 Y-18.018
G1 X-33.464 Y-18.099
G1 X-33.45 Y-18.119
G1 X-33.393 Y-18.199
G1 X-33.378 Y-18.219
G1 X-33.319 Y-18.297
G1 X-33.304 Y-18.318
G1 X-33.244 Y-18.394
G1 X-33.228 Y-18.415
G1 X-33.167 Y-18.491
G1 X-33.15 Y-18.511
G1 X-33.088 Y-18.585
G1 X-33.071 Y-18.604
G1 X-33.007 Y-18.677
G1 X-32.99 Y-18.697
G1 X-32.925 Y-18.768
G1 X-32.907 Y-18.788
G1 X-32.84 Y-18.858
G1 X-32.822 Y-18.877
G1 X-32.755 Y-18.946
G1 X-32.736 Y-18.964
G1 X-32.667 Y-19.032
G1 X-32.649 Y-19.05
G1 X-32.579 Y-19.116
G1 X-32.559 Y-19.134
G1 X-32.487 Y-19.199
G1 X-32.468 Y-19.217
G1 X-32.395 Y-19.28
G1 X-32.375 Y-19.297
G1 X-32.301 Y-19.359
G1 X-32.281 Y-19.376
G1 X-32.205 Y-19.437
G1 X-32.186 Y-19.453
G1 X-32.109 Y-19.513
G1 X-32.089 Y-19.528
G1 X-32.011 Y-19.586
G1 X-31.989 Y-19.603
G1 X-31.909 Y-19.66
G1 X-31.888 Y-19.674
G1 X-31.808 Y-19.73
G1 X-31.788 Y-19.744
G1 X-31.706 Y-19.798
G1 X-31.684 Y-19.812
G1 X-31.601 Y-19.865
G1 X-31.522 Y-19.912
G1 X-31.427 Y-19.964
G1 X-31.413 Y-19.972
G1 X-31.318 Y-20.022
G1 X-31.301 Y-20.031
G1 X-31.206 Y-20.08
G1 X-31.191 Y-20.087
G1 X-31.095 Y-20.135
G1 X-31.079 Y-20.143
G1 X-30.982 Y-20.19
G1 X-30.967 Y-20.197
G1 X-30.87 Y-20.242
G1 X-30.853 Y-20.25
G1 X-30.756 Y-20.294
G1 X-30.741 Y-20.301
G1 X-30.643 Y-20.343
G1 X-30.626 Y-20.351
G1 X-30.528 Y-20.392
G1 X-30.512 Y-20.398
G1 X-30.495 Y-20.406
G1 X-30.512 Y-20.398
G1 X-30.528 Y-20.392
G1 X-30.626 Y-20.351
G1 X-30.643 Y-20.343
G1 X-30.741 Y-20.301
G1 X-30.756 Y-20.294
G1 X-30.853 Y-20.25
G1 X-30.87 Y-20.242
G1 X-30.967 Y-20.197
G1 X-30.982 Y-20.19
G1 X-31.079 Y-20.143
G1 X-31.095 Y-20.135
G1 X-31.191 Y-20.087
G1 X-31.206 Y-20.08
G1 X-31.301 Y-20.031
G1 X-31.318 Y-20.022
G1 X-31.413 Y-19.972
G1 X-31.427 Y-19.964
G1 X-31.522 Y-19.912
G1 X-31.601 Y-19.865
G1 X-31.684 Y-19.812
G1 X-31.706 Y-19.798
G1 X-31.788 Y-19.744
G1 X-31.808 Y-19.73
G1 X-31.888 Y-19.674
G1 X-31.909 Y-19.66
G1 X-31.989 Y-19.603
G1 X-32.011 Y-19.586
G1 X-32.089 Y-19.528
G1 X-32.109 Y-19.513
G1 X-32.186 Y-19.453
G1 X-32.205 Y-19.437
G1 X-32.281 Y-19.376
G1 X-32.301 Y-19.359
G1 X-32.375 Y-19.297
G1 X-32.395 Y-19.28
G1 X-32.468 Y-19.217
G1 X-32.487 Y-19.199
G1 X-32.559 Y-19.134
G1 X-32.579 Y-19.116
G1 X-32.649 Y-19.05
G1 X-32.667 Y-19.032
G1 X-32.736 Y-18.964
G1 X-32.755 Y-18.946
G1 X-32.822 Y-18.877
G1 X-32.84 Y-18.858
G1 X-32.907 Y-18.788
G1 X-32.925 Y-18.768
G1 X-32.99 Y-18.697
G1 X-33.007 Y-18.677
G1 X-33.071 Y-18.604
G1 X-33.088 Y-18.585
G1 X-33.15 Y-18.511
G1 X-33.167 Y-18.491
G1 X-33.228 Y-18.415
G1 X-33.244 Y-18.394
G1 X-33.304 Y-18.318
G1 X-33.319 Y-18.297
G1 X-33.378 Y-18.219
G1 X-33.393 Y-18.199
G1 X-33.45 Y-18.119
G1 X-33.464 Y-18.099
G1 X-33.52 Y-18.018
G1 X-33.535 Y-17.997
G1 X-33.539 Y-17.989
G1 X-33.55 Y-19.147
G1 X-33.565 Y-20.806
G1 Y-20.807
G1 X-33.581 Y-22.466
G1 X-33.598 Y-24.127
G1 X-33.607 Y-25.002
G1 X-33.598 Y-24.127
G1 X-33.581 Y-22.466
G1 X-33.565 Y-20.807
G1 Y-20.806
G1 X-33.55 Y-19.147
G1 X-33.539 Y-17.989
G1 X-33.602 Y-17.775 Z-3.02
G1 X-33.647 Y-17.608 Z-2.906
G1 X-33.682 Y-17.473 Z-2.819
G1 X-33.714 Y-17.338 Z-2.738
G1 X-33.744 Y-17.205 Z-2.663
G1 X-33.772 Y-17.073 Z-2.594
G1 X-33.798 Y-16.941 Z-2.529
G1 X-33.821 Y-16.811 Z-2.47
G1 X-33.842 Y-16.679 Z-2.415
G1 X-33.861 Y-16.55 Z-2.366
G1 X-33.879 Y-16.42 Z-2.321
G1 X-33.894 Y-16.292 Z-2.282
G1 X-33.908 Y-16.162 Z-2.246
G1 X-33.92 Y-16.033 Z-2.215
G1 X-33.93 Y-15.905 Z-2.188
G1 X-33.938 Y-15.775 Z-2.165
G1 X-33.945 Y-15.646 Z-2.147
G1 X-33.949 Y-15.515 Z-2.132
G1 X-33.953 Y-15.386 Z-2.121
G1 X-33.954 Y-15.254 Z-2.115
G1 X-33.955 Y-15.123 Z-2.112
G1 X-33.953 Y-14.99
G1 X-33.95 Y-14.857 Z-2.117
G1 X-33.945 Y-14.723 Z-2.125
G1 X-33.94 Y-14.607 Z-2.135
G1 X-33.932 Y-14.499 Z-2.152
G1 X-33.918 Y-14.39 Z-2.185
G1 X-33.897 Y-14.281 Z-2.232
G1 X-33.87 Y-14.172 Z-2.295
G1 X-33.838 Y-14.068 Z-2.37
G1 X-33.801 Y-13.964 Z-2.459
G1 X-33.757 Y-13.86 Z-2.563
G1 X-33.708 Y-13.756 Z-2.68
G1 X-33.652 Y-13.652 Z-2.811
G1 X-33.591 Y-13.548 Z-2.957
G1 X-33.657 Y-13.433 Z-2.795
G1 X-33.716 Y-13.318 Z-2.651
G1 X-33.768 Y-13.204 Z-2.523
G1 X-33.812 Y-13.089 Z-2.413
G1 X-33.85 Y-12.974 Z-2.32
G1 X-33.881 Y-12.86 Z-2.244
G1 X-33.904 Y-12.745 Z-2.184
G1 X-33.921 Y-12.631 Z-2.142
G1 X-33.938 Y-12.482 Z-2.099
G1 X-33.953 Y-12.335 Z-2.06
G1 X-33.966 Y-12.188 Z-2.025
G1 X-33.977 Y-12.043 Z-1.994
G1 X-33.987 Y-11.899 Z-1.968
G1 X-33.995 Y-11.755 Z-1.946
G1 X-34.001 Y-11.614 Z-1.929
G1 X-34.005 Y-11.472 Z-1.915
G1 X-34.008 Y-11.333 Z-1.907
G1 X-34.009 Y-11.193 Z-1.902
G1 X-34.008 Y-11.054
G1 X-34.003 Y-10.861 Z-1.91
G1 X-34 Y-10.778 Z-1.915
G1 X-33.993 Y-10.639 Z-1.929
G1 X-33.985 Y-10.502 Z-1.947
G1 X-33.974 Y-10.364 Z-1.969
G1 X-33.962 Y-10.226 Z-1.997
G1 X-33.948 Y-10.089 Z-2.029
G1 X-33.931 Y-9.951 Z-2.065
G1 X-33.913 Y-9.812 Z-2.107
G1 X-33.892 Y-9.673 Z-2.154
G1 X-33.87 Y-9.534 Z-2.206
G1 X-33.845 Y-9.394 Z-2.263
G1 X-33.824 Y-9.281 Z-2.312
G1 X-33.809 Y-9.209 Z-2.347
G1 X-33.748 Y-8.943 Z-2.49
G1 X-33.709 Y-8.781 Z-2.581
G1 X-33.672 Y-8.639 Z-2.666
G1 X-33.635 Y-8.497 Z-2.753
G1 X-33.596 Y-8.354 Z-2.844
G1 X-33.556 Y-8.211 Z-2.94
G1 X-33.514 Y-8.07 Z-3.037
G1 X-33.456 Y-7.879 Z-3.175
G1 X-33.418 Y-7.824
G1 X-33.402 Y-7.801
G1 X-33.336 Y-7.708
G1 X-33.319 Y-7.686
G1 X-33.251 Y-7.595
G1 X-33.234 Y-7.573
G1 X-33.165 Y-7.484
G1 X-33.147 Y-7.462
G1 X-33.077 Y-7.376
G1 X-33.057 Y-7.352
G1 X-32.985 Y-7.268
G1 X-32.966 Y-7.246
G1 X-32.893 Y-7.165
G1 X-32.872 Y-7.142
G1 X-32.798 Y-7.062
G1 X-32.777 Y-7.04
G1 X-32.713 Y-6.974
G1 X-32.743 Y-6.975
G1 X-32.835 Y-6.972
G1 X-32.927 Y-6.964
G1 X-33.018 Y-6.949
G1 X-33.108 Y-6.929
G1 X-33.196 Y-6.902
G1 X-33.283 Y-6.869
G1 X-33.367 Y-6.831
G1 X-33.448 Y-6.787
G1 X-33.453 Y-7.559
G1 X-33.456 Y-7.879
G1 X-33.453 Y-7.559
G1 X-33.448 Y-6.787
G1 X-33.516 Y-6.661 Z-3.009
G1 X-33.576 Y-6.534 Z-2.862
G1 X-33.628 Y-6.408 Z-2.733
G1 X-33.673 Y-6.282 Z-2.623
G1 X-33.71 Y-6.156 Z-2.532
G1 X-33.739 Y-6.03 Z-2.459
G1 X-33.76 Y-5.904 Z-2.405
G1 X-33.772 Y-5.804 Z-2.375
G1 X-33.779 Y-5.703 Z-2.357
G1 X-33.781 Y-5.602 Z-2.351
G1 X-33.776 Y-5.484 Z-2.359
G1 X-33.765 Y-5.366 Z-2.384
G1 X-33.747 Y-5.248 Z-2.425
G1 X-33.723 Y-5.13 Z-2.483
G1 X-33.691 Y-5.012 Z-2.557
G1 X-33.653 Y-4.894 Z-2.648
G1 X-33.608 Y-4.776 Z-2.755
G1 X-33.556 Y-4.658 Z-2.878
G1 X-33.497 Y-4.54 Z-3.018
G1 X-33.431 Y-4.422 Z-3.175
G1 X-33.43 Y-4.256
G1 Y-4.255
G1 X-33.419 Y-2.605
G1 X-33.408 Y-0.956
G1 X-33.397 Y0.703
G1 X-33.386 Y2.363
G1 X-33.374 Y4.022
G1 X-33.362 Y5.683
G1 X-33.35 Y7.343
G1 X-33.347 Y7.769
G1 X-33.329 Y7.72
G1 X-33.232 Y7.445
G1 X-33.135 Y7.172
G1 X-33.039 Y6.899
G1 X-32.944 Y6.627
G1 X-32.85 Y6.356
G1 X-32.757 Y6.086
G1 X-32.664 Y5.816
G1 X-32.573 Y5.548
G1 X-32.482 Y5.281
G1 X-32.392 Y5.014
G1 X-32.304 Y4.748
G1 X-32.216 Y4.483
G1 X-32.128 Y4.22
G1 X-32.042 Y3.957
G1 X-31.957 Y3.695
G1 X-31.873 Y3.433
G1 X-31.788 Y3.171
G1 X-31.775 Y3.131
G1 X-31.708 Y2.944
G1 X-31.651 Y2.771
G1 X-31.597 Y2.596
G1 X-31.547 Y2.42
G1 X-31.5 Y2.243
G1 X-31.457 Y2.065
G1 X-31.419 Y1.886
G1 X-31.384 Y1.705
G1 X-31.352 Y1.522
G1 X-31.324 Y1.339
G1 X-31.301 Y1.154
G1 X-31.28 Y0.968
G1 X-31.264 Y0.78
G1 X-31.251 Y0.591
G1 X-31.243 Y0.4
G1 X-31.238 Y0.207
G1 X-31.237 Y0.013
G1 X-31.239 Y-0.183
G1 X-31.246 Y-0.38
G1 X-31.256 Y-0.579
G1 X-31.271 Y-0.78
G1 X-31.289 Y-0.983
G1 X-31.311 Y-1.187
G1 X-31.339 Y-1.405
G1 X-31.342 Y-1.429
G1 X-31.364 Y-1.632
G1 X-31.389 Y-1.804
G1 X-31.42 Y-1.969
G1 X-31.456 Y-2.128
G1 X-31.498 Y-2.28
G1 X-31.544 Y-2.427
G1 X-31.596 Y-2.567
G1 X-31.652 Y-2.703
G1 X-31.714 Y-2.833
G1 X-31.78 Y-2.958
G1 X-31.852 Y-3.08
G1 X-31.929 Y-3.198
G1 X-32.011 Y-3.312
G1 X-32.1 Y-3.423
G1 X-32.194 Y-3.531
G1 X-32.294 Y-3.636
G1 X-32.402 Y-3.739
G1 X-32.516 Y-3.839
G1 X-32.638 Y-3.937
G1 X-32.767 Y-4.032
G1 X-32.905 Y-4.125
G1 X-33.051 Y-4.215
G1 X-33.205 Y-4.303
G1 X-33.389 Y-4.4
G1 X-33.431 Y-4.422
G1 X-33.389 Y-4.4
G1 X-33.205 Y-4.303
G1 X-33.051 Y-4.215
G1 X-32.905 Y-4.125
G1 X-32.767 Y-4.032
G1 X-32.638 Y-3.937
G1 X-32.516 Y-3.839
G1 X-32.402 Y-3.739
G1 X-32.294 Y-3.636
G1 X-32.194 Y-3.531
G1 X-32.1 Y-3.423
G1 X-32.011 Y-3.312
G1 X-31.929 Y-3.198
G1 X-31.852 Y-3.08
G1 X-31.78 Y-2.958
G1 X-31.714 Y-2.833
G1 X-31.652 Y-2.703
G1 X-31.596 Y-2.567
G1 X-31.544 Y-2.427
G1 X-31.498 Y-2.28
G1 X-31.456 Y-2.128
G1 X-31.42 Y-1.969
G1 X-31.389 Y-1.804
G1 X-31.364 Y-1.632
G1 X-31.342 Y-1.429
G1 X-31.339 Y-1.405
G1 X-31.311 Y-1.187
G1 X-31.289 Y-0.983
G1 X-31.271 Y-0.78
G1 X-31.256 Y-0.579
G1 X-31.246 Y-0.38
G1 X-31.239 Y-0.183
G1 X-31.237 Y0.013
G1 X-31.238 Y0.207
G1 X-31.243 Y0.4
G1 X-31.251 Y0.591
G1 X-31.264 Y0.78
G1 X-31.28 Y0.968
G1 X-31.301 Y1.154
G1 X-31.324 Y1.339
G1 X-31.352 Y1.522
G1 X-31.384 Y1.705
G1 X-31.419 Y1.886
G1 X-31.457 Y2.065
G1 X-31.5 Y2.243
G1 X-31.547 Y2.42
G1 X-31.597 Y2.596
G1 X-31.651 Y2.771
G1 X-31.708 Y2.944
G1 X-31.775 Y3.131
G1 X-31.788 Y3.171
G1 X-31.873 Y3.433
G1 X-31.957 Y3.695
G1 X-32.042 Y3.957
G1 X-32.128 Y4.22
G1 X-32.216 Y4.483
G1 X-32.304 Y4.748
G1 X-32.392 Y5.014
G1 X-32.482 Y5.281
G1 X-32.573 Y5.548
G1 X-32.664 Y5.816
G1 X-32.757 Y6.086
G1 X-32.85 Y6.356
G1 X-32.944 Y6.627
G1 X-33.039 Y6.899
G1 X-33.135 Y7.172
G1 X-33.232 Y7.445
G1 X-33.329 Y7.72
G1 X-33.347 Y7.769
G1 X-33.387 Y8.01 Z-3.072
G1 X-33.539 Y8.896 Z-2.689
G1 X-33.695 Y9.795 Z-2.295
G1 X-33.748 Y10.137 Z-2.161
G1 X-33.793 Y10.455 Z-2.047
G1 X-33.833 Y10.771 Z-1.944
G1 X-33.869 Y11.084 Z-1.85
G1 X-33.901 Y11.395 Z-1.767
G1 X-33.929 Y11.703 Z-1.694
G1 X-33.952 Y12.009 Z-1.631
G1 X-33.972 Y12.314 Z-1.577
G1 X-33.987 Y12.618 Z-1.534
G1 X-33.999 Y12.921 Z-1.5
G1 X-34.006 Y13.222 Z-1.475
G1 X-34.01 Y13.523 Z-1.46
G1 Y13.824 Z-1.455
G1 X-34.005 Y14.124 Z-1.459
G1 X-33.997 Y14.425 Z-1.473
G1 X-33.985 Y14.727 Z-1.496
G1 X-33.969 Y15.029 Z-1.529
G1 X-33.948 Y15.332 Z-1.571
G1 X-33.924 Y15.637 Z-1.623
G1 X-33.896 Y15.943 Z-1.685
G1 X-33.863 Y16.251 Z-1.757
G1 X-33.827 Y16.561 Z-1.838
G1 X-33.786 Y16.874 Z-1.93
G1 X-33.741 Y17.189 Z-2.032
G1 X-33.73 Y17.255 Z-2.056
G1 X-33.717 Y17.321 Z-2.087
G1 X-33.691 Y17.426 Z-2.148
G1 X-33.658 Y17.531 Z-2.224
G1 X-33.619 Y17.636 Z-2.315
G1 X-33.574 Y17.741 Z-2.422
G1 X-33.522 Y17.845 Z-2.544
G1 X-33.465 Y17.95 Z-2.681
G1 X-33.401 Y18.055 Z-2.833
G1 X-33.334 Y18.058 Z-2.777
G1 X-33.271 Y18.062 Z-2.732
G1 X-33.212 Y18.065 Z-2.696
G1 X-33.155 Y18.068 Z-2.668
G1 X-33.101 Y18.071 Z-2.647
G1 X-33.049 Y18.074 Z-2.633
G1 X-32.998 Y18.077 Z-2.624
G1 X-32.947 Y18.08 Z-2.621
G1 X-32.858 Y18.212 Z-2.325
G1 X-32.823 Y18.264 Z-2.216
G1 X-32.748 Y18.383 Z-1.981
G1 X-32.686 Y18.497 Z-1.777
G1 X-32.659 Y18.553 Z-1.684
G1 X-32.635 Y18.609 Z-1.596
G1 X-32.613 Y18.665 Z-1.514
G1 X-32.594 Y18.719 Z-1.438
G1 X-32.577 Y18.774 Z-1.368
G1 X-32.563 Y18.828 Z-1.304
G1 X-32.551 Y18.881 Z-1.245
G1 X-32.543 Y18.934 Z-1.192
G1 X-32.537 Y18.986 Z-1.146
G1 X-32.533 Y19.037 Z-1.105
G1 Y19.138 Z-1.039
G1 X-32.537 Y19.338 Z-0.912
G1 X-32.544 Y19.537 Z-0.78
G1 X-32.552 Y19.736 Z-0.643
G1 X-32.563 Y19.934 Z-0.501
G1 X-32.577 Y20.131 Z-0.354
G1 X-32.592 Y20.329 Z-0.202
G1 X-32.61 Y20.527 Z-0.044
G1 X-32.616 Y20.58 Z0
G1 X-32.61 Y20.527 Z-0.044
G1 X-32.592 Y20.329 Z-0.202
G1 X-32.577 Y20.131 Z-0.354
G1 X-32.563 Y19.934 Z-0.501
G1 X-32.552 Y19.736 Z-0.643
G1 X-32.544 Y19.537 Z-0.78
G1 X-32.537 Y19.338 Z-0.912
G1 X-32.533 Y19.138 Z-1.039
G1 Y19.037 Z-1.105
G1 X-32.537 Y18.986 Z-1.146
G1 X-32.543 Y18.934 Z-1.192
G1 X-32.551 Y18.881 Z-1.245
G1 X-32.563 Y18.828 Z-1.304
G1 X-32.577 Y18.774 Z-1.368
G1 X-32.594 Y18.719 Z-1.438
G1 X-32.613 Y18.665 Z-1.514
G1 X-32.635 Y18.609 Z-1.596
G1 X-32.659 Y18.553 Z-1.684
G1 X-32.686 Y18.497 Z-1.777
G1 X-32.748 Y18.383 Z-1.981
G1 X-32.823 Y18.264 Z-2.216
G1 X-32.858 Y18.212 Z-2.325
G1 X-32.947 Y18.08 Z-2.621
G1 X-32.888 Y18.038 Z-2.515
G1 X-32.782 Y17.955 Z-2.327
G1 X-32.684 Y17.87 Z-2.161
G1 X-32.595 Y17.783 Z-2.016
G1 X-32.514 Y17.694 Z-1.892
G1 X-32.442 Y17.603 Z-1.789
G1 X-32.378 Y17.51 Z-1.707
G1 X-32.321 Y17.415 Z-1.645
G1 X-32.273 Y17.318 Z-1.604
G1 X-32.233 Y17.219 Z-1.582
G1 X-32.212 Y17.157 Z-1.578
G1 X-32.2 Y17.118 Z-1.579
G1 X-32.133 Y16.886 Z-1.593
G1 X-32.062 Y16.656 Z-1.6
G1 X-31.985 Y16.419 Z-1.599
G1 X-31.91 Y16.199 Z-1.591
G1 X-31.828 Y15.97 Z-1.576
G1 X-31.76 Y15.79 Z-1.562
G1 X-31.689 Y15.632 Z-1.564
G1 X-31.575 Y15.388
G1 X-31.475 Y15.187 Z-1.562
G1 X-31.338 Y14.926 Z-1.556
G1 X-31.235 Y14.74 Z-1.55
G1 X-31.11 Y14.526 Z-1.542
G1 X-31.026 Y14.391 Z-1.534
G1 X-30.917 Y14.223 Z-1.519
G1 X-30.807 Y14.057 Z-1.509
G1 X-30.697 Y13.894 Z-1.505
G1 X-30.587 Y13.733
G1 X-30.535 Y13.659 Z-1.507
G1 X-30.505 Y13.616 Z-1.511
G1 X-30.456 Y13.555 Z-1.525
G1 X-30.38 Y13.465 Z-1.556
G1 X-30.297 Y13.372 Z-1.595
G1 X-30.206 Y13.272 Z-1.646
G1 X-30.112 Y13.175 Z-1.704
G1 X-30.047 Y13.11 Z-1.746
G1 X-29.958 Y13.023 Z-1.811
G1 X-29.864 Y12.936 Z-1.883
G1 X-29.768 Y12.849 Z-1.962
G1 X-29.668 Y12.762 Z-2.048
G1 X-29.565 Y12.676 Z-2.142
G1 X-29.458 Y12.589 Z-2.244
G1 X-29.348 Y12.503 Z-2.354
G1 X-29.233 Y12.416 Z-2.473
G1 X-29.116 Y12.33 Z-2.598
G1 X-28.993 Y12.242 Z-2.733
G1 X-28.867 Y12.155 Z-2.876
G1 X-28.735 Y12.068 Z-3.026
G1 X-28.604 Y11.986 Z-3.174
G1 X-28.735 Y12.068 Z-3.026
G1 X-28.867 Y12.155 Z-2.876
G1 X-28.993 Y12.242 Z-2.733
G1 X-29.116 Y12.33 Z-2.598
G1 X-29.233 Y12.416 Z-2.473
G1 X-29.348 Y12.503 Z-2.354
G1 X-29.458 Y12.589 Z-2.244
G1 X-29.565 Y12.676 Z-2.142
G1 X-29.668 Y12.762 Z-2.048
G1 X-29.768 Y12.849 Z-1.962
G1 X-29.864 Y12.936 Z-1.883
G1 X-29.958 Y13.023 Z-1.811
G1 X-30.047 Y13.11 Z-1.746
G1 X-30.112 Y13.175 Z-1.704
G1 X-30.206 Y13.272 Z-1.646
G1 X-30.297 Y13.372 Z-1.595
G1 X-30.38 Y13.465 Z-1.556
G1 X-30.456 Y13.555 Z-1.525
G1 X-30.505 Y13.616 Z-1.511
G1 X-30.535 Y13.659 Z-1.507
G1 X-30.587 Y13.733 Z-1.505
G1 X-30.697 Y13.894
G1 X-30.807 Y14.057 Z-1.509
G1 X-30.917 Y14.223 Z-1.519
G1 X-31.026 Y14.391 Z-1.534
G1 X-31.11 Y14.526 Z-1.542
G1 X-31.235 Y14.74 Z-1.55
G1 X-31.338 Y14.926 Z-1.556
G1 X-31.475 Y15.187 Z-1.562
G1 X-31.575 Y15.388 Z-1.564
G1 X-31.689 Y15.632
G1 X-31.76 Y15.79 Z-1.562
G1 X-31.828 Y15.97 Z-1.576
G1 X-31.91 Y16.199 Z-1.591
G1 X-31.985 Y16.419 Z-1.599
G1 X-32.062 Y16.656 Z-1.6
G1 X-32.133 Y16.886 Z-1.593
G1 X-32.2 Y17.118 Z-1.579
G1 X-32.212 Y17.157 Z-1.578
G1 X-32.233 Y17.219 Z-1.582
G1 X-32.273 Y17.318 Z-1.604
G1 X-32.321 Y17.415 Z-1.645
G1 X-32.378 Y17.51 Z-1.707
G1 X-32.442 Y17.603 Z-1.789
G1 X-32.514 Y17.694 Z-1.892
G1 X-32.595 Y17.783 Z-2.016
G1 X-32.684 Y17.87 Z-2.161
G1 X-32.782 Y17.955 Z-2.327
G1 X-32.888 Y18.038 Z-2.515
G1 X-32.947 Y18.08 Z-2.621
G1 X-32.998 Y18.077 Z-2.624
G1 X-33.049 Y18.074 Z-2.633
G1 X-33.101 Y18.071 Z-2.647
G1 X-33.155 Y18.068 Z-2.668
G1 X-33.212 Y18.065 Z-2.696
G1 X-33.271 Y18.062 Z-2.732
G1 X-33.334 Y18.058 Z-2.777
G1 X-33.401 Y18.055 Z-2.833
G1 X-33.471 Y18.158 Z-2.661
G1 X-33.535 Y18.262 Z-2.505
G1 X-33.592 Y18.366 Z-2.364
G1 X-33.642 Y18.469 Z-2.24
G1 X-33.686 Y18.573 Z-2.132
G1 X-33.724 Y18.676 Z-2.039
G1 X-33.754 Y18.779 Z-1.963
G1 X-33.779 Y18.883 Z-1.902
G1 X-33.796 Y18.986 Z-1.858
G1 X-33.805 Y19.062 Z-1.835
G1 X-33.81 Y19.139 Z-1.821
G1 X-33.819 Y19.35 Z-1.795
G1 X-33.826 Y19.571 Z-1.771
G1 X-33.833 Y19.791 Z-1.75
G1 X-33.838 Y20.011 Z-1.732
G1 X-33.842 Y20.231 Z-1.718
G1 X-33.844 Y20.451 Z-1.707
G1 X-33.845 Y20.651 Z-1.7
G1 Y20.89 Z-1.695
G1 X-33.843 Y21.109 Z-1.694
G1 X-33.84 Y21.329 Z-1.696
G1 X-33.836 Y21.548 Z-1.702
G1 X-33.83 Y21.767 Z-1.711
G1 X-33.823 Y21.987 Z-1.723
G1 X-33.814 Y22.207 Z-1.739
G1 X-33.809 Y22.315 Z-1.748
G1 X-33.793 Y22.648 Z-1.78
G1 X-33.78 Y22.869 Z-1.805
G1 X-33.766 Y23.09 Z-1.834
G1 X-33.75 Y23.311 Z-1.866
G1 X-33.733 Y23.534 Z-1.902
G1 X-33.715 Y23.756 Z-1.941
G1 X-33.695 Y23.979 Z-1.983
G1 X-33.674 Y24.203 Z-2.029
G1 X-33.651 Y24.427 Z-2.078
G1 X-33.59 Y24.921 Z-2.212
G1 X-33.503 Y25.601 Z-2.405
G1 X-33.414 Y26.275 Z-2.603
G1 X-33.323 Y26.943 Z-2.806
G1 X-33.229 Y27.606 Z-3.014
G1 X-33.158 Y28.1 Z-3.175
G1 X-33.148 Y28.972
G1 X-33.129 Y30.639
G1 X-33.128 Y30.791
G1 X-33.129 Y30.639
G1 X-33.148 Y28.972
G1 X-33.158 Y28.1
G1 X-33.112 Y28.257
G1 X-33.111 Y28.261
G1 X-33.051 Y28.466
G1 X-33.05 Y28.47
G1 X-32.989 Y28.674
G1 X-32.988 Y28.678
G1 X-32.927 Y28.882
G1 X-32.926 Y28.886
G1 X-32.864 Y29.089
G1 X-32.863 Y29.093
G1 X-32.801 Y29.294
G1 X-32.8 Y29.299
G1 X-32.737 Y29.5
G1 X-32.736 Y29.503
G1 X-32.673 Y29.703
G1 X-32.64 Y29.797
G1 X-32.6 Y29.888
G1 X-32.554 Y29.976
G1 X-32.501 Y30.06
G1 X-32.443 Y30.14
G1 X-32.378 Y30.216
G1 X-32.309 Y30.287
G1 X-32.234 Y30.352
G1 X-32.155 Y30.412
G1 X-32.071 Y30.466
G1 X-31.984 Y30.514
; MOVEMENT_RAPID
G0 Z3 F300
G0 X-26.656 Y34.665 F2500
; MOVEMENT_LEAD_IN
G1 Z-2.008 F480
; MOVEMENT_CUTTING
G1 X-26.586 Y34.621 Z-1.893
G1 X-26.517 Y34.581 Z-1.787
G1 X-26.419 Y34.53 Z-1.654
G1 X-26.336 Y34.493 Z-1.556
G1 X-26.253 Y34.462 Z-1.472
G1 X-26.158 Y34.432 Z-1.396
G1 X-26.077 Y34.413 Z-1.345
G1 X-25.996 Y34.399 Z-1.307
G1 X-25.905 Y34.389 Z-1.283
G1 X-25.826 Y34.386 Z-1.277
G1 X-25.744 Y34.389 Z-1.284
G1 X-25.493 Y34.413 Z-1.351
G1 X-25.242 Y34.434 Z-1.427
G1 X-24.991 Y34.452 Z-1.505
G1 X-24.741 Y34.467 Z-1.59
G1 X-24.49 Y34.478 Z-1.678
G1 X-24.239 Y34.486 Z-1.772
G1 X-23.988 Y34.49 Z-1.87
G1 X-23.737 Y34.492 Z-1.975
G1 X-23.484 Y34.49 Z-2.083
G1 X-23.243 Y34.485 Z-2.193
G1 X-22.978 Y34.475 Z-2.318
G1 X-22.75 Y34.464 Z-2.431
G1 X-22.467 Y34.446 Z-2.576
G1 X-22.256 Y34.43 Z-2.69
G1 X-21.951 Y34.403 Z-2.858
G1 X-21.691 Y34.376 Z-3.009
G1 X-21.413 Y34.343 Z-3.175
G1 X-21.273 Y34.361
G1 X-20.838 Y34.413
G1 X-20.798 Y34.442 Z-3.119
G1 X-20.647 Y34.545 Z-2.911
G1 X-20.537 Y34.617 Z-2.768
G1 X-20.395 Y34.707 Z-2.59
G1 X-20.217 Y34.812 Z-2.382
G1 X-20.11 Y34.872 Z-2.264
G1 X-19.972 Y34.946 Z-2.118
G1 X-19.768 Y35.049 Z-1.917
G1 X-19.64 Y35.11 Z-1.798
G1 X-19.44 Y35.203 Z-1.62
G1 X-19.317 Y35.256 Z-1.515
G1 X-19.118 Y35.338 Z-1.357
G1 X-18.908 Y35.42 Z-1.201
G1 X-18.792 Y35.462 Z-1.12
G1 X-18.595 Y35.529 Z-0.992
G1 X-18.492 Y35.562 Z-0.929
G1 X-18.379 Y35.597 Z-0.863
G1 X-18.183 Y35.653 Z-0.756
G1 X-18.08 Y35.681 Z-0.705
G1 X-17.97 Y35.709 Z-0.653
G1 X-17.772 Y35.755 Z-0.566
G1 X-17.663 Y35.779 Z-0.523
G1 X-17.477 Y35.816 Z-0.457
G1 X-17.358 Y35.84 Z-0.409
G1 X-17.242 Y35.863 Z-0.367
G1 X-17.128 Y35.883 Z-0.33
G1 X-17.015 Y35.901 Z-0.297
G1 X-16.904 Y35.917 Z-0.268
G1 X-16.794 Y35.931 Z-0.243
G1 X-16.686 Y35.943 Z-0.222
G1 X-16.579 Y35.953 Z-0.207
G1 X-16.487 Y35.96 Z-0.197
G1 X-16.367 Y35.967 Z-0.187
G1 X-16.262 Y35.971 Z-0.183
G1 X-16.158 Y35.973
G1 X-16.053 Z-0.188
G1 X-15.989 Y35.972 Z-0.194
G1 X-15.846 Y35.968 Z-0.21
G1 X-15.742 Y35.962 Z-0.227
G1 X-15.638 Y35.954 Z-0.248
G1 X-15.533 Y35.945 Z-0.275
G1 X-15.427 Y35.933 Z-0.305
G1 X-15.321 Y35.919 Z-0.339
G1 X-15.214 Y35.903 Z-0.379
G1 X-15.106 Y35.885 Z-0.423
G1 X-14.996 Y35.865 Z-0.473
G1 X-14.885 Y35.842 Z-0.526
G1 X-14.829 Y35.827 Z-0.561
G1 X-14.772 Y35.806 Z-0.611
G1 X-14.716 Y35.779 Z-0.676
G1 X-14.66 Y35.746 Z-0.755
G1 X-14.603 Y35.706 Z-0.85
G1 X-14.547 Y35.66 Z-0.959
G1 X-14.491 Y35.608 Z-1.084
G1 X-14.425 Y35.538 Z-1.25
G1 X-14.359 Y35.46 Z-1.438
G1 X-14.293 Y35.372 Z-1.646
G1 X-14.227 Y35.276 Z-1.875
G1 X-14.161 Y35.172 Z-2.126
G1 X-14.191 Y35.116 Z-2.128
G1 X-14.209 Y35.084 Z-2.133
G1 X-14.26 Y34.994 Z-2.162
G1 X-14.327 Y34.891 Z-2.215
G1 X-14.4 Y34.789 Z-2.291
G1 X-14.479 Y34.691 Z-2.388
G1 X-14.566 Y34.591 Z-2.51
G1 X-14.66 Y34.494 Z-2.655
G1 X-14.763 Y34.396 Z-2.826
G1 X-14.875 Y34.298 Z-3.024
G1 X-14.957 Y34.228 Z-3.175
G1 X-14.966 Y34.191
G1 X-14.973 Y34.161
G1 X-14.994 Y34.067
G1 X-15.001 Y34.037
G1 X-15.02 Y33.943
G1 X-15.025 Y33.914
G1 X-15.042 Y33.819
G1 X-15.047 Y33.789
G1 X-15.062 Y33.694
G1 X-15.066 Y33.662
G1 X-15.079 Y33.568
G1 X-15.082 Y33.538
G1 X-15.093 Y33.444
G1 X-15.096 Y33.412
G1 X-15.104 Y33.317
G1 X-15.106 Y33.286
G1 X-15.112 Y33.192
G1 X-15.114 Y33.16
G1 X-15.117 Y33.065
G1 X-15.118 Y33.035
G1 X-15.12 Y32.941
G1 Y32.907
G1 X-15.119 Y32.813
G1 Y32.783
G1 X-15.116 Y32.688
G1 X-15.115 Y32.655
G1 X-15.109 Y32.56
G1 X-15.107 Y32.53
G1 X-15.1 Y32.436
G1 X-15.098 Y32.404
G1 X-15.088 Y32.31
G1 X-15.086 Y32.288
G1 X-15.075 Y32.194
G1 X-15.073 Y32.179
G1 X-15.071 Y32.161
G1 X-14.995 Y32.083 Z-3.017
G1 X-14.907 Y31.986 Z-2.839
G1 X-14.828 Y31.892 Z-2.683
G1 X-14.753 Y31.794 Z-2.539
G1 X-14.648 Y31.655 Z-2.346
G1 X-14.541 Y31.521 Z-2.152
G1 X-14.435 Y31.394 Z-1.961
G1 X-14.316 Y31.258 Z-1.748
G1 X-14.207 Y31.142 Z-1.557
G1 X-14.147 Y31.079 Z-1.452
G1 X-14.039 Y30.993 Z-1.25
G1 X-13.882 Y30.865 Z-0.966
G1 X-13.773 Y30.775 Z-0.773
G1 X-13.623 Y30.648 Z-0.514
G1 X-13.528 Y30.568 Z-0.357
G1 X-13.412 Y30.467 Z-0.168
G1 X-13.305 Y30.373 Z-0.001
G1 X-13.412 Y30.467 Z-0.168
G1 X-13.528 Y30.568 Z-0.357
G1 X-13.623 Y30.648 Z-0.514
G1 X-13.773 Y30.775 Z-0.773
G1 X-13.882 Y30.865 Z-0.966
G1 X-14.039 Y30.993 Z-1.25
G1 X-14.147 Y31.079 Z-1.452
G1 X-14.207 Y31.142 Z-1.557
G1 X-14.316 Y31.258 Z-1.748
G1 X-14.435 Y31.394 Z-1.961
G1 X-14.541 Y31.521 Z-2.152
G1 X-14.648 Y31.655 Z-2.346
G1 X-14.753 Y31.794 Z-2.539
G1 X-14.828 Y31.892 Z-2.683
G1 X-14.907 Y31.986 Z-2.839
G1 X-14.995 Y32.083 Z-3.017
G1 X-15.071 Y32.161 Z-3.175
G1 X-15.174 Y32.17
G1 X-15.278 Y32.172
G1 X-15.381 Y32.165
G1 X-15.484 Y32.15
G1 X-15.585 Y32.128
G1 X-15.684 Y32.098
G1 X-15.781 Y32.061
G1 X-15.874 Y32.017
G1 X-15.964 Y31.965
G1 X-16.05 Y31.907
G1 X-16.131 Y31.843
G1 X-16.207 Y31.772
G1 X-16.277 Y31.696
G1 X-16.342 Y31.615
G1 X-16.4 Y31.53
G1 X-16.41 Y31.628
G1 X-16.428 Y31.726
G1 X-16.452 Y31.822
G1 X-16.484 Y31.916
G1 X-16.522 Y32.008
G1 X-16.567 Y32.096
G1 X-16.637 Y32.224
G1 X-16.69 Y32.328
G1 X-16.737 Y32.427
G1 X-16.776 Y32.52
G1 X-16.81 Y32.607
G1 X-16.837 Y32.688
G1 X-16.859 Y32.763
G1 X-16.875 Y32.831
G1 X-16.887 Y32.893
G1 X-16.895 Y32.949
G1 X-16.899 Y32.999
G1 X-16.9 Y33.043
G1 X-16.899 Y33.082
G1 X-16.896 Y33.117
G1 X-16.891 Y33.149
G1 X-16.885 Y33.178
G1 X-16.877 Y33.205
G1 X-16.868 Y33.232
G1 X-16.856 Y33.26
G1 X-16.841 Y33.289
G1 X-16.823 Y33.32
G1 X-16.801 Y33.353
G1 X-16.774 Y33.389
G1 X-16.737 Y33.433
G1 X-16.688 Y33.487
G1 X-16.633 Y33.542
G1 X-16.577 Y33.595
G1 X-16.52 Y33.646
G1 X-16.461 Y33.694
G1 X-16.4 Y33.74
G1 X-16.339 Y33.784
G1 X-16.275 Y33.826
G1 X-16.21 Y33.866
G1 X-16.142 Y33.904
G1 X-16.072 Y33.94
G1 X-16 Y33.974
G1 X-15.925 Y34.007
G1 X-15.847 Y34.037
G1 X-15.766 Y34.066
G1 X-15.683 Y34.093
G1 X-15.596 Y34.119
G1 X-15.506 Y34.142
G1 X-15.412 Y34.163
G1 X-15.315 Y34.181
G1 X-15.215 Y34.198
G1 X-15.111 Y34.212
G1 X-15.004 Y34.224
G1 X-14.957 Y34.228
G1 X-15.004 Y34.224
G1 X-15.111 Y34.212
G1 X-15.215 Y34.198
G1 X-15.315 Y34.181
G1 X-15.412 Y34.163
G1 X-15.506 Y34.142
G1 X-15.596 Y34.119
G1 X-15.683 Y34.093
G1 X-15.766 Y34.066
G1 X-15.847 Y34.037
G1 X-15.925 Y34.007
G1 X-16 Y33.974
G1 X-16.072 Y33.94
G1 X-16.142 Y33.904
G1 X-16.21 Y33.866
G1 X-16.275 Y33.826
G1 X-16.339 Y33.784
G1 X-16.4 Y33.74
G1 X-16.461 Y33.694
G1 X-16.52 Y33.646
G1 X-16.577 Y33.595
G1 X-16.633 Y33.542
G1 X-16.688 Y33.487
G1 X-16.737 Y33.433
G1 X-16.774 Y33.389
G1 X-16.801 Y33.353
G1 X-16.823 Y33.32
G1 X-16.841 Y33.289
G1 X-16.856 Y33.26
G1 X-16.868 Y33.232
G1 X-16.877 Y33.205
G1 X-16.885 Y33.178
G1 X-16.891 Y33.149
G1 X-16.896 Y33.117
G1 X-16.899 Y33.082
G1 X-16.9 Y33.043
G1 X-16.899 Y32.999
G1 X-16.895 Y32.949
G1 X-16.887 Y32.893
G1 X-16.875 Y32.831
G1 X-16.859 Y32.763
G1 X-16.837 Y32.688
G1 X-16.81 Y32.607
G1 X-16.776 Y32.52
G1 X-16.737 Y32.427
G1 X-16.69 Y32.328
G1 X-16.637 Y32.224
G1 X-16.567 Y32.096
G1 X-16.522 Y32.008
G1 X-16.484 Y31.916
G1 X-16.452 Y31.822
G1 X-16.428 Y31.726
G1 X-16.41 Y31.628
G1 X-16.4 Y31.53
G1 X-16.413 Y31.479 Z-3.138
G1 X-16.424 Y31.433 Z-3.109
G1 X-16.435 Y31.39 Z-3.085
G1 X-16.445 Y31.349 Z-3.065
G1 X-16.468 Y31.265 Z-3.031
G1 X-16.504 Y31.148 Z-2.996
G1 X-16.53 Y31.069 Z-2.982
G1 X-16.569 Y30.967 Z-2.974
G1 X-16.574 Y30.954 Z-2.975
G1 X-16.605 Y30.879 Z-2.98
G1 X-16.639 Y30.804 Z-2.991
G1 X-16.655 Y30.769 Z-3
G1 X-16.691 Y30.697 Z-3.023
G1 X-16.728 Y30.626 Z-3.052
G1 X-16.749 Y30.587 Z-3.071
G1 X-16.788 Y30.519 Z-3.111
G1 X-16.844 Y30.426 Z-3.175
G1 X-16.921 Y30.362
G1 X-17.002 Y30.303
G1 X-17.088 Y30.25
G1 X-17.177 Y30.203
G1 X-17.27 Y30.164
G1 X-17.365 Y30.131
G1 X-17.462 Y30.105
G1 X-17.561 Y30.087
G1 X-17.661 Y30.076
G1 X-17.761 Y30.072
G1 X-17.862 Y30.075
G1 X-17.962 Y30.086
G1 X-18.061 Y30.105
G1 X-18.205 Y30.137
G1 X-18.231 Y30.143
G1 X-18.37 Y30.177
G1 X-18.399 Y30.185
G1 X-18.533 Y30.221
G1 X-18.558 Y30.241 Z-3.143
G1 X-18.746 Y30.396 Z-2.917
G1 X-18.831 Y30.467 Z-2.818
G1 X-18.96 Y30.576 Z-2.671
G1 X-19.084 Y30.684 Z-2.535
G1 X-19.203 Y30.79 Z-2.41
G1 X-19.317 Y30.895 Z-2.295
G1 X-19.426 Y30.998 Z-2.189
G1 X-19.531 Y31.101 Z-2.095
G1 X-19.632 Y31.203 Z-2.009
G1 X-19.728 Y31.305 Z-1.934
G1 X-19.821 Y31.407 Z-1.868
G1 X-19.909 Y31.509 Z-1.813
G1 X-19.966 Y31.577 Z-1.781
G1 X-19.995 Y31.613 Z-1.767
G1 X-20.076 Y31.715 Z-1.732
G1 X-20.155 Y31.822 Z-1.707
G1 X-20.201 Y31.889 Z-1.697
G1 X-20.228 Y31.928 Z-1.693
G1 X-20.3 Y32.039 Z-1.691
G1 X-20.367 Y32.15 Z-1.7
G1 X-20.405 Y32.217 Z-1.71
G1 X-20.432 Y32.266 Z-1.721
G1 X-20.493 Y32.384 Z-1.755
G1 X-20.527 Y32.453 Z-1.78
G1 X-20.552 Y32.508 Z-1.802
G1 X-20.587 Y32.595 Z-1.848
G1 X-20.625 Y32.696 Z-1.909
G1 X-20.66 Y32.795 Z-1.974
G1 X-20.695 Y32.899 Z-2.046
G1 X-20.728 Y33.004 Z-2.123
G1 X-20.761 Y33.113 Z-2.209
G1 X-20.792 Y33.222 Z-2.299
G1 X-20.833 Y33.379 Z-2.438
G1 X-20.851 Y33.452 Z-2.506
G1 X-20.879 Y33.574 Z-2.623
G1 X-20.904 Y33.694 Z-2.744
G1 X-20.928 Y33.822 Z-2.877
G1 X-20.955 Y33.954 Z-3.03
G1 X-20.981 Y34.066 Z-3.175
G1 X-20.973 Y34.089
G1 X-20.948 Y34.157
G1 X-20.931 Y34.201
G1 X-20.903 Y34.268
G1 X-20.884 Y34.313
G1 X-20.854 Y34.38
G1 X-20.838 Y34.413
G1 X-20.854 Y34.38
G1 X-20.884 Y34.313
G1 X-20.903 Y34.268
G1 X-20.931 Y34.201
G1 X-20.948 Y34.157
G1 X-20.973 Y34.089
G1 X-20.981 Y34.066
G1 X-21.059 Y34.134
G1 X-21.141 Y34.196
G1 X-21.228 Y34.252
G1 X-21.319 Y34.301
G1 X-21.413 Y34.343
G1 X-21.319 Y34.301
G1 X-21.228 Y34.252
G1 X-21.141 Y34.196
G1 X-21.059 Y34.134
G1 X-20.981 Y34.066
G1 X-20.955 Y33.954 Z-3.03
G1 X-20.928 Y33.822 Z-2.877
G1 X-20.904 Y33.694 Z-2.744
G1 X-20.879 Y33.574 Z-2.623
G1 X-20.851 Y33.452 Z-2.506
G1 X-20.833 Y33.379 Z-2.438
G1 X-20.792 Y33.222 Z-2.299
G1 X-20.761 Y33.113 Z-2.209
G1 X-20.728 Y33.004 Z-2.123
G1 X-20.695 Y32.899 Z-2.046
G1 X-20.66 Y32.795 Z-1.974
G1 X-20.625 Y32.696 Z-1.909
G1 X-20.587 Y32.595 Z-1.848
G1 X-20.552 Y32.508 Z-1.802
G1 X-20.527 Y32.453 Z-1.78
G1 X-20.493 Y32.384 Z-1.755
G1 X-20.432 Y32.266 Z-1.721
G1 X-20.405 Y32.217 Z-1.71
G1 X-20.367 Y32.15 Z-1.7
G1 X-20.3 Y32.039 Z-1.691
G1 X-20.228 Y31.928 Z-1.693
G1 X-20.201 Y31.889 Z-1.697
G1 X-20.155 Y31.822 Z-1.707
G1 X-20.076 Y31.715 Z-1.732
G1 X-19.995 Y31.613 Z-1.767
G1 X-19.966 Y31.577 Z-1.781
G1 X-19.909 Y31.509 Z-1.813
G1 X-19.821 Y31.407 Z-1.868
G1 X-19.728 Y31.305 Z-1.934
G1 X-19.632 Y31.203 Z-2.009
G1 X-19.531 Y31.101 Z-2.095
G1 X-19.426 Y30.998 Z-2.189
G1 X-19.317 Y30.895 Z-2.295
G1 X-19.203 Y30.79 Z-2.41
G1 X-19.084 Y30.684 Z-2.535
G1 X-18.96 Y30.576 Z-2.671
G1 X-18.831 Y30.467 Z-2.818
G1 X-18.746 Y30.396 Z-2.917
G1 X-18.558 Y30.241 Z-3.143
G1 X-18.533 Y30.221 Z-3.175
G1 X-18.463 Y30.087
G1 X-18.453 Y30.07
G1 X-18.278 Y29.725
G1 X-18.269 Y29.708
G1 X-18.098 Y29.36
G1 X-18.09 Y29.342
G1 X-17.924 Y28.992
G1 X-17.916 Y28.975
G1 X-17.755 Y28.622
G1 X-17.747 Y28.604
G1 X-17.59 Y28.248
G1 X-17.583 Y28.231
G1 X-17.431 Y27.872
G1 X-17.424 Y27.855
G1 X-17.277 Y27.494
G1 X-17.27 Y27.476
G1 X-17.128 Y27.112
G1 X-17.121 Y27.094
G1 X-16.984 Y26.728
G1 X-16.978 Y26.711
G1 X-16.845 Y26.342
G1 X-16.839 Y26.324
G1 X-16.711 Y25.953
G1 X-16.705 Y25.935
G1 X-16.583 Y25.561
G1 X-16.577 Y25.543
G1 X-16.465 Y25.186
G1 X-16.347 Y24.844
G1 X-16.22 Y24.488
G1 X-16.091 Y24.134
G1 X-15.959 Y23.78
G1 X-15.948 Y23.751
G1 X-15.898 Y23.841
G1 X-15.84 Y23.926
G1 X-15.776 Y24.006
G1 X-15.707 Y24.082
G1 X-15.632 Y24.152
G1 X-15.552 Y24.216
G1 X-15.467 Y24.274
G1 X-15.378 Y24.326
G1 X-15.286 Y24.371
G1 X-15.19 Y24.408
G1 X-15.092 Y24.439
G1 X-14.946 Y24.478
G1 X-14.902 Y24.489
G1 X-14.757 Y24.523
G1 X-14.713 Y24.533
G1 X-14.568 Y24.562
G1 X-14.521 Y24.57
G1 X-14.377 Y24.594
G1 X-14.331 Y24.6
G1 X-14.188 Y24.619
G1 X-14.139 Y24.624
G1 X-13.997 Y24.637
G1 X-13.948 Y24.641
G1 X-13.94
G1 X-13.955 Y24.651
G1 X-13.97 Y24.661
G1 X-14.081 Y24.737
G1 X-14.095 Y24.747
G1 X-14.205 Y24.823
G1 X-14.219 Y24.833
G1 X-14.326 Y24.911
G1 X-14.341 Y24.921
G1 X-14.447 Y25
G1 X-14.462 Y25.011
G1 X-14.566 Y25.09
G1 X-14.58 Y25.101
G1 X-14.683 Y25.181
G1 X-14.697 Y25.193
G1 X-14.798 Y25.274
G1 X-14.813 Y25.286
G1 X-14.912 Y25.368
G1 X-14.926 Y25.38
G1 X-15.023 Y25.462
G1 X-15.038 Y25.475
G1 X-15.133 Y25.559
G1 X-15.148 Y25.572
G1 X-15.242 Y25.656
G1 X-15.257 Y25.67
G1 X-15.348 Y25.755
G1 X-15.362 Y25.768
G1 X-15.453 Y25.855
G1 X-15.467 Y25.869
G1 X-15.555 Y25.956
G1 X-15.571 Y25.971
G1 X-15.657 Y26.059
G1 X-15.671 Y26.073
G1 X-15.756 Y26.162
G1 X-15.771 Y26.178
G1 X-15.854 Y26.267
G1 X-15.868 Y26.283
G1 X-15.949 Y26.373
G1 X-15.963 Y26.389
G1 X-16.043 Y26.481
G1 X-16.057 Y26.497
G1 X-16.135 Y26.589
G1 X-16.149 Y26.606
G1 X-16.225 Y26.699
G1 X-16.238 Y26.716
G1 X-16.313 Y26.81
G1 X-16.347 Y26.855
G1 X-16.379 Y26.902
G1 X-16.45 Y27.008
G1 X-16.486 Y27.065
G1 X-16.55 Y27.173
G1 X-16.585 Y27.236
G1 X-16.643 Y27.346
G1 X-16.674 Y27.408
G1 X-16.726 Y27.521
G1 X-16.754 Y27.587
G1 X-16.8 Y27.702
G1 X-16.825 Y27.769
G1 X-16.865 Y27.886
G1 X-16.886 Y27.955
G1 X-16.92 Y28.074
G1 X-16.938 Y28.144
G1 X-16.965 Y28.265
G1 X-16.979 Y28.333
G1 X-17 Y28.456
G1 X-17.01 Y28.525
G1 X-17.026 Y28.651
G1 X-17.032 Y28.718
G1 X-17.041 Y28.846
G1 X-17.045 Y28.913
G1 X-17.048 Y29.043
G1 Y29.105
G1 X-17.045 Y29.238
G1 X-17.042 Y29.3
G1 X-17.033 Y29.434
G1 X-17.027 Y29.493
G1 X-17.012 Y29.63
G1 X-17.004 Y29.687
G1 X-16.983 Y29.826
G1 X-16.974 Y29.878
G1 X-16.946 Y30.019
G1 X-16.935 Y30.07
G1 X-16.901 Y30.214
G1 X-16.889 Y30.261
G1 X-16.85 Y30.407
G1 X-16.844 Y30.426
G1 X-16.85 Y30.407
G1 X-16.889 Y30.261
G1 X-16.901 Y30.214
G1 X-16.935 Y30.07
G1 X-16.946 Y30.019
G1 X-16.974 Y29.878
G1 X-16.983 Y29.826
G1 X-17.004 Y29.687
G1 X-17.012 Y29.63
G1 X-17.027 Y29.493
G1 X-17.033 Y29.434
G1 X-17.042 Y29.3
G1 X-17.045 Y29.238
G1 X-17.048 Y29.105
G1 Y29.043
G1 X-17.045 Y28.913
G1 X-17.041 Y28.846
G1 X-17.032 Y28.718
G1 X-17.026 Y28.651
G1 X-17.01 Y28.525
G1 X-17 Y28.456
G1 X-16.979 Y28.333
G1 X-16.965 Y28.265
G1 X-16.938 Y28.144
G1 X-16.92 Y28.074
G1 X-16.886 Y27.955
G1 X-16.865 Y27.886
G1 X-16.825 Y27.769
G1 X-16.8 Y27.702
G1 X-16.754 Y27.587
G1 X-16.726 Y27.521
G1 X-16.674 Y27.408
G1 X-16.643 Y27.346
G1 X-16.585 Y27.236
G1 X-16.55 Y27.173
G1 X-16.486 Y27.065
G1 X-16.45 Y27.008
G1 X-16.379 Y26.902
G1 X-16.347 Y26.855
G1 X-16.313 Y26.81
G1 X-16.238 Y26.716
G1 X-16.225 Y26.699
G1 X-16.149 Y26.606
G1 X-16.135 Y26.589
G1 X-16.057 Y26.497
G1 X-16.043 Y26.481
G1 X-15.963 Y26.389
G1 X-15.949 Y26.373
G1 X-15.868 Y26.283
G1 X-15.854 Y26.267
G1 X-15.771 Y26.178
G1 X-15.756 Y26.162
G1 X-15.671 Y26.073
G1 X-15.657 Y26.059
G1 X-15.571 Y25.971
G1 X-15.555 Y25.956
G1 X-15.467 Y25.869
G1 X-15.453 Y25.855
G1 X-15.362 Y25.768
G1 X-15.348 Y25.755
G1 X-15.257 Y25.67
G1 X-15.242 Y25.656
G1 X-15.148 Y25.572
G1 X-15.133 Y25.559
G1 X-15.038 Y25.475
G1 X-15.023 Y25.462
G1 X-14.926 Y25.38
G1 X-14.912 Y25.368
G1 X-14.813 Y25.286
G1 X-14.798 Y25.274
G1 X-14.697 Y25.193
G1 X-14.683 Y25.181
G1 X-14.58 Y25.101
G1 X-14.566 Y25.09
G1 X-14.462 Y25.011
G1 X-14.447 Y25
G1 X-14.341 Y24.921
G1 X-14.326 Y24.911
G1 X-14.219 Y24.833
G1 X-14.205 Y24.823
G1 X-14.095 Y24.747
G1 X-14.081 Y24.737
G1 X-13.97 Y24.661
G1 X-13.955 Y24.651
G1 X-13.94 Y24.641
G1 X-13.754 Y24.591 Z-3.03
G1 X-13.613 Y24.551 Z-2.928
G1 X-13.469 Y24.511 Z-2.836
G1 X-13.382 Y24.486 Z-2.781
G1 X-13.192 Y24.427 Z-2.669
G1 X-13.025 Y24.372 Z-2.575
G1 X-12.852 Y24.31 Z-2.485
G1 X-12.652 Y24.233 Z-2.389
G1 X-12.516 Y24.177 Z-2.329
G1 X-12.352 Y24.106 Z-2.262
G1 X-12.191 Y24.032 Z-2.202
G1 X-12.005 Y23.942 Z-2.142
G1 X-11.876 Y23.876 Z-2.105
G1 X-11.721 Y23.792 Z-2.066
G1 X-11.568 Y23.706 Z-2.034
G1 X-11.391 Y23.601 Z-2.005
G1 X-11.267 Y23.524 Z-1.988
G1 X-11.118 Y23.427 Z-1.974
G1 X-11.011 Y23.355 Z-1.968
G1 X-10.791 Y23.215 Z-1.938
G1 X-10.549 Y23.062 Z-1.897
G1 X-10.43 Y22.99 Z-1.878
G1 X-10.325 Y22.924 Z-1.856
G1 X-10.213 Y22.852 Z-1.826
G1 X-10.1 Y22.778 Z-1.789
G1 X-9.988 Y22.702 Z-1.744
G1 X-9.939 Y22.668 Z-1.722
G1 X-9.849 Y22.604 Z-1.677
G1 X-9.762 Y22.54 Z-1.628
G1 X-9.659 Y22.462 Z-1.561
G1 X-9.552 Y22.378 Z-1.482
G1 X-9.512 Y22.345 Z-1.449
G1 X-9.431 Y22.278 Z-1.379
G1 X-9.341 Y22.2 Z-1.293
G1 X-9.238 Y22.107 Z-1.183
G1 X-9.193 Y22.066 Z-1.132
G1 X-9.114 Y21.99 Z-1.036
G1 X-9.033 Y21.91 Z-0.929
G1 X-8.933 Y21.806 Z-0.784
G1 X-8.833 Y21.699 Z-0.627
G1 X-8.79 Y21.652 Z-0.557
G1 X-8.706 Y21.556 Z-0.409
G1 X-8.619 Y21.454 Z-0.248
G1 X-8.529 Y21.346 Z-0.072
G1 X-8.495 Y21.303 Z0
G1 X-8.529 Y21.346 Z-0.072
G1 X-8.619 Y21.454 Z-0.248
G1 X-8.706 Y21.556 Z-0.409
G1 X-8.79 Y21.652 Z-0.557
G1 X-8.833 Y21.699 Z-0.627
G1 X-8.933 Y21.806 Z-0.784
G1 X-9.033 Y21.91 Z-0.929
G1 X-9.114 Y21.99 Z-1.036
G1 X-9.193 Y22.066 Z-1.132
G1 X-9.238 Y22.107 Z-1.183
G1 X-9.341 Y22.2 Z-1.293
G1 X-9.431 Y22.278 Z-1.379
G1 X-9.512 Y22.345 Z-1.449
G1 X-9.552 Y22.378 Z-1.482
G1 X-9.659 Y22.462 Z-1.561
G1 X-9.762 Y22.54 Z-1.628
G1 X-9.849 Y22.604 Z-1.677
G1 X-9.939 Y22.668 Z-1.722
G1 X-9.988 Y22.702 Z-1.744
G1 X-10.1 Y22.778 Z-1.789
G1 X-10.213 Y22.852 Z-1.826
G1 X-10.325 Y22.924 Z-1.856
G1 X-10.43 Y22.99 Z-1.878
G1 X-10.549 Y23.062 Z-1.897
G1 X-10.791 Y23.215 Z-1.938
G1 X-11.011 Y23.355 Z-1.968
G1 X-11.118 Y23.427 Z-1.974
G1 X-11.267 Y23.524 Z-1.988
G1 X-11.391 Y23.601 Z-2.005
G1 X-11.568 Y23.706 Z-2.034
G1 X-11.721 Y23.792 Z-2.066
G1 X-11.876 Y23.876 Z-2.105
G1 X-12.005 Y23.942 Z-2.142
G1 X-12.191 Y24.032 Z-2.202
G1 X-12.352 Y24.106 Z-2.262
G1 X-12.516 Y24.177 Z-2.329
G1 X-12.652 Y24.233 Z-2.389
G1 X-12.852 Y24.31 Z-2.485
G1 X-13.025 Y24.372 Z-2.575
G1 X-13.192 Y24.427 Z-2.669
G1 X-13.382 Y24.486 Z-2.781
G1 X-13.469 Y24.511 Z-2.836
G1 X-13.613 Y24.551 Z-2.928
G1 X-13.754 Y24.591 Z-3.03
G1 X-13.94 Y24.641 Z-3.175
G1 X-13.948
G1 X-13.997 Y24.637
G1 X-14.139 Y24.624
G1 X-14.188 Y24.619
G1 X-14.331 Y24.6
G1 X-14.377 Y24.594
G1 X-14.521 Y24.57
G1 X-14.568 Y24.562
G1 X-14.713 Y24.533
G1 X-14.757 Y24.523
G1 X-14.902 Y24.489
G1 X-14.946 Y24.478
G1 X-15.092 Y24.439
G1 X-15.19 Y24.408
G1 X-15.286 Y24.371
G1 X-15.378 Y24.326
G1 X-15.467 Y24.274
G1 X-15.552 Y24.216
G1 X-15.632 Y24.152
G1 X-15.707 Y24.082
G1 X-15.776 Y24.006
G1 X-15.84 Y23.926
G1 X-15.898 Y23.841
G1 X-15.948 Y23.751
G1 X-15.953 Y23.626 Z-3.057
G1 X-15.952 Y23.503 Z-2.953
G1 X-15.946 Y23.382 Z-2.863
G1 X-15.931 Y23.246 Z-2.776
G1 X-15.91 Y23.112 Z-2.708
G1 X-15.854 Y22.83 Z-2.583
G1 X-15.794 Y22.552 Z-2.468
G1 X-15.73 Y22.278 Z-2.361
G1 X-15.662 Y22.007 Z-2.263
G1 X-15.59 Y21.74 Z-2.173
G1 X-15.513 Y21.476 Z-2.092
G1 X-15.437 Y21.227 Z-2.022
G1 X-15.391 Y21.085 Z-1.985
G1 X-15.305 Y20.829 Z-1.925
G1 X-15.214 Y20.574 Z-1.872
G1 X-15.12 Y20.322 Z-1.828
G1 X-15.021 Y20.073 Z-1.791
G1 X-14.962 Y19.93 Z-1.774
G1 X-14.774 Y19.504 Z-1.742
G1 X-14.58 Y19.079 Z-1.713
G1 X-14.399 Y18.693 Z-1.689
G1 X-14.278 Y18.441 Z-1.674
G1 X-14.122 Y18.122 Z-1.656
G1 X-13.908 Y17.697 Z-1.635
G1 X-13.735 Y17.361 Z-1.62
G1 X-13.72 Y17.335 Z-1.621
G1 X-13.671 Y17.254 Z-1.632
G1 X-13.616 Y17.176 Z-1.659
G1 X-13.555 Y17.101 Z-1.7
G1 X-13.489 Y17.029 Z-1.757
G1 X-13.411 Y16.955 Z-1.834
G1 X-13.326 Y16.884 Z-1.929
G1 X-13.235 Y16.817 Z-2.042
G1 X-13.175 Y16.837 Z-1.976
G1 X-13.12 Y16.855 Z-1.925
G1 X-13.069 Y16.872 Z-1.884
G1 X-13.021 Y16.888 Z-1.853
G1 X-12.976 Y16.903 Z-1.831
G1 X-12.932 Y16.918 Z-1.815
G1 X-12.889 Y16.932 Z-1.806
G1 X-12.848 Y16.946 Z-1.803
G1 X-12.812 Y16.958 Z-1.805
G1 X-12.768 Y16.973 Z-1.814
G1 X-12.713 Y16.951 Z-1.738
G1 X-12.649 Y16.924 Z-1.656
G1 X-12.578 Y16.89 Z-1.57
G1 X-12.52 Y16.86 Z-1.506
G1 X-12.456 Y16.822 Z-1.441
G1 X-12.404 Y16.788 Z-1.395
G1 X-12.347 Y16.747 Z-1.351
G1 X-12.248 Y16.669 Z-1.289
G1 X-12.095 Y16.55 Z-1.201
G1 X-11.947 Y16.436 Z-1.123
G1 X-11.845 Y16.359 Z-1.073
G1 X-11.724 Y16.268 Z-1.02
G1 X-11.58 Y16.161 Z-0.962
G1 X-11.508 Y16.109 Z-0.937
G1 X-11.368 Y16.008 Z-0.892
G1 X-11.34 Y15.988 Z-0.885
G1 X-11.087 Y15.814 Z-0.836
G1 X-10.857 Y15.65 Z-0.794
G1 X-10.642 Y15.492 Z-0.756
G1 X-10.518 Y15.406 Z-0.721
G1 X-10.376 Y15.31 Z-0.674
G1 X-10.248 Y15.225 Z-0.627
G1 X-10.111 Y15.135 Z-0.571
G1 X-9.972 Y15.045 Z-0.509
G1 X-9.832 Y14.956 Z-0.44
G1 X-9.674 Y14.859 Z-0.356
G1 X-9.545 Y14.779 Z-0.282
G1 X-9.365 Y14.671 Z-0.171
G1 X-9.248 Y14.603 Z-0.095
G1 X-9.11 Y14.522 Z0
G1 X-9.248 Y14.603 Z-0.095
G1 X-9.365 Y14.671 Z-0.171
G1 X-9.545 Y14.779 Z-0.282
G1 X-9.674 Y14.859 Z-0.356
G1 X-9.832 Y14.956 Z-0.44
G1 X-9.972 Y15.045 Z-0.509
G1 X-10.111 Y15.135 Z-0.571
G1 X-10.248 Y15.225 Z-0.627
G1 X-10.376 Y15.31 Z-0.674
G1 X-10.518 Y15.406 Z-0.721
G1 X-10.642 Y15.492 Z-0.756
G1 X-10.857 Y15.65 Z-0.794
G1 X-11.087 Y15.814 Z-0.836
G1 X-11.34 Y15.988 Z-0.885
G1 X-11.368 Y16.008 Z-0.892
G1 X-11.508 Y16.109 Z-0.937
G1 X-11.58 Y16.161 Z-0.962
G1 X-11.724 Y16.268 Z-1.02
G1 X-11.845 Y16.359 Z-1.073
G1 X-11.947 Y16.436 Z-1.123
G1 X-12.095 Y16.55 Z-1.201
G1 X-12.248 Y16.669 Z-1.289
G1 X-12.347 Y16.747 Z-1.351
G1 X-12.404 Y16.788 Z-1.395
G1 X-12.456 Y16.822 Z-1.441
G1 X-12.52 Y16.86 Z-1.506
G1 X-12.578 Y16.89 Z-1.57
G1 X-12.649 Y16.924 Z-1.656
G1 X-12.713 Y16.951 Z-1.738
G1 X-12.768 Y16.973 Z-1.814
G1 X-12.737 Y17.11 Z-1.556
G1 X-12.721 Y17.196 Z-1.404
G1 X-12.71 Y17.29 Z-1.248
G1 X-12.704 Y17.369 Z-1.127
G1 X-12.703 Y17.453 Z-1.01
G1 X-12.71 Y17.568 Z-0.868
G1 X-12.718 Y17.684 Z-0.73
G1 X-12.732 Y17.846 Z-0.545
G1 X-12.747 Y17.992 Z-0.389
G1 X-12.759 Y18.089 Z-0.289
G1 X-12.776 Y18.218 Z-0.166
G1 X-12.792 Y18.316 Z-0.079
G1 X-12.809 Y18.412 Z0
G1 X-12.792 Y18.316 Z-0.079
G1 X-12.776 Y18.218 Z-0.166
G1 X-12.759 Y18.089 Z-0.289
G1 X-12.747 Y17.992 Z-0.389
G1 X-12.732 Y17.846 Z-0.545
G1 X-12.718 Y17.684 Z-0.73
G1 X-12.71 Y17.568 Z-0.868
G1 X-12.703 Y17.453 Z-1.01
G1 X-12.704 Y17.369 Z-1.127
G1 X-12.71 Y17.29 Z-1.248
G1 X-12.721 Y17.196 Z-1.404
G1 X-12.737 Y17.11 Z-1.556
G1 X-12.768 Y16.973 Z-1.814
G1 X-12.812 Y16.958 Z-1.805
G1 X-12.848 Y16.946 Z-1.803
G1 X-12.889 Y16.932 Z-1.806
G1 X-12.932 Y16.918 Z-1.815
G1 X-12.976 Y16.903 Z-1.831
G1 X-13.021 Y16.888 Z-1.853
G1 X-13.069 Y16.872 Z-1.884
G1 X-13.12 Y16.855 Z-1.925
G1 X-13.175 Y16.837 Z-1.976
G1 X-13.235 Y16.817 Z-2.042
G1 X-13.246 Y16.726 Z-1.914
G1 X-13.253 Y16.616 Z-1.77
G1 Y16.511 Z-1.646
G1 X-13.247 Y16.41 Z-1.539
G1 X-13.235 Y16.312 Z-1.45
G1 X-13.216 Y16.217 Z-1.379
G1 X-13.191 Y16.126 Z-1.325
G1 X-13.16 Y16.039 Z-1.289
G1 X-13.122 Y15.955 Z-1.271
G1 X-13.03 Y15.782 Z-1.263
G1 X-12.944 Y15.626
G1 X-12.856 Y15.473 Z-1.269
G1 X-12.768 Y15.323 Z-1.281
G1 X-12.677 Y15.175 Z-1.3
G1 X-12.585 Y15.029 Z-1.325
G1 X-12.491 Y14.884 Z-1.356
G1 X-12.394 Y14.742 Z-1.394
G1 X-12.296 Y14.6 Z-1.439
G1 X-12.195 Y14.46 Z-1.491
G1 X-12.091 Y14.322 Z-1.55
G1 X-11.985 Y14.184 Z-1.616
G1 X-11.875 Y14.047 Z-1.69
G1 X-11.762 Y13.911 Z-1.772
G1 X-11.646 Y13.775 Z-1.862
G1 X-11.527 Y13.639 Z-1.96
G1 X-11.432 Y13.535 Z-2.041
G1 X-11.276 Y13.369 Z-2.182
G1 X-11.144 Y13.234 Z-2.307
G1 X-11.008 Y13.099 Z-2.44
G1 X-10.896 Y12.992 Z-2.554
G1 X-10.721 Y12.827 Z-2.74
G1 X-10.57 Y12.691 Z-2.904
G1 X-10.415 Y12.555 Z-3.079
G1 X-10.332 Y12.484 Z-3.175
G1 X-10.323 Y12.468
G1 X-10.321 Y12.465
G1 X-9.977 Y11.821
G1 X-9.976 Y11.818
G1 X-9.758 Y11.408
G1 X-9.738 Y11.441
G1 X-9.734 Y11.447
G1 X-9.677 Y11.538
G1 X-9.673 Y11.545
G1 X-9.616 Y11.635
G1 X-9.612 Y11.641
G1 X-9.554 Y11.73
G1 X-9.55 Y11.737
G1 X-9.492 Y11.826
G1 X-9.488 Y11.833
G1 X-9.429 Y11.921
G1 X-9.425 Y11.928
G1 X-9.366 Y12.016
G1 X-9.362 Y12.022
G1 X-9.303 Y12.11
G1 X-9.298 Y12.117
G1 X-9.238 Y12.204
G1 X-9.234 Y12.211
G1 X-9.218 Y12.233
G1 X-9.011 Y12.33 Z-2.899
G1 X-8.841 Y12.413 Z-2.68
G1 X-8.676 Y12.496 Z-2.477
G1 X-8.566 Y12.553 Z-2.344
G1 X-8.423 Y12.629 Z-2.176
G1 X-8.25 Y12.727 Z-1.976
G1 X-8.085 Y12.83 Z-1.783
G1 X-7.926 Y12.935 Z-1.597
G1 X-7.769 Y13.049 Z-1.411
G1 X-7.604 Y13.177 Z-1.214
G1 X-7.442 Y13.314 Z-1.018
G1 X-7.357 Y13.389 Z-0.914
G1 X-7.205 Y13.533 Z-0.728
G1 X-7.052 Y13.69 Z-0.537
G1 X-6.976 Y13.771 Z-0.441
G1 X-6.829 Y13.94 Z-0.253
G1 X-6.757 Y14.027 Z-0.159
G1 X-6.637 Y14.18 Z0
G1 X-6.757 Y14.027 Z-0.159
G1 X-6.829 Y13.94 Z-0.253
G1 X-6.976 Y13.771 Z-0.441
G1 X-7.052 Y13.69 Z-0.537
G1 X-7.205 Y13.533 Z-0.728
G1 X-7.357 Y13.389 Z-0.914
G1 X-7.442 Y13.314 Z-1.018
G1 X-7.604 Y13.177 Z-1.214
G1 X-7.769 Y13.049 Z-1.411
G1 X-7.926 Y12.935 Z-1.597
G1 X-8.085 Y12.83 Z-1.783
G1 X-8.25 Y12.727 Z-1.976
G1 X-8.423 Y12.629 Z-2.176
G1 X-8.566 Y12.553 Z-2.344
G1 X-8.676 Y12.496 Z-2.477
G1 X-8.841 Y12.413 Z-2.68
G1 X-9.011 Y12.33 Z-2.899
G1 X-9.218 Y12.233 Z-3.175
G1 X-9.251 Y12.237
G1 X-9.396 Y12.256
G1 X-9.451 Y12.264
G1 X-9.596 Y12.289
G1 X-9.65 Y12.3
G1 X-9.796 Y12.331
G1 X-9.848 Y12.343
G1 X-9.994 Y12.38
G1 X-10.044 Y12.394
G1 X-10.19 Y12.437
G1 X-10.238 Y12.453
G1 X-10.332 Y12.484
G1 X-10.238 Y12.453
G1 X-10.19 Y12.437
G1 X-10.044 Y12.394
G1 X-9.994 Y12.38
G1 X-9.848 Y12.343
G1 X-9.796 Y12.331
G1 X-9.65 Y12.3
G1 X-9.596 Y12.289
G1 X-9.451 Y12.264
G1 X-9.396 Y12.256
G1 X-9.251 Y12.237
G1 X-9.218 Y12.233
G1 X-9.234 Y12.211
G1 X-9.238 Y12.204
G1 X-9.298 Y12.117
G1 X-9.303 Y12.11
G1 X-9.362 Y12.022
G1 X-9.366 Y12.016
G1 X-9.425 Y11.928
G1 X-9.429 Y11.921
G1 X-9.488 Y11.833
G1 X-9.492 Y11.826
G1 X-9.55 Y11.737
G1 X-9.554 Y11.73
G1 X-9.612 Y11.641
G1 X-9.616 Y11.635
G1 X-9.673 Y11.545
G1 X-9.677 Y11.538
G1 X-9.734 Y11.447
G1 X-9.738 Y11.441
G1 X-9.758 Y11.408
G1 X-9.767 Y11.103 Z-2.809
G1 X-9.778 Y10.676 Z-2.307
G1 X-9.783 Y10.29 Z-1.859
G1 X-9.78 Y10.159 Z-1.719
G1 X-9.771 Y10.057 Z-1.624
G1 X-9.755 Y9.958 Z-1.547
G1 X-9.733 Y9.862 Z-1.487
G1 X-9.704 Y9.77 Z-1.444
G1 X-9.67 Y9.681 Z-1.418
G1 X-9.629 Y9.595 Z-1.41
G1 X-9.598 Y9.539 Z-1.414
G1 X-9.543 Y9.454 Z-1.436
G1 X-9.482 Y9.374 Z-1.477
G1 X-9.414 Y9.297 Z-1.536
G1 X-9.34 Y9.224 Z-1.614
G1 X-9.258 Y9.155 Z-1.711
G1 X-9.17 Y9.089 Z-1.827
G1 X-9.075 Y9.027 Z-1.961
G1 X-9.041 Y9.006 Z-2.011
G1 X-8.926 Y8.934 Z-2.175
G1 X-8.834 Y8.872 Z-2.304
G1 X-8.752 Y8.813 Z-2.414
G1 X-8.679 Y8.757 Z-2.509
G1 X-8.614 Y8.704 Z-2.59
G1 X-8.554 Y8.653 Z-2.66
G1 X-8.406 Y8.514 Z-2.823
G1 X-8.316 Y8.434 Z-2.929
G1 X-8.223 Y8.359 Z-3.045
G1 X-8.125 Y8.286 Z-3.175
G1 X-8.026 Y8.276
G1 X-7.927 Y8.272
G1 X-7.827 Y8.277
G1 X-7.729 Y8.288
G1 X-7.631 Y8.306
G1 X-7.535 Y8.332
G1 X-7.441 Y8.364
G1 X-7.35 Y8.403
G1 X-7.262 Y8.449
G1 X-7.177 Y8.501
G1 X-7.097 Y8.559
G1 X-7.02 Y8.623
G1 X-6.949 Y8.692
G1 X-6.883 Y8.766
G1 X-6.831 Y8.829
G1 X-6.827 Y8.833
G1 X-6.775 Y8.896
G1 X-6.771 Y8.901
G1 X-6.72 Y8.964
G1 X-6.717 Y8.968
G1 X-6.666 Y9.031
G1 X-6.662 Y9.035
G1 X-6.611 Y9.098
G1 X-6.608 Y9.103
G1 X-6.558 Y9.166
G1 X-6.554 Y9.171
G1 X-6.504 Y9.234
G1 X-6.501 Y9.238
G1 X-6.452 Y9.301
G1 X-6.448 Y9.306
G1 X-6.399 Y9.369
G1 X-6.396 Y9.373
G1 X-6.347 Y9.436
G1 X-6.344 Y9.441
G1 X-6.296 Y9.504
G1 X-6.292 Y9.509
G1 X-6.245 Y9.572
G1 X-6.241 Y9.577
G1 X-6.194 Y9.64
G1 X-6.19 Y9.645
G1 X-6.144 Y9.708
G1 X-6.14 Y9.713
G1 X-6.094 Y9.776
G1 X-6.09 Y9.781
G1 X-6.044 Y9.844
G1 X-6.041 Y9.849
G1 X-5.996 Y9.912
G1 X-5.992 Y9.917
G1 X-5.947 Y9.98
G1 X-5.943 Y9.985
G1 X-5.899 Y10.048
G1 X-5.895 Y10.053
G1 X-5.851 Y10.116
G1 X-5.848 Y10.121
G1 X-5.804 Y10.184
G1 X-5.8 Y10.191
G1 X-5.757 Y10.254
G1 X-5.754 Y10.258
G1 X-5.711 Y10.321
G1 X-5.707 Y10.327
G1 X-5.665 Y10.39
G1 X-5.661 Y10.397
G1 X-5.619 Y10.46
G1 X-5.613 Y10.469
G1 X-5.572 Y10.533
G1 X-5.565 Y10.542
G1 X-5.524 Y10.606
G1 X-5.518 Y10.616
G1 X-5.478 Y10.68
G1 X-5.472 Y10.689
G1 X-5.432 Y10.754
G1 X-5.427 Y10.763
G1 X-5.387 Y10.829
G1 X-5.382 Y10.837
G1 X-5.356 Y10.882
G1 X-5.351 Y11.01 Z-3.029
G1 X-5.344 Y11.106 Z-2.929
G1 X-5.334 Y11.201 Z-2.837
G1 X-5.321 Y11.292 Z-2.756
G1 X-5.306 Y11.382 Z-2.684
G1 X-5.288 Y11.471 Z-2.622
G1 X-5.27 Y11.544 Z-2.577
G1 X-5.292 Y11.579 Z-2.493
G1 X-5.371 Y11.716 Z-2.171
G1 X-5.439 Y11.846 Z-1.884
G1 X-5.496 Y11.966 Z-1.632
G1 X-5.552 Y12.11 Z-1.357
G1 X-5.584 Y12.193 Z-1.202
G1 X-5.617 Y12.269 Z-1.052
G1 X-5.668 Y12.37 Z-0.839
G1 X-5.737 Y12.497 Z-0.559
G1 X-5.805 Y12.611 Z-0.298
G1 X-5.884 Y12.737 Z-0.001
G1 X-5.805 Y12.611 Z-0.298
G1 X-5.737 Y12.497 Z-0.559
G1 X-5.668 Y12.37 Z-0.839
G1 X-5.617 Y12.269 Z-1.052
G1 X-5.584 Y12.193 Z-1.202
G1 X-5.552 Y12.11 Z-1.357
G1 X-5.496 Y11.966 Z-1.632
G1 X-5.439 Y11.846 Z-1.884
G1 X-5.371 Y11.716 Z-2.171
G1 X-5.292 Y11.579 Z-2.493
G1 X-5.27 Y11.544 Z-2.577
G1 X-5.178 Y11.632 Z-2.366
G1 X-5.086 Y11.711 Z-2.174
G1 X-4.993 Y11.784 Z-1.999
G1 X-4.901 Y11.848 Z-1.843
G1 X-4.808 Y11.905 Z-1.705
G1 X-4.716 Y11.955 Z-1.586
G1 X-4.624 Y11.997 Z-1.484
G1 X-4.531 Y12.032 Z-1.4
G1 X-4.501 Y12.042 Z-1.378
G1 X-4.473 Y12.051 Z-1.36
G1 X-4.424 Y12.067 Z-1.338
G1 X-4.382 Y12.081 Z-1.326
G1 X-4.342 Y12.095 Z-1.322
G1 X-4.317 Y12.103 Z-1.324
G1 X-4.271 Y12.118 Z-1.334
G1 X-4.208 Y12.139 Z-1.362
G1 X-4.17 Y12.152 Z-1.387
G1 X-4.134 Y12.164 Z-1.416
G1 X-4.1 Y12.175 Z-1.449
G1 X-4.067 Y12.186 Z-1.484
G1 X-3.966 Y12.222 Z-1.609
G1 X-3.896 Y12.25 Z-1.706
G1 X-3.794 Y12.297 Z-1.865
G1 X-3.606 Y12.388 Z-2.174
G1 X-3.411 Y12.48 Z-2.501
G1 X-3.242 Y12.558 Z-2.79
G1 X-3.181 Y12.585 Z-2.895
G1 X-3.021 Y12.657 Z-3.175
G1 X-3.007 Y12.687
G1 X-3.002 Y12.699
G1 X-2.934 Y12.85
G1 X-2.929 Y12.862
G1 X-2.863 Y13.014
G1 X-2.858 Y13.025
G1 X-2.793 Y13.178
G1 X-2.788 Y13.189
G1 X-2.724 Y13.343
G1 X-2.719 Y13.355
G1 X-2.657 Y13.509
G1 X-2.652 Y13.521
G1 X-2.591 Y13.676
G1 X-2.587 Y13.688
G1 X-2.527 Y13.844
G1 X-2.522 Y13.856
G1 X-2.464 Y14.013
G1 X-2.46 Y14.025
G1 X-2.403 Y14.183
G1 X-2.398 Y14.194
G1 X-2.343 Y14.353
G1 X-2.339 Y14.365
G1 X-2.284 Y14.525
G1 X-2.28 Y14.536
G1 X-2.227 Y14.697
G1 X-2.223 Y14.709
G1 X-2.171 Y14.87
G1 X-2.168 Y14.882
G1 X-2.117 Y15.044
G1 X-2.114 Y15.056
G1 X-2.064 Y15.219
G1 X-2.061 Y15.23
G1 X-2.013 Y15.394
G1 X-2.01 Y15.406
G1 X-1.963 Y15.571
G1 X-1.96 Y15.582
G1 X-1.915 Y15.748
G1 X-1.912 Y15.76
G1 X-1.868 Y15.926
G1 X-1.865 Y15.938
G1 X-1.822 Y16.105
G1 X-1.814 Y16.137
G1 X-1.774 Y16.315
G1 X-1.77 Y16.33
G1 X-1.732 Y16.508
G1 X-1.728 Y16.523
G1 X-1.718 Y16.571
G1 X-1.732 Y16.724 Z-3.069
G1 X-1.739 Y16.821 Z-3.008
G1 X-1.758 Y17.136 Z-2.825
G1 X-1.783 Y17.45 Z-2.64
G1 X-1.809 Y17.713 Z-2.485
G1 X-1.841 Y17.984 Z-2.324
G1 X-1.883 Y18.289 Z-2.141
G1 X-1.92 Y18.529 Z-1.998
G1 X-1.978 Y18.862 Z-1.797
G1 X-2.048 Y19.218 Z-1.584
G1 X-2.093 Y19.428 Z-1.458
G1 X-2.107 Y19.499 Z-1.421
G1 X-2.117 Y19.579 Z-1.391
G1 X-2.123 Y19.651 Z-1.375
G1 X-2.124 Y19.749 Z-1.371
G1 Y19.757
G1 X-2.118 Y19.842 Z-1.385
G1 X-2.106 Y19.935 Z-1.417
G1 X-2.089 Y20.021 Z-1.462
G1 X-2.063 Y20.115 Z-1.528
G1 X-2.034 Y20.2 Z-1.603
G1 X-1.995 Y20.296 Z-1.705
G1 X-1.954 Y20.382 Z-1.812
G1 X-1.901 Y20.48 Z-1.95
G1 X-1.856 Y20.555 Z-2.069
G1 X-1.807 Y20.631 Z-2.198
G1 X-1.748 Y20.708 Z-2.34
G1 X-1.672 Y20.803 Z-2.527
G1 X-1.593 Y20.893 Z-2.723
G1 X-1.488 Y21.003 Z-2.982
G1 X-1.411 Y21.08 Z-3.175
G1 X-1.313 Y21.069
G1 X-1.149 Y21.046
G1 X-1.096 Y21.037
G1 X-0.939 Y21.008
G1 X-0.883 Y20.997
G1 X-0.733 Y20.963
G1 X-0.673 Y20.948
G1 X-0.529 Y20.909
G1 X-0.467 Y20.89
G1 X-0.33 Y20.845
G1 X-0.264 Y20.821
G1 X-0.134 Y20.772
G1 X-0.065 Y20.743
G1 X-0.019 Y20.722
G1 X0.09 Y20.576 Z-2.968
G1 X0.221 Y20.388 Z-2.718
G1 X0.341 Y20.203 Z-2.488
G1 X0.448 Y20.02 Z-2.281
G1 X0.543 Y19.842 Z-2.096
G1 X0.628 Y19.666 Z-1.931
G1 X0.702 Y19.495 Z-1.785
G1 X0.767 Y19.325 Z-1.656
G1 X0.822 Y19.159 Z-1.545
G1 X0.862 Y19.028 Z-1.469
G1 X0.871 Y18.996 Z-1.453
G1 X0.915 Y18.835 Z-1.382
G1 X0.953 Y18.675 Z-1.325
G1 X0.984 Y18.515 Z-1.28
G1 X1.01 Y18.354 Z-1.247
G1 X1.031 Y18.18 Z-1.224
G1 X1.046 Y18.027 Z-1.212
G1 X1.056 Y17.86 Z-1.209
G1 X1.061 Y17.729 Z-1.213
G1 X1.083 Y17.327 Z-1.2
G1 X1.098 Y16.919 Z-1.188
G1 X1.106 Y16.518 Z-1.177
G1 Y16.125 Z-1.168
G1 X1.099 Y15.74 Z-1.16
G1 X1.084 Y15.36 Z-1.155
G1 X1.063 Y14.993 Z-1.152
G1 X1.044 Y14.748 Z-1.151
G1 X1.031 Y14.602 Z-1.152
G1 X1.022 Y14.541 Z-1.16
G1 X1.009 Y14.48 Z-1.177
G1 X0.992 Y14.419 Z-1.202
G1 X0.971 Y14.358 Z-1.236
G1 X0.947 Y14.298 Z-1.279
G1 X0.911 Y14.239 Z-1.317
G1 X0.871 Y14.181 Z-1.364
G1 X0.828 Y14.125 Z-1.42
G1 X0.782 Y14.071 Z-1.485
G1 X0.731 Y14.019 Z-1.559
G1 X0.649 Y13.942 Z-1.688
G1 X0.558 Y13.868 Z-1.838
G1 X0.459 Y13.797 Z-2.008
G1 X0.352 Y13.729 Z-2.2
G1 X0.237 Y13.664 Z-2.413
G1 X0.113 Y13.602 Z-2.646
G1 X-0.018 Y13.543 Z-2.9
G1 X-0.158 Y13.487 Z-3.175
G1 X-0.246 Y13.541
G1 X-0.33 Y13.601
G1 X-0.409 Y13.667
G1 X-0.482 Y13.739
G1 X-0.55 Y13.817
G1 X-0.612 Y13.899
G1 X-0.668 Y13.986
G1 X-0.716 Y14.077
G1 X-0.758 Y14.171
G1 X-1.718 Y16.571
G1 X-0.758 Y14.171
G1 X-0.716 Y14.077
G1 X-0.668 Y13.986
G1 X-0.612 Y13.899
G1 X-0.55 Y13.817
G1 X-0.482 Y13.739
G1 X-0.409 Y13.667
G1 X-0.33 Y13.601
G1 X-0.246 Y13.541
G1 X-0.158 Y13.487
G1 X-0.223 Y13.301
G1 X-0.288 Y13.115
G1 X-0.354 Y12.928
G1 X-0.421 Y12.742
G1 X-0.487 Y12.556
G1 X-0.554 Y12.369
G1 X-0.622 Y12.183
G1 X-0.69 Y11.996
G1 X-0.758 Y11.81
G1 X-0.827 Y11.624
G1 X-0.896 Y11.437
G1 X-0.96 Y11.267
G1 X-0.97 Y11.282
G1 X-1.006 Y11.327
G1 X-1.063 Y11.398
G1 X-1.1 Y11.441
G1 X-1.16 Y11.509
G1 X-1.197 Y11.549
G1 X-1.26 Y11.615
G1 X-1.3 Y11.655
G1 X-1.367 Y11.719
G1 X-1.406 Y11.755
G1 X-1.475 Y11.817
G1 X-1.516 Y11.851
G1 X-1.589 Y11.911
G1 X-1.63 Y11.943
G1 X-1.705 Y12
G1 X-1.747 Y12.03
G1 X-1.825 Y12.085
G1 X-1.867 Y12.113
G1 X-1.949 Y12.166
G1 X-1.989 Y12.191
G1 X-2.073 Y12.242
G1 X-2.115 Y12.266
G1 X-2.203 Y12.314
G1 X-2.242 Y12.335
G1 X-2.333 Y12.381
G1 X-2.374 Y12.401
G1 X-2.468 Y12.445
G1 X-2.506 Y12.462
G1 X-2.602 Y12.504
G1 X-2.64 Y12.519
G1 X-2.74 Y12.559
G1 X-2.777 Y12.573
G1 X-2.88 Y12.61
G1 X-2.916 Y12.623
G1 X-3.021 Y12.657
G1 X-2.916 Y12.623
G1 X-2.88 Y12.61
G1 X-2.777 Y12.573
G1 X-2.74 Y12.559
G1 X-2.64 Y12.519
G1 X-2.602 Y12.504
G1 X-2.506 Y12.462
G1 X-2.468 Y12.445
G1 X-2.374 Y12.401
G1 X-2.333 Y12.381
G1 X-2.242 Y12.335
G1 X-2.203 Y12.314
G1 X-2.115 Y12.266
G1 X-2.073 Y12.242
G1 X-1.989 Y12.191
G1 X-1.949 Y12.166
G1 X-1.867 Y12.113
G1 X-1.825 Y12.085
G1 X-1.747 Y12.03
G1 X-1.705 Y12
G1 X-1.63 Y11.943
G1 X-1.589 Y11.911
G1 X-1.516 Y11.851
G1 X-1.475 Y11.817
G1 X-1.406 Y11.755
G1 X-1.367 Y11.719
G1 X-1.3 Y11.655
G1 X-1.26 Y11.615
G1 X-1.197 Y11.549
G1 X-1.16 Y11.509
G1 X-1.1 Y11.441
G1 X-1.063 Y11.398
G1 X-1.006 Y11.327
G1 X-0.97 Y11.282
G1 X-0.96 Y11.267
G1 X-0.957 Y11.248 Z-3.152
G1 X-0.929 Y11.034 Z-2.908
G1 X-0.913 Y10.894 Z-2.752
G1 X-0.904 Y10.801 Z-2.653
G1 X-0.889 Y10.622 Z-2.465
G1 X-0.881 Y10.49 Z-2.332
G1 X-0.874 Y10.361 Z-2.206
G1 X-0.87 Y10.233 Z-2.084
G1 X-0.868 Y10.144 Z-2.002
G1 X-0.866 Y9.984 Z-1.859
G1 Y9.881 Z-1.772
G1 X-0.865 Y9.743 Z-1.666
G1 Y9.671 Z-1.613
G1 X-0.867 Y9.508 Z-1.499
G1 X-0.869 Y9.454 Z-1.464
G1 X-0.874 Y9.277 Z-1.353
G1 X-0.876 Y9.24 Z-1.331
G1 X-0.885 Y9.049 Z-1.225
G1 X-0.887 Y9.021 Z-1.211
G1 X-0.9 Y8.823 Z-1.115
G1 X-0.909 Y8.71 Z-1.066
G1 X-0.918 Y8.608 Z-1.025
G1 X-0.93 Y8.483 Z-0.979
G1 X-0.939 Y8.401 Z-0.952
G1 X-0.953 Y8.273 Z-0.913
G1 X-0.959 Y8.189 Z-0.88
G1 X-0.975 Y7.986 Z-0.808
G1 X-0.986 Y7.847 Z-0.765
G1 X-0.996 Y7.735 Z-0.734
G1 X-1.012 Y7.572 Z-0.694
G1 X-1.03 Y7.403 Z-0.659
G1 X-1.042 Y7.293 Z-0.641
G1 X-1.056 Y7.178 Z-0.624
G1 X-1.083 Y6.964 Z-0.603
G1 X-1.112 Y6.749 Z-0.593
G1 X-1.128 Y6.635 Z-0.592
G1 X-1.144 Y6.525 Z-0.594
G1 X-1.174 Y6.337 Z-0.605
G1 X-1.197 Y6.194 Z-0.619
G1 X-1.209 Y6.127 Z-0.628
G1 X-1.236 Y5.966 Z-0.652
G1 X-1.277 Y5.747 Z-0.695
G1 X-1.295 Y5.648 Z-0.718
G1 X-1.316 Y5.506 Z-0.738
G1 X-1.346 Y5.296 Z-0.773
G1 X-1.377 Y5.084 Z-0.813
G1 X-1.408 Y4.872 Z-0.86
