;Fusion 360 CAM 2.0.7438
; Posts processor: DIYCNC_Marlin20.cps
; Gcode generated: Mon Feb 24 13:19:13 2020 GMT
; Document: AR WeddingPlaque halfsize
; Setup: Setup1
; 
; Ranges table:
; X: Min=-116.793 Max=79.138 Size=195.931
; Y: Min=-53.293 Max=27.968 Size=81.262
; Z: Min=-3 Max=5 Size=8
; 
; Tools table:
; T1 D=3.175 CR=0 - ZMIN=-2.675 - flat end mill 
; T3 D=3.175 CR=0 TAPER=22.5deg - ZMIN=-3 - chamfer mill 

; *** START begin ***
G90
G21
M84 S0
G92 X0 Y0 Z5
; *** START end ***

; *** SECTION begin ***
;2D Pocket1 - Milling - Tool: 1 -  flat end mill
; X Min: -116.793 - X Max: 116.778
; Y Min: -53.293 - Y Max: 53.285
; Z Min: -2.675 - Z Max: 5
; COMMAND_START_SPINDLE
; COMMAND_SPINDLE_CLOCKWISE
; COMMAND_COOLANT_ON
; MOVEMENT_LEAD_IN
G1 X-116.793 Y50.477 Z5 F180
G1 Z-2.358
G1 X-116.789 Z-2.407
G1 X-116.778 Z-2.456
G1 X-116.759 Z-2.502
G1 X-116.733 Z-2.544
G1 X-116.7 Z-2.582
G1 X-116.662 Z-2.614
G1 X-116.62 Z-2.64
G1 X-116.574 Z-2.659
G1 X-116.525 Z-2.671
G1 X-116.476 Z-2.675
G1 X-115.772
; MOVEMENT_CUTTING
G1 X-114.296 F480
G1 X-114.246 Y50.481
G1 X-114.198 Y50.493
G1 X-114.151 Y50.512
G1 X-114.109 Y50.538
G1 X-114.071 Y50.571
G1 X-114.038 Y50.609
G1 X-114.012 Y50.651
G1 X-113.993 Y50.698
G1 X-113.981 Y50.746
G1 X-113.977 Y50.796
G1 Y52.287
; MOVEMENT_LEAD_OUT
G1 Y52.299 F180
G1 Y52.349 Z-2.671
G1 Y52.397 Z-2.659
G1 Y52.443 Z-2.64
G1 Y52.486 Z-2.614
G1 Y52.524 Z-2.582
G1 Y52.556 Z-2.544
G1 Y52.582 Z-2.502
G1 Y52.601 Z-2.456
G1 Y52.613 Z-2.407
G1 Y52.617 Z-2.358
; MOVEMENT_LINK_TRANSITION
G1 X-116.79 Y47.935 F480
; MOVEMENT_LEAD_IN
G1 X-116.786 Z-2.407 F180
G1 X-116.774 Z-2.456
G1 X-116.755 Z-2.502
G1 X-116.729 Z-2.544
G1 X-116.697 Z-2.582
G1 X-116.659 Z-2.614
G1 X-116.616 Z-2.64
G1 X-116.57 Z-2.659
G1 X-116.522 Z-2.671
G1 X-116.472 Z-2.675
G1 X-115.784
; MOVEMENT_CUTTING
G1 X-111.754 F480
G1 X-111.704 Y47.939
G1 X-111.655 Y47.95
G1 X-111.609 Y47.97
G1 X-111.566 Y47.996
G1 X-111.528 Y48.028
G1 X-111.496 Y48.066
G1 X-111.47 Y48.109
G1 X-111.45 Y48.155
G1 X-111.439 Y48.204
G1 X-111.435 Y48.254
G1 Y52.274
; MOVEMENT_LINK_TRANSITION
G1 X-111.439 Y52.346
G1 X-111.451 Y52.416
G1 X-111.47 Y52.484
G1 X-111.498 Y52.55
G1 X-111.532 Y52.613
G1 X-111.573 Y52.671
G1 X-111.621 Y52.724
G1 X-111.674 Y52.771
G1 X-111.732 Y52.813
G1 X-111.795 Y52.847
G1 X-111.86 Y52.874
G1 X-111.929 Y52.894
G1 X-111.999 Y52.906
G1 X-112.07 Y52.91
G1 X-112.142 Y52.906
G1 X-112.212 Y52.894
G1 X-112.28 Y52.874
G1 X-112.346 Y52.847
G1 X-112.408 Y52.813
G1 X-112.467 Y52.771
G1 X-112.52 Y52.724
G1 X-112.567 Y52.671
G1 X-112.608 Y52.613
G1 X-112.643 Y52.55
G1 X-112.67 Y52.484
G1 X-112.69 Y52.416
G1 X-112.702 Y52.346
G1 X-112.706 Y52.274
G1 X-112.702 Y52.205
G1 X-112.691 Y52.135
G1 X-112.671 Y52.068
G1 X-111.884 Y49.776
G1 X-111.865 Y49.707
G1 X-111.854 Y49.637
G1 X-111.85 Y49.566
G1 X-111.854 Y49.495
G1 X-111.867 Y49.425
G1 X-111.887 Y49.356
G1 X-111.914 Y49.291
G1 X-111.949 Y49.229
G1 X-111.991 Y49.171
G1 X-112.038 Y49.118
G1 X-112.091 Y49.071
G1 X-112.15 Y49.03
G1 X-112.212 Y48.995
G1 X-112.278 Y48.969
G1 X-112.347 Y48.949
G1 X-112.417 Y48.937
G1 X-115.784 Y48.57
G1 X-115.853 Y48.559
G1 X-115.921 Y48.54
G1 X-115.985 Y48.514
G1 X-116.047 Y48.481
G1 X-116.105 Y48.441
G1 X-116.157 Y48.395
G1 X-116.205 Y48.344
G1 X-116.247 Y48.288
G1 X-116.282 Y48.227
G1 X-116.31 Y48.163
G1 X-116.331 Y48.096
G1 X-116.345 Y48.028
G1 X-116.351 Y47.958
G1 X-116.41 Y46.043
G1 X-116.408 Y45.975
G1 X-116.399 Y45.908
G1 X-116.383 Y45.842
G1 X-116.361 Y45.778
G1 X-116.331 Y45.717
G1 X-116.295 Y45.659
G1 X-116.254 Y45.606
G1 X-116.206 Y45.557
G1 X-116.154 Y45.514
G1 X-116.098 Y45.476
G1 X-116.038 Y45.445
G1 X-115.974 Y45.42
G1 X-115.909 Y45.402
G1 X-115.842 Y45.391
G1 X-115.774 Y45.388
; MOVEMENT_CUTTING
G1 X-108.887
G1 Y50.8
G1 Y52.273
; MOVEMENT_LEAD_OUT
G1 X-108.891 Y52.323 F180
G1 X-108.992 Y52.96
G1 X-109 Y53.009 Z-2.671
G1 X-109.008 Y53.057 Z-2.659
G1 X-109.015 Y53.102 Z-2.64
G1 X-109.021 Y53.144 Z-2.614
G1 X-109.027 Y53.181 Z-2.582
G1 X-109.032 Y53.213 Z-2.544
G1 X-109.037 Y53.239 Z-2.502
G1 X-109.04 Y53.258 Z-2.456
G1 X-109.041 Y53.269 Z-2.407
G1 X-109.042 Y53.273 Z-2.358
; MOVEMENT_RAPID
G0 Z5 F300
G0 X-113.977 Y-53.293 F2500
; MOVEMENT_LEAD_IN
G1 Z-2.358 F180
G1 Y-53.289 Z-2.407
G1 Y-53.278 Z-2.456
G1 Y-53.259 Z-2.502
G1 Y-53.233 Z-2.544
G1 Y-53.2 Z-2.582
G1 Y-53.162 Z-2.614
G1 Y-53.12 Z-2.64
G1 Y-53.074 Z-2.659
G1 Y-53.025 Z-2.671
G1 Y-52.976 Z-2.675
G1 Y-52.272
; MOVEMENT_CUTTING
G1 Y-50.796 F480
G1 X-113.981 Y-50.746
G1 X-113.993 Y-50.698
G1 X-114.012 Y-50.651
G1 X-114.038 Y-50.609
G1 X-114.071 Y-50.571
G1 X-114.109 Y-50.538
G1 X-114.151 Y-50.512
G1 X-114.198 Y-50.493
G1 X-114.246 Y-50.481
G1 X-114.296 Y-50.477
G1 X-115.787
; MOVEMENT_LEAD_OUT
G1 X-115.799 F180
G1 X-115.849 Z-2.671
G1 X-115.897 Z-2.659
G1 X-115.943 Z-2.64
G1 X-115.986 Z-2.614
G1 X-116.024 Z-2.582
G1 X-116.056 Z-2.544
G1 X-116.082 Z-2.502
G1 X-116.101 Z-2.456
G1 X-116.113 Z-2.407
G1 X-116.117 Z-2.358
; MOVEMENT_LINK_TRANSITION
G1 X-111.435 Y-53.29 F480
; MOVEMENT_LEAD_IN
G1 Y-53.286 Z-2.407 F180
G1 Y-53.274 Z-2.456
G1 Y-53.255 Z-2.502
G1 Y-53.229 Z-2.544
G1 Y-53.197 Z-2.582
G1 Y-53.159 Z-2.614
G1 Y-53.117 Z-2.64
G1 Y-53.07 Z-2.659
G1 Y-53.022 Z-2.671
G1 Y-52.972 Z-2.675
G1 Y-52.284
; MOVEMENT_CUTTING
G1 Y-48.254 F480
G1 X-111.439 Y-48.204
G1 X-111.45 Y-48.155
G1 X-111.47 Y-48.109
G1 X-111.496 Y-48.066
G1 X-111.528 Y-48.028
G1 X-111.566 Y-47.996
G1 X-111.609 Y-47.97
G1 X-111.655 Y-47.95
G1 X-111.704 Y-47.939
G1 X-111.754 Y-47.935
G1 X-115.774
; MOVEMENT_LINK_TRANSITION
G1 X-115.846 Y-47.939
G1 X-115.916 Y-47.951
G1 X-115.984 Y-47.97
G1 X-116.05 Y-47.998
G1 X-116.113 Y-48.032
G1 X-116.171 Y-48.073
G1 X-116.224 Y-48.121
G1 X-116.271 Y-48.174
G1 X-116.313 Y-48.232
G1 X-116.347 Y-48.295
G1 X-116.374 Y-48.36
G1 X-116.394 Y-48.429
G1 X-116.406 Y-48.499
G1 X-116.41 Y-48.57
G1 X-116.406 Y-48.642
G1 X-116.394 Y-48.712
G1 X-116.374 Y-48.78
G1 X-116.347 Y-48.846
G1 X-116.313 Y-48.908
G1 X-116.271 Y-48.967
G1 X-116.224 Y-49.02
G1 X-116.171 Y-49.067
G1 X-116.113 Y-49.108
G1 X-116.05 Y-49.143
G1 X-115.984 Y-49.17
G1 X-115.916 Y-49.19
G1 X-115.846 Y-49.202
G1 X-115.774 Y-49.206
G1 X-115.705 Y-49.202
G1 X-115.635 Y-49.191
G1 X-115.568 Y-49.171
G1 X-113.276 Y-48.384
G1 X-113.207 Y-48.365
G1 X-113.137 Y-48.354
G1 X-113.066 Y-48.35
G1 X-112.995 Y-48.354
G1 X-112.925 Y-48.367
G1 X-112.856 Y-48.387
G1 X-112.791 Y-48.414
G1 X-112.729 Y-48.449
G1 X-112.671 Y-48.49
G1 X-112.618 Y-48.538
G1 X-112.571 Y-48.591
G1 X-112.53 Y-48.65
G1 X-112.496 Y-48.712
G1 X-112.469 Y-48.778
G1 X-112.449 Y-48.846
G1 X-112.438 Y-48.917
G1 X-112.07 Y-52.284
G1 X-112.059 Y-52.353
G1 X-112.04 Y-52.421
G1 X-112.014 Y-52.486
G1 X-111.981 Y-52.547
G1 X-111.941 Y-52.605
G1 X-111.895 Y-52.658
G1 X-111.844 Y-52.705
G1 X-111.788 Y-52.747
G1 X-111.727 Y-52.782
G1 X-111.663 Y-52.81
G1 X-111.596 Y-52.831
G1 X-111.528 Y-52.845
G1 X-111.458 Y-52.851
G1 X-109.543 Y-52.91
G1 X-109.475 Y-52.908
G1 X-109.408 Y-52.899
G1 X-109.342 Y-52.883
G1 X-109.278 Y-52.861
G1 X-109.217 Y-52.831
G1 X-109.159 Y-52.795
G1 X-109.106 Y-52.754
G1 X-109.057 Y-52.706
G1 X-109.014 Y-52.654
G1 X-108.976 Y-52.598
G1 X-108.945 Y-52.538
G1 X-108.92 Y-52.474
G1 X-108.902 Y-52.409
G1 X-108.891 Y-52.342
G1 X-108.887 Y-52.274
; MOVEMENT_CUTTING
G1 Y-45.388
G1 X-114.3
G1 X-115.773
; MOVEMENT_LEAD_OUT
G1 X-115.823 Y-45.391 F180
G1 X-116.46 Y-45.492
G1 X-116.509 Y-45.5 Z-2.671
G1 X-116.557 Y-45.508 Z-2.659
G1 X-116.602 Y-45.515 Z-2.64
G1 X-116.644 Y-45.521 Z-2.614
G1 X-116.681 Y-45.527 Z-2.582
G1 X-116.713 Y-45.532 Z-2.544
G1 X-116.739 Y-45.537 Z-2.502
G1 X-116.758 Y-45.54 Z-2.456
G1 X-116.769 Y-45.541 Z-2.407
G1 X-116.773 Y-45.542 Z-2.358
; MOVEMENT_RAPID
G0 Z5 F300
G0 X116.778 Y-50.477 F2500
; MOVEMENT_LEAD_IN
G1 Z-2.358 F180
G1 X116.774 Z-2.407
G1 X116.762 Z-2.456
G1 X116.743 Z-2.502
G1 X116.717 Z-2.544
G1 X116.685 Z-2.582
G1 X116.647 Z-2.614
G1 X116.604 Z-2.64
G1 X116.558 Z-2.659
G1 X116.51 Z-2.671
G1 X116.46 Z-2.675
G1 X115.772
; MOVEMENT_CUTTING
G1 X114.296 F480
G1 X114.246 Y-50.481
G1 X114.198 Y-50.493
G1 X114.151 Y-50.512
G1 X114.109 Y-50.538
G1 X114.071 Y-50.571
G1 X114.038 Y-50.609
G1 X114.012 Y-50.651
G1 X113.993 Y-50.698
G1 X113.981 Y-50.746
G1 X113.977 Y-50.796
G1 Y-52.287
; MOVEMENT_LEAD_OUT
G1 Y-52.299 F180
G1 Y-52.349 Z-2.671
G1 Y-52.397 Z-2.659
G1 Y-52.443 Z-2.64
G1 Y-52.486 Z-2.614
G1 Y-52.524 Z-2.582
G1 Y-52.556 Z-2.544
G1 Y-52.582 Z-2.502
G1 Y-52.601 Z-2.456
G1 Y-52.613 Z-2.407
G1 Y-52.617 Z-2.358
; MOVEMENT_LINK_TRANSITION
G1 X116.774 Y-47.935 F480
; MOVEMENT_LEAD_IN
G1 X116.77 Z-2.407 F180
G1 X116.759 Z-2.456
G1 X116.74 Z-2.502
G1 X116.713 Z-2.544
G1 X116.681 Z-2.582
G1 X116.643 Z-2.614
G1 X116.601 Z-2.64
G1 X116.555 Z-2.659
G1 X116.506 Z-2.671
G1 X116.457 Z-2.675
G1 X115.784
; MOVEMENT_CUTTING
G1 X111.754 F480
G1 X111.704 Y-47.939
G1 X111.655 Y-47.95
G1 X111.609 Y-47.97
G1 X111.566 Y-47.996
G1 X111.528 Y-48.028
G1 X111.496 Y-48.066
G1 X111.47 Y-48.109
G1 X111.45 Y-48.155
G1 X111.439 Y-48.204
G1 X111.435 Y-48.254
G1 Y-52.274
; MOVEMENT_LINK_TRANSITION
G1 X111.439 Y-52.346
G1 X111.451 Y-52.416
G1 X111.47 Y-52.484
G1 X111.498 Y-52.55
G1 X111.532 Y-52.613
G1 X111.573 Y-52.671
G1 X111.621 Y-52.724
G1 X111.674 Y-52.771
G1 X111.732 Y-52.813
G1 X111.795 Y-52.847
G1 X111.86 Y-52.874
G1 X111.929 Y-52.894
G1 X111.999 Y-52.906
G1 X112.07 Y-52.91
G1 X112.142 Y-52.906
G1 X112.212 Y-52.894
G1 X112.28 Y-52.874
G1 X112.346 Y-52.847
G1 X112.408 Y-52.813
G1 X112.467 Y-52.771
G1 X112.52 Y-52.724
G1 X112.567 Y-52.671
G1 X112.608 Y-52.613
G1 X112.643 Y-52.55
G1 X112.67 Y-52.484
G1 X112.69 Y-52.416
G1 X112.702 Y-52.346
G1 X112.706 Y-52.274
G1 X112.702 Y-52.205
G1 X112.691 Y-52.135
G1 X112.671 Y-52.068
G1 X111.884 Y-49.776
G1 X111.865 Y-49.707
G1 X111.854 Y-49.637
G1 X111.85 Y-49.566
G1 X111.854 Y-49.495
G1 X111.867 Y-49.425
G1 X111.887 Y-49.356
G1 X111.914 Y-49.291
G1 X111.949 Y-49.229
G1 X111.991 Y-49.171
G1 X112.038 Y-49.118
G1 X112.091 Y-49.071
G1 X112.15 Y-49.03
G1 X112.212 Y-48.995
G1 X112.278 Y-48.969
G1 X112.347 Y-48.949
G1 X112.417 Y-48.937
G1 X115.784 Y-48.57
G1 X115.853 Y-48.559
G1 X115.921 Y-48.54
G1 X115.985 Y-48.514
G1 X116.047 Y-48.481
G1 X116.105 Y-48.441
G1 X116.157 Y-48.395
G1 X116.205 Y-48.344
G1 X116.247 Y-48.288
G1 X116.282 Y-48.227
G1 X116.31 Y-48.163
G1 X116.331 Y-48.096
G1 X116.345 Y-48.028
G1 X116.351 Y-47.958
G1 X116.41 Y-46.043
G1 X116.408 Y-45.975
G1 X116.399 Y-45.908
G1 X116.383 Y-45.842
G1 X116.361 Y-45.778
G1 X116.331 Y-45.717
G1 X116.295 Y-45.659
G1 X116.254 Y-45.606
G1 X116.206 Y-45.557
G1 X116.154 Y-45.514
G1 X116.098 Y-45.476
G1 X116.038 Y-45.445
G1 X115.974 Y-45.42
G1 X115.909 Y-45.402
G1 X115.842 Y-45.391
G1 X115.774 Y-45.388
; MOVEMENT_CUTTING
G1 X108.887
G1 Y-50.8
G1 Y-52.273
; MOVEMENT_LEAD_OUT
G1 X108.891 Y-52.323 F180
G1 X108.992 Y-52.96
G1 X109 Y-53.009 Z-2.671
G1 X109.008 Y-53.057 Z-2.659
G1 X109.015 Y-53.102 Z-2.64
G1 X109.021 Y-53.144 Z-2.614
G1 X109.027 Y-53.181 Z-2.582
G1 X109.032 Y-53.213 Z-2.544
G1 X109.037 Y-53.239 Z-2.502
G1 X109.04 Y-53.258 Z-2.456
G1 X109.041 Y-53.269 Z-2.407
G1 X109.042 Y-53.273 Z-2.358
; MOVEMENT_RAPID
G0 Z5 F300
G0 X113.977 Y53.285 F2500
; MOVEMENT_LEAD_IN
G1 Z-2.358 F180
G1 Y53.282 Z-2.407
G1 Y53.27 Z-2.456
G1 Y53.251 Z-2.502
G1 Y53.225 Z-2.544
G1 Y53.192 Z-2.582
G1 Y53.155 Z-2.614
G1 Y53.112 Z-2.64
G1 Y53.066 Z-2.659
G1 Y53.018 Z-2.671
G1 Y52.968 Z-2.675
G1 Y52.272
; MOVEMENT_CUTTING
G1 Y50.796 F480
G1 X113.981 Y50.746
G1 X113.993 Y50.698
G1 X114.012 Y50.651
G1 X114.038 Y50.609
G1 X114.071 Y50.571
G1 X114.109 Y50.538
G1 X114.151 Y50.512
G1 X114.198 Y50.493
G1 X114.246 Y50.481
G1 X114.296 Y50.477
G1 X115.787
; MOVEMENT_LEAD_OUT
G1 X115.799 F180
G1 X115.849 Z-2.671
G1 X115.897 Z-2.659
G1 X115.943 Z-2.64
G1 X115.986 Z-2.614
G1 X116.024 Z-2.582
G1 X116.056 Z-2.544
G1 X116.082 Z-2.502
G1 X116.101 Z-2.456
G1 X116.113 Z-2.407
G1 X116.117 Z-2.358
; MOVEMENT_LINK_TRANSITION
G1 X111.435 Y53.282 F480
; MOVEMENT_LEAD_IN
G1 Y53.278 Z-2.407 F180
G1 Y53.267 Z-2.456
G1 Y53.247 Z-2.502
G1 Y53.221 Z-2.544
G1 Y53.189 Z-2.582
G1 Y53.151 Z-2.614
G1 Y53.109 Z-2.64
G1 Y53.063 Z-2.659
G1 Y53.014 Z-2.671
G1 Y52.965 Z-2.675
G1 Y52.284
; MOVEMENT_CUTTING
G1 Y48.254 F480
G1 X111.439 Y48.204
G1 X111.45 Y48.155
G1 X111.47 Y48.109
G1 X111.496 Y48.066
G1 X111.528 Y48.028
G1 X111.566 Y47.996
G1 X111.609 Y47.97
G1 X111.655 Y47.95
G1 X111.704 Y47.939
G1 X111.754 Y47.935
G1 X115.774
; MOVEMENT_LINK_TRANSITION
G1 X115.846 Y47.939
G1 X115.916 Y47.951
G1 X115.984 Y47.97
G1 X116.05 Y47.998
G1 X116.113 Y48.032
G1 X116.171 Y48.073
G1 X116.224 Y48.121
G1 X116.271 Y48.174
G1 X116.313 Y48.232
G1 X116.347 Y48.295
G1 X116.374 Y48.36
G1 X116.394 Y48.429
G1 X116.406 Y48.499
G1 X116.41 Y48.57
G1 X116.406 Y48.642
G1 X116.394 Y48.712
G1 X116.374 Y48.78
G1 X116.347 Y48.846
G1 X116.313 Y48.908
G1 X116.271 Y48.967
G1 X116.224 Y49.02
G1 X116.171 Y49.067
G1 X116.113 Y49.108
G1 X116.05 Y49.143
G1 X115.984 Y49.17
G1 X115.916 Y49.19
G1 X115.846 Y49.202
G1 X115.774 Y49.206
G1 X115.705 Y49.202
G1 X115.635 Y49.191
G1 X115.568 Y49.171
G1 X113.276 Y48.384
G1 X113.207 Y48.365
G1 X113.137 Y48.354
G1 X113.066 Y48.35
G1 X112.995 Y48.354
G1 X112.925 Y48.367
G1 X112.856 Y48.387
G1 X112.791 Y48.414
G1 X112.729 Y48.449
G1 X112.671 Y48.49
G1 X112.618 Y48.538
G1 X112.571 Y48.591
G1 X112.53 Y48.65
G1 X112.496 Y48.712
G1 X112.469 Y48.778
G1 X112.449 Y48.846
G1 X112.438 Y48.917
G1 X112.07 Y52.284
G1 X112.059 Y52.353
G1 X112.04 Y52.421
G1 X112.014 Y52.486
G1 X111.981 Y52.547
G1 X111.941 Y52.605
G1 X111.895 Y52.658
G1 X111.844 Y52.705
G1 X111.788 Y52.747
G1 X111.727 Y52.782
G1 X111.663 Y52.81
G1 X111.596 Y52.831
G1 X111.528 Y52.845
G1 X111.458 Y52.851
G1 X109.543 Y52.91
G1 X109.475 Y52.908
G1 X109.408 Y52.899
G1 X109.342 Y52.883
G1 X109.278 Y52.861
G1 X109.217 Y52.831
G1 X109.159 Y52.795
G1 X109.106 Y52.754
G1 X109.057 Y52.706
G1 X109.014 Y52.654
G1 X108.976 Y52.598
G1 X108.945 Y52.538
G1 X108.92 Y52.474
G1 X108.902 Y52.409
G1 X108.891 Y52.342
G1 X108.887 Y52.274
; MOVEMENT_CUTTING
G1 Y45.388
G1 X114.3
G1 X115.773
; MOVEMENT_LEAD_OUT
G1 X115.823 Y45.391 F180
G1 X116.46 Y45.492
G1 X116.509 Y45.5 Z-2.671
G1 X116.557 Y45.508 Z-2.659
G1 X116.602 Y45.515 Z-2.64
G1 X116.644 Y45.521 Z-2.614
G1 X116.681 Y45.527 Z-2.582
G1 X116.713 Y45.532 Z-2.544
G1 X116.739 Y45.537 Z-2.502
G1 X116.758 Y45.54 Z-2.456
G1 X116.769 Y45.541 Z-2.407
G1 X116.773 Y45.542 Z-2.358
; MOVEMENT_RAPID
G0 Z5 F300
G0 X87.813 Y32.219 F2500
; MOVEMENT_LEAD_IN
G1 Z2.817 F180
; MOVEMENT_RAMP
G1 Y32.215 Z2.768
G1 Y32.204 Z2.72
G1 Y32.185 Z2.674
G1 Y32.159 Z2.632
G1 Y32.127 Z2.594
G1 Y32.09 Z2.562
G1 Y32.047 Z2.536
G1 Y32.002 Z2.516
G1 Y31.954 Z2.504
G1 Y31.904 Z2.5
G1 Y24.313 Z2.428
G1 X96.838 Z2.343
G1 X96.964 Y24.309 Z2.342
G1 X97.089 Y24.297 Z2.341
G1 X97.214 Y24.278 Z2.34
G1 X97.337 Y24.252 Z2.339
G1 X97.459 Y24.218 Z2.337
G1 X97.578 Y24.177 Z2.336
G1 X97.694 Y24.129 Z2.335
G1 X97.808 Y24.073 Z2.334
G1 X97.917 Y24.011 Z2.333
G1 X98.023 Y23.943 Z2.331
G1 X98.125 Y23.868 Z2.33
G1 X98.222 Y23.788 Z2.329
G1 X98.314 Y23.701 Z2.328
G1 X98.4 Y23.609 Z2.327
G1 X98.481 Y23.512 Z2.325
G1 X98.555 Y23.411 Z2.324
G1 X98.624 Y23.305 Z2.323
G1 X98.686 Y23.195 Z2.322
G1 X98.741 Y23.082 Z2.321
G1 X98.789 Y22.965 Z2.32
G1 X98.83 Y22.846 Z2.318
G1 X98.864 Y22.725 Z2.317
G1 X98.891 Y22.601 Z2.316
G1 X98.91 Y22.477 Z2.315
G1 X98.921 Y22.351 Z2.314
G1 X98.925 Y22.225 Z2.312
G1 Y-22.225 Z1.893
G1 X98.921 Y-22.351 Z1.892
G1 X98.91 Y-22.477 Z1.891
G1 X98.891 Y-22.601 Z1.89
G1 X98.864 Y-22.725 Z1.888
G1 X98.83 Y-22.846 Z1.887
G1 X98.789 Y-22.965 Z1.886
G1 X98.741 Y-23.082 Z1.885
G1 X98.686 Y-23.195 Z1.884
G1 X98.624 Y-23.305 Z1.883
G1 X98.555 Y-23.411 Z1.881
G1 X98.481 Y-23.512 Z1.88
G1 X98.4 Y-23.609 Z1.879
G1 X98.314 Y-23.701 Z1.878
G1 X98.222 Y-23.788 Z1.877
G1 X98.125 Y-23.868 Z1.875
G1 X98.023 Y-23.943 Z1.874
G1 X97.917 Y-24.011 Z1.873
G1 X97.808 Y-24.073 Z1.872
G1 X97.694 Y-24.129 Z1.871
G1 X97.578 Y-24.177 Z1.869
G1 X97.459 Y-24.218 Z1.868
G1 X97.337 Y-24.252 Z1.867
G1 X97.214 Y-24.278 Z1.866
G1 X97.089 Y-24.297 Z1.865
G1 X96.964 Y-24.309 Z1.863
G1 X96.838 Y-24.313 Z1.862
G1 X87.813 Z1.777
G1 Y-33.338 Z1.692
G1 X87.809 Y-33.464 Z1.691
G1 X87.797 Y-33.589 Z1.69
G1 X87.778 Y-33.714 Z1.689
G1 X87.752 Y-33.837 Z1.687
G1 X87.718 Y-33.959 Z1.686
G1 X87.677 Y-34.078 Z1.685
G1 X87.629 Y-34.194 Z1.684
G1 X87.573 Y-34.308 Z1.683
G1 X87.511 Y-34.417 Z1.681
G1 X87.443 Y-34.523 Z1.68
G1 X87.368 Y-34.625 Z1.679
G1 X87.288 Y-34.722 Z1.678
G1 X87.201 Y-34.814 Z1.677
G1 X87.109 Y-34.9 Z1.675
G1 X87.012 Y-34.981 Z1.674
G1 X86.911 Y-35.055 Z1.673
G1 X86.805 Y-35.124 Z1.672
G1 X86.695 Y-35.186 Z1.671
G1 X86.582 Y-35.241 Z1.67
G1 X86.465 Y-35.289 Z1.668
G1 X86.346 Y-35.33 Z1.667
G1 X86.225 Y-35.364 Z1.666
G1 X86.101 Y-35.391 Z1.665
G1 X85.977 Y-35.41 Z1.664
G1 X85.851 Y-35.421 Z1.662
G1 X85.725 Y-35.425 Z1.661
G1 X-85.725 Z0.044
G1 X-85.851 Y-35.421 Z0.043
G1 X-85.977 Y-35.41 Z0.042
G1 X-86.101 Y-35.391 Z0.041
G1 X-86.225 Y-35.364 Z0.04
G1 X-86.346 Y-35.33 Z0.038
G1 X-86.465 Y-35.289 Z0.037
G1 X-86.582 Y-35.241 Z0.036
G1 X-86.695 Y-35.186 Z0.035
G1 X-86.805 Y-35.124 Z0.034
G1 X-86.911 Y-35.055 Z0.033
G1 X-87.012 Y-34.981 Z0.031
G1 X-87.109 Y-34.9 Z0.03
G1 X-87.201 Y-34.814 Z0.029
G1 X-87.288 Y-34.722 Z0.028
G1 X-87.368 Y-34.625 Z0.027
G1 X-87.443 Y-34.523 Z0.025
G1 X-87.511 Y-34.417 Z0.024
G1 X-87.573 Y-34.308 Z0.023
G1 X-87.629 Y-34.194 Z0.022
G1 X-87.677 Y-34.078 Z0.021
G1 X-87.718 Y-33.959 Z0.019
G1 X-87.752 Y-33.837 Z0.018
G1 X-87.778 Y-33.714 Z0.017
G1 X-87.797 Y-33.589 Z0.016
G1 X-87.809 Y-33.464 Z0.015
G1 X-87.813 Y-33.338 Z0.014
G1 Y-24.313 Z-0.072
G1 X-96.838 Z-0.157
G1 X-96.964 Y-24.309 Z-0.158
G1 X-97.089 Y-24.297 Z-0.159
G1 X-97.214 Y-24.278 Z-0.16
G1 X-97.337 Y-24.252 Z-0.161
G1 X-97.459 Y-24.218 Z-0.163
G1 X-97.578 Y-24.177 Z-0.164
G1 X-97.694 Y-24.129 Z-0.165
G1 X-97.808 Y-24.073 Z-0.166
G1 X-97.917 Y-24.011 Z-0.167
G1 X-98.023 Y-23.943 Z-0.169
G1 X-98.125 Y-23.868 Z-0.17
G1 X-98.222 Y-23.788 Z-0.171
G1 X-98.314 Y-23.701 Z-0.172
G1 X-98.4 Y-23.609 Z-0.173
G1 X-98.481 Y-23.512 Z-0.175
G1 X-98.555 Y-23.411 Z-0.176
G1 X-98.624 Y-23.305 Z-0.177
G1 X-98.686 Y-23.195 Z-0.178
G1 X-98.741 Y-23.082 Z-0.179
G1 X-98.789 Y-22.965 Z-0.18
G1 X-98.83 Y-22.846 Z-0.182
G1 X-98.864 Y-22.725 Z-0.183
G1 X-98.891 Y-22.601 Z-0.184
G1 X-98.91 Y-22.477 Z-0.185
G1 X-98.921 Y-22.351 Z-0.186
G1 X-98.925 Y-22.225 Z-0.188
G1 Y22.225 Z-0.607
G1 X-98.921 Y22.351 Z-0.608
G1 X-98.91 Y22.477 Z-0.609
G1 X-98.891 Y22.601 Z-0.61
G1 X-98.864 Y22.725 Z-0.612
G1 X-98.83 Y22.846 Z-0.613
G1 X-98.789 Y22.965 Z-0.614
G1 X-98.741 Y23.082 Z-0.615
G1 X-98.686 Y23.195 Z-0.616
G1 X-98.624 Y23.305 Z-0.617
G1 X-98.555 Y23.411 Z-0.619
G1 X-98.481 Y23.512 Z-0.62
G1 X-98.4 Y23.609 Z-0.621
G1 X-98.314 Y23.701 Z-0.622
G1 X-98.222 Y23.788 Z-0.623
G1 X-98.125 Y23.868 Z-0.625
G1 X-98.023 Y23.943 Z-0.626
G1 X-97.917 Y24.011 Z-0.627
G1 X-97.808 Y24.073 Z-0.628
G1 X-97.694 Y24.129 Z-0.629
G1 X-97.578 Y24.177 Z-0.631
G1 X-97.459 Y24.218 Z-0.632
G1 X-97.337 Y24.252 Z-0.633
G1 X-97.214 Y24.278 Z-0.634
G1 X-97.089 Y24.297 Z-0.635
G1 X-96.964 Y24.309 Z-0.637
G1 X-96.838 Y24.313 Z-0.638
G1 X-87.813 Z-0.723
G1 Y33.338 Z-0.808
G1 X-87.809 Y33.464 Z-0.809
G1 X-87.797 Y33.589 Z-0.81
G1 X-87.778 Y33.714 Z-0.811
G1 X-87.752 Y33.837 Z-0.813
G1 X-87.718 Y33.959 Z-0.814
G1 X-87.677 Y34.078 Z-0.815
G1 X-87.629 Y34.194 Z-0.816
G1 X-87.573 Y34.308 Z-0.817
G1 X-87.511 Y34.417 Z-0.819
G1 X-87.443 Y34.523 Z-0.82
G1 X-87.368 Y34.625 Z-0.821
G1 X-87.288 Y34.722 Z-0.822
G1 X-87.201 Y34.814 Z-0.823
G1 X-87.109 Y34.9 Z-0.825
G1 X-87.012 Y34.981 Z-0.826
G1 X-86.911 Y35.055 Z-0.827
G1 X-86.805 Y35.124 Z-0.828
G1 X-86.695 Y35.186 Z-0.829
G1 X-86.582 Y35.241 Z-0.83
G1 X-86.465 Y35.289 Z-0.832
G1 X-86.346 Y35.33 Z-0.833
G1 X-86.225 Y35.364 Z-0.834
G1 X-86.101 Y35.391 Z-0.835
G1 X-85.977 Y35.41 Z-0.836
G1 X-85.851 Y35.421 Z-0.838
G1 X-85.725 Y35.425 Z-0.839
G1 X85.725 Z-2.456
G1 X85.851 Y35.421 Z-2.457
G1 X85.977 Y35.41 Z-2.458
G1 X86.101 Y35.391 Z-2.459
G1 X86.225 Y35.364 Z-2.46
G1 X86.346 Y35.33 Z-2.462
G1 X86.465 Y35.289 Z-2.463
G1 X86.582 Y35.241 Z-2.464
G1 X86.695 Y35.186 Z-2.465
G1 X86.805 Y35.124 Z-2.466
G1 X86.911 Y35.055 Z-2.467
G1 X87.012 Y34.981 Z-2.469
G1 X87.109 Y34.9 Z-2.47
G1 X87.201 Y34.814 Z-2.471
G1 X87.288 Y34.722 Z-2.472
G1 X87.368 Y34.625 Z-2.473
G1 X87.443 Y34.523 Z-2.475
G1 X87.511 Y34.417 Z-2.476
G1 X87.573 Y34.308 Z-2.477
G1 X87.629 Y34.194 Z-2.478
G1 X87.677 Y34.078 Z-2.479
G1 X87.718 Y33.959 Z-2.481
G1 X87.752 Y33.837 Z-2.482
G1 X87.778 Y33.714 Z-2.483
G1 X87.797 Y33.589 Z-2.484
G1 X87.809 Y33.464 Z-2.485
G1 X87.813 Y33.338 Z-2.486
G1 Y24.313 Z-2.572
G1 X96.838 Z-2.657
G1 X96.959 Y24.309 Z-2.658
G1 X97.08 Y24.298 Z-2.659
G1 X97.2 Y24.281 Z-2.66
G1 X97.318 Y24.256 Z-2.661
G1 X97.436 Y24.225 Z-2.662
G1 X97.551 Y24.187 Z-2.664
G1 X97.664 Y24.142 Z-2.665
G1 X97.773 Y24.091 Z-2.666
G1 X97.88 Y24.033 Z-2.667
G1 X97.984 Y23.97 Z-2.668
G1 X98.083 Y23.9 Z-2.669
G1 X98.178 Y23.825 Z-2.67
G1 X98.269 Y23.745 Z-2.672
G1 X98.355 Y23.659 Z-2.673
G1 X98.435 Y23.568 Z-2.674
G1 X98.511 Y23.473 Z-2.675
; MOVEMENT_CUTTING
G1 X98.581 Y23.374 F480
G1 X98.645 Y23.27
G1 X98.702 Y23.163
G1 X98.754 Y23.053
G1 X98.799 Y22.94
G1 X98.837 Y22.825
G1 X98.869 Y22.707
G1 X98.893 Y22.588
G1 X98.911 Y22.468
G1 X98.921 Y22.347
G1 X98.925 Y22.225
G1 Y-22.225
G1 X98.921 Y-22.351
G1 X98.91 Y-22.477
G1 X98.891 Y-22.601
G1 X98.864 Y-22.725
G1 X98.83 Y-22.846
G1 X98.789 Y-22.965
G1 X98.741 Y-23.082
G1 X98.686 Y-23.195
G1 X98.624 Y-23.305
G1 X98.555 Y-23.411
G1 X98.481 Y-23.512
G1 X98.4 Y-23.609
G1 X98.314 Y-23.701
G1 X98.222 Y-23.788
G1 X98.125 Y-23.868
G1 X98.023 Y-23.943
G1 X97.917 Y-24.011
G1 X97.808 Y-24.073
G1 X97.694 Y-24.129
G1 X97.578 Y-24.177
G1 X97.459 Y-24.218
G1 X97.337 Y-24.252
G1 X97.214 Y-24.278
G1 X97.089 Y-24.297
G1 X96.964 Y-24.309
G1 X96.838 Y-24.313
G1 X87.813
G1 Y-33.338
G1 X87.809 Y-33.464
G1 X87.797 Y-33.589
G1 X87.778 Y-33.714
G1 X87.752 Y-33.837
G1 X87.718 Y-33.959
G1 X87.677 Y-34.078
G1 X87.629 Y-34.194
G1 X87.573 Y-34.308
G1 X87.511 Y-34.417
G1 X87.443 Y-34.523
G1 X87.368 Y-34.625
G1 X87.288 Y-34.722
G1 X87.201 Y-34.814
G1 X87.109 Y-34.9
G1 X87.012 Y-34.981
G1 X86.911 Y-35.055
G1 X86.805 Y-35.124
G1 X86.695 Y-35.186
G1 X86.582 Y-35.241
G1 X86.465 Y-35.289
G1 X86.346 Y-35.33
G1 X86.225 Y-35.364
G1 X86.101 Y-35.391
G1 X85.977 Y-35.41
G1 X85.851 Y-35.421
G1 X85.725 Y-35.425
G1 X-85.725
G1 X-85.851 Y-35.421
G1 X-85.977 Y-35.41
G1 X-86.101 Y-35.391
G1 X-86.225 Y-35.364
G1 X-86.346 Y-35.33
G1 X-86.465 Y-35.289
G1 X-86.582 Y-35.241
G1 X-86.695 Y-35.186
G1 X-86.805 Y-35.124
G1 X-86.911 Y-35.055
G1 X-87.012 Y-34.981
G1 X-87.109 Y-34.9
G1 X-87.201 Y-34.814
G1 X-87.288 Y-34.722
G1 X-87.368 Y-34.625
G1 X-87.443 Y-34.523
G1 X-87.511 Y-34.417
G1 X-87.573 Y-34.308
G1 X-87.629 Y-34.194
G1 X-87.677 Y-34.078
G1 X-87.718 Y-33.959
G1 X-87.752 Y-33.837
G1 X-87.778 Y-33.714
G1 X-87.797 Y-33.589
G1 X-87.809 Y-33.464
G1 X-87.813 Y-33.338
G1 Y-24.313
G1 X-96.838
G1 X-96.964 Y-24.309
G1 X-97.089 Y-24.297
G1 X-97.214 Y-24.278
G1 X-97.337 Y-24.252
G1 X-97.459 Y-24.218
G1 X-97.578 Y-24.177
G1 X-97.694 Y-24.129
G1 X-97.808 Y-24.073
G1 X-97.917 Y-24.011
G1 X-98.023 Y-23.943
G1 X-98.125 Y-23.868
G1 X-98.222 Y-23.788
G1 X-98.314 Y-23.701
G1 X-98.4 Y-23.609
G1 X-98.481 Y-23.512
G1 X-98.555 Y-23.411
G1 X-98.624 Y-23.305
G1 X-98.686 Y-23.195
G1 X-98.741 Y-23.082
G1 X-98.789 Y-22.965
G1 X-98.83 Y-22.846
G1 X-98.864 Y-22.725
G1 X-98.891 Y-22.601
G1 X-98.91 Y-22.477
G1 X-98.921 Y-22.351
G1 X-98.925 Y-22.225
G1 Y22.225
G1 X-98.921 Y22.351
G1 X-98.91 Y22.477
G1 X-98.891 Y22.601
G1 X-98.864 Y22.725
G1 X-98.83 Y22.846
G1 X-98.789 Y22.965
G1 X-98.741 Y23.082
G1 X-98.686 Y23.195
G1 X-98.624 Y23.305
G1 X-98.555 Y23.411
G1 X-98.481 Y23.512
G1 X-98.4 Y23.609
G1 X-98.314 Y23.701
G1 X-98.222 Y23.788
G1 X-98.125 Y23.868
G1 X-98.023 Y23.943
G1 X-97.917 Y24.011
G1 X-97.808 Y24.073
G1 X-97.694 Y24.129
G1 X-97.578 Y24.177
G1 X-97.459 Y24.218
G1 X-97.337 Y24.252
G1 X-97.214 Y24.278
G1 X-97.089 Y24.297
G1 X-96.964 Y24.309
G1 X-96.838 Y24.313
G1 X-87.813
G1 Y33.338
G1 X-87.809 Y33.464
G1 X-87.797 Y33.589
G1 X-87.778 Y33.714
G1 X-87.752 Y33.837
G1 X-87.718 Y33.959
G1 X-87.677 Y34.078
G1 X-87.629 Y34.194
G1 X-87.573 Y34.308
G1 X-87.511 Y34.417
G1 X-87.443 Y34.523
G1 X-87.368 Y34.625
G1 X-87.288 Y34.722
G1 X-87.201 Y34.814
G1 X-87.109 Y34.9
G1 X-87.012 Y34.981
G1 X-86.911 Y35.055
G1 X-86.805 Y35.124
G1 X-86.695 Y35.186
G1 X-86.582 Y35.241
G1 X-86.465 Y35.289
G1 X-86.346 Y35.33
G1 X-86.225 Y35.364
G1 X-86.101 Y35.391
G1 X-85.977 Y35.41
G1 X-85.851 Y35.421
G1 X-85.725 Y35.425
G1 X85.725
G1 X85.851 Y35.421
G1 X85.977 Y35.41
G1 X86.101 Y35.391
G1 X86.225 Y35.364
G1 X86.346 Y35.33
G1 X86.465 Y35.289
G1 X86.582 Y35.241
G1 X86.695 Y35.186
G1 X86.805 Y35.124
G1 X86.911 Y35.055
G1 X87.012 Y34.981
G1 X87.109 Y34.9
G1 X87.201 Y34.814
G1 X87.288 Y34.722
G1 X87.368 Y34.625
G1 X87.443 Y34.523
G1 X87.511 Y34.417
G1 X87.573 Y34.308
G1 X87.629 Y34.194
G1 X87.677 Y34.078
G1 X87.718 Y33.959
G1 X87.752 Y33.837
G1 X87.778 Y33.714
G1 X87.797 Y33.589
G1 X87.809 Y33.464
G1 X87.813 Y33.338
G1 Y24.313
G1 X96.838
G1 X96.959 Y24.309
G1 X97.08 Y24.298
G1 X97.2 Y24.281
G1 X97.318 Y24.256
G1 X97.436 Y24.225
G1 X97.551 Y24.187
G1 X97.664 Y24.142
G1 X97.773 Y24.091
G1 X97.88 Y24.033
G1 X97.984 Y23.97
G1 X98.083 Y23.9
G1 X98.178 Y23.825
G1 X98.269 Y23.745
G1 X98.355 Y23.659
G1 X98.435 Y23.568
G1 X98.511 Y23.473
; MOVEMENT_LEAD_OUT
G1 X98.537 Y23.442 Z-2.667 F180
G1 X98.567 Y23.415 Z-2.659
G1 X98.6 Y23.392 Z-2.651
G1 X98.63 Y23.376 Z-2.628
G1 X98.662 Y23.363 Z-2.605
G1 X98.695 Y23.353 Z-2.582
G1 X98.729 Y23.348 Z-2.531
G1 X98.763 Y23.346 Z-2.479
G1 X98.787 Z-2.358
; MOVEMENT_RAPID
G0 Z5 F300
G0 X99.512 Y16.704 F2500
; MOVEMENT_LEAD_IN
G1 Z2.817 F180
; MOVEMENT_RAMP
G1 Y16.707 Z2.768
G1 Y16.719 Z2.72
G1 Y16.738 Z2.674
G1 Y16.763 Z2.632
G1 Y16.795 Z2.594
G1 Y16.833 Z2.562
G1 Y16.875 Z2.536
G1 Y16.921 Z2.516
G1 Y16.969 Z2.504
G1 Y17.018 Z2.5
G1 Y24.9 Z2.427
G1 X90.488 Z2.343
G1 X90.361 Y24.904 Z2.342
G1 X90.236 Y24.915 Z2.341
G1 X90.111 Y24.934 Z2.34
G1 X89.988 Y24.961 Z2.338
G1 X89.866 Y24.995 Z2.337
G1 X89.747 Y25.036 Z2.336
G1 X89.631 Y25.084 Z2.335
G1 X89.517 Y25.139 Z2.334
G1 X89.408 Y25.201 Z2.332
G1 X89.302 Y25.27 Z2.331
G1 X89.2 Y25.344 Z2.33
G1 X89.103 Y25.425 Z2.329
G1 X89.011 Y25.511 Z2.328
G1 X88.925 Y25.603 Z2.327
G1 X88.844 Y25.7 Z2.325
G1 X88.77 Y25.802 Z2.324
G1 X88.701 Y25.908 Z2.323
G1 X88.639 Y26.017 Z2.322
G1 X88.584 Y26.131 Z2.321
G1 X88.536 Y26.247 Z2.32
G1 X88.495 Y26.366 Z2.318
G1 X88.461 Y26.488 Z2.317
G1 X88.434 Y26.611 Z2.316
G1 X88.415 Y26.736 Z2.315
G1 X88.404 Y26.861 Z2.314
G1 X88.4 Y26.987 Z2.313
G1 Y36.013 Z2.229
G1 X-88.4 Z0.587
G1 Y26.987 Z0.503
G1 X-88.404 Y26.861 Z0.502
G1 X-88.415 Y26.736 Z0.501
G1 X-88.434 Y26.611 Z0.5
G1 X-88.461 Y26.488 Z0.499
G1 X-88.495 Y26.366 Z0.498
G1 X-88.536 Y26.247 Z0.496
G1 X-88.584 Y26.131 Z0.495
G1 X-88.639 Y26.017 Z0.494
G1 X-88.701 Y25.908 Z0.493
G1 X-88.77 Y25.802 Z0.492
G1 X-88.844 Y25.7 Z0.491
G1 X-88.925 Y25.603 Z0.489
G1 X-89.011 Y25.511 Z0.488
G1 X-89.103 Y25.425 Z0.487
G1 X-89.2 Y25.344 Z0.486
G1 X-89.302 Y25.27 Z0.485
G1 X-89.408 Y25.201 Z0.484
G1 X-89.517 Y25.139 Z0.482
G1 X-89.631 Y25.084 Z0.481
G1 X-89.747 Y25.036 Z0.48
G1 X-89.866 Y24.995 Z0.479
G1 X-89.988 Y24.961 Z0.478
G1 X-90.111 Y24.934 Z0.477
G1 X-90.236 Y24.915 Z0.475
G1 X-90.361 Y24.904 Z0.474
G1 X-90.488 Y24.9 Z0.473
G1 X-99.512 Z0.389
G1 Y-24.9 Z-0.073
G1 X-90.488 Z-0.157
G1 X-90.361 Y-24.904 Z-0.158
G1 X-90.236 Y-24.915 Z-0.159
G1 X-90.111 Y-24.934 Z-0.16
G1 X-89.988 Y-24.961 Z-0.162
G1 X-89.866 Y-24.995 Z-0.163
G1 X-89.747 Y-25.036 Z-0.164
G1 X-89.631 Y-25.084 Z-0.165
G1 X-89.517 Y-25.139 Z-0.166
G1 X-89.408 Y-25.201 Z-0.168
G1 X-89.302 Y-25.27 Z-0.169
G1 X-89.2 Y-25.344 Z-0.17
G1 X-89.103 Y-25.425 Z-0.171
G1 X-89.011 Y-25.511 Z-0.172
G1 X-88.925 Y-25.603 Z-0.173
G1 X-88.844 Y-25.7 Z-0.175
G1 X-88.77 Y-25.802 Z-0.176
G1 X-88.701 Y-25.908 Z-0.177
G1 X-88.639 Y-26.017 Z-0.178
G1 X-88.584 Y-26.131 Z-0.179
G1 X-88.536 Y-26.247 Z-0.18
G1 X-88.495 Y-26.366 Z-0.182
G1 X-88.461 Y-26.488 Z-0.183
G1 X-88.434 Y-26.611 Z-0.184
G1 X-88.415 Y-26.736 Z-0.185
G1 X-88.404 Y-26.861 Z-0.186
G1 X-88.4 Y-26.987 Z-0.187
G1 Y-36.013 Z-0.271
G1 X88.4 Z-1.913
G1 Y-26.987 Z-1.997
G1 X88.404 Y-26.861 Z-1.998
G1 X88.415 Y-26.736 Z-1.999
G1 X88.434 Y-26.611 Z-2
G1 X88.461 Y-26.488 Z-2.001
G1 X88.495 Y-26.366 Z-2.002
G1 X88.536 Y-26.247 Z-2.004
G1 X88.584 Y-26.131 Z-2.005
G1 X88.639 Y-26.017 Z-2.006
G1 X88.701 Y-25.908 Z-2.007
G1 X88.77 Y-25.802 Z-2.008
G1 X88.844 Y-25.7 Z-2.009
G1 X88.925 Y-25.603 Z-2.011
G1 X89.011 Y-25.511 Z-2.012
G1 X89.103 Y-25.425 Z-2.013
G1 X89.2 Y-25.344 Z-2.014
G1 X89.302 Y-25.27 Z-2.015
G1 X89.408 Y-25.201 Z-2.016
G1 X89.517 Y-25.139 Z-2.018
G1 X89.631 Y-25.084 Z-2.019
G1 X89.747 Y-25.036 Z-2.02
G1 X89.866 Y-24.995 Z-2.021
G1 X89.988 Y-24.961 Z-2.022
G1 X90.111 Y-24.934 Z-2.023
G1 X90.236 Y-24.915 Z-2.025
G1 X90.361 Y-24.904 Z-2.026
G1 X90.488 Y-24.9 Z-2.027
G1 X99.512 Z-2.111
G1 Y24.9 Z-2.573
G1 X90.488 Z-2.657
G1 X90.366 Y24.904 Z-2.658
G1 X90.245 Y24.914 Z-2.659
G1 X90.125 Y24.932 Z-2.66
G1 X90.007 Y24.956 Z-2.661
G1 X89.889 Y24.988 Z-2.663
G1 X89.774 Y25.026 Z-2.664
G1 X89.661 Y25.07 Z-2.665
G1 X89.552 Y25.122 Z-2.666
G1 X89.445 Y25.179 Z-2.667
G1 X89.341 Y25.243 Z-2.668
G1 X89.242 Y25.312 Z-2.669
G1 X89.147 Y25.387 Z-2.67
G1 X89.056 Y25.468 Z-2.672
G1 X88.97 Y25.554 Z-2.673
G1 X88.89 Y25.644 Z-2.674
G1 X88.814 Y25.739 Z-2.675
; MOVEMENT_CUTTING
G1 X88.744 Y25.839 F480
G1 X88.68 Y25.942
G1 X88.623 Y26.049
G1 X88.571 Y26.16
G1 X88.526 Y26.273
G1 X88.488 Y26.388
G1 X88.456 Y26.505
G1 X88.432 Y26.624
G1 X88.414 Y26.745
G1 X88.404 Y26.866
G1 X88.4 Y26.987
G1 Y36.013
G1 X-88.4
G1 Y26.987
G1 X-88.404 Y26.861
G1 X-88.415 Y26.736
G1 X-88.434 Y26.611
G1 X-88.461 Y26.488
G1 X-88.495 Y26.366
G1 X-88.536 Y26.247
G1 X-88.584 Y26.131
G1 X-88.639 Y26.017
G1 X-88.701 Y25.908
G1 X-88.77 Y25.802
G1 X-88.844 Y25.7
G1 X-88.925 Y25.603
G1 X-89.011 Y25.511
G1 X-89.103 Y25.425
G1 X-89.2 Y25.344
G1 X-89.302 Y25.27
G1 X-89.408 Y25.201
G1 X-89.517 Y25.139
G1 X-89.631 Y25.084
G1 X-89.747 Y25.036
G1 X-89.866 Y24.995
G1 X-89.988 Y24.961
G1 X-90.111 Y24.934
G1 X-90.236 Y24.915
G1 X-90.361 Y24.904
G1 X-90.488 Y24.9
G1 X-99.512
G1 Y-24.9
G1 X-90.488
G1 X-90.361 Y-24.904
G1 X-90.236 Y-24.915
G1 X-90.111 Y-24.934
G1 X-89.988 Y-24.961
G1 X-89.866 Y-24.995
G1 X-89.747 Y-25.036
G1 X-89.631 Y-25.084
G1 X-89.517 Y-25.139
G1 X-89.408 Y-25.201
G1 X-89.302 Y-25.27
G1 X-89.2 Y-25.344
G1 X-89.103 Y-25.425
G1 X-89.011 Y-25.511
G1 X-88.925 Y-25.603
G1 X-88.844 Y-25.7
G1 X-88.77 Y-25.802
G1 X-88.701 Y-25.908
G1 X-88.639 Y-26.017
G1 X-88.584 Y-26.131
G1 X-88.536 Y-26.247
G1 X-88.495 Y-26.366
G1 X-88.461 Y-26.488
G1 X-88.434 Y-26.611
G1 X-88.415 Y-26.736
G1 X-88.404 Y-26.861
G1 X-88.4 Y-26.987
G1 Y-36.013
G1 X88.4
G1 Y-26.987
G1 X88.404 Y-26.861
G1 X88.415 Y-26.736
G1 X88.434 Y-26.611
G1 X88.461 Y-26.488
G1 X88.495 Y-26.366
G1 X88.536 Y-26.247
G1 X88.584 Y-26.131
G1 X88.639 Y-26.017
G1 X88.701 Y-25.908
G1 X88.77 Y-25.802
G1 X88.844 Y-25.7
G1 X88.925 Y-25.603
G1 X89.011 Y-25.511
G1 X89.103 Y-25.425
G1 X89.2 Y-25.344
G1 X89.302 Y-25.27
G1 X89.408 Y-25.201
G1 X89.517 Y-25.139
G1 X89.631 Y-25.084
G1 X89.747 Y-25.036
G1 X89.866 Y-24.995
G1 X89.988 Y-24.961
G1 X90.111 Y-24.934
G1 X90.236 Y-24.915
G1 X90.361 Y-24.904
G1 X90.488 Y-24.9
G1 X99.512
G1 Y24.9
G1 X90.488
G1 X90.366 Y24.904
G1 X90.245 Y24.914
G1 X90.125 Y24.932
G1 X90.007 Y24.956
G1 X89.889 Y24.988
G1 X89.774 Y25.026
G1 X89.661 Y25.07
G1 X89.552 Y25.122
G1 X89.445 Y25.179
G1 X89.341 Y25.243
G1 X89.242 Y25.312
G1 X89.147 Y25.387
G1 X89.056 Y25.468
G1 X88.97 Y25.554
G1 X88.89 Y25.644
G1 X88.814 Y25.739
; MOVEMENT_LEAD_OUT
G1 X88.788 Y25.77 Z-2.667 F180
G1 X88.758 Y25.797 Z-2.659
G1 X88.725 Y25.821 Z-2.651
G1 X88.695 Y25.837 Z-2.628
G1 X88.663 Y25.85 Z-2.605
G1 X88.63 Y25.859 Z-2.582
G1 X88.596 Y25.865 Z-2.531
G1 X88.562 Y25.867 Z-2.479
G1 X88.538 Y25.866 Z-2.358
; MOVEMENT_RAPID
G0 Z5 F300
; *** SECTION end ***

; *** SECTION begin ***
; --- CHANGE TOOL begin ---
G0 X0 Y0 Z5 F2500
M84 S999 ;keep on steppers
M18 Z ;disable z axis for manual adjustment
M6 ;wait for user interaction
G92 X0 Y0 Z5
M84 S0
; --- CHANGE TOOL end ---

;Engrave1 - Milling - Tool: 3 -  chamfer mill
; X Min: -82.779 - X Max: 79.138
; Y Min: -26.179 - Y Max: 27.968
; Z Min: -3 - Z Max: 5
; COMMAND_START_SPINDLE
; COMMAND_SPINDLE_CLOCKWISE
; COMMAND_COOLANT_ON
; MOVEMENT_LEAD_IN
G1 X-73.217 Y13.128 Z5 F180
G1 Z0
; MOVEMENT_CUTTING
G1 X-73.287 Y13.12 Z-0.059 F480
G1 X-73.38 Y13.102 Z-0.148
G1 X-73.481 Y13.075 Z-0.253
G1 X-73.542 Y13.055 Z-0.321
G1 X-73.644 Y13.015 Z-0.439
G1 X-73.701 Y12.99 Z-0.508
G1 X-73.76 Y12.961 Z-0.579
G1 X-73.819 Y12.929 Z-0.652
G1 X-73.878 Y12.893 Z-0.726
G1 X-73.937 Y12.855 Z-0.799
G1 X-73.996 Y12.812 Z-0.871
G1 X-74.053 Y12.766 Z-0.941
G1 X-74.122 Y12.702 Z-1.023
G1 X-74.182 Y12.638 Z-1.09
G1 X-74.217 Y12.595 Z-1.127
G1 X-74.26 Y12.537 Z-1.17
G1 X-74.31 Y12.462 Z-1.212
G1 X-74.362 Y12.372 Z-1.251
G1 X-74.41 Y12.275 Z-1.287
G1 X-74.45 Y12.181 Z-1.317
G1 X-74.482 Y12.094 Z-1.339
G1 X-74.512 Y11.995 Z-1.358
G1 X-74.534 Y11.901 Z-1.371
G1 X-74.551 Y11.804 Z-1.378
G1 X-74.563 Y11.708 Z-1.379
G1 X-74.57 Y11.596 Z-1.376
G1 X-74.572 Y11.495 Z-1.369
G1 X-74.566 Y11.363 Z-1.355
G1 X-74.558 Y11.265 Z-1.341
G1 X-74.544 Y11.16 Z-1.325
G1 X-74.525 Y11.02 Z-1.31
G1 X-74.501 Y10.9 Z-1.292
G1 X-74.477 Y10.802 Z-1.273
G1 X-74.453 Y10.726 Z-1.261
G1 X-74.404 Y10.598 Z-1.244
G1 X-74.37 Y10.521 Z-1.233
G1 X-74.315 Y10.41 Z-1.216
G1 X-74.261 Y10.311 Z-1.199
G1 X-74.212 Y10.23 Z-1.185
G1 X-74.133 Y10.109 Z-1.164
G1 X-74.079 Y10.032 Z-1.15
G1 X-73.99 Y9.917 Z-1.131
G1 X-73.904 Y9.814 Z-1.114
G1 X-73.832 Y9.733 Z-1.102
G1 X-73.729 Y9.626 Z-1.087
G1 X-73.718 Y9.616 Z-1.083
G1 X-73.648 Y9.555 Z-1.062
G1 X-73.592 Y9.509 Z-1.045
G1 X-73.518 Y9.452 Z-1.02
G1 X-73.389 Y9.361 Z-0.973
G1 X-73.317 Y9.315 Z-0.946
G1 X-73.243 Y9.27 Z-0.917
G1 X-73.139 Y9.215 Z-0.884
G1 X-73.052 Y9.174 Z-0.859
G1 X-72.961 Y9.137 Z-0.837
G1 X-72.87 Y9.103 Z-0.817
G1 X-72.776 Y9.072 Z-0.799
G1 X-72.713 Y9.053 Z-0.788
G1 X-72.597 Y9.023 Z-0.77
G1 X-72.484 Y8.997 Z-0.755
G1 X-72.382 Y8.978 Z-0.743
G1 X-72.279 Y8.961 Z-0.733
G1 X-72.173 Y8.947 Z-0.725
G1 X-72.055 Y8.934 Z-0.717
G1 X-71.84 Y8.919 Z-0.706
G1 X-71.724 Y8.914 Z-0.701
G1 X-71.606 Y8.912 Z-0.698
G1 X-71.368 Y8.915 Z-0.694
G1 X-71.36 Z-0.693
G1 X-71.103 Y8.927 Z-0.691
G1 X-70.971 Y8.938 Z-0.689
G1 X-70.835 Y8.951 Z-0.686
G1 X-70.555 Y8.986 Z-0.68
G1 X-70.353 Y9.015 Z-0.675
G1 X-70.144 Y9.051 Z-0.673
G1 X-69.935 Y9.092 Z-0.672
G1 X-69.744 Y9.134 Z-0.674
G1 X-69.554 Y9.18 Z-0.677
G1 X-69.364 Y9.23 Z-0.682
G1 X-69.174 Y9.285 Z-0.688
G1 X-69.092 Y9.309 Z-0.69
G1 X-68.879 Y9.377 Z-0.699
G1 X-68.665 Y9.451 Z-0.71
G1 X-68.45 Y9.53 Z-0.724
G1 X-68.234 Y9.614 Z-0.739
G1 X-68.024 Y9.701 Z-0.755
G1 X-67.831 Y9.785 Z-0.772
G1 X-67.638 Y9.873 Z-0.789
G1 X-67.445 Y9.965 Z-0.808
G1 X-67.359 Y10.008 Z-0.815
G1 X-67.138 Y10.12 Z-0.838
G1 X-66.916 Y10.238 Z-0.863
G1 X-66.692 Y10.362 Z-0.889
G1 X-66.476 Y10.487 Z-0.916
G1 X-66.28 Y10.603 Z-0.941
G1 X-66.085 Y10.722 Z-0.97
G1 X-65.891 Y10.844 Z-1
G1 X-65.553 Y11.062 Z-1.058
G1 X-65.506 Y11.092 Z-1.067
G1 X-65.125 Y11.348 Z-1.136
G1 X-64.744 Y11.607 Z-1.2
G1 X-64.392 Y11.852 Z-1.256
G1 X-63.989 Y12.139 Z-1.318
G1 X-63.614 Y12.411 Z-1.374
G1 X-63.244 Y12.687 Z-1.425
G1 X-62.87 Y12.971 Z-1.475
G1 X-62.563 Y13.208 Z-1.513
G1 X-62.131 Y13.549 Z-1.565
G1 X-61.759 Y13.85 Z-1.605
G1 X-61.221 Y14.293 Z-1.664
G1 X-60.817 Y14.632 Z-1.71
G1 X-60.446 Y14.948 Z-1.754
G1 X-59.895 Y15.423 Z-1.821
G1 X-59.352 Y15.899 Z-1.886
G1 X-58.818 Y16.371 Z-1.944
G1 X-58.281 Y16.85 Z-1.997
G1 X-57.368 Y17.675 Z-2.074
G1 X-56.879 Y18.118 Z-2.117
G1 X-56.369 Y18.578 Z-2.168
G1 X-56.033 Y18.878 Z-2.206
G1 X-55.569 Y19.293 Z-2.264
G1 X-55.225 Y19.598 Z-2.311
G1 X-54.788 Y19.982 Z-2.374
G1 X-54.413 Y20.305 Z-2.424
G1 X-54.05 Y20.609 Z-2.465
G1 X-53.702 Y20.893 Z-2.498
G1 X-53.608 Y20.965 Z-2.509
G1 X-53.528 Y21.021 Z-2.531
G1 X-53.437 Y21.077 Z-2.564
G1 X-53.344 Y21.129 Z-2.609
G1 X-53.25 Y21.175 Z-2.664
G1 X-53.154 Y21.217 Z-2.73
G1 X-53.057 Y21.254 Z-2.803
G1 X-52.958 Y21.287 Z-2.887
G1 X-52.835 Y21.321 Z-3
G1 X-52.777 Y21.364
G1 X-52.628 Y21.474
G1 X-52.482 Y21.578
G1 X-52.34 Y21.676
G1 X-52.2 Y21.769
G1 X-52.064 Y21.856
G1 X-51.932 Y21.938
G1 X-51.803 Y22.014
G1 X-51.678 Y22.085
G1 X-51.557 Y22.15
G1 X-51.439 Y22.21
G1 X-51.326 Y22.264
G1 X-51.205 Y22.319
G1 X-51.096 Y22.367
G1 X-50.994 Y22.41
G1 X-50.894 Y22.452
G1 X-50.797 Y22.49
G1 X-50.702 Y22.527
G1 X-50.61 Y22.56
G1 X-50.52 Y22.591
G1 X-50.433 Y22.62
G1 X-50.349 Y22.646
G1 X-50.267 Y22.67
G1 X-50.189 Y22.691
G1 X-50.113 Y22.711
G1 X-50.041 Y22.727
G1 X-49.971 Y22.742
G1 X-49.905 Y22.755
G1 X-49.841 Y22.765
G1 X-49.781 Y22.773
G1 X-49.725 Y22.78
G1 X-49.671 Y22.785
G1 X-49.621 Y22.788
G1 X-49.574 Y22.789
G1 X-49.531
G1 X-49.518
G1 X-49.398 Y22.84 Z-2.862
G1 X-49.296 Y22.882 Z-2.757
G1 X-49.199 Y22.919 Z-2.659
G1 X-49.101 Y22.951 Z-2.562
G1 X-49.002 Y22.978 Z-2.465
G1 X-48.902 Y23.001 Z-2.366
G1 X-48.813 Y23.015 Z-2.278
G1 X-48.734 Y23.024 Z-2.197
G1 X-48.65 Y23.028 Z-2.108
G1 X-48.564 Y23.026 Z-2.012
G1 X-48.483 Y23.017 Z-1.916
G1 X-48.394 Y23.003 Z-1.807
G1 X-48.299 Y22.987 Z-1.701
G1 X-48.197 Y22.964 Z-1.585
G1 X-48.1 Y22.935 Z-1.472
G1 X-48.038 Y22.912 Z-1.397
G1 X-47.952 Y22.874 Z-1.288
G1 X-47.868 Y22.83 Z-1.176
G1 X-47.786 Y22.778 Z-1.058
G1 X-47.707 Y22.719 Z-0.935
G1 X-47.661 Y22.679 Z-0.857
G1 X-47.571 Y22.607 Z-0.695
G1 X-47.487 Y22.534 Z-0.545
G1 X-47.422 Y22.472 Z-0.43
G1 X-47.354 Y22.402 Z-0.31
G1 X-47.306 Y22.348 Z-0.226
G1 X-47.265 Y22.296 Z-0.152
G1 X-47.229 Y22.247 Z-0.088
G1 X-47.198 Y22.201 Z-0.031
G1 X-47.182 Y22.174 Z-0.001
G1 X-47.198 Y22.201 Z-0.031
G1 X-47.229 Y22.247 Z-0.088
G1 X-47.265 Y22.296 Z-0.152
G1 X-47.306 Y22.348 Z-0.226
G1 X-47.354 Y22.402 Z-0.31
G1 X-47.422 Y22.472 Z-0.43
G1 X-47.487 Y22.534 Z-0.545
G1 X-47.571 Y22.607 Z-0.695
G1 X-47.661 Y22.679 Z-0.857
G1 X-47.707 Y22.719 Z-0.935
G1 X-47.786 Y22.778 Z-1.058
G1 X-47.868 Y22.83 Z-1.176
G1 X-47.952 Y22.874 Z-1.288
G1 X-48.038 Y22.912 Z-1.397
G1 X-48.1 Y22.935 Z-1.472
G1 X-48.197 Y22.964 Z-1.585
G1 X-48.299 Y22.987 Z-1.701
G1 X-48.394 Y23.003 Z-1.807
G1 X-48.483 Y23.017 Z-1.916
G1 X-48.564 Y23.026 Z-2.012
G1 X-48.65 Y23.028 Z-2.108
G1 X-48.734 Y23.024 Z-2.197
G1 X-48.813 Y23.015 Z-2.278
G1 X-48.902 Y23.001 Z-2.366
G1 X-49.002 Y22.978 Z-2.465
G1 X-49.101 Y22.951 Z-2.562
G1 X-49.199 Y22.919 Z-2.659
G1 X-49.296 Y22.882 Z-2.757
G1 X-49.398 Y22.84 Z-2.862
G1 X-49.518 Y22.789 Z-3
G1 X-49.528 Y22.777
G1 X-49.548 Y22.753
G1 X-49.57 Y22.725
G1 X-49.589 Y22.699
G1 X-49.609 Y22.672
G1 X-49.628 Y22.646
G1 X-49.648 Y22.618
G1 X-49.666 Y22.592
G1 X-49.684 Y22.564
G1 X-49.702 Y22.537
G1 X-49.719 Y22.51
G1 X-49.737 Y22.481
G1 X-49.753 Y22.454
G1 X-49.77 Y22.425
G1 X-49.785 Y22.399
G1 X-49.801 Y22.369
G1 X-49.815 Y22.342
G1 X-49.831 Y22.311
G1 X-49.844 Y22.286
G1 X-49.859 Y22.255
G1 X-49.872 Y22.228
G1 X-49.887 Y22.196
G1 X-49.898 Y22.172
G1 X-49.912 Y22.139
G1 X-49.923 Y22.113
G1 X-49.937 Y22.079
G1 X-49.946 Y22.056
G1 X-49.959 Y22.022
G1 X-49.969 Y21.997
G1 X-49.982 Y21.962
G1 X-49.99 Y21.94
G1 X-50.002 Y21.904
G1 X-50.012 Y21.873
G1 X-50.023 Y21.837
G1 X-50.035 Y21.798
G1 X-50.046 Y21.761
G1 X-50.055 Y21.724
G1 X-50.065 Y21.687
G1 X-50.074 Y21.649
G1 X-50.082 Y21.61
G1 X-50.089 Y21.575
G1 X-50.097 Y21.536
G1 X-50.103 Y21.5
G1 X-50.11 Y21.46
G1 X-50.115 Y21.426
G1 X-50.12 Y21.385
G1 X-50.124 Y21.351
G1 X-50.129 Y21.31
G1 X-50.132 Y21.277
G1 X-50.135 Y21.235
G1 X-50.138 Y21.203
G1 X-50.14 Y21.16
G1 X-50.142 Y21.13
G1 X-50.143 Y21.086
G1 X-50.144 Y21.056
G1 Y21.011
G1 Y20.983
G1 Y20.937
G1 X-50.143 Y20.91
G1 X-50.142 Y20.863
G1 X-50.14 Y20.836
G1 X-50.138 Y20.79
G1 X-50.136 Y20.764
G1 X-50.133 Y20.716
G1 X-50.131 Y20.691
G1 X-50.126 Y20.643
G1 X-50.124 Y20.619
G1 X-50.118 Y20.57
G1 X-50.115 Y20.546
G1 X-50.109 Y20.496
G1 X-50.106 Y20.474
G1 X-50.098 Y20.424
G1 X-50.095 Y20.402
G1 X-50.086 Y20.35
G1 X-50.083 Y20.33
G1 X-50.073 Y20.278
G1 X-50.07 Y20.257
G1 X-50.059 Y20.204
G1 X-50.055 Y20.186
G1 X-50.044 Y20.132
G1 X-50.036 Y20.1
G1 X-50 Y19.948
G1 X-49.962 Y19.791
G1 X-49.961 Y19.788
G1 X-49.922 Y19.627
G1 X-49.882 Y19.462
G1 X-49.881 Y19.459
G1 X-49.84 Y19.289
G1 X-49.797 Y19.114
G1 X-49.796 Y19.112
G1 X-49.752 Y18.933
G1 X-49.707 Y18.75
G1 X-49.706 Y18.748
G1 X-49.66 Y18.56
G1 X-49.612 Y18.367
G1 X-49.611 Y18.365
G1 X-49.562 Y18.168
G1 X-49.512 Y17.966
G1 Y17.965
G1 X-49.46 Y17.758
G1 X-49.407 Y17.548
G1 Y17.546
G1 X-49.353 Y17.331
G1 X-49.297 Y17.112
G1 Y17.11
G1 X-49.24 Y16.886
G1 X-49.182 Y16.657
G1 Y16.656
G1 X-49.123 Y16.423
G1 X-49.063 Y16.185
G1 X-49.062 Y16.184
G1 X-49.001 Y15.942
G1 X-48.938 Y15.695
G1 Y15.694
G1 X-48.873 Y15.443
G1 X-48.808 Y15.187
G1 X-48.807 Y15.181
G1 X-48.741 Y14.929
G1 X-48.676 Y14.676
G1 X-48.61 Y14.421
G1 X-48.545 Y14.164
G1 X-48.48 Y13.904
G1 X-48.414 Y13.643
G1 X-48.349 Y13.378
G1 X-48.283 Y13.112
G1 X-48.218 Y12.843
G1 X-48.153 Y12.572
G1 X-48.087 Y12.299
G1 X-48.022 Y12.023
G1 X-47.956 Y11.745
G1 X-47.891 Y11.465
G1 X-47.825 Y11.183
G1 X-47.76 Y10.898
G1 X-47.694 Y10.611
G1 X-47.629 Y10.322
G1 X-47.563 Y10.03
G1 X-47.498 Y9.736
G1 X-47.432 Y9.44
G1 X-47.366 Y9.142
G1 X-47.301 Y8.841
G1 X-47.235 Y8.537
G1 X-47.21 Y8.44
G1 X-47.177 Y8.344
G1 X-47.137 Y8.252
G1 X-47.09 Y8.163
G1 X-47.036 Y8.077
G1 X-46.975 Y7.997
G1 X-46.909 Y7.921
G1 X-46.837 Y7.85
G1 X-46.759 Y7.786
G1 X-46.677 Y7.727
G1 X-46.59 Y7.676
G1 X-46.5 Y7.631
G1 X-46.406 Y7.593
G1 X-46.31 Y7.563
G1 X-46.211 Y7.541
G1 X-46.112 Y7.526
G1 X-46.011 Y7.519
G1 X-45.91 Y7.52
G1 X-45.81 Y7.529
G1 X-45.71 Y7.545
G1 X-45.612 Y7.569
G1 X-45.516 Y7.601
G1 X-45.423 Y7.64
G1 X-45.334 Y7.687
G1 X-45.248 Y7.74
G1 X-45.167 Y7.8
G1 X-45.09 Y7.865
G1 X-45.019 Y7.937
G1 X-44.954 Y8.014
G1 X-44.895 Y8.096
G1 X-44.842 Y8.182
G1 X-44.657 Y8.515
G1 X-44.471 Y8.844
G1 X-44.284 Y9.173
G1 X-44.095 Y9.501
G1 X-43.905 Y9.828
G1 X-43.712 Y10.154
G1 X-43.518 Y10.48
G1 X-43.322 Y10.805
G1 X-43.125 Y11.129
G1 X-42.925 Y11.453
G1 X-42.724 Y11.776
G1 X-42.521 Y12.098
G1 X-42.317 Y12.419
G1 X-42.111 Y12.739
G1 X-41.903 Y13.059
G1 X-41.693 Y13.378
G1 X-41.482 Y13.697
G1 X-41.269 Y14.015
G1 X-41.054 Y14.332
G1 X-40.837 Y14.648
G1 X-40.619 Y14.963
G1 X-40.399 Y15.278
G1 X-40.177 Y15.592
G1 X-39.953 Y15.906
G1 X-39.729 Y16.216
G1 X-39.505 Y16.524
G1 X-39.281 Y16.827
G1 X-39.058 Y17.127
G1 X-38.834 Y17.424
G1 X-38.61 Y17.717
G1 X-38.387 Y18.006
G1 X-38.164 Y18.292
G1 X-37.94 Y18.574
G1 X-37.717 Y18.853
G1 X-37.494 Y19.128
G1 X-37.271 Y19.4
G1 X-37.048 Y19.668
G1 X-36.826 Y19.932
G1 X-36.603 Y20.193
G1 X-36.381 Y20.45
G1 X-36.158 Y20.704
G1 X-35.936 Y20.954
G1 X-35.714 Y21.201
G1 X-35.492 Y21.444
G1 X-35.27 Y21.684
G1 X-35.049 Y21.92
G1 X-34.827 Y22.152
G1 X-34.612 Y22.374
G1 X-34.392 Y22.592
G1 X-34.168 Y22.81
G1 X-33.945 Y23.023
G1 X-33.723 Y23.231
G1 X-33.502 Y23.433
G1 X-33.282 Y23.631
G1 X-33.064 Y23.823
G1 X-32.846 Y24.01
G1 X-32.629 Y24.193
G1 X-32.414 Y24.37
G1 X-32.2 Y24.541
G1 X-31.987 Y24.708
G1 X-31.775 Y24.87
G1 X-31.565 Y25.027
G1 X-31.355 Y25.178
G1 X-31.147 Y25.325
G1 X-30.94 Y25.466
G1 X-30.734 Y25.603
G1 X-30.53 Y25.734
G1 X-30.327 Y25.86
G1 X-30.125 Y25.982
G1 X-29.925 Y26.098
G1 X-29.726 Y26.209
G1 X-29.661 Y26.244
G1 X-29.548 Y26.348 Z-2.909
G1 X-29.348 Y26.523 Z-2.751
G1 X-29.22 Y26.631 Z-2.651
G1 X-28.984 Y26.818 Z-2.466
G1 X-28.846 Y26.922 Z-2.358
G1 X-28.722 Y27.012 Z-2.262
G1 X-28.579 Y27.11 Z-2.152
G1 X-28.369 Y27.245 Z-1.989
G1 X-28.232 Y27.327 Z-1.885
G1 X-28.105 Y27.4 Z-1.788
G1 X-27.89 Y27.511 Z-1.624
G1 X-27.756 Y27.575 Z-1.524
G1 X-27.631 Y27.63 Z-1.431
G1 X-27.472 Y27.693 Z-1.314
G1 X-27.41 Y27.715 Z-1.268
G1 X-27.297 Y27.754 Z-1.186
G1 X-27.151 Y27.799 Z-1.082
G1 X-27.076 Y27.818 Z-1.028
G1 X-26.969 Y27.845 Z-0.955
G1 X-26.825 Y27.874 Z-0.857
G1 X-26.66 Y27.9 Z-0.746
G1 X-26.436 Y27.928 Z-0.583
G1 X-26.29 Y27.943 Z-0.47
G1 X-26.095 Y27.958 Z-0.311
G1 X-25.931 Y27.966 Z-0.17
G1 X-25.74 Y27.968 Z-0.001
G1 X-25.931 Y27.966 Z-0.17
G1 X-26.095 Y27.958 Z-0.311
G1 X-26.29 Y27.943 Z-0.47
G1 X-26.436 Y27.928 Z-0.583
G1 X-26.66 Y27.9 Z-0.746
G1 X-26.825 Y27.874 Z-0.857
G1 X-26.969 Y27.845 Z-0.955
G1 X-27.076 Y27.818 Z-1.028
G1 X-27.151 Y27.799 Z-1.082
G1 X-27.297 Y27.754 Z-1.186
G1 X-27.41 Y27.715 Z-1.268
G1 X-27.472 Y27.693 Z-1.314
G1 X-27.631 Y27.63 Z-1.431
G1 X-27.756 Y27.575 Z-1.524
G1 X-27.89 Y27.511 Z-1.624
G1 X-28.105 Y27.4 Z-1.788
G1 X-28.232 Y27.327 Z-1.885
G1 X-28.369 Y27.245 Z-1.989
G1 X-28.579 Y27.11 Z-2.152
G1 X-28.722 Y27.012 Z-2.262
G1 X-28.846 Y26.922 Z-2.358
G1 X-28.984 Y26.818 Z-2.466
G1 X-29.22 Y26.631 Z-2.651
G1 X-29.348 Y26.523 Z-2.751
G1 X-29.548 Y26.348 Z-2.909
G1 X-29.661 Y26.244 Z-3
G1 X-29.675 Y26.219
G1 X-29.771 Y26.048
G1 X-29.781 Y26.029
G1 X-29.876 Y25.854
G1 X-29.885 Y25.835
G1 X-29.979 Y25.655
G1 X-29.988 Y25.637
G1 X-30.08 Y25.452
G1 X-30.089 Y25.435
G1 X-30.18 Y25.244
G1 X-30.188 Y25.227
G1 X-30.279 Y25.032
G1 X-30.286 Y25.016
G1 X-30.376 Y24.815
G1 X-30.382 Y24.8
G1 X-30.471 Y24.594
G1 X-30.477 Y24.579
G1 X-30.565 Y24.369
G1 X-30.571 Y24.354
G1 X-30.657 Y24.138
G1 X-30.663 Y24.124
G1 X-30.748 Y23.904
G1 X-30.754 Y23.89
G1 X-30.838 Y23.664
G1 X-30.843 Y23.651
G1 X-30.927 Y23.421
G1 X-30.931 Y23.408
G1 X-31.014 Y23.172
G1 X-31.018 Y23.16
G1 X-31.099 Y22.919
G1 X-31.103 Y22.907
G1 X-31.184 Y22.662
G1 X-31.188 Y22.65
G1 X-31.267 Y22.399
G1 X-31.271 Y22.388
G1 X-31.349 Y22.133
G1 X-31.353 Y22.122
G1 X-31.43 Y21.861
G1 X-31.433 Y21.85
G1 X-31.51 Y21.585
G1 X-31.513 Y21.574
G1 X-31.588 Y21.304
G1 X-31.591 Y21.294
G1 X-31.666 Y21.018
G1 X-31.668 Y21.009
G1 X-31.742 Y20.728
G1 X-31.744 Y20.719
G1 X-31.817 Y20.433
G1 X-31.823 Y20.407
G1 X-31.889 Y20.124
G1 Y20.12
G1 X-31.955 Y19.834
G1 X-31.956 Y19.829
G1 X-32.021 Y19.54
G1 X-32.022 Y19.537
G1 X-32.087 Y19.244
G1 X-32.088 Y19.24
G1 X-32.153 Y18.944
G1 X-32.154 Y18.941
G1 X-32.219 Y18.643
G1 Y18.639
G1 X-32.284 Y18.337
G1 Y18.334
G1 X-32.349 Y18.03
G1 Y18.026
G1 X-32.413 Y17.718
G1 X-32.414 Y17.715
G1 X-32.477 Y17.405
G1 X-32.478 Y17.401
G1 X-32.542 Y17.087
G1 Y17.085
G1 X-32.605 Y16.768
G1 X-32.606 Y16.764
G1 X-32.669 Y16.445
G1 Y16.442
G1 X-32.732 Y16.12
G1 X-32.733 Y16.116
G1 X-32.795 Y15.79
G1 X-32.796 Y15.788
G1 X-32.858 Y15.459
G1 Y15.456
G1 X-32.92 Y15.124
G1 X-32.921 Y15.122
G1 X-32.982 Y14.787
G1 X-32.983 Y14.784
G1 X-33.044 Y14.446
G1 X-33.045 Y14.444
G1 X-33.106 Y14.104
G1 X-33.107 Y14.1
G1 X-33.167 Y13.757
G1 X-33.168 Y13.754
G1 X-33.228 Y13.408
G1 X-33.229 Y13.405
G1 X-33.289 Y13.055
G1 X-33.29 Y13.053
G1 X-33.35 Y12.701
G1 X-33.41 Y12.353
G1 Y12.351
G1 X-33.47 Y12
G1 Y11.998
G1 X-33.529 Y11.646
G1 Y11.644
G1 X-33.589 Y11.29
G1 Y11.288
G1 X-33.648 Y10.932
G1 Y10.93
G1 X-33.707 Y10.573
G1 Y10.57
G1 X-33.765 Y10.211
G1 X-33.766 Y10.21
G1 X-33.824 Y9.849
G1 Y9.846
G1 X-33.882 Y9.483
G1 Y9.482
G1 X-33.94 Y9.117
G1 Y9.115
G1 X-33.998 Y8.749
G1 Y8.748
G1 X-34.055 Y8.379
G1 Y8.377
G1 X-34.112 Y8.007
G1 Y8.006
G1 X-34.169 Y7.634
G1 Y7.632
G1 X-34.226 Y7.259
G1 Y7.258
G1 X-34.282 Y6.882
G1 Y6.88
G1 X-34.338 Y6.503
G1 Y6.502
G1 X-34.394 Y6.124
G1 Y6.121
G1 X-34.45 Y5.741
G1 Y5.74
G1 X-34.505 Y5.358
G1 Y5.356
G1 X-34.56 Y4.972
G1 Y4.971
G1 X-34.615 Y4.585
G1 Y4.583
G1 X-34.67 Y4.196
G1 Y4.194
G1 X-34.724 Y3.805
G1 X-34.726 Y3.788
G1 X-34.774 Y3.406
G1 X-34.823 Y3.026
G1 X-34.873 Y2.646
G1 X-34.923 Y2.266
G1 X-34.974 Y1.887
G1 X-35.026 Y1.508
G1 X-35.078 Y1.13
G1 X-35.131 Y0.753
G1 X-35.185 Y0.376
G1 X-35.24 Y-0.001
G1 X-35.296 Y-0.377
G1 X-35.352 Y-0.752
G1 X-35.409 Y-1.127
G1 X-35.467 Y-1.502
G1 X-35.525 Y-1.876
G1 X-35.584 Y-2.249
G1 X-35.644 Y-2.622
G1 X-35.705 Y-2.995
G1 X-35.766 Y-3.367
G1 X-35.828 Y-3.738
G1 X-35.891 Y-4.109
G1 X-35.955 Y-4.48
G1 X-36.019 Y-4.85
G1 X-36.085 Y-5.22
G1 X-36.088 Y-5.238
G1 X-36.148 Y-5.607
G1 X-36.208 Y-5.974
G1 X-36.269 Y-6.338
G1 X-36.332 Y-6.702
G1 X-36.394 Y-7.064
G1 X-36.458 Y-7.424
G1 X-36.522 Y-7.783
G1 X-36.587 Y-8.14
G1 X-36.653 Y-8.496
G1 X-36.719 Y-8.85
G1 X-36.786 Y-9.203
G1 X-36.854 Y-9.554
G1 X-36.923 Y-9.903
G1 X-36.993 Y-10.252
G1 X-37.063 Y-10.598
G1 X-37.134 Y-10.943
G1 X-37.205 Y-11.287
G1 X-37.277 Y-11.629
G1 X-37.35 Y-11.969
G1 X-37.424 Y-12.308
G1 X-37.499 Y-12.646
G1 X-37.574 Y-12.982
G1 X-37.65 Y-13.316
G1 X-37.727 Y-13.651
G1 X-37.731 Y-13.667
G1 X-37.803 Y-13.997
G1 X-37.875 Y-14.319
G1 X-37.948 Y-14.637
G1 X-38.022 Y-14.951
G1 X-38.098 Y-15.26
G1 X-38.175 Y-15.566
G1 X-38.253 Y-15.867
G1 X-38.332 Y-16.164
G1 X-38.412 Y-16.457
G1 X-38.493 Y-16.746
G1 X-38.576 Y-17.031
G1 X-38.659 Y-17.311
G1 X-38.744 Y-17.587
G1 X-38.829 Y-17.86
G1 X-38.916 Y-18.127
G1 X-39.004 Y-18.391
G1 X-39.093 Y-18.65
G1 X-39.183 Y-18.905
G1 X-39.185 Y-18.909
G1 X-39.264 Y-19.16 Z-2.974
G1 X-39.421 Y-19.632 Z-2.924
G1 X-39.513 Y-19.9 Z-2.895
G1 X-39.598 Y-20.139 Z-2.868
G1 X-39.684 Y-20.373 Z-2.841
G1 X-39.771 Y-20.601 Z-2.813
G1 X-39.858 Y-20.825 Z-2.784
G1 X-39.958 Y-21.074 Z-2.751
G1 X-40.072 Y-21.344 Z-2.711
G1 X-40.125 Y-21.467 Z-2.694
G1 X-40.215 Y-21.672 Z-2.662
G1 X-40.307 Y-21.872 Z-2.628
G1 X-40.426 Y-22.124 Z-2.584
G1 X-40.549 Y-22.373 Z-2.537
G1 X-40.587 Y-22.447 Z-2.523
G1 X-40.681 Y-22.629 Z-2.486
G1 X-40.803 Y-22.854 Z-2.436
G1 X-40.927 Y-23.074 Z-2.385
G1 X-40.971 Y-23.152 Z-2.367
G1 X-41.069 Y-23.317 Z-2.324
G1 X-41.199 Y-23.528 Z-2.267
G1 X-41.268 Y-23.637 Z-2.236
G1 X-41.369 Y-23.791 Z-2.188
G1 X-41.491 Y-23.97 Z-2.13
G1 X-41.627 Y-24.159 Z-2.067
G1 X-41.678 Y-24.227 Z-2.045
G1 X-41.794 Y-24.378 Z-1.991
G1 X-41.95 Y-24.569 Z-1.919
G1 X-41.998 Y-24.625 Z-1.899
G1 X-42.109 Y-24.751 Z-1.847
G1 X-42.207 Y-24.856 Z-1.801
G1 X-42.313 Y-24.963 Z-1.749
G1 X-42.441 Y-25.084 Z-1.681
G1 X-42.528 Y-25.162 Z-1.636
G1 X-42.638 Y-25.255 Z-1.575
G1 X-42.79 Y-25.373 Z-1.487
G1 X-42.866 Y-25.428 Z-1.445
G1 X-42.983 Y-25.509 Z-1.373
G1 X-43.133 Y-25.603 Z-1.28
G1 X-43.229 Y-25.658 Z-1.221
G1 X-43.358 Y-25.728 Z-1.138
G1 X-43.524 Y-25.809 Z-1.028
G1 X-43.629 Y-25.856 Z-0.96
G1 X-43.71 Y-25.889 Z-0.904
G1 X-43.772 Y-25.913 Z-0.865
G1 X-43.921 Y-25.967 Z-0.765
G1 X-44.082 Y-26.017 Z-0.657
G1 X-44.266 Y-26.066 Z-0.535
G1 X-44.448 Y-26.105 Z-0.415
G1 X-44.628 Y-26.136 Z-0.299
G1 X-44.805 Y-26.158 Z-0.187
G1 X-44.98 Y-26.173 Z-0.079
G1 X-45.114 Y-26.179 Z0
G1 X-44.98 Y-26.173 Z-0.079
G1 X-44.805 Y-26.158 Z-0.187
G1 X-44.628 Y-26.136 Z-0.299
G1 X-44.448 Y-26.105 Z-0.415
G1 X-44.266 Y-26.066 Z-0.535
G1 X-44.082 Y-26.017 Z-0.657
G1 X-43.921 Y-25.967 Z-0.765
G1 X-43.772 Y-25.913 Z-0.865
G1 X-43.71 Y-25.889 Z-0.904
G1 X-43.629 Y-25.856 Z-0.96
G1 X-43.524 Y-25.809 Z-1.028
G1 X-43.358 Y-25.728 Z-1.138
G1 X-43.229 Y-25.658 Z-1.221
G1 X-43.133 Y-25.603 Z-1.28
G1 X-42.983 Y-25.509 Z-1.373
G1 X-42.866 Y-25.428 Z-1.445
G1 X-42.79 Y-25.373 Z-1.487
G1 X-42.638 Y-25.255 Z-1.575
G1 X-42.528 Y-25.162 Z-1.636
G1 X-42.441 Y-25.084 Z-1.681
G1 X-42.313 Y-24.963 Z-1.749
G1 X-42.207 Y-24.856 Z-1.801
G1 X-42.109 Y-24.751 Z-1.847
G1 X-41.998 Y-24.625 Z-1.899
G1 X-41.95 Y-24.569 Z-1.919
G1 X-41.794 Y-24.378 Z-1.991
G1 X-41.678 Y-24.227 Z-2.045
G1 X-41.627 Y-24.159 Z-2.067
G1 X-41.491 Y-23.97 Z-2.13
G1 X-41.369 Y-23.791 Z-2.188
G1 X-41.268 Y-23.637 Z-2.236
G1 X-41.199 Y-23.528 Z-2.267
G1 X-41.069 Y-23.317 Z-2.324
G1 X-40.971 Y-23.152 Z-2.367
G1 X-40.927 Y-23.074 Z-2.385
G1 X-40.803 Y-22.854 Z-2.436
G1 X-40.681 Y-22.629 Z-2.486
G1 X-40.587 Y-22.447 Z-2.523
G1 X-40.549 Y-22.373 Z-2.537
G1 X-40.426 Y-22.124 Z-2.584
G1 X-40.307 Y-21.872 Z-2.628
G1 X-40.215 Y-21.672 Z-2.662
G1 X-40.125 Y-21.467 Z-2.694
G1 X-40.072 Y-21.344 Z-2.711
G1 X-39.958 Y-21.074 Z-2.751
G1 X-39.858 Y-20.825 Z-2.784
G1 X-39.771 Y-20.601 Z-2.813
G1 X-39.684 Y-20.373 Z-2.841
G1 X-39.598 Y-20.139 Z-2.868
G1 X-39.513 Y-19.9 Z-2.895
G1 X-39.421 Y-19.632 Z-2.924
G1 X-39.264 Y-19.16 Z-2.974
G1 X-39.185 Y-18.909 Z-3
G1 X-39.134 Y-18.723
G1 X-39.132 Y-18.713
G1 X-39.051 Y-18.404
G1 X-39.049 Y-18.393
G1 X-38.97 Y-18.08
G1 X-38.968 Y-18.07
G1 X-38.89 Y-17.751
G1 X-38.888 Y-17.741
G1 X-38.812 Y-17.418
G1 X-38.81 Y-17.408
G1 X-38.736 Y-17.08
G1 X-38.733 Y-17.07
G1 X-38.662 Y-16.743
G1 X-38.586 Y-16.412
G1 X-38.585 Y-16.405
G1 X-38.509 Y-16.064
G1 X-38.507 Y-16.057
G1 X-38.432 Y-15.713
G1 X-38.431 Y-15.706
G1 X-38.357 Y-15.359
G1 X-38.356 Y-15.352
G1 X-38.283 Y-15.002
G1 X-38.282 Y-14.995
G1 X-38.211 Y-14.641
G1 X-38.21 Y-14.635
G1 X-38.14 Y-14.278
G1 X-38.138 Y-14.271
G1 X-38.07 Y-13.911
G1 X-38.069 Y-13.905
G1 X-38.001 Y-13.541
G1 X-38 Y-13.535
G1 X-37.934 Y-13.168
G1 X-37.933 Y-13.162
G1 X-37.868 Y-12.792
G1 X-37.867 Y-12.786
G1 X-37.803 Y-12.412
G1 X-37.802 Y-12.406
G1 X-37.74 Y-12.03
G1 X-37.739 Y-12.024
G1 X-37.678 Y-11.644
G1 X-37.677 Y-11.638
G1 X-37.617 Y-11.255
G1 X-37.616 Y-11.249
G1 X-37.558 Y-10.863
G1 X-37.557 Y-10.857
G1 X-37.499 Y-10.468
G1 Y-10.462
G1 X-37.443 Y-10.069
G1 X-37.442 Y-10.064
G1 X-37.387 Y-9.668
G1 X-37.386 Y-9.662
G1 X-37.333 Y-9.263
G1 X-37.332 Y-9.258
G1 X-37.279 Y-8.855
G1 Y-8.85
G1 X-37.228 Y-8.444
G1 X-37.227 Y-8.439
G1 X-37.177 Y-8.03
G1 Y-8.025
G1 X-37.129 Y-7.619
G1 X-37.075 Y-7.203
G1 X-37.021 Y-6.78
G1 X-36.967 Y-6.357
G1 X-36.912 Y-5.934
G1 X-36.858 Y-5.511
G1 X-36.804 Y-5.088
G1 X-36.75 Y-4.665
G1 X-36.695 Y-4.242
G1 Y-4.241
G1 X-36.641 Y-3.818
G1 X-36.587 Y-3.395
G1 X-36.533 Y-2.972
G1 X-36.479 Y-2.549
G1 X-36.425 Y-2.126
G1 X-36.371 Y-1.703
G1 X-36.317 Y-1.28
G1 Y-1.279
G1 X-36.263 Y-0.857
G1 X-36.21 Y-0.434
G1 X-36.209 Y-0.433
G1 X-36.156 Y-0.01
G1 X-36.102 Y0.413
G1 X-36.048 Y0.836
G1 X-35.994 Y1.259
G1 X-35.887 Y2.105
G1 X-35.835 Y2.519
G1 X-35.776 Y2.934
G1 X-35.715 Y3.356
G1 X-35.654 Y3.777
G1 X-35.593 Y4.197
G1 X-35.531 Y4.615
G1 X-35.468 Y5.032
G1 X-35.405 Y5.448
G1 X-35.342 Y5.862
G1 X-35.278 Y6.276
G1 X-35.214 Y6.688
G1 X-35.149 Y7.098
G1 X-35.083 Y7.508
G1 X-35.017 Y7.916
G1 X-34.951 Y8.323
G1 X-34.884 Y8.729
G1 X-34.817 Y9.133
G1 X-34.749 Y9.537
G1 X-34.681 Y9.939
G1 X-34.612 Y10.339
G1 X-34.542 Y10.739
G1 X-34.472 Y11.137
G1 X-34.402 Y11.534
G1 X-34.331 Y11.929
G1 X-34.26 Y12.322
G1 X-34.188 Y12.71
G1 X-34.115 Y13.092
G1 X-34.041 Y13.47
G1 X-33.964 Y13.844
G1 X-33.886 Y14.213
G1 X-33.806 Y14.579
G1 X-33.725 Y14.94
G1 X-33.642 Y15.298
G1 X-33.557 Y15.651
G1 X-33.471 Y16
G1 X-33.383 Y16.345
G1 X-33.293 Y16.685
G1 X-33.202 Y17.022
G1 X-33.109 Y17.354
G1 X-33.014 Y17.682
G1 X-32.918 Y18.006
G1 X-32.82 Y18.326
G1 X-32.721 Y18.642
G1 X-32.62 Y18.953
G1 X-32.517 Y19.26
G1 X-32.413 Y19.563
G1 X-32.307 Y19.862
G1 X-32.2 Y20.157
G1 X-32.089 Y20.454
G1 X-32.057 Y20.55
G1 X-32.033 Y20.648
G1 X-32.017 Y20.748
G1 X-32.008 Y20.849
G1 Y20.95
G1 X-32.015 Y21.051
G1 X-32.03 Y21.151
G1 X-32.053 Y21.249
G1 X-32.084 Y21.346
G1 X-32.122 Y21.44
G1 X-32.167 Y21.53
G1 X-32.219 Y21.617
G1 X-32.278 Y21.699
G1 X-32.343 Y21.777
G1 X-32.414 Y21.849
G1 X-32.491 Y21.915
G1 X-32.572 Y21.975
G1 X-32.658 Y22.029
G1 X-32.748 Y22.076
G1 X-32.841 Y22.115
G1 X-32.937 Y22.148
G1 X-33.035 Y22.172
G1 X-33.135 Y22.189
G1 X-33.235 Y22.198
G1 X-33.337 Y22.199
G1 X-33.438 Y22.192
G1 X-33.538 Y22.177
G1 X-33.636 Y22.155
G1 X-33.733 Y22.125
G1 X-33.827 Y22.087
G1 X-33.918 Y22.042
G1 X-34.005 Y21.99
G1 X-34.087 Y21.932
G1 X-34.165 Y21.867
G1 X-34.237 Y21.797
G1 X-34.358 Y21.67
G1 X-34.361 Y21.666
G1 X-34.482 Y21.538
G1 X-34.485 Y21.534
G1 X-34.606 Y21.405
G1 X-34.61 Y21.401
G1 X-34.731 Y21.27
G1 X-34.735 Y21.267
G1 X-34.857 Y21.134
G1 X-34.86 Y21.13
G1 X-34.983 Y20.996
G1 X-34.986 Y20.993
G1 X-35.109 Y20.857
G1 X-35.112 Y20.854
G1 X-35.236 Y20.717
G1 X-35.239 Y20.713
G1 X-35.363 Y20.575
G1 X-35.366 Y20.571
G1 X-35.491 Y20.431
G1 X-35.493 Y20.428
G1 X-35.619 Y20.286
G1 X-35.621 Y20.283
G1 X-35.747 Y20.14
G1 X-35.75 Y20.137
G1 X-35.876 Y19.992
G1 X-35.879 Y19.989
G1 X-36.006 Y19.843
G1 X-36.008 Y19.839
G1 X-36.135 Y19.692
G1 X-36.138 Y19.689
G1 X-36.266 Y19.539
G1 X-36.268 Y19.536
G1 X-36.396 Y19.386
G1 X-36.399 Y19.383
G1 X-36.528 Y19.231
G1 X-36.53 Y19.228
G1 X-36.659 Y19.074
G1 X-36.662 Y19.071
G1 X-36.792 Y18.916
G1 X-36.794 Y18.913
G1 X-36.924 Y18.756
G1 X-36.926 Y18.754
G1 X-37.057 Y18.595
G1 X-37.06 Y18.592
G1 X-37.191 Y18.433
G1 X-37.193 Y18.43
G1 X-37.318 Y18.277
G1 X-37.443 Y18.129
G1 X-37.446 Y18.126
G1 X-37.578 Y17.969
G1 X-37.579 Y17.967
G1 X-37.711 Y17.809
G1 X-37.714 Y17.806
G1 X-37.846 Y17.648
G1 X-37.847 Y17.646
G1 X-37.979 Y17.486
G1 X-37.981 Y17.484
G1 X-38.113 Y17.323
G1 X-38.115 Y17.322
G1 X-38.247 Y17.161
G1 X-38.249 Y17.158
G1 X-38.381 Y16.996
G1 X-38.383 Y16.995
G1 X-38.515 Y16.832
G1 X-38.517 Y16.83
G1 X-38.649 Y16.666
G1 X-38.65 Y16.664
G1 X-38.782 Y16.501
G1 X-38.784 Y16.498
G1 X-38.916 Y16.333
G1 X-38.918 Y16.332
G1 X-39.05 Y16.166
G1 X-39.052 Y16.164
G1 X-39.184 Y15.997
G1 X-39.185 Y15.996
G1 X-39.317 Y15.829
G1 X-39.319 Y15.826
G1 X-39.451 Y15.658
G1 X-39.453 Y15.657
G1 X-39.585 Y15.488
G1 X-39.587 Y15.486
G1 X-39.719 Y15.317
G1 X-39.72 Y15.315
G1 X-39.852 Y15.145
G1 X-39.854 Y15.142
G1 X-39.986 Y14.972
G1 X-39.988 Y14.97
G1 X-40.12 Y14.799
G1 X-40.122 Y14.796
G1 X-40.254 Y14.624
G1 X-40.255 Y14.622
G1 X-40.387 Y14.449
G1 X-40.389 Y14.447
G1 X-40.521 Y14.273
G1 X-40.54 Y14.247
G1 X-40.666 Y14.073
G1 X-40.668 Y14.07
G1 X-40.793 Y13.895
G1 X-40.796 Y13.892
G1 X-40.921 Y13.716
G1 X-40.923 Y13.713
G1 X-41.048 Y13.536
G1 X-41.051 Y13.533
G1 X-41.176 Y13.356
G1 X-41.178 Y13.353
G1 X-41.302 Y13.175
G1 X-41.305 Y13.171
G1 X-41.429 Y12.992
G1 X-41.431 Y12.99
G1 X-41.555 Y12.81
G1 X-41.557 Y12.807
G1 X-41.681 Y12.626
G1 X-41.683 Y12.623
G1 X-41.807 Y12.442
G1 X-41.809 Y12.439
G1 X-41.932 Y12.257
G1 X-41.934 Y12.254
G1 X-42.057 Y12.072
G1 X-42.06 Y12.068
G1 X-42.182 Y11.885
G1 X-42.184 Y11.882
G1 X-42.307 Y11.698
G1 X-42.309 Y11.695
G1 X-42.431 Y11.51
G1 X-42.433 Y11.507
G1 X-42.556 Y11.321
G1 X-42.558 Y11.318
G1 X-42.679 Y11.132
G1 X-42.681 Y11.129
G1 X-42.803 Y10.942
G1 X-42.805 Y10.939
G1 X-42.926 Y10.751
G1 X-42.928 Y10.748
G1 X-43.049 Y10.56
G1 X-43.052 Y10.556
G1 X-43.172 Y10.367
G1 X-43.174 Y10.364
G1 X-43.294 Y10.174
G1 X-43.297 Y10.171
G1 X-43.417 Y9.98
G1 X-43.419 Y9.977
G1 X-43.535 Y9.792
G1 X-43.65 Y9.612
G1 X-43.651 Y9.611
G1 X-43.771 Y9.425
G1 X-43.772 Y9.422
G1 X-43.891 Y9.236
G1 X-43.892 Y9.235
G1 X-44.01 Y9.049
G1 X-44.012 Y9.046
G1 X-44.13 Y8.86
G1 X-44.131 Y8.858
G1 X-44.248 Y8.672
G1 X-44.25 Y8.67
G1 X-44.366 Y8.484
G1 X-44.367 Y8.482
G1 X-44.484 Y8.296
G1 X-44.485 Y8.294
G1 X-44.601 Y8.108
G1 X-44.602 Y8.106
G1 X-44.717 Y7.92
G1 X-44.719 Y7.917
G1 X-44.834 Y7.731
G1 X-44.835 Y7.73
G1 X-44.949 Y7.544
G1 X-44.951 Y7.541
G1 X-45.064 Y7.355
G1 X-45.065 Y7.353
G1 X-45.179 Y7.167
G1 X-45.18 Y7.165
G1 X-45.293 Y6.979
G1 X-45.294 Y6.977
G1 X-45.406 Y6.791
G1 X-45.408 Y6.788
G1 X-45.52 Y6.602
G1 X-45.521 Y6.601
G1 X-45.632 Y6.415
G1 X-45.633 Y6.412
G1 X-45.744 Y6.226
G1 X-45.745 Y6.224
G1 X-45.856 Y6.038
G1 X-45.857 Y6.036
G1 X-45.967 Y5.85
G1 X-45.968 Y5.848
G1 X-46.077 Y5.662
G1 X-46.079 Y5.659
G1 X-46.187 Y5.473
G1 X-46.188 Y5.471
G1 X-46.297 Y5.285
G1 X-46.343 Y5.199
G1 X-46.382 Y5.109
G1 X-46.415 Y5.017
G1 X-46.44 Y4.923
G1 X-46.458 Y4.827
G1 X-46.469 Y4.729
G1 X-46.472 Y4.632
G1 X-46.468 Y4.534
G1 X-46.457 Y4.437
G1 X-46.41 Y4.134
G1 X-46.365 Y3.834
G1 X-46.32 Y3.535
G1 X-46.277 Y3.237
G1 X-46.236 Y2.94
G1 X-46.195 Y2.644
G1 X-46.156 Y2.349
G1 X-46.118 Y2.055
G1 X-46.098 Y1.893
G1 X-46.049 Y1.767 Z-2.923
G1 X-46.018 Y1.672 Z-2.876
G1 X-45.991 Y1.576 Z-2.839
G1 X-45.968 Y1.48 Z-2.811
G1 X-45.945 Y1.358 Z-2.79
G1 X-45.861 Y0.845 Z-2.731
G1 X-45.781 Y0.329 Z-2.672
G1 X-45.674 Y-0.401 Z-2.588
G1 X-45.607 Y-0.885 Z-2.533
G1 X-45.543 Y-1.371 Z-2.478
G1 X-45.459 Y-2.059 Z-2.401
G1 X-45.407 Y-2.515 Z-2.351
G1 X-45.349 Y-3.034 Z-2.306
G1 X-45.299 Y-3.546 Z-2.255
G1 X-45.275 Y-3.832 Z-2.224
G1 X-45.242 Y-4.291 Z-2.169
G1 X-45.22 Y-4.68 Z-2.119
G1 X-45.212 Y-4.886 Z-2.093
G1 X-45.206 Y-5.089 Z-2.067
G1 X-45.202 Y-5.289 Z-2.041
G1 X-45.201 Y-5.679 Z-1.991
G1 Y-5.7 Z-1.988
G1 X-45.209 Y-6.057 Z-1.942
G1 X-45.216 Y-6.241 Z-1.918
G1 X-45.225 Y-6.422 Z-1.896
G1 X-45.248 Y-6.763 Z-1.854
G1 X-45.265 Y-6.947 Z-1.831
G1 X-45.282 Y-7.116 Z-1.812
G1 X-45.302 Y-7.282 Z-1.793
G1 X-45.324 Y-7.445 Z-1.775
G1 X-45.371 Y-7.748 Z-1.744
G1 X-45.401 Y-7.917 Z-1.729
G1 X-45.431 Y-8.069 Z-1.716
G1 X-45.464 Y-8.222 Z-1.705
G1 X-45.514 Y-8.433 Z-1.693
G1 X-45.536 Y-8.521 Z-1.689
G1 X-45.587 Y-8.705 Z-1.687
G1 X-45.639 Y-8.885 Z-1.684
G1 X-45.692 Y-9.061 Z-1.679
G1 X-45.746 Y-9.233 Z-1.674
G1 X-45.801 Y-9.402 Z-1.667
G1 X-45.912 Y-9.718 Z-1.65
G1 X-45.971 Y-9.875 Z-1.639
G1 X-46.03 Y-10.027 Z-1.627
G1 X-46.095 Y-10.183 Z-1.613
G1 X-46.115 Y-10.233 Z-1.609
G1 X-46.22 Y-10.469 Z-1.583
G1 X-46.285 Y-10.606 Z-1.565
G1 X-46.351 Y-10.738 Z-1.547
G1 X-46.419 Y-10.867 Z-1.527
G1 X-46.487 Y-10.991 Z-1.507
G1 X-46.557 Y-11.112 Z-1.484
G1 X-46.628 Y-11.228 Z-1.461
G1 X-46.701 Y-11.341 Z-1.436
G1 X-46.774 Y-11.449 Z-1.41
G1 X-46.85 Y-11.553 Z-1.383
G1 X-46.926 Y-11.653 Z-1.355
G1 X-46.97 Y-11.708 Z-1.339
G1 X-47.045 Y-11.794 Z-1.307
G1 X-47.097 Y-11.853 Z-1.285
G1 X-47.174 Y-11.932 Z-1.259
G1 X-47.25 Y-12.007 Z-1.233
G1 X-47.326 Y-12.079 Z-1.207
G1 X-47.402 Y-12.148 Z-1.181
G1 X-47.478 Y-12.213 Z-1.156
G1 X-47.555 Y-12.274 Z-1.131
G1 X-47.632 Y-12.333 Z-1.106
G1 X-47.709 Y-12.388 Z-1.082
G1 X-47.786 Y-12.439 Z-1.058
G1 X-47.868 Y-12.489 Z-1.034
G1 X-47.95 Y-12.536 Z-1.011
G1 X-48.032 Y-12.578 Z-0.988
G1 X-48.114 Y-12.615 Z-0.967
G1 X-48.197 Y-12.649 Z-0.947
G1 X-48.279 Y-12.678 Z-0.928
G1 X-48.362 Y-12.703 Z-0.91
G1 X-48.418 Y-12.718 Z-0.899
G1 X-48.499 Y-12.735 Z-0.884
G1 X-48.579 Y-12.748 Z-0.872
G1 X-48.66 Y-12.757 Z-0.861
G1 X-48.74 Y-12.762 Z-0.852
G1 X-48.821 Z-0.845
G1 X-48.9 Y-12.758 Z-0.84
G1 X-48.979 Y-12.75 Z-0.838
G1 X-49.034 Y-12.741 Z-0.843
G1 X-49.117 Y-12.722 Z-0.852
G1 X-49.178 Y-12.705 Z-0.86
G1 X-49.253 Y-12.68 Z-0.872
G1 X-49.33 Y-12.65 Z-0.886
G1 X-49.403 Y-12.618 Z-0.903
G1 X-49.477 Y-12.58 Z-0.921
G1 X-49.548 Y-12.54 Z-0.941
G1 X-49.619 Y-12.495 Z-0.963
G1 X-49.687 Y-12.448 Z-0.986
G1 X-49.755 Y-12.396 Z-1.011
G1 X-49.82 Y-12.341 Z-1.037
G1 X-49.885 Y-12.283 Z-1.064
G1 X-49.948 Y-12.222 Z-1.093
G1 X-50.01 Y-12.157 Z-1.123
G1 X-50.07 Y-12.089 Z-1.154
G1 X-50.131 Y-12.016 Z-1.187
G1 X-50.234 Y-11.88 Z-1.247
G1 X-50.3 Y-11.785 Z-1.288
G1 X-50.354 Y-11.701 Z-1.323
G1 X-50.407 Y-11.615 Z-1.36
G1 X-50.459 Y-11.525 Z-1.397
G1 X-50.51 Y-11.432 Z-1.435
G1 X-50.589 Y-11.276 Z-1.499
G1 X-50.628 Y-11.184 Z-1.529
G1 X-50.672 Y-11.071 Z-1.563
G1 X-50.713 Y-10.956 Z-1.597
G1 X-50.752 Y-10.836 Z-1.63
G1 X-50.789 Y-10.714 Z-1.663
G1 X-50.823 Y-10.587 Z-1.695
G1 X-50.876 Y-10.357 Z-1.749
G1 X-50.883 Y-10.324 Z-1.757
G1 X-50.928 Y-10.08 Z-1.809
G1 X-50.934 Y-10.045 Z-1.817
G1 X-50.97 Y-9.79 Z-1.866
G1 X-50.987 Y-9.641 Z-1.894
G1 X-51.002 Y-9.476 Z-1.923
G1 X-51.005 Y-9.438 Z-1.93
G1 X-51.023 Y-9.164 Z-1.974
G1 X-51.029 Y-9.014 Z-1.996
G1 X-51.034 Y-8.839 Z-2.022
G1 X-51.036 Y-8.672 Z-2.045
G1 Y-8.502 Z-2.067
G1 X-51.033 Y-8.329 Z-2.089
G1 X-51.028 Y-8.153 Z-2.11
G1 X-51.021 Y-7.974 Z-2.13
G1 X-51.01 Y-7.784 Z-2.151
G1 X-50.998 Y-7.612 Z-2.17
G1 X-50.967 Y-7.262 Z-2.206
G1 X-50.923 Y-6.877 Z-2.241
G1 X-50.88 Y-6.556 Z-2.267
G1 X-50.852 Y-6.377 Z-2.281
G1 X-50.802 Y-6.068 Z-2.304
G1 X-50.759 Y-5.834 Z-2.32
G1 X-50.679 Y-5.427 Z-2.347
G1 X-50.608 Y-5.097 Z-2.367
G1 X-50.529 Y-4.757 Z-2.388
G1 X-50.473 Y-4.527 Z-2.402
G1 X-50.376 Y-4.155 Z-2.423
G1 X-50.284 Y-3.818 Z-2.443
G1 X-50.215 Y-3.576 Z-2.457
G1 X-50.142 Y-3.33 Z-2.472
G1 X-49.983 Y-2.83 Z-2.512
G1 X-49.893 Y-2.559 Z-2.532
G1 X-49.814 Y-2.325 Z-2.55
G1 X-49.679 Y-1.949 Z-2.571
G1 X-49.524 Y-1.526 Z-2.596
G1 X-49.316 Y-0.982 Z-2.628
G1 X-49.209 Y-0.708 Z-2.645
G1 X-48.986 Y-0.157 Z-2.678
G1 X-48.865 Y0.134 Z-2.696
G1 X-48.632 Y0.679 Z-2.729
G1 X-48.498 Y0.987 Z-2.748
G1 X-48.256 Y1.526 Z-2.782
G1 X-48.209 Y1.631 Z-2.788
G1 X-48.166 Y1.72 Z-2.798
G1 X-48.119 Y1.808 Z-2.819
G1 X-48.065 Y1.899 Z-2.85
G1 X-48.007 Y1.989 Z-2.892
G1 X-47.945 Y2.076 Z-2.946
G1 X-47.888 Y2.15 Z-3
G1 X-47.805 Y2.206
G1 X-47.718 Y2.255
G1 X-47.627 Y2.298
G1 X-47.533 Y2.333
G1 X-47.437 Y2.361
G1 X-47.339 Y2.382
G1 X-47.24 Y2.394
G1 X-47.14 Y2.399
G1 X-47.04 Y2.397
G1 X-46.94 Y2.387
G1 X-46.842 Y2.368
G1 X-46.745 Y2.343
G1 X-46.65 Y2.31
G1 X-46.559 Y2.27
G1 X-46.47 Y2.222
G1 X-46.386 Y2.169
G1 X-46.306 Y2.108
G1 X-46.231 Y2.042
G1 X-46.161 Y1.97
G1 X-46.098 Y1.893
G1 X-46.161 Y1.97
G1 X-46.231 Y2.042
G1 X-46.306 Y2.108
G1 X-46.386 Y2.169
G1 X-46.47 Y2.222
G1 X-46.559 Y2.27
G1 X-46.65 Y2.31
G1 X-46.745 Y2.343
G1 X-46.842 Y2.368
G1 X-46.94 Y2.387
G1 X-47.04 Y2.397
G1 X-47.14 Y2.399
G1 X-47.24 Y2.394
G1 X-47.339 Y2.382
G1 X-47.437 Y2.361
G1 X-47.533 Y2.333
G1 X-47.627 Y2.298
G1 X-47.718 Y2.255
G1 X-47.805 Y2.206
G1 X-47.888 Y2.15
G1 X-47.796 Y2.357
G1 X-47.665 Y2.649
G1 X-47.531 Y2.942
G1 X-47.396 Y3.236
G1 X-47.257 Y3.531
G1 X-47.116 Y3.828
G1 X-46.973 Y4.126
G1 X-46.826 Y4.429
G1 X-46.785 Y4.522
G1 X-46.751 Y4.618
G1 X-46.725 Y4.716
G1 X-46.708 Y4.816
G1 X-46.697 Y4.917
G1 X-46.695 Y5.019
G1 X-46.701 Y5.12
G1 X-46.715 Y5.221
G1 X-46.737 Y5.32
G1 X-46.821 Y5.643
G1 Y5.644
G1 X-46.905 Y5.967
G1 Y5.968
G1 X-46.989 Y6.29
G1 X-47.073 Y6.612
G1 Y6.613
G1 X-47.157 Y6.933
G1 Y6.934
G1 X-47.241 Y7.254
G1 X-47.242
G1 X-47.326 Y7.574
G1 X-47.41 Y7.893
G1 X-47.494 Y8.211
G1 Y8.212
G1 X-47.578 Y8.529
G1 X-47.662 Y8.846
G1 X-47.663
G1 X-47.747 Y9.162
G1 X-47.831 Y9.477
G1 Y9.478
G1 X-47.915 Y9.792
G1 X-47.999 Y10.106
G1 X-48.083 Y10.419
G1 X-48.084
G1 X-48.168 Y10.731
G1 Y10.732
G1 X-48.252 Y11.043
G1 X-48.336 Y11.353
G1 Y11.354
G1 X-48.42 Y11.664
G1 X-48.504 Y11.973
G1 X-48.505 Y11.974
G1 X-48.589 Y12.282
G1 X-48.673 Y12.59
G1 X-48.756 Y12.893
G1 X-48.838 Y13.198
G1 X-48.918 Y13.5
G1 X-48.996 Y13.797
G1 X-49.072 Y14.09
G1 X-49.146 Y14.379
G1 X-49.218 Y14.663
G1 X-49.289 Y14.942
G1 X-49.357 Y15.216
G1 X-49.423 Y15.486
G1 X-49.487 Y15.751
G1 X-49.549 Y16.012
G1 X-49.609 Y16.268
G1 X-49.667 Y16.519
G1 X-49.723 Y16.766
G1 X-49.776 Y17.007
G1 X-49.828 Y17.245
G1 X-49.878 Y17.477
G1 X-49.926 Y17.705
G1 X-49.972 Y17.928
G1 X-50.016 Y18.146
G1 X-50.057 Y18.36
G1 X-50.097 Y18.568
G1 X-50.135 Y18.772
G1 X-50.171 Y18.975
G1 X-50.193 Y19.073
G1 X-50.222 Y19.168
G1 X-50.258 Y19.261
G1 X-50.301 Y19.351
G1 X-50.351 Y19.437
G1 X-50.407 Y19.52
G1 X-50.47 Y19.597
G1 X-50.539 Y19.67
G1 X-50.612 Y19.737
G1 X-50.691 Y19.798
G1 X-50.775 Y19.853
G1 X-50.862 Y19.901
G1 X-50.953 Y19.943
G1 X-51.046 Y19.977
G1 X-51.142 Y20.004
G1 X-51.24 Y20.023
G1 X-51.339 Y20.035
G1 X-51.439 Y20.04
G1 X-51.538 Y20.036
G1 X-51.638 Y20.025
G1 X-51.736 Y20.006
G1 X-51.737 Y20.105
G1 X-51.745 Y20.203
G1 X-51.761 Y20.3
G1 X-51.784 Y20.396
G1 X-51.815 Y20.49
G1 X-51.852 Y20.581
G1 X-51.897 Y20.669
G1 X-51.948 Y20.753
G1 X-52.005 Y20.833
G1 X-52.068 Y20.909
G1 X-52.137 Y20.98
G1 X-52.211 Y21.045
G1 X-52.29 Y21.104
G1 X-52.373 Y21.157
G1 X-52.46 Y21.204
G1 X-52.55 Y21.244
G1 X-52.643 Y21.277
G1 X-52.738 Y21.303
G1 X-52.835 Y21.321
G1 X-52.738 Y21.303
G1 X-52.643 Y21.277
G1 X-52.55 Y21.244
G1 X-52.46 Y21.204
G1 X-52.373 Y21.157
G1 X-52.29 Y21.104
G1 X-52.211 Y21.045
G1 X-52.137 Y20.98
G1 X-52.068 Y20.909
G1 X-52.005 Y20.833
G1 X-51.948 Y20.753
G1 X-51.897 Y20.669
G1 X-51.852 Y20.581
G1 X-51.815 Y20.49
G1 X-51.784 Y20.396
G1 X-51.761 Y20.3
G1 X-51.745 Y20.203
G1 X-51.737 Y20.105
G1 X-51.736 Y20.006
G1 X-51.805 Y19.922 Z-2.846
G1 X-51.869 Y19.843 Z-2.717
G1 X-51.93 Y19.768 Z-2.611
G1 X-51.959 Y19.733 Z-2.565
G1 X-51.987 Y19.698 Z-2.525
G1 X-52.015 Y19.664 Z-2.489
G1 X-52.042 Y19.631 Z-2.457
G1 X-52.069 Y19.598 Z-2.43
G1 X-52.095 Y19.566 Z-2.407
G1 X-52.122 Y19.534 Z-2.388
G1 X-52.147 Y19.503 Z-2.373
G1 X-52.173 Y19.472 Z-2.361
G1 X-52.199 Y19.44 Z-2.354
G1 X-52.27 Y19.348 Z-2.346
G1 X-52.33 Y19.26 Z-2.352
G1 X-52.391 Y19.158 Z-2.373
G1 X-52.5 Y18.961 Z-2.424
G1 X-52.613 Y18.749 Z-2.476
G1 X-52.724 Y18.532 Z-2.526
G1 X-52.834 Y18.311 Z-2.575
G1 X-52.941 Y18.085 Z-2.622
G1 X-53.047 Y17.855 Z-2.666
G1 X-53.149 Y17.626 Z-2.708
G1 X-53.245 Y17.402 Z-2.747
G1 X-53.34 Y17.172 Z-2.785
G1 X-53.434 Y16.939 Z-2.821
G1 X-53.456 Y16.883 Z-2.829
G1 X-53.618 Y16.457 Z-2.889
G1 X-53.644 Y16.385 Z-2.898
G1 X-53.798 Y15.956 Z-2.951
G1 X-53.83 Y15.862 Z-2.962
G1 X-53.946 Y15.515 Z-3
G1 X-53.975 Y15.437
G1 X-54.071 Y15.173
G1 X-54.165 Y14.904
G1 X-54.257 Y14.629
G1 X-54.348 Y14.35
G1 X-54.437 Y14.065
G1 X-54.525 Y13.769
G1 X-54.613 Y13.473
G1 X-54.7 Y13.176
G1 X-54.785 Y12.876
G1 X-54.87 Y12.573
G1 X-54.954 Y12.268
G1 X-55.037 Y11.961
G1 X-55.119 Y11.651
G1 X-55.2 Y11.338
G1 X-55.279 Y11.023
G1 X-55.359 Y10.705
G1 X-55.437 Y10.385
G1 X-55.514 Y10.062
G1 X-55.59 Y9.736
G1 X-55.665 Y9.408
G1 X-55.739 Y9.077
G1 X-55.813 Y8.744
G1 X-55.885 Y8.408
G1 X-55.956 Y8.07
G1 X-56.027 Y7.729
G1 X-56.096 Y7.385
G1 X-56.165 Y7.039
G1 X-56.232 Y6.691
G1 X-56.299 Y6.34
G1 X-56.363 Y5.994
G1 X-56.421 Y5.65
G1 X-56.48 Y5.296
G1 X-56.539 Y4.941
G1 X-56.598 Y4.585
G1 X-56.657 Y4.228
G1 X-56.715 Y3.87
G1 X-56.773 Y3.511
G1 X-56.831 Y3.15
G1 X-56.889 Y2.789
G1 X-56.946 Y2.427
G1 X-57.003 Y2.064
G1 X-57.06 Y1.7
G1 X-57.117 Y1.335
G1 X-57.174 Y0.969
G1 X-57.23 Y0.602
G1 X-57.286 Y0.234
G1 X-57.341 Y-0.136
G1 X-57.397 Y-0.506
G1 X-57.452 Y-0.877
G1 X-57.507 Y-1.249
G1 X-57.561 Y-1.622
G1 X-57.616 Y-1.996
G1 X-57.67 Y-2.372
G1 X-57.724 Y-2.749
G1 X-57.778 Y-3.126
G1 X-57.779 Y-3.128
G1 X-57.833 Y-3.503
G1 Y-3.504
G1 X-57.888 Y-3.877
G1 Y-3.879
G1 X-57.943 Y-4.25
G1 Y-4.252
G1 X-57.998 Y-4.621
G1 X-57.999 Y-4.623
G1 X-58.054 Y-4.99
G1 Y-4.992
G1 X-58.11 Y-5.357
G1 Y-5.359
G1 X-58.166 Y-5.722
G1 Y-5.724
G1 X-58.222 Y-6.085
G1 X-58.223 Y-6.087
G1 X-58.279 Y-6.446
G1 X-58.28 Y-6.447
G1 X-58.336 Y-6.804
G1 Y-6.807
G1 X-58.393 Y-7.162
G1 X-58.394 Y-7.163
G1 X-58.451 Y-7.516
G1 Y-7.519
G1 X-58.509 Y-7.87
G1 Y-7.872
G1 X-58.566 Y-8.221
G1 X-58.567 Y-8.223
G1 X-58.625 Y-8.57
G1 Y-8.572
G1 X-58.683 Y-8.917
G1 Y-8.919
G1 X-58.742 Y-9.262
G1 Y-9.264
G1 X-58.801 Y-9.605
G1 Y-9.607
G1 X-58.86 Y-9.946
G1 Y-9.948
G1 X-58.92 Y-10.285
G1 Y-10.288
G1 X-58.979 Y-10.623
G1 X-58.98 Y-10.625
G1 X-59.039 Y-10.958
G1 X-59.04 Y-10.96
G1 X-59.1 Y-11.291
G1 X-59.102 Y-11.302
G1 X-59.163 Y-11.624
G1 X-59.165 Y-11.636
G1 X-59.229 Y-11.953
G1 X-59.231 Y-11.965
G1 X-59.297 Y-12.278
G1 X-59.299 Y-12.291
G1 X-59.367 Y-12.599
G1 X-59.37 Y-12.612
G1 X-59.44 Y-12.916
G1 X-59.443 Y-12.929
G1 X-59.516 Y-13.228
G1 X-59.519 Y-13.241
G1 X-59.594 Y-13.536
G1 X-59.597 Y-13.55
G1 X-59.674 Y-13.84
G1 X-59.678 Y-13.854
G1 X-59.757 Y-14.14
G1 X-59.761 Y-14.154
G1 X-59.843 Y-14.435
G1 X-59.847 Y-14.45
G1 X-59.929 Y-14.723
G1 X-59.861 Y-14.557
G1 X-59.753 Y-14.282
G1 X-59.647 Y-14.001
G1 X-59.545 Y-13.716
G1 X-59.445 Y-13.426
G1 X-59.348 Y-13.131
G1 X-59.255 Y-12.83
G1 X-59.164 Y-12.525
G1 X-59.076 Y-12.214
G1 X-58.99 Y-11.899
G1 X-58.908 Y-11.578
G1 X-58.829 Y-11.253
G1 X-58.752 Y-10.916
G1 X-58.68 Y-10.606
G1 X-58.611 Y-10.296
G1 X-58.541 Y-9.984
G1 X-58.473 Y-9.671
G1 X-58.405 Y-9.356
G1 X-58.338 Y-9.04
G1 X-58.272 Y-8.722
G1 X-58.206 Y-8.403
G1 X-58.141 Y-8.082
G1 X-58.077 Y-7.76
G1 X-58.014 Y-7.436
G1 X-57.951 Y-7.111
G1 X-57.889 Y-6.784
G1 X-57.828 Y-6.455
G1 X-57.768 Y-6.125
G1 X-57.708 Y-5.794
G1 X-57.649 Y-5.461
G1 X-57.591 Y-5.126
G1 X-57.533 Y-4.79
G1 X-57.477 Y-4.453
G1 X-57.421 Y-4.113
G1 X-57.365 Y-3.773
G1 X-57.311 Y-3.431
G1 X-57.257 Y-3.088
G1 X-57.204 Y-2.736
G1 X-57.203
G1 X-57.149 Y-2.383
G1 Y-2.382
G1 X-57.095 Y-2.03
G1 Y-2.029
G1 X-57.041 Y-1.677
G1 X-56.987 Y-1.325
G1 X-56.933 Y-0.974
G1 Y-0.973
G1 X-56.879 Y-0.623
G1 Y-0.622
G1 X-56.825 Y-0.272
G1 X-56.771 Y0.078
G1 X-56.717 Y0.427
G1 Y0.428
G1 X-56.663 Y0.776
G1 Y0.777
G1 X-56.609 Y1.125
G1 X-56.555 Y1.473
G1 X-56.501 Y1.821
G1 X-56.447 Y2.168
G1 X-56.393 Y2.514
G1 X-56.339 Y2.86
G1 X-56.285 Y3.206
G1 X-56.231 Y3.551
G1 X-56.177 Y3.895
G1 Y3.896
G1 X-56.123 Y4.239
G1 Y4.24
G1 X-56.069 Y4.583
G1 X-56.015 Y4.926
G1 X-55.961 Y5.268
G1 X-55.96 Y5.27
G1 X-55.906 Y5.611
G1 Y5.612
G1 X-55.852 Y5.951
G1 X-55.851 Y5.954
G1 X-55.796 Y6.291
G1 Y6.293
G1 X-55.741 Y6.628
G1 Y6.63
G1 X-55.686 Y6.963
G1 X-55.685 Y6.965
G1 X-55.63 Y7.296
G1 Y7.299
G1 X-55.574 Y7.628
G1 Y7.629
G1 X-55.518 Y7.956
G1 X-55.517 Y7.959
G1 X-55.461 Y8.284
G1 Y8.286
G1 X-55.405 Y8.609
G1 X-55.404 Y8.612
G1 X-55.347 Y8.933
G1 Y8.935
G1 X-55.29 Y9.254
G1 Y9.256
G1 X-55.233 Y9.573
G1 X-55.232 Y9.575
G1 X-55.175 Y9.89
G1 X-55.174 Y9.893
G1 X-55.117 Y10.206
G1 X-55.116 Y10.208
G1 X-55.059 Y10.519
G1 X-55.058 Y10.522
G1 X-55 Y10.831
G1 X-54.999 Y10.833
G1 X-54.941 Y11.14
G1 Y11.143
G1 X-54.882 Y11.448
G1 X-54.881 Y11.45
G1 X-54.823 Y11.753
G1 X-54.822 Y11.756
G1 X-54.763 Y12.057
G1 X-54.762 Y12.059
G1 X-54.703 Y12.358
G1 X-54.702 Y12.362
G1 X-54.643 Y12.659
G1 X-54.642 Y12.661
G1 X-54.583 Y12.956
G1 X-54.577 Y12.98
G1 X-54.511 Y13.278
G1 X-54.509 Y13.286
G1 X-54.442 Y13.58
G1 X-54.44 Y13.588
G1 X-54.371 Y13.878
G1 X-54.369 Y13.886
G1 X-54.3 Y14.172
G1 X-54.298 Y14.18
G1 X-54.227 Y14.462
G1 X-54.225 Y14.471
G1 X-54.154 Y14.749
G1 X-54.151 Y14.758
G1 X-54.079 Y15.032
G1 X-54.076 Y15.04
G1 X-54.003 Y15.31
G1 X-54 Y15.32
G1 X-53.946 Y15.515
G1 X-54 Y15.32
G1 X-54.003 Y15.31
G1 X-54.076 Y15.04
G1 X-54.079 Y15.032
G1 X-54.151 Y14.758
G1 X-54.154 Y14.749
G1 X-54.225 Y14.471
G1 X-54.227 Y14.462
G1 X-54.298 Y14.18
G1 X-54.3 Y14.172
G1 X-54.369 Y13.886
G1 X-54.371 Y13.878
G1 X-54.44 Y13.588
G1 X-54.442 Y13.58
G1 X-54.509 Y13.286
G1 X-54.511 Y13.278
G1 X-54.577 Y12.98
G1 X-54.583 Y12.956
G1 X-54.642 Y12.661
G1 X-54.643 Y12.659
G1 X-54.702 Y12.362
G1 X-54.703 Y12.358
G1 X-54.762 Y12.059
G1 X-54.763 Y12.057
G1 X-54.822 Y11.756
G1 X-54.823 Y11.753
G1 X-54.881 Y11.45
G1 X-54.882 Y11.448
G1 X-54.941 Y11.143
G1 Y11.14
G1 X-54.999 Y10.833
G1 X-55 Y10.831
G1 X-55.058 Y10.522
G1 X-55.059 Y10.519
G1 X-55.116 Y10.208
G1 X-55.117 Y10.206
G1 X-55.174 Y9.893
G1 X-55.175 Y9.89
G1 X-55.232 Y9.575
G1 X-55.233 Y9.573
G1 X-55.29 Y9.256
G1 Y9.254
G1 X-55.347 Y8.935
G1 Y8.933
G1 X-55.404 Y8.612
G1 X-55.405 Y8.609
G1 X-55.461 Y8.286
G1 Y8.284
G1 X-55.517 Y7.959
G1 X-55.518 Y7.956
G1 X-55.574 Y7.629
G1 Y7.628
G1 X-55.63 Y7.299
G1 Y7.296
G1 X-55.685 Y6.965
G1 X-55.686 Y6.963
G1 X-55.741 Y6.63
G1 Y6.628
G1 X-55.796 Y6.293
G1 Y6.291
G1 X-55.851 Y5.954
G1 X-55.852 Y5.951
G1 X-55.906 Y5.612
G1 Y5.611
G1 X-55.96 Y5.27
G1 X-55.961 Y5.268
G1 X-56.015 Y4.926
G1 X-56.069 Y4.583
G1 X-56.123 Y4.24
G1 Y4.239
G1 X-56.177 Y3.896
G1 Y3.895
G1 X-56.231 Y3.551
G1 X-56.285 Y3.206
G1 X-56.339 Y2.86
G1 X-56.393 Y2.514
G1 X-56.447 Y2.168
G1 X-56.501 Y1.821
G1 X-56.555 Y1.473
G1 X-56.609 Y1.125
G1 X-56.663 Y0.777
G1 Y0.776
G1 X-56.717 Y0.428
G1 Y0.427
G1 X-56.771 Y0.078
G1 X-56.825 Y-0.272
G1 X-56.879 Y-0.622
G1 Y-0.623
G1 X-56.933 Y-0.973
G1 Y-0.974
G1 X-56.987 Y-1.325
G1 X-57.041 Y-1.677
G1 X-57.095 Y-2.029
G1 Y-2.03
G1 X-57.149 Y-2.382
G1 Y-2.383
G1 X-57.203 Y-2.736
G1 X-57.204
G1 X-57.257 Y-3.088
G1 X-57.311 Y-3.431
G1 X-57.365 Y-3.773
G1 X-57.421 Y-4.113
G1 X-57.477 Y-4.453
G1 X-57.533 Y-4.79
G1 X-57.591 Y-5.126
G1 X-57.649 Y-5.461
G1 X-57.708 Y-5.794
G1 X-57.768 Y-6.125
G1 X-57.828 Y-6.455
G1 X-57.889 Y-6.784
G1 X-57.951 Y-7.111
G1 X-58.014 Y-7.436
G1 X-58.077 Y-7.76
G1 X-58.141 Y-8.082
G1 X-58.206 Y-8.403
G1 X-58.272 Y-8.722
G1 X-58.338 Y-9.04
G1 X-58.405 Y-9.356
G1 X-58.473 Y-9.671
G1 X-58.541 Y-9.984
G1 X-58.611 Y-10.296
G1 X-58.68 Y-10.606
G1 X-58.752 Y-10.916
G1 X-58.829 Y-11.253
G1 X-58.908 Y-11.578
G1 X-58.99 Y-11.899
G1 X-59.076 Y-12.214
G1 X-59.164 Y-12.525
G1 X-59.255 Y-12.83
G1 X-59.348 Y-13.131
G1 X-59.445 Y-13.426
G1 X-59.545 Y-13.716
G1 X-59.647 Y-14.001
G1 X-59.753 Y-14.282
G1 X-59.861 Y-14.557
G1 X-59.929 Y-14.723
G1 X-59.968 Y-14.829 Z-2.988
G1 X-60.069 Y-15.1 Z-2.955
G1 X-60.173 Y-15.366 Z-2.92
G1 X-60.279 Y-15.628 Z-2.885
G1 X-60.388 Y-15.886 Z-2.848
G1 X-60.5 Y-16.139 Z-2.811
G1 X-60.614 Y-16.388 Z-2.773
G1 X-60.731 Y-16.633 Z-2.734
G1 X-60.851 Y-16.874 Z-2.694
G1 X-60.978 Y-17.119 Z-2.651
G1 X-61.108 Y-17.359 Z-2.608
G1 X-61.24 Y-17.595 Z-2.565
G1 X-61.373 Y-17.827 Z-2.527
G1 X-61.5 Y-18.042 Z-2.493
G1 X-61.628 Y-18.255 Z-2.456
G1 X-61.76 Y-18.467 Z-2.419
G1 X-61.893 Y-18.673 Z-2.382
G1 X-62.027 Y-18.875 Z-2.345
G1 X-62.161 Y-19.072 Z-2.308
G1 X-62.297 Y-19.263 Z-2.272
G1 X-62.433 Y-19.45 Z-2.235
G1 X-62.57 Y-19.631 Z-2.199
G1 X-62.709 Y-19.807 Z-2.163
G1 X-62.848 Y-19.979 Z-2.127
G1 X-62.987 Y-20.145 Z-2.091
G1 X-63.128 Y-20.306 Z-2.056
G1 X-63.27 Y-20.462 Z-2.02
G1 X-63.413 Y-20.614 Z-1.985
G1 X-63.556 Y-20.76 Z-1.95
G1 X-63.7 Y-20.902 Z-1.915
G1 X-63.846 Y-21.038 Z-1.88
G1 X-63.992 Y-21.17 Z-1.846
G1 X-64.139 Y-21.297 Z-1.811
G1 X-64.289 Y-21.421 Z-1.776
G1 X-64.44 Y-21.539 Z-1.741
G1 X-64.595 Y-21.655 Z-1.707
G1 X-64.756 Y-21.772 Z-1.677
G1 X-64.909 Y-21.879 Z-1.649
G1 X-65.062 Y-21.982 Z-1.618
G1 X-65.214 Y-22.08 Z-1.587
G1 X-65.367 Y-22.172 Z-1.557
G1 X-65.52 Y-22.259 Z-1.527
G1 X-65.673 Y-22.341 Z-1.498
G1 X-65.826 Y-22.418 Z-1.47
G1 X-65.979 Y-22.489 Z-1.442
G1 X-66.071 Y-22.53 Z-1.424
G1 X-66.132 Y-22.556 Z-1.414
G1 X-66.22 Y-22.592 Z-1.397
G1 X-66.353 Y-22.642 Z-1.374
G1 X-66.52 Y-22.701 Z-1.346
G1 X-66.652 Y-22.743 Z-1.324
G1 X-66.82 Y-22.79 Z-1.297
G1 X-66.971 Y-22.828 Z-1.273
G1 X-67.121 Y-22.86 Z-1.25
G1 X-67.271 Y-22.888 Z-1.228
G1 X-67.421 Y-22.91 Z-1.207
G1 X-67.571 Y-22.928 Z-1.186
G1 X-67.721 Y-22.941 Z-1.166
G1 X-67.871 Y-22.949 Z-1.146
G1 X-68.02 Y-22.952 Z-1.128
G1 X-68.169 Y-22.95 Z-1.111
G1 X-68.318 Y-22.944 Z-1.094
G1 X-68.469 Y-22.933 Z-1.077
G1 X-68.625 Y-22.919 Z-1.053
G1 X-68.779 Y-22.899 Z-1.03
G1 X-68.932 Y-22.875 Z-1.008
G1 X-69.026 Y-22.856 Z-0.993
G1 X-69.082 Y-22.845 Z-0.986
G1 X-69.166 Y-22.825 Z-0.973
G1 X-69.231 Y-22.809 Z-0.966
G1 X-69.305 Y-22.789 Z-0.954
G1 X-69.441 Y-22.749 Z-0.937
G1 X-69.576 Y-22.703 Z-0.919
G1 X-69.707 Y-22.654 Z-0.903
G1 X-69.838 Y-22.599 Z-0.888
G1 X-69.966 Y-22.541 Z-0.874
G1 X-70.093 Y-22.477 Z-0.861
G1 X-70.224 Y-22.405 Z-0.848
G1 X-70.359 Y-22.324 Z-0.836
G1 X-70.493 Y-22.238 Z-0.824
G1 X-70.577 Y-22.18 Z-0.816
G1 X-70.624 Y-22.146 Z-0.814
G1 X-70.692 Y-22.095 Z-0.807
G1 X-70.807 Y-22.006 Z-0.799
G1 X-70.918 Y-21.913 Z-0.792
G1 X-71.029 Y-21.815 Z-0.786
G1 X-71.137 Y-21.713 Z-0.781
G1 X-71.252 Y-21.598 Z-0.777
G1 X-71.371 Y-21.471 Z-0.773
G1 X-71.45 Y-21.383 Z-0.769
G1 X-71.487 Y-21.337 Z-0.775
G1 X-71.521 Y-21.284 Z-0.792
G1 X-71.551 Y-21.229 Z-0.82
G1 X-71.585 Y-21.153 Z-0.877
G1 X-71.595 Y-21.128 Z-0.901
G1 X-71.561 Y-21.1 Z-0.825
G1 X-71.532 Y-21.075 Z-0.763
G1 X-71.506 Y-21.054 Z-0.714
G1 X-71.484 Y-21.035 Z-0.675
G1 X-71.463 Y-21.018 Z-0.644
G1 X-71.445 Y-21.003 Z-0.618
G1 X-71.427 Y-20.988 Z-0.598
G1 X-71.41 Y-20.973 Z-0.582
G1 X-71.37 Y-20.943 Z-0.556
G1 X-71.329 Y-20.917 Z-0.54
G1 X-71.286 Y-20.895 Z-0.535
G1 X-71.191 Y-20.851
G1 X-71.062 Y-20.79 Z-0.539
G1 X-70.96 Y-20.739
G1 X-70.844 Y-20.68 Z-0.543
G1 X-70.732 Y-20.622
G1 X-70.627 Y-20.566 Z-0.546
G1 X-70.506 Y-20.499
G1 X-70.413 Y-20.446 Z-0.549
G1 X-70.283 Y-20.37
G1 X-70.2 Y-20.32 Z-0.552
G1 X-70.062 Y-20.235
G1 X-69.844 Y-20.095 Z-0.555
G1 X-69.629 Y-19.949 Z-0.558
G1 X-69.416 Y-19.797 Z-0.561
G1 X-69.206 Y-19.64 Z-0.563
G1 X-68.998 Y-19.477 Z-0.566
G1 X-68.793 Y-19.309 Z-0.569
G1 X-68.591 Y-19.135 Z-0.572
G1 X-68.391 Y-18.956 Z-0.575
G1 X-68.194 Y-18.77 Z-0.578
G1 X-67.999 Y-18.58 Z-0.582
G1 X-67.807 Y-18.384 Z-0.586
G1 X-67.617 Y-18.183 Z-0.591
G1 X-67.43 Y-17.976 Z-0.596
G1 X-67.245 Y-17.764 Z-0.601
G1 X-67.062 Y-17.546 Z-0.606
G1 X-66.882 Y-17.323 Z-0.613
G1 X-66.705 Y-17.094 Z-0.619
G1 X-66.53 Y-16.86 Z-0.627
G1 X-66.358 Y-16.619 Z-0.635
G1 X-66.192 Y-16.372 Z-0.643
G1 X-66.035 Y-16.123 Z-0.653
G1 X-65.884 Y-15.871 Z-0.662
G1 X-65.74 Y-15.614 Z-0.673
G1 X-65.603 Y-15.352 Z-0.684
G1 X-65.472 Y-15.085 Z-0.695
G1 X-65.347 Y-14.813 Z-0.707
G1 X-65.228 Y-14.536 Z-0.719
G1 X-65.115 Y-14.255 Z-0.731
G1 X-65.009 Y-13.968 Z-0.744
G1 X-64.909 Y-13.677 Z-0.757
G1 X-64.884 Y-13.601 Z-0.759
G1 X-64.815 Y-13.381 Z-0.771
G1 X-64.789 Y-13.294 Z-0.773
G1 X-64.728 Y-13.08 Z-0.785
G1 X-64.701 Y-12.982 Z-0.787
G1 X-64.646 Y-12.774 Z-0.799
G1 X-64.619 Y-12.665 Z-0.802
G1 X-64.571 Y-12.463 Z-0.813
G1 X-64.544 Y-12.342 Z-0.817
G1 X-64.502 Y-12.148 Z-0.828
G1 X-64.475 Y-12.014 Z-0.832
G1 X-64.439 Y-11.827 Z-0.843
G1 X-64.413 Y-11.68 Z-0.848
G1 X-64.383 Y-11.502 Z-0.858
G1 X-64.357 Y-11.342 Z-0.864
G1 X-64.332 Y-11.171 Z-0.874
G1 X-64.308 Y-10.997 Z-0.88
G1 X-64.288 Y-10.836 Z-0.889
G1 X-64.266 Y-10.648 Z-0.896
G1 X-64.25 Y-10.496 Z-0.905
G1 X-64.23 Y-10.293 Z-0.912
G1 X-64.218 Y-10.151 Z-0.921
G1 X-64.201 Y-9.933 Z-0.929
G1 X-64.192 Y-9.802 Z-0.936
G1 X-64.179 Y-9.568 Z-0.943
G1 X-64.17 Y-9.276 Z-0.957
G1 X-64.165 Y-8.989 Z-0.97
G1 X-64.164 Y-8.722 Z-0.982
G1 X-64.166 Y-8.59 Z-0.989
G1 X-64.168 Y-8.453 Z-0.994
G1 X-64.173 Y-8.303 Z-1.002
G1 X-64.177 Y-8.19 Z-1.005
G1 X-64.185 Y-8.023 Z-1.014
G1 X-64.203 Y-7.75 Z-1.026
G1 X-64.226 Y-7.483 Z-1.037
G1 X-64.254 Y-7.224 Z-1.047
G1 X-64.287 Y-6.972 Z-1.057
G1 X-64.326 Y-6.726 Z-1.067
G1 X-64.368 Y-6.499 Z-1.076
G1 X-64.414 Y-6.279 Z-1.085
G1 X-64.465 Y-6.064 Z-1.094
G1 X-64.521 Y-5.855 Z-1.102
G1 X-64.582 Y-5.651 Z-1.111
G1 X-64.647 Y-5.452 Z-1.119
G1 X-64.718 Y-5.259 Z-1.127
G1 X-64.794 Y-5.071 Z-1.136
G1 X-64.801 Y-5.054 Z-1.137
G1 X-64.875 Y-4.888 Z-1.144
G1 X-64.883 Y-4.871 Z-1.145
G1 X-64.961 Y-4.71 Z-1.153
G1 X-64.97 Y-4.693 Z-1.154
G1 X-65.053 Y-4.538 Z-1.161
G1 X-65.062 Y-4.52 Z-1.162
G1 X-65.149 Y-4.372 Z-1.17
G1 X-65.16 Y-4.353 Z-1.171
G1 X-65.252 Y-4.211 Z-1.179
G1 X-65.35 Y-4.062 Z-1.185
G1 X-65.402 Y-3.988 Z-1.191
G1 X-65.454 Y-3.913 Z-1.194
G1 X-65.513 Y-3.833 Z-1.2
G1 X-65.56 Y-3.77 Z-1.202
G1 X-65.625 Y-3.688 Z-1.209
G1 X-65.669 Y-3.633 Z-1.212
G1 X-65.738 Y-3.55 Z-1.219
G1 X-65.779 Y-3.502 Z-1.222
G1 X-65.851 Y-3.42 Z-1.23
G1 X-65.892 Y-3.376 Z-1.232
G1 X-65.966 Y-3.298 Z-1.241
G1 X-66.007 Y-3.256 Z-1.243
G1 X-66.08 Y-3.185 Z-1.252
G1 X-66.126 Y-3.142 Z-1.254
G1 X-66.196 Y-3.079 Z-1.263
G1 X-66.247 Y-3.035 Z-1.266
G1 X-66.311 Y-2.981 Z-1.274
G1 X-66.391 Y-2.918 Z-1.28
G1 X-66.498 Y-2.839 Z-1.289
G1 X-66.629 Y-2.75 Z-1.301
G1 X-66.762 Y-2.669 Z-1.312
G1 X-66.888 Y-2.601 Z-1.321
G1 X-67.003 Y-2.546 Z-1.329
G1 X-67.04 Y-2.53 Z-1.33
G1 X-67.118 Y-2.497 Z-1.335
G1 X-67.214 Y-2.461 Z-1.339
G1 X-67.33 Y-2.422 Z-1.343
G1 X-67.468 Y-2.384 Z-1.347
G1 X-67.586 Y-2.358 Z-1.349
G1 X-67.63 Y-2.35 Z-1.348
G1 X-67.705 Y-2.337 Z-1.35
G1 X-67.783 Y-2.327 Z-1.348
G1 X-67.938 Y-2.313 Z-1.347
G1 X-68.087 Y-2.308 Z-1.344
G1 X-68.224 Z-1.348
G1 X-68.249 Z-1.347
G1 X-68.348 Y-2.313 Z-1.35
G1 X-68.406 Y-2.318 Z-1.349
G1 X-68.437 Y-2.321
G1 X-68.563 Y-2.336 Z-1.348
G1 X-68.719 Y-2.364 Z-1.345
G1 X-68.848 Y-2.394 Z-1.342
G1 X-68.975 Y-2.429 Z-1.336
G1 X-69.027 Y-2.445 Z-1.332
G1 X-69.104 Y-2.471 Z-1.329
G1 X-69.204 Y-2.508 Z-1.322
G1 X-69.328 Y-2.559 Z-1.314
G1 X-69.475 Y-2.628 Z-1.303
G1 X-69.621 Y-2.703 Z-1.293
G1 X-69.765 Y-2.786 Z-1.282
G1 X-69.906 Y-2.875 Z-1.271
G1 X-70.045 Y-2.969 Z-1.261
G1 X-70.184 Y-3.072 Z-1.251
G1 X-70.322 Y-3.181 Z-1.241
G1 X-70.457 Y-3.295 Z-1.232
G1 X-70.591 Y-3.416 Z-1.224
G1 X-70.723 Y-3.542 Z-1.216
G1 X-70.855 Y-3.675 Z-1.21
G1 X-70.985 Y-3.813 Z-1.204
G1 X-71.124 Y-3.967 Z-1.198
G1 X-71.244 Y-4.107 Z-1.195
G1 X-71.322 Y-4.2 Z-1.194
G1 X-71.453 Y-4.367 Z-1.187
G1 X-71.583 Y-4.542 Z-1.176
G1 X-71.71 Y-4.725 Z-1.16
G1 X-71.742 Y-4.774 Z-1.154
G1 X-71.835 Y-4.918 Z-1.143
G1 X-71.957 Y-5.121 Z-1.125
G1 X-72.076 Y-5.334 Z-1.106
G1 X-72.185 Y-5.546 Z-1.088
G1 X-72.286 Y-5.755 Z-1.071
G1 X-72.383 Y-5.97 Z-1.053
G1 X-72.476 Y-6.192 Z-1.036
G1 X-72.514 Y-6.287 Z-1.031
G1 X-72.566 Y-6.42 Z-1.019
G1 X-72.615 Y-6.55 Z-1.012
G1 X-72.652 Y-6.654 Z-1.002
G1 X-72.711 Y-6.823 Z-0.992
G1 X-72.804 Y-7.107 Z-0.973
G1 X-72.891 Y-7.394 Z-0.954
G1 X-72.963 Y-7.654 Z-0.937
G1 X-73.032 Y-7.92 Z-0.92
G1 X-73.098 Y-8.193 Z-0.904
G1 X-73.132 Y-8.34 Z-0.897
G1 X-73.161 Y-8.472 Z-0.888
G1 X-73.204 Y-8.674 Z-0.878
G1 X-73.271 Y-9.017 Z-0.859
G1 X-73.331 Y-9.348 Z-0.84
G1 X-73.38 Y-9.654 Z-0.824
G1 X-73.427 Y-9.965 Z-0.808
G1 X-73.471 Y-10.284 Z-0.792
G1 X-73.497 Y-10.486 Z-0.783
G1 X-73.543 Y-10.88 Z-0.764
G1 X-73.579 Y-11.239 Z-0.759
G1 X-73.622 Y-11.754 Z-0.755
G1 X-73.626 Y-11.807 Z-0.754
G1 X-73.66 Y-12.317 Z-0.75
G1 X-73.663 Y-12.362 Z-0.749
G1 X-73.686 Y-12.865 Z-0.744
G1 X-73.688 Y-12.903 Z-0.743
G1 X-73.701 Y-13.397 Z-0.737
G1 Y-13.43
G1 X-73.704 Y-13.693 Z-0.733
G1 X-73.701 Y-14.167 Z-0.727
G1 X-73.695 Y-14.416 Z-0.723
G1 X-73.686 Y-14.661 Z-0.719
G1 X-73.675 Y-14.902 Z-0.714
G1 X-73.661 Y-15.139 Z-0.71
G1 X-73.644 Y-15.373 Z-0.705
G1 X-73.624 Y-15.603 Z-0.7
G1 X-73.601 Y-15.829 Z-0.695
G1 X-73.575 Y-16.051 Z-0.689
G1 X-73.547 Y-16.269 Z-0.684
G1 X-73.515 Y-16.484 Z-0.678
G1 X-73.481 Y-16.694 Z-0.672
G1 X-73.444 Y-16.902 Z-0.665
G1 X-73.436 Y-16.947 Z-0.663
G1 X-73.39 Y-17.167 Z-0.664
G1 X-73.312 Y-17.504 Z-0.667
G1 X-73.264 Y-17.698 Z-0.669
G1 X-73.215 Y-17.888 Z-0.671
G1 X-73.163 Y-18.074 Z-0.674
G1 X-73.11 Y-18.257 Z-0.677
G1 X-73.055 Y-18.436 Z-0.68
G1 X-72.998 Y-18.611 Z-0.684
G1 X-72.939 Y-18.782 Z-0.688
G1 X-72.878 Y-18.95 Z-0.693
G1 X-72.816 Y-19.114 Z-0.698
G1 X-72.752 Y-19.274 Z-0.703
G1 X-72.686 Y-19.431 Z-0.709
G1 X-72.575 Y-19.68 Z-0.719
G1 X-72.501 Y-19.834 Z-0.725
G1 X-72.425 Y-19.984 Z-0.733
G1 X-72.347 Y-20.131 Z-0.741
G1 X-72.267 Y-20.274 Z-0.749
G1 X-72.185 Y-20.414 Z-0.757
G1 X-72.102 Y-20.548 Z-0.766
G1 X-72.022 Y-20.671 Z-0.774
G1 X-71.938 Y-20.793 Z-0.783
G1 X-71.924 Y-20.814 Z-0.785
G1 X-71.882 Y-20.886 Z-0.811
G1 X-71.851 Y-20.954 Z-0.852
G1 X-71.842 Y-20.978 Z-0.87
G1 X-71.829 Y-21.011 Z-0.901
G1 X-71.791 Y-21.03 Z-0.874
G1 X-71.761 Y-21.045 Z-0.86
G1 X-71.735 Y-21.057 Z-0.853
G1 X-71.712 Y-21.069 Z-0.851
G1 X-71.688 Y-21.081 Z-0.853
G1 X-71.663 Y-21.094 Z-0.86
G1 X-71.633 Y-21.109 Z-0.874
G1 X-71.595 Y-21.128 Z-0.901
G1 X-71.633 Y-21.109 Z-0.874
G1 X-71.663 Y-21.094 Z-0.86
G1 X-71.688 Y-21.081 Z-0.853
G1 X-71.712 Y-21.069 Z-0.851
G1 X-71.735 Y-21.057 Z-0.853
G1 X-71.761 Y-21.045 Z-0.86
G1 X-71.791 Y-21.03 Z-0.874
G1 X-71.829 Y-21.011 Z-0.901
G1 X-71.884 Y-21.056 Z-0.779
G1 X-71.926 Y-21.092 Z-0.698
G1 X-71.961 Y-21.12 Z-0.643
G1 X-71.992 Y-21.146 Z-0.603
G1 X-72.046 Y-21.187 Z-0.555
G1 X-72.103 Y-21.22 Z-0.526
G1 X-72.163 Y-21.245 Z-0.516
G1 X-72.344 Y-21.308 Z-0.511
G1 X-72.529 Y-21.368 Z-0.507
G1 X-72.714 Y-21.424 Z-0.503
G1 X-72.898 Y-21.476 Z-0.499
G1 X-73.082 Y-21.524 Z-0.495
G1 X-73.267 Y-21.568 Z-0.492
G1 X-73.45 Y-21.608 Z-0.489
G1 X-73.634 Y-21.644 Z-0.487
G1 X-73.817 Y-21.676 Z-0.485
G1 X-74 Y-21.704 Z-0.483
G1 X-74.183 Y-21.728 Z-0.481
G1 X-74.276 Y-21.739 Z-0.482
G1 X-74.466 Y-21.758 Z-0.481
G1 X-74.655 Y-21.772 Z-0.48
G1 X-74.844 Y-21.782
G1 X-75.033 Y-21.788
G1 X-75.221 Y-21.79
G1 X-75.409 Y-21.787 Z-0.481
G1 X-75.597 Y-21.78 Z-0.482
G1 X-75.785 Y-21.769 Z-0.484
G1 X-75.972 Y-21.754 Z-0.486
G1 X-76.159 Y-21.734 Z-0.488
G1 X-76.346 Y-21.71 Z-0.491
G1 X-76.528 Y-21.682 Z-0.494
G1 X-76.709 Y-21.645 Z-0.495
G1 X-76.891 Y-21.603 Z-0.497
G1 X-77.071 Y-21.557 Z-0.498
G1 X-77.249 Y-21.507 Z-0.5
G1 X-77.424 Y-21.452 Z-0.501
G1 X-77.597 Y-21.393 Z-0.502
G1 X-77.768 Y-21.329 Z-0.504
G1 X-77.937 Y-21.262 Z-0.505
G1 X-78.103 Y-21.19 Z-0.506
G1 X-78.267 Y-21.113 Z-0.507
G1 X-78.429 Y-21.033 Z-0.509
G1 X-78.588 Y-20.948 Z-0.511
G1 X-78.746 Y-20.858 Z-0.512
G1 X-78.901 Y-20.764 Z-0.514
G1 X-79.054 Y-20.666 Z-0.517
G1 X-79.205 Y-20.563 Z-0.519
G1 X-79.353 Y-20.456 Z-0.522
G1 X-79.499 Y-20.344 Z-0.526
G1 X-79.64 Y-20.231 Z-0.529
G1 X-79.777 Y-20.114 Z-0.534
G1 X-79.913 Y-19.992 Z-0.538
G1 X-80.046 Y-19.867 Z-0.544
G1 X-80.177 Y-19.738 Z-0.55
G1 X-80.305 Y-19.604 Z-0.556
G1 X-80.437 Y-19.462 Z-0.567
G1 X-80.567 Y-19.314 Z-0.579
G1 X-80.694 Y-19.161 Z-0.591
G1 X-80.818 Y-19.004 Z-0.602
G1 X-80.938 Y-18.842 Z-0.614
G1 X-81.054 Y-18.675 Z-0.625
G1 X-81.168 Y-18.503 Z-0.636
G1 X-81.277 Y-18.327 Z-0.647
G1 X-81.383 Y-18.146 Z-0.657
G1 X-81.486 Y-17.96 Z-0.667
G1 X-81.585 Y-17.769 Z-0.677
G1 X-81.68 Y-17.575 Z-0.686
G1 X-81.772 Y-17.375 Z-0.695
G1 X-81.861 Y-17.171 Z-0.703
G1 X-81.945 Y-16.961 Z-0.711
G1 X-82.026 Y-16.748 Z-0.719
G1 X-82.104 Y-16.53 Z-0.726
G1 X-82.178 Y-16.308 Z-0.733
G1 X-82.249 Y-16.08 Z-0.739
G1 X-82.315 Y-15.849 Z-0.745
G1 X-82.379 Y-15.613 Z-0.751
G1 X-82.438 Y-15.373 Z-0.756
G1 X-82.495 Y-15.128 Z-0.761
G1 X-82.547 Y-14.878 Z-0.766
G1 X-82.596 Y-14.617 Z-0.77
G1 X-82.638 Y-14.354 Z-0.774
G1 X-82.675 Y-14.085 Z-0.778
G1 X-82.706 Y-13.811 Z-0.782
G1 X-82.732 Y-13.531 Z-0.786
G1 X-82.752 Y-13.246 Z-0.79
G1 X-82.766 Y-12.955 Z-0.794
G1 X-82.775 Y-12.659 Z-0.798
G1 X-82.779 Y-12.358 Z-0.802
G1 X-82.777 Y-12.051 Z-0.805
G1 X-82.769 Y-11.738 Z-0.809
G1 X-82.755 Y-11.421 Z-0.814
G1 X-82.736 Y-11.098 Z-0.818
G1 X-82.711 Y-10.769 Z-0.822
G1 X-82.68 Y-10.435 Z-0.826
G1 X-82.644 Y-10.096 Z-0.831
G1 X-82.602 Y-9.751 Z-0.835
G1 X-82.554 Y-9.403 Z-0.839
G1 X-82.502 Y-9.053 Z-0.844
G1 X-82.444 Y-8.698 Z-0.849
G1 X-82.38 Y-8.338 Z-0.854
G1 X-82.311 Y-7.973 Z-0.858
G1 X-82.236 Y-7.604 Z-0.863
G1 X-82.229 Y-7.57 Z-0.864
G1 X-82.107 Y-7.007 Z-0.871
G1 X-82.084 Y-6.906 Z-0.873
G1 X-82.018 Y-6.632 Z-0.878
G1 X-81.949 Y-6.364 Z-0.884
G1 X-81.886 Y-6.138 Z-0.889
G1 X-81.825 Y-5.929 Z-0.895
G1 X-81.761 Y-5.724 Z-0.902
G1 X-81.718 Y-5.591 Z-0.908
G1 X-81.634 Y-5.344 Z-0.918
G1 X-81.556 Y-5.129 Z-0.927
G1 X-81.482 Y-4.937 Z-0.937
G1 X-81.406 Y-4.749 Z-0.947
G1 X-81.359 Y-4.636 Z-0.955
G1 X-81.26 Y-4.411 Z-0.969
G1 X-81.163 Y-4.203 Z-0.984
G1 X-81.077 Y-4.029 Z-0.997
G1 X-80.983 Y-3.848 Z-1.012
G1 X-80.897 Y-3.688 Z-1.027
G1 X-80.829 Y-3.568 Z-1.04
G1 X-80.713 Y-3.371 Z-1.06
G1 X-80.606 Y-3.201 Z-1.078
G1 X-80.504 Y-3.046 Z-1.097
G1 X-80.399 Y-2.893 Z-1.117
G1 X-80.343 Y-2.815 Z-1.129
G1 X-80.214 Y-2.641 Z-1.153
G1 X-80.082 Y-2.472 Z-1.175
G1 X-79.965 Y-2.328 Z-1.193
G1 X-79.855 Y-2.197 Z-1.208
G1 X-79.67 Y-1.988 Z-1.231
G1 X-79.624 Y-1.937 Z-1.239
G1 X-79.407 Y-1.699 Z-1.282
G1 X-79.294 Y-1.58 Z-1.305
G1 X-79.172 Y-1.456 Z-1.331
G1 X-78.953 Y-1.244 Z-1.381
G1 X-78.833 Y-1.133 Z-1.408
G1 X-78.716 Y-1.028 Z-1.436
G1 X-78.597 Y-0.926 Z-1.464
G1 X-78.534 Y-0.873 Z-1.481
G1 X-78.395 Y-0.761 Z-1.515
G1 X-78.257 Y-0.654 Z-1.549
G1 X-78.121 Y-0.552 Z-1.584
G1 X-77.986 Y-0.457 Z-1.617
G1 X-77.86 Y-0.372 Z-1.649
G1 X-77.733 Y-0.29 Z-1.681
G1 X-77.604 Y-0.211 Z-1.714
G1 X-77.487 Y-0.144 Z-1.742
G1 X-77.39 Y-0.086 Z-1.759
G1 X-77.267 Y-0.017 Z-1.778
G1 X-77.143 Y0.05 Z-1.797
G1 X-77.019 Y0.112 Z-1.814
G1 X-76.894 Y0.172 Z-1.83
G1 X-76.769 Y0.227 Z-1.845
G1 X-76.643 Y0.279 Z-1.858
G1 X-76.517 Y0.327 Z-1.869
G1 X-76.391 Y0.374 Z-1.885
G1 X-76.265 Y0.419 Z-1.904
G1 X-76.138 Y0.46 Z-1.921
G1 X-76.011 Y0.497 Z-1.938
G1 X-75.99 Y0.503 Z-1.94
G1 X-75.862 Y0.535 Z-1.954
G1 X-75.755 Y0.558 Z-1.963
G1 X-75.626 Y0.582 Z-1.971
G1 X-75.535 Y0.595 Z-1.975
G1 X-75.497 Y0.6
G1 X-75.368 Y0.613
G1 X-75.289 Y0.618 Z-1.972
G1 X-75.238 Y0.62 Z-1.968
G1 X-75.137 Y0.621 Z-1.959
G1 X-75.109 Z-1.955
G1 X-74.993 Y0.615 Z-1.938
G1 X-74.955 Y0.612 Z-1.93
G1 X-74.853 Y0.601 Z-1.907
G1 X-74.827 Y0.597 Z-1.899
G1 X-74.725 Y0.58 Z-1.869
G1 X-74.645 Y0.564 Z-1.842
G1 X-74.599 Y0.552 Z-1.823
G1 X-74.504 Y0.526 Z-1.783
G1 X-74.415 Y0.498 Z-1.742
G1 X-74.333 Y0.472 Z-1.708
G1 X-74.249 Y0.443 Z-1.672
G1 X-74.222 Y0.432 Z-1.657
G1 X-74.136 Y0.394 Z-1.61
G1 X-74.078 Y0.365 Z-1.573
G1 X-74.033 Y0.34 Z-1.54
G1 X-73.971 Y0.302 Z-1.491
G1 X-73.935 Y0.278 Z-1.459
G1 X-73.863 Y0.226 Z-1.39
G1 X-73.842 Y0.209 Z-1.368
G1 X-73.755 Y0.136 Z-1.27
G1 X-73.689 Y0.072 Z-1.188
G1 X-73.658 Y0.04 Z-1.145
G1 X-73.599 Y-0.025 Z-1.063
G1 X-73.53 Y-0.109 Z-0.957
G1 X-73.466 Y-0.193 Z-0.854
G1 X-73.408 Y-0.279 Z-0.753
G1 X-73.374 Y-0.333 Z-0.693
G1 X-73.312 Y-0.441 Z-0.574
G1 X-73.264 Y-0.535 Z-0.475
G1 X-73.226 Y-0.62 Z-0.391
G1 X-73.199 Y-0.684 Z-0.33
G1 X-73.161 Y-0.785 Z-0.238
G1 X-73.134 Y-0.867 Z-0.168
G1 X-73.11 Y-0.948 Z-0.103
G1 X-73.089 Y-1.029 Z-0.041
G1 X-73.076 Y-1.086 Z-0.001
; MOVEMENT_RAPID
G0 Z5 F300
G0 X2.962 Y-17.033 F2500
; MOVEMENT_LEAD_IN
G1 Z-1.481 F180
; MOVEMENT_CUTTING
G1 X2.937 Y-17.162 Z-1.515 F480
G1 X2.919 Y-17.285 Z-1.546
G1 X2.909 Y-17.39 Z-1.571
G1 X2.903 Y-17.496 Z-1.596
G1 X2.902 Y-17.602 Z-1.62
G1 X2.906 Y-17.693 Z-1.637
G1 X2.915 Y-17.782 Z-1.652
G1 X2.924 Y-17.843 Z-1.659
G1 X2.937 Y-17.901 Z-1.662
G1 X2.953 Y-17.959 Z-1.66
G1 X2.966 Y-17.995 Z-1.654
G1 X2.983 Y-18.033 Z-1.643
G1 X3.003 Y-18.073 Z-1.628
G1 X3.022 Y-18.105 Z-1.612
G1 X3.047 Y-18.142 Z-1.588
G1 X3.078 Y-18.183 Z-1.558
G1 X3.118 Y-18.228 Z-1.517
G1 X3.177 Y-18.288 Z-1.456
G1 X3.233 Y-18.339 Z-1.4
G1 X3.304 Y-18.397 Z-1.33
G1 X3.387 Y-18.456 Z-1.251
G1 X3.476 Y-18.511 Z-1.171
G1 X3.543 Y-18.547 Z-1.113
G1 X3.626 Y-18.588 Z-1.045
G1 X3.708 Y-18.621 Z-0.985
G1 X3.789 Y-18.651 Z-0.93
G1 X3.886 Y-18.68 Z-0.869
G1 X3.983 Y-18.704 Z-0.815
G1 X4.075 Y-18.721 Z-0.77
G1 X4.17 Y-18.735 Z-0.728
G1 X4.264 Y-18.744 Z-0.691
G1 X4.359 Y-18.749 Z-0.658
G1 X4.476 Y-18.75 Z-0.622
G1 X4.556 Y-18.748 Z-0.6
G1 X4.677 Y-18.739 Z-0.57
G1 X4.782 Y-18.728 Z-0.547
G1 X4.882 Y-18.715 Z-0.528
G1 X5 Y-18.694 Z-0.507
G1 X5.092 Y-18.675 Z-0.494
G1 X5.222 Y-18.644 Z-0.479
G1 X5.351 Y-18.607 Z-0.468
G1 X5.482 Y-18.565 Z-0.461
G1 X5.612 Y-18.518 Z-0.457
G1 X5.743 Y-18.465
G1 X5.894 Y-18.398 Z-0.462
G1 X6.022 Y-18.337 Z-0.468
G1 X6.15 Y-18.272 Z-0.476
G1 X6.276 Y-18.202 Z-0.487
G1 X6.402 Y-18.129 Z-0.499
G1 X6.528 Y-18.052 Z-0.514
G1 X6.693 Y-17.944 Z-0.536
G1 X6.787 Y-17.879 Z-0.55
G1 X6.939 Y-17.768 Z-0.575
G1 X7.061 Y-17.676 Z-0.596
G1 X7.22 Y-17.548 Z-0.626
G1 X7.376 Y-17.415 Z-0.658
G1 X7.491 Y-17.312 Z-0.682
G1 X7.643 Y-17.168 Z-0.716
G1 X7.789 Y-17.023 Z-0.75
G1 X7.936 Y-16.871 Z-0.785
G1 X8.1 Y-16.691 Z-0.826
G1 X8.221 Y-16.552 Z-0.858
G1 X8.378 Y-16.362 Z-0.9
G1 X8.493 Y-16.216 Z-0.933
G1 X8.624 Y-16.043 Z-0.971
G1 X8.755 Y-15.859 Z-1.01
G1 X8.881 Y-15.674 Z-1.049
G1 X8.998 Y-15.489 Z-1.087
G1 X9.109 Y-15.305 Z-1.126
G1 X9.212 Y-15.12 Z-1.166
G1 X9.314 Y-14.925 Z-1.209
G1 X9.394 Y-14.761 Z-1.246
G1 X9.46 Y-14.617 Z-1.279
G1 X9.522 Y-14.474 Z-1.314
G1 X9.584 Y-14.314 Z-1.355
G1 X9.629 Y-14.19 Z-1.387
G1 X9.681 Y-14.027 Z-1.431
G1 X9.715 Y-13.907 Z-1.463
G1 X9.749 Y-13.764 Z-1.501
G1 X9.775 Y-13.629 Z-1.537
G1 X9.792 Y-13.513 Z-1.567
G1 X9.805 Y-13.379 Z-1.602
G1 X9.809 Y-13.294 Z-1.624
G1 X9.811 Y-13.191 Z-1.649
G1 X9.807 Y-13.089 Z-1.67
G1 X9.8 Y-13.015 Z-1.682
G1 X9.788 Y-12.941 Z-1.691
G1 X9.779 Y-12.896 Z-1.694
G1 X9.766 Y-12.848
G1 X9.745 Y-12.788 Z-1.688
G1 X9.726 Y-12.744 Z-1.677
G1 X9.704 Y-12.702 Z-1.661
G1 X9.681 Y-12.666 Z-1.641
G1 X9.659 Y-12.635 Z-1.619
G1 X9.621 Y-12.589 Z-1.581
G1 X9.584 Y-12.549 Z-1.543
G1 X9.528 Y-12.495 Z-1.485
G1 X9.457 Y-12.434 Z-1.413
G1 X9.383 Y-12.379 Z-1.34
G1 X9.3 Y-12.325 Z-1.261
G1 X9.211 Y-12.274 Z-1.182
G1 X9.136 Y-12.237 Z-1.12
G1 X9.052 Y-12.199 Z-1.053
G1 X8.96 Y-12.164 Z-0.986
G1 X8.886 Y-12.14 Z-0.935
G1 X8.796 Y-12.115 Z-0.879
G1 X8.711 Y-12.094 Z-0.829
G1 X8.637 Y-12.08 Z-0.79
G1 X8.542 Y-12.066 Z-0.745
G1 X8.447 Y-12.057 Z-0.704
G1 X8.35 Y-12.052 Z-0.667
G1 X8.257 Y-12.051 Z-0.635
G1 X8.15 Y-12.054 Z-0.602
G1 X8.036 Y-12.062 Z-0.572
G1 X7.923 Y-12.074 Z-0.545
G1 X7.816 Y-12.09 Z-0.523
G1 X7.717 Y-12.108 Z-0.506
G1 X7.597 Y-12.133 Z-0.49
G1 X7.474 Y-12.164 Z-0.477
G1 X7.348 Y-12.201 Z-0.467
G1 X7.22 Y-12.243 Z-0.461
G1 X7.092 Y-12.29 Z-0.458
G1 X6.963 Y-12.342 Z-0.457
G1 X6.835 Y-12.398 Z-0.459
G1 X6.707 Y-12.459 Z-0.464
G1 X6.579 Y-12.524 Z-0.472
G1 X6.452 Y-12.593 Z-0.482
G1 X6.325 Y-12.666 Z-0.494
G1 X6.199 Y-12.743 Z-0.508
G1 X6.073 Y-12.824 Z-0.524
G1 X5.907 Y-12.937 Z-0.548
G1 X5.813 Y-13.005 Z-0.563
G1 X5.662 Y-13.119 Z-0.589
G1 X5.542 Y-13.215 Z-0.611
G1 X5.38 Y-13.349 Z-0.643
G1 X5.228 Y-13.484 Z-0.675
G1 X5.074 Y-13.626 Z-0.709
G1 X4.903 Y-13.794 Z-0.748
G1 X4.86 Y-13.837 Z-0.758
G1 X4.741 Y-13.962 Z-0.786
G1 X4.633 Y-14.079 Z-0.813
G1 X4.493 Y-14.239 Z-0.849
G1 X4.39 Y-14.363 Z-0.876
G1 X4.255 Y-14.53 Z-0.914
G1 X4.124 Y-14.703 Z-0.951
G1 X3.994 Y-14.881 Z-0.99
G1 X3.873 Y-15.056 Z-1.027
G1 X3.756 Y-15.236 Z-1.064
G1 X3.671 Y-15.373 Z-1.092
G1 X3.562 Y-15.559 Z-1.13
G1 X3.483 Y-15.701 Z-1.159
G1 X3.401 Y-15.859 Z-1.192
G1 X3.322 Y-16.021 Z-1.228
G1 X3.235 Y-16.211 Z-1.272
G1 X3.179 Y-16.345 Z-1.304
G1 X3.117 Y-16.505 Z-1.344
G1 X3.065 Y-16.655 Z-1.382
G1 X3.029 Y-16.769 Z-1.412
G1 X2.988 Y-16.918 Z-1.451
G1 X2.962 Y-17.033 Z-1.481
; MOVEMENT_RAPID
G0 Z5 F300
G0 X23.631 Y-17.495 F2500
; MOVEMENT_LEAD_IN
G1 Z-1.596 F180
; MOVEMENT_CUTTING
G1 X23.63 Y-17.6 Z-1.619 F480
G1 X23.634 Y-17.692 Z-1.637
G1 X23.643 Y-17.782 Z-1.652
G1 X23.652 Y-17.842 Z-1.659
G1 X23.665 Y-17.901 Z-1.662
G1 X23.681 Y-17.958 Z-1.66
G1 X23.694 Y-17.995 Z-1.654
G1 X23.711 Y-18.033 Z-1.643
G1 X23.731 Y-18.073 Z-1.628
G1 X23.75 Y-18.105 Z-1.612
G1 X23.776 Y-18.142 Z-1.588
G1 X23.806 Y-18.182 Z-1.558
G1 X23.846 Y-18.228 Z-1.518
G1 X23.905 Y-18.288 Z-1.456
G1 X23.961 Y-18.339 Z-1.4
G1 X24.032 Y-18.397 Z-1.33
G1 X24.115 Y-18.456 Z-1.251
G1 X24.204 Y-18.511 Z-1.171
