;Fusion 360 CAM 2.0.7421
; Posts processor: DIYCNC_Marlin20.cps
; Gcode generated: Sat Feb  1 08:05:47 2020 GMT
; Document: Ring-Plate Test-2 v1
; Setup: Setup1
; 
; Ranges table:
; X: Min=-50.645 Max=51.026 Size=101.671
; Y: Min=-50.302 Max=50.279 Size=100.58
; Z: Min=-6.172 Max=5 Size=11.172
; 
; Tools table:
; T1 D=3.175 CR=1.587 - ZMIN=-6.172 - ball end mill 

; *** START begin ***
G90
G21
M84 S0
G92 X0 Y0 Z5
; *** START end ***

; *** SECTION begin ***
;Adaptive1 - Milling - Tool: 1 -  ball end mill
; X Min: -50.645 - X Max: 51.026
; Y Min: -50.302 - Y Max: 50.279
; Z Min: -6.172 - Z Max: 5
; COMMAND_START_SPINDLE
; COMMAND_SPINDLE_CLOCKWISE
;M0 Turn ON 20000RPM
; COMMAND_COOLANT_ON
;M117  Adaptive1
G0 Z5 F300
G0 X16.204 Y-28.531 F2500
G0 Z1.5 F300
; MOVEMENT_RAMP_HELIX
G1 X16.259 Y-28.519 Z1.498 F180
G1 X16.311 Y-28.499 Z1.496
G1 X16.361 Y-28.472 Z1.494
G1 X16.406 Y-28.438 Z1.492
G1 X16.445 Y-28.398 Z1.49
G1 X16.479 Y-28.353 Z1.488
G1 X16.506 Y-28.304 Z1.486
G1 X16.526 Y-28.251 Z1.484
G1 X16.538 Y-28.196 Z1.482
G1 X16.543 Y-28.14 Z1.48
G1 X16.539 Y-28.084 Z1.478
G1 X16.527 Y-28.029 Z1.476
G1 X16.508 Y-27.976 Z1.474
G1 X16.481 Y-27.926 Z1.472
G1 X16.448 Y-27.881 Z1.47
G1 X16.409 Y-27.841 Z1.469
G1 X16.364 Y-27.807 Z1.467
G1 X16.315 Y-27.779 Z1.465
G1 X16.262 Y-27.759 Z1.463
G1 X16.207 Y-27.746 Z1.461
G1 X16.151 Y-27.741 Z1.459
G1 X16.095 Y-27.745 Z1.457
G1 X16.04 Y-27.756 Z1.455
G1 X15.987 Y-27.775 Z1.453
G1 X15.937 Y-27.801 Z1.451
G1 X15.891 Y-27.834 Z1.449
G1 X15.851 Y-27.873 Z1.447
G1 X15.816 Y-27.917 Z1.445
G1 X15.788 Y-27.966 Z1.443
G1 X15.767 Y-28.018 Z1.441
G1 X15.754 Y-28.073 Z1.439
G1 X15.749 Y-28.129 Z1.437
G1 X15.752 Y-28.185 Z1.435
G1 X15.762 Y-28.241 Z1.433
G1 X15.781 Y-28.294 Z1.431
G1 X15.806 Y-28.344 Z1.429
G1 X15.839 Y-28.39 Z1.427
G1 X15.878 Y-28.431 Z1.425
G1 X15.922 Y-28.466 Z1.423
G1 X15.97 Y-28.494 Z1.421
G1 X16.022 Y-28.515 Z1.419
G1 X16.077 Y-28.529 Z1.417
G1 X16.133 Y-28.535 Z1.415
G1 X16.189 Y-28.533 Z1.413
G1 X16.245 Y-28.523 Z1.411
G1 X16.298 Y-28.505 Z1.409
G1 X16.348 Y-28.479 Z1.408
G1 X16.395 Y-28.447 Z1.406
G1 X16.436 Y-28.409 Z1.404
G1 X16.471 Y-28.365 Z1.402
G1 X16.5 Y-28.317 Z1.4
G1 X16.522 Y-28.265 Z1.398
G1 X16.536 Y-28.21 Z1.396
G1 X16.542 Y-28.154 Z1.394
G1 X16.541 Y-28.098 Z1.392
G1 X16.531 Y-28.043 Z1.39
G1 X16.514 Y-27.989 Z1.388
G1 X16.489 Y-27.939 Z1.386
G1 X16.457 Y-27.892 Z1.384
G1 X16.419 Y-27.851 Z1.382
G1 X16.376 Y-27.815 Z1.38
G1 X16.328 Y-27.785 Z1.378
G1 X16.276 Y-27.763 Z1.376
G1 X16.222 Y-27.749 Z1.374
G1 X16.166 Y-27.742 Z1.372
G1 X16.109 Y-27.743 Z1.37
G1 X16.054 Y-27.752 Z1.368
G1 X16 Y-27.769 Z1.366
G1 X15.949 Y-27.793 Z1.364
G1 X15.902 Y-27.825 Z1.362
G1 X15.861 Y-27.862 Z1.36
G1 X15.824 Y-27.905 Z1.358
G1 X15.795 Y-27.953 Z1.356
G1 X15.772 Y-28.005 Z1.354
G1 X15.757 Y-28.059 Z1.352
G1 X15.75 Y-28.115 Z1.35
G1 Y-28.171 Z1.348
G1 X15.759 Y-28.227 Z1.347
G1 X15.775 Y-28.281 Z1.345
G1 X15.799 Y-28.332 Z1.343
G1 X15.83 Y-28.379 Z1.341
G1 X15.867 Y-28.421 Z1.339
G1 X15.91 Y-28.457 Z1.337
G1 X15.958 Y-28.488 Z1.335
G1 X16.009 Y-28.511 Z1.333
G1 X16.063 Y-28.526 Z1.331
G1 X16.119 Y-28.534 Z1.329
G1 X16.175 Z1.327
G1 X16.231 Y-28.526 Z1.325
G1 X16.285 Y-28.51 Z1.323
G1 X16.336 Y-28.487 Z1.321
G1 X16.383 Y-28.456 Z1.319
G1 X16.426 Y-28.419 Z1.317
G1 X16.463 Y-28.377 Z1.315
G1 X16.493 Y-28.33 Z1.313
G1 X16.517 Y-28.278 Z1.311
G1 X16.533 Y-28.224 Z1.309
G1 X16.541 Y-28.169 Z1.307
G1 X16.542 Y-28.112 Z1.305
G1 X16.534 Y-28.057 Z1.303
G1 X16.519 Y-28.003 Z1.301
G1 X16.496 Y-27.951 Z1.299
G1 X16.466 Y-27.904 Z1.297
G1 X16.429 Y-27.861 Z1.295
G1 X16.387 Y-27.823 Z1.293
G1 X16.34 Y-27.792 Z1.291
G1 X16.289 Y-27.768 Z1.289
G1 X16.236 Y-27.752 Z1.287
G1 X16.18 Y-27.743 Z1.286
G1 X16.124 Y-27.742 Z1.284
G1 X16.068 Y-27.749 Z1.282
G1 X16.013 Y-27.764 Z1.28
G1 X15.962 Y-27.787 Z1.278
G1 X15.914 Y-27.816 Z1.276
G1 X15.871 Y-27.852 Z1.274
G1 X15.833 Y-27.894 Z1.272
G1 X15.802 Y-27.941 Z1.27
G1 X15.777 Y-27.991 Z1.268
G1 X15.76 Y-28.045 Z1.266
G1 X15.751 Y-28.1 Z1.264
G1 X15.749 Y-28.157 Z1.262
G1 X15.756 Y-28.213 Z1.26
G1 X15.77 Y-28.267 Z1.258
G1 X15.792 Y-28.319 Z1.256
G1 X15.822 Y-28.367 Z1.254
G1 X15.857 Y-28.411 Z1.252
G1 X15.899 Y-28.449 Z1.25
G1 X15.945 Y-28.481 Z1.248
G1 X15.996 Y-28.506 Z1.246
G1 X16.049 Y-28.523 Z1.244
G1 X16.104 Y-28.533 Z1.242
G1 X16.161 Y-28.535 Z1.24
G1 X16.217 Y-28.529 Z1.238
G1 X16.271 Y-28.515 Z1.236
G1 X16.323 Y-28.493 Z1.234
G1 X16.372 Y-28.464 Z1.232
G1 X16.416 Y-28.429 Z1.23
G1 X16.454 Y-28.388 Z1.228
G1 X16.486 Y-28.342 Z1.226
G1 X16.512 Y-28.292 Z1.225
G1 X16.53 Y-28.238 Z1.223
G1 X16.54 Y-28.183 Z1.221
G1 X16.542 Y-28.127 Z1.219
G1 X16.537 Y-28.071 Z1.217
G1 X16.523 Y-28.016 Z1.215
G1 X16.502 Y-27.964 Z1.213
G1 X16.474 Y-27.915 Z1.211
G1 X16.439 Y-27.871 Z1.209
G1 X16.398 Y-27.832 Z1.207
G1 X16.353 Y-27.799 Z1.205
G1 X16.303 Y-27.774 Z1.203
G1 X16.249 Y-27.755 Z1.201
G1 X16.194 Y-27.744 Z1.199
G1 X16.138 Y-27.741 Z1.197
G1 X16.082 Y-27.747 Z1.195
G1 X16.027 Y-27.759 Z1.193
G1 X15.975 Y-27.78 Z1.191
G1 X15.926 Y-27.808 Z1.189
G1 X15.881 Y-27.842 Z1.187
G1 X15.842 Y-27.883 Z1.185
G1 X15.809 Y-27.928 Z1.183
G1 X15.783 Y-27.978 Z1.181
G1 X15.764 Y-28.031 Z1.179
G1 X15.752 Y-28.086 Z1.177
G1 X15.749 Y-28.142 Z1.175
G1 X15.754 Y-28.199 Z1.173
G1 X15.766 Y-28.253 Z1.171
G1 X15.786 Y-28.306 Z1.169
G1 X15.814 Y-28.355 Z1.167
G1 X15.848 Y-28.4 Z1.165
G1 X15.888 Y-28.44 Z1.164
G1 X15.933 Y-28.473 Z1.162
G1 X15.982 Y-28.5 Z1.16
G1 X16.035 Y-28.519 Z1.158
G1 X16.09 Y-28.531 Z1.156
G1 X16.146 Y-28.535 Z1.154
G1 X16.203 Y-28.531 Z1.152
G1 X16.258 Y-28.519 Z1.15
G1 X16.31 Y-28.499 Z1.148
G1 X16.36 Y-28.472 Z1.146
G1 X16.405 Y-28.439 Z1.144
G1 X16.445 Y-28.399 Z1.142
G1 X16.479 Y-28.354 Z1.14
G1 X16.506 Y-28.305 Z1.138
G1 X16.526 Y-28.252 Z1.136
G1 X16.538 Y-28.197 Z1.134
G1 X16.543 Y-28.141 Z1.132
G1 X16.539 Y-28.085 Z1.13
G1 X16.528 Y-28.03 Z1.128
G1 X16.508 Y-27.977 Z1.126
G1 X16.482 Y-27.927 Z1.124
G1 X16.449 Y-27.882 Z1.122
G1 X16.409 Y-27.841 Z1.12
G1 X16.365 Y-27.807 Z1.118
G1 X16.316 Y-27.78 Z1.116
G1 X16.263 Y-27.759 Z1.114
G1 X16.208 Y-27.746 Z1.112
G1 X16.152 Y-27.741 Z1.11
G1 X16.096 Y-27.744 Z1.108
G1 X16.041 Y-27.755 Z1.106
G1 X15.988 Y-27.774 Z1.104
G1 X15.938 Y-27.8 Z1.103
G1 X15.892 Y-27.833 Z1.101
G1 X15.851 Y-27.872 Z1.099
G1 X15.817 Y-27.916 Z1.097
G1 X15.789 Y-27.965 Z1.095
G1 X15.768 Y-28.017 Z1.093
G1 X15.754 Y-28.072 Z1.091
G1 X15.749 Y-28.128 Z1.089
G1 X15.752 Y-28.184 Z1.087
G1 X15.762 Y-28.24 Z1.085
G1 X15.78 Y-28.293 Z1.083
G1 X15.806 Y-28.343 Z1.081
G1 X15.838 Y-28.389 Z1.079
G1 X15.877 Y-28.43 Z1.077
G1 X15.921 Y-28.465 Z1.075
G1 X15.969 Y-28.494 Z1.073
G1 X16.022 Y-28.515 Z1.071
G1 X16.076 Y-28.529 Z1.069
G1 X16.132 Y-28.535 Z1.067
G1 X16.188 Y-28.533 Z1.065
G1 X16.244 Y-28.523 Z1.063
G1 X16.297 Y-28.505 Z1.061
G1 X16.348 Y-28.48 Z1.059
G1 X16.394 Y-28.448 Z1.057
G1 X16.435 Y-28.41 Z1.055
G1 X16.471 Y-28.366 Z1.053
G1 X16.5 Y-28.318 Z1.051
G1 X16.522 Y-28.266 Z1.049
G1 X16.536 Y-28.211 Z1.047
G1 X16.542 Y-28.155 Z1.045
G1 X16.541 Y-28.099 Z1.043
G1 X16.531 Y-28.044 Z1.042
G1 X16.514 Y-27.99 Z1.04
G1 X16.489 Y-27.939 Z1.038
G1 X16.458 Y-27.893 Z1.036
G1 X16.42 Y-27.851 Z1.034
G1 X16.376 Y-27.815 Z1.032
G1 X16.328 Y-27.786 Z1.03
G1 X16.277 Y-27.764 Z1.028
G1 X16.222 Y-27.749 Z1.026
G1 X16.167 Y-27.742 Z1.024
G1 X16.11 Y-27.743 Z1.022
G1 X16.055 Y-27.752 Z1.02
G1 X16.001 Y-27.769 Z1.018
G1 X15.95 Y-27.793 Z1.016
G1 X15.903 Y-27.824 Z1.014
G1 X15.861 Y-27.862 Z1.012
G1 X15.825 Y-27.905 Z1.01
G1 X15.795 Y-27.952 Z1.008
G1 X15.772 Y-28.004 Z1.006
G1 X15.757 Y-28.058 Z1.004
G1 X15.75 Y-28.114 Z1.002
G1 Y-28.17 Z1
G1 X15.759 Y-28.226 Z0.998
G1 X15.775 Y-28.28 Z0.996
G1 X15.799 Y-28.331 Z0.994
G1 X15.829 Y-28.378 Z0.992
G1 X15.867 Y-28.42 Z0.99
G1 X15.909 Y-28.457 Z0.988
G1 X15.957 Y-28.487 Z0.986
G1 X16.008 Y-28.51 Z0.984
G1 X16.062 Y-28.526 Z0.982
G1 X16.118 Y-28.534 Z0.981
G1 X16.174 Z0.979
G1 X16.23 Y-28.526 Z0.977
G1 X16.284 Y-28.51 Z0.975
G1 X16.335 Y-28.487 Z0.973
G1 X16.383 Y-28.457 Z0.971
G1 X16.425 Y-28.42 Z0.969
G1 X16.462 Y-28.378 Z0.967
G1 X16.493 Y-28.33 Z0.965
G1 X16.517 Y-28.279 Z0.963
G1 X16.533 Y-28.225 Z0.961
G1 X16.541 Y-28.17 Z0.959
G1 X16.542 Y-28.113 Z0.957
G1 X16.534 Y-28.058 Z0.955
G1 X16.519 Y-28.003 Z0.953
G1 X16.496 Y-27.952 Z0.951
G1 X16.466 Y-27.904 Z0.949
G1 X16.43 Y-27.861 Z0.947
G1 X16.388 Y-27.824 Z0.945
G1 X16.341 Y-27.793 Z0.943
G1 X16.29 Y-27.769 Z0.941
G1 X16.236 Y-27.752 Z0.939
G1 X16.181 Y-27.743 Z0.937
G1 X16.125 Y-27.742 Z0.935
G1 X16.069 Y-27.749 Z0.933
G1 X16.014 Y-27.764 Z0.931
G1 X15.963 Y-27.786 Z0.929
G1 X15.915 Y-27.816 Z0.927
G1 X15.871 Y-27.851 Z0.925
G1 X15.834 Y-27.893 Z0.923
G1 X15.802 Y-27.94 Z0.921
G1 X15.777 Y-27.99 Z0.92
G1 X15.76 Y-28.044 Z0.918
G1 X15.751 Y-28.1 Z0.916
G1 X15.749 Y-28.156 Z0.914
G1 X15.756 Y-28.212 Z0.912
G1 X15.77 Y-28.266 Z0.91
G1 X15.792 Y-28.318 Z0.908
G1 X15.821 Y-28.366 Z0.906
G1 X15.857 Y-28.41 Z0.904
G1 X15.898 Y-28.448 Z0.902
G1 X15.944 Y-28.48 Z0.9
G1 X15.995 Y-28.505 Z0.898
G1 X16.048 Y-28.523 Z0.896
G1 X16.104 Y-28.533 Z0.894
G1 X16.16 Y-28.535 Z0.892
G1 X16.216 Y-28.529 Z0.89
G1 X16.27 Y-28.515 Z0.888
G1 X16.322 Y-28.494 Z0.886
G1 X16.371 Y-28.465 Z0.884
G1 X16.415 Y-28.43 Z0.882
G1 X16.453 Y-28.389 Z0.88
G1 X16.486 Y-28.343 Z0.878
G1 X16.511 Y-28.293 Z0.876
G1 X16.53 Y-28.239 Z0.874
G1 X16.54 Y-28.184 Z0.872
G1 X16.543 Y-28.128 Z0.87
G1 X16.537 Y-28.072 Z0.868
G1 X16.524 Y-28.017 Z0.866
G1 X16.503 Y-27.965 Z0.864
G1 X16.475 Y-27.916 Z0.862
G1 X16.44 Y-27.872 Z0.86
G1 X16.399 Y-27.833 Z0.859
G1 X16.353 Y-27.8 Z0.857
G1 X16.303 Y-27.774 Z0.855
G1 X16.25 Y-27.755 Z0.853
G1 X16.195 Y-27.744 Z0.851
G1 X16.139 Y-27.741 Z0.849
G1 X16.083 Y-27.746 Z0.847
G1 X16.028 Y-27.759 Z0.845
G1 X15.976 Y-27.78 Z0.843
G1 X15.927 Y-27.807 Z0.841
G1 X15.882 Y-27.842 Z0.839
G1 X15.843 Y-27.882 Z0.837
G1 X15.809 Y-27.928 Z0.835
G1 X15.783 Y-27.977 Z0.833
G1 X15.764 Y-28.03 Z0.831
G1 X15.752 Y-28.085 Z0.829
G1 X15.749 Y-28.142 Z0.827
G1 X15.753 Y-28.198 Z0.825
G1 X15.766 Y-28.253 Z0.823
G1 X15.786 Y-28.305 Z0.821
G1 X15.813 Y-28.354 Z0.819
G1 X15.847 Y-28.399 Z0.817
G1 X15.887 Y-28.439 Z0.815
G1 X15.932 Y-28.473 Z0.813
G1 X15.982 Y-28.5 Z0.811
G1 X16.034 Y-28.519 Z0.809
G1 X16.089 Y-28.531 Z0.807
G1 X16.145 Y-28.535 Z0.805
G1 X16.202 Y-28.531 Z0.803
G1 X16.257 Y-28.519 Z0.801
G1 X16.309 Y-28.5 Z0.799
G1 X16.359 Y-28.473 Z0.798
G1 X16.404 Y-28.439 Z0.796
G1 X16.444 Y-28.4 Z0.794
G1 X16.478 Y-28.355 Z0.792
G1 X16.506 Y-28.306 Z0.79
G1 X16.526 Y-28.253 Z0.788
G1 X16.538 Y-28.198 Z0.786
G1 X16.543 Y-28.142 Z0.784
G1 X16.539 Y-28.086 Z0.782
G1 X16.528 Y-28.031 Z0.78
G1 X16.509 Y-27.978 Z0.778
G1 X16.482 Y-27.928 Z0.776
G1 X16.449 Y-27.882 Z0.774
G1 X16.41 Y-27.842 Z0.772
G1 X16.365 Y-27.808 Z0.77
G1 X16.317 Y-27.78 Z0.768
G1 X16.264 Y-27.759 Z0.766
G1 X16.209 Y-27.746 Z0.764
G1 X16.153 Y-27.741 Z0.762
G1 X16.097 Y-27.744 Z0.76
G1 X16.042 Y-27.755 Z0.758
G1 X15.989 Y-27.774 Z0.756
G1 X15.939 Y-27.8 Z0.754
G1 X15.893 Y-27.832 Z0.752
G1 X15.852 Y-27.871 Z0.75
G1 X15.817 Y-27.916 Z0.748
G1 X15.789 Y-27.964 Z0.746
G1 X15.768 Y-28.016 Z0.744
G1 X15.755 Y-28.071 Z0.742
G1 X15.749 Y-28.127 Z0.74
G1 X15.751 Y-28.183 Z0.738
G1 X15.762 Y-28.239 Z0.737
G1 X15.78 Y-28.292 Z0.735
G1 X15.805 Y-28.342 Z0.733
G1 X15.838 Y-28.388 Z0.731
G1 X15.876 Y-28.429 Z0.729
G1 X15.92 Y-28.465 Z0.727
G1 X15.969 Y-28.493 Z0.725
G1 X16.021 Y-28.515 Z0.723
G1 X16.075 Y-28.529 Z0.721
G1 X16.131 Y-28.535 Z0.719
G1 X16.187 Y-28.533 Z0.717
G1 X16.243 Y-28.523 Z0.715
G1 X16.296 Y-28.505 Z0.713
G1 X16.347 Y-28.48 Z0.711
G1 X16.393 Y-28.449 Z0.709
G1 X16.435 Y-28.41 Z0.707
G1 X16.47 Y-28.367 Z0.705
G1 X16.499 Y-28.319 Z0.703
G1 X16.521 Y-28.267 Z0.701
G1 X16.536 Y-28.212 Z0.699
G1 X16.542 Y-28.156 Z0.697
G1 X16.541 Y-28.1 Z0.695
G1 X16.531 Y-28.045 Z0.693
G1 X16.514 Y-27.991 Z0.691
G1 X16.49 Y-27.94 Z0.689
G1 X16.458 Y-27.894 Z0.687
G1 X16.421 Y-27.852 Z0.685
G1 X16.377 Y-27.816 Z0.683
G1 X16.329 Y-27.786 Z0.681
G1 X16.278 Y-27.764 Z0.679
G1 X16.223 Y-27.749 Z0.677
G1 X16.168 Y-27.742 Z0.676
G1 X16.111 Y-27.743 Z0.674
G1 X16.056 Y-27.752 Z0.672
G1 X16.002 Y-27.768 Z0.67
G1 X15.951 Y-27.792 Z0.668
G1 X15.904 Y-27.823 Z0.666
G1 X15.862 Y-27.861 Z0.664
G1 X15.826 Y-27.904 Z0.662
G1 X15.796 Y-27.951 Z0.66
G1 X15.773 Y-28.003 Z0.658
G1 X15.757 Y-28.057 Z0.656
G1 X15.75 Y-28.113 Z0.654
G1 Y-28.169 Z0.652
G1 X15.758 Y-28.225 Z0.65
G1 X15.775 Y-28.279 Z0.648
G1 X15.798 Y-28.33 Z0.646
G1 X15.829 Y-28.377 Z0.644
G1 X15.866 Y-28.42 Z0.642
G1 X15.909 Y-28.456 Z0.64
G1 X15.956 Y-28.487 Z0.638
G1 X16.007 Y-28.51 Z0.636
G1 X16.061 Y-28.526 Z0.634
G1 X16.117 Y-28.534 Z0.632
G1 X16.173 Z0.63
G1 X16.229 Y-28.526 Z0.628
G1 X16.283 Y-28.511 Z0.626
G1 X16.334 Y-28.487 Z0.624
G1 X16.382 Y-28.457 Z0.622
G1 X16.425 Y-28.421 Z0.62
G1 X16.462 Y-28.378 Z0.618
G1 X16.493 Y-28.331 Z0.616
G1 X16.516 Y-28.28 Z0.615
G1 X16.533 Y-28.226 Z0.613
G1 X16.541 Y-28.171 Z0.611
G1 X16.542 Y-28.114 Z0.609
G1 X16.535 Y-28.059 Z0.607
G1 X16.519 Y-28.004 Z0.605
G1 X16.497 Y-27.953 Z0.603
G1 X16.467 Y-27.905 Z0.601
G1 X16.431 Y-27.862 Z0.599
G1 X16.389 Y-27.824 Z0.597
G1 X16.342 Y-27.793 Z0.595
G1 X16.291 Y-27.769 Z0.593
G1 X16.237 Y-27.752 Z0.591
G1 X16.182 Y-27.743 Z0.589
G1 X16.126 Y-27.742 Z0.587
G1 X16.07 Y-27.749 Z0.585
G1 X16.015 Y-27.763 Z0.583
G1 X15.964 Y-27.786 Z0.581
G1 X15.916 Y-27.815 Z0.579
G1 X15.872 Y-27.851 Z0.577
G1 X15.834 Y-27.892 Z0.575
G1 X15.803 Y-27.939 Z0.573
G1 X15.778 Y-27.99 Z0.571
G1 X15.76 Y-28.043 Z0.569
G1 X15.751 Y-28.099 Z0.567
G1 X15.749 Y-28.155 Z0.565
G1 X15.756 Y-28.211 Z0.563
G1 X15.77 Y-28.265 Z0.561
G1 X15.792 Y-28.317 Z0.559
G1 X15.82 Y-28.366 Z0.557
G1 X15.856 Y-28.409 Z0.555
G1 X15.897 Y-28.448 Z0.554
G1 X15.943 Y-28.48 Z0.552
G1 X15.994 Y-28.505 Z0.55
G1 X16.047 Y-28.523 Z0.548
G1 X16.103 Y-28.533 Z0.546
G1 X16.159 Y-28.535 Z0.544
G1 X16.215 Y-28.529 Z0.542
G1 X16.269 Y-28.515 Z0.54
G1 X16.322 Y-28.494 Z0.538
G1 X16.37 Y-28.466 Z0.536
G1 X16.414 Y-28.431 Z0.534
G1 X16.453 Y-28.39 Z0.532
G1 X16.485 Y-28.344 Z0.53
G1 X16.511 Y-28.293 Z0.528
G1 X16.529 Y-28.24 Z0.526
G1 X16.54 Y-28.185 Z0.524
G1 X16.543 Y-28.129 Z0.522
G1 X16.537 Y-28.073 Z0.52
G1 X16.524 Y-28.018 Z0.518
G1 X16.503 Y-27.966 Z0.516
G1 X16.475 Y-27.917 Z0.514
G1 X16.44 Y-27.872 Z0.512
G1 X16.4 Y-27.833 Z0.51
G1 X16.354 Y-27.8 Z0.508
G1 X16.304 Y-27.774 Z0.506
G1 X16.251 Y-27.756 Z0.504
G1 X16.196 Y-27.745 Z0.502
G1 X16.14 Y-27.741 Z0.5
G1 X16.084 Y-27.746 Z0.498
G1 X16.029 Y-27.759 Z0.496
G1 X15.976 Y-27.779 Z0.494
G1 X15.927 Y-27.807 Z0.493
G1 X15.883 Y-27.841 Z0.491
G1 X15.843 Y-27.881 Z0.489
G1 X15.81 Y-27.927 Z0.487
G1 X15.783 Y-27.976 Z0.485
G1 X15.764 Y-28.029 Z0.483
G1 X15.753 Y-28.084 Z0.481
G1 X15.749 Y-28.141 Z0.479
G1 X15.753 Y-28.197 Z0.477
G1 X15.765 Y-28.252 Z0.475
G1 X15.785 Y-28.304 Z0.473
G1 X15.812 Y-28.354 Z0.471
G1 X15.846 Y-28.399 Z0.469
G1 X15.886 Y-28.438 Z0.467
G1 X15.931 Y-28.472 Z0.465
G1 X15.981 Y-28.499 Z0.463
G1 X16.033 Y-28.519 Z0.461
G1 X16.088 Y-28.531 Z0.459
G1 X16.145 Y-28.535 Z0.457
G1 X16.201 Y-28.531 Z0.455
G1 X16.256 Y-28.52 Z0.453
G1 X16.309 Y-28.5 Z0.451
G1 X16.358 Y-28.473 Z0.449
G1 X16.404 Y-28.44 Z0.447
G1 X16.444 Y-28.401 Z0.445
G1 X16.478 Y-28.356 Z0.443
G1 X16.505 Y-28.307 Z0.441
G1 X16.525 Y-28.254 Z0.439
G1 X16.538 Y-28.199 Z0.437
G1 X16.543 Y-28.143 Z0.435
G1 X16.539 Y-28.087 Z0.433
G1 X16.528 Y-28.032 Z0.432
G1 X16.509 Y-27.979 Z0.43
G1 X16.483 Y-27.929 Z0.428
G1 X16.45 Y-27.883 Z0.426
G1 X16.411 Y-27.843 Z0.424
G1 X16.366 Y-27.808 Z0.422
G1 X16.317 Y-27.78 Z0.42
G1 X16.265 Y-27.76 Z0.418
G1 X16.21 Y-27.747 Z0.416
G1 X16.154 Y-27.741 Z0.414
G1 X16.098 Y-27.744 Z0.412
G1 X16.043 Y-27.755 Z0.41
G1 X15.989 Y-27.773 Z0.408
G1 X15.939 Y-27.799 Z0.406
G1 X15.894 Y-27.832 Z0.404
G1 X15.853 Y-27.871 Z0.402
G1 X15.818 Y-27.915 Z0.4
G1 X15.789 Y-27.963 Z0.398
G1 X15.768 Y-28.016 Z0.396
G1 X15.755 Y-28.07 Z0.394
G1 X15.749 Y-28.126 Z0.392
G1 X15.751 Y-28.182 Z0.39
G1 X15.762 Y-28.238 Z0.388
G1 X15.78 Y-28.291 Z0.386
G1 X15.805 Y-28.341 Z0.384
G1 X15.837 Y-28.388 Z0.382
G1 X15.876 Y-28.429 Z0.38
G1 X15.919 Y-28.464 Z0.378
G1 X15.968 Y-28.493 Z0.376
G1 X16.02 Y-28.515 Z0.374
G1 X16.074 Y-28.529 Z0.372
G1 X16.13 Y-28.535 Z0.371
G1 X16.186 Y-28.533 Z0.369
G1 X16.242 Y-28.523 Z0.367
G1 X16.295 Y-28.506 Z0.365
G1 X16.346 Y-28.481 Z0.363
G1 X16.392 Y-28.449 Z0.361
G1 X16.434 Y-28.411 Z0.359
G1 X16.47 Y-28.368 Z0.357
G1 X16.499 Y-28.319 Z0.355
G1 X16.521 Y-28.268 Z0.353
G1 X16.535 Y-28.213 Z0.351
G1 X16.542 Y-28.157 Z0.349
G1 X16.541 Y-28.101 Z0.347
G1 X16.532 Y-28.046 Z0.345
G1 X16.515 Y-27.992 Z0.343
G1 X16.49 Y-27.941 Z0.341
G1 X16.459 Y-27.894 Z0.339
G1 X16.421 Y-27.853 Z0.337
G1 X16.378 Y-27.816 Z0.335
G1 X16.33 Y-27.787 Z0.333
G1 X16.279 Y-27.764 Z0.331
G1 X16.224 Y-27.749 Z0.329
G1 X16.168 Y-27.742 Z0.327
G1 X16.112 Y-27.743 Z0.325
G1 X16.057 Y-27.751 Z0.323
G1 X16.003 Y-27.768 Z0.321
G1 X15.952 Y-27.792 Z0.319
G1 X15.905 Y-27.823 Z0.317
G1 X15.863 Y-27.86 Z0.315
G1 X15.826 Y-27.903 Z0.313
G1 X15.796 Y-27.951 Z0.311
G1 X15.773 Y-28.002 Z0.31
G1 X15.757 Y-28.056 Z0.308
G1 X15.75 Y-28.112 Z0.306
G1 Y-28.168 Z0.304
G1 X15.758 Y-28.224 Z0.302
G1 X15.774 Y-28.278 Z0.3
G1 X15.798 Y-28.329 Z0.298
G1 X15.828 Y-28.376 Z0.296
G1 X15.865 Y-28.419 Z0.294
G1 X15.908 Y-28.456 Z0.292
G1 X15.955 Y-28.486 Z0.29
G1 X16.006 Y-28.51 Z0.288
G1 X16.06 Y-28.526 Z0.286
G1 X16.116 Y-28.534 Z0.284
G1 X16.172 Z0.282
G1 X16.228 Y-28.526 Z0.28
G1 X16.282 Y-28.511 Z0.278
G1 X16.333 Y-28.488 Z0.276
G1 X16.381 Y-28.458 Z0.274
G1 X16.424 Y-28.421 Z0.272
G1 X16.461 Y-28.379 Z0.27
G1 X16.492 Y-28.332 Z0.268
G1 X16.516 Y-28.281 Z0.266
G1 X16.533 Y-28.227 Z0.264
G1 X16.541 Y-28.172 Z0.262
G1 X16.542 Y-28.115 Z0.26
G1 X16.535 Y-28.06 Z0.258
G1 X16.52 Y-28.005 Z0.256
G1 X16.497 Y-27.954 Z0.254
G1 X16.467 Y-27.906 Z0.252
G1 X16.431 Y-27.863 Z0.25
G1 X16.389 Y-27.825 Z0.249
G1 X16.343 Y-27.794 Z0.247
G1 X16.292 Y-27.769 Z0.245
G1 X16.238 Y-27.752 Z0.243
G1 X16.183 Y-27.743 Z0.241
G1 X16.126 Y-27.742 Z0.239
G1 X16.071 Y-27.749 Z0.237
G1 X16.016 Y-27.763 Z0.235
G1 X15.964 Y-27.785 Z0.233
G1 X15.916 Y-27.814 Z0.231
G1 X15.873 Y-27.85 Z0.229
G1 X15.835 Y-27.892 Z0.227
G1 X15.803 Y-27.938 Z0.225
G1 X15.778 Y-27.989 Z0.223
G1 X15.761 Y-28.042 Z0.221
G1 X15.751 Y-28.098 Z0.219
G1 X15.749 Y-28.154 Z0.217
G1 X15.755 Y-28.21 Z0.215
G1 X15.769 Y-28.264 Z0.213
G1 X15.791 Y-28.316 Z0.211
G1 X15.82 Y-28.365 Z0.209
G1 X15.855 Y-28.409 Z0.207
G1 X15.896 Y-28.447 Z0.205
G1 X15.943 Y-28.479 Z0.203
G1 X15.993 Y-28.504 Z0.201
G1 X16.046 Y-28.522 Z0.199
G1 X16.102 Y-28.533 Z0.197
G1 X16.158 Y-28.535 Z0.195
G1 X16.214 Y-28.529 Z0.193
G1 X16.269 Y-28.516 Z0.191
G1 X16.321 Y-28.494 Z0.19
G1 X16.369 Y-28.466 Z0.188
G1 X16.414 Y-28.431 Z0.186
G1 X16.452 Y-28.39 Z0.184
G1 X16.485 Y-28.344 Z0.182
G1 X16.511 Y-28.294 Z0.18
G1 X16.529 Y-28.241 Z0.178
G1 X16.54 Y-28.186 Z0.176
G1 X16.543 Y-28.13 Z0.174
G1 X16.537 Y-28.074 Z0.172
G1 X16.524 Y-28.019 Z0.17
G1 X16.504 Y-27.966 Z0.168
G1 X16.476 Y-27.918 Z0.166
G1 X16.441 Y-27.873 Z0.164
G1 X16.401 Y-27.834 Z0.162
G1 X16.355 Y-27.801 Z0.16
G1 X16.305 Y-27.775 Z0.158
G1 X16.252 Y-27.756 Z0.156
G1 X16.197 Y-27.745 Z0.154
G1 X16.141 Y-27.741 Z0.152
G1 X16.085 Y-27.746 Z0.15
G1 X16.03 Y-27.759 Z0.148
G1 X15.977 Y-27.779 Z0.146
G1 X15.928 Y-27.806 Z0.144
G1 X15.883 Y-27.84 Z0.142
G1 X15.844 Y-27.881 Z0.14
G1 X15.81 Y-27.926 Z0.138
G1 X15.784 Y-27.976 Z0.136
G1 X15.764 Y-28.028 Z0.134
G1 X15.753 Y-28.083 Z0.132
G1 X15.749 Y-28.14 Z0.13
G1 X15.753 Y-28.196 Z0.129
G1 X15.765 Y-28.251 Z0.127
G1 X15.785 Y-28.303 Z0.125
G1 X15.812 Y-28.353 Z0.123
G1 X15.846 Y-28.398 Z0.121
G1 X15.885 Y-28.438 Z0.119
G1 X15.93 Y-28.472 Z0.117
G1 X15.98 Y-28.499 Z0.115
G1 X16.032 Y-28.519 Z0.113
G1 X16.087 Y-28.531 Z0.111
G1 X16.144 Y-28.535 Z0.109
G1 X16.2 Y-28.531 Z0.107
G1 X16.255 Y-28.52 Z0.105
G1 X16.308 Y-28.501 Z0.103
G1 X16.357 Y-28.474 Z0.101
G1 X16.403 Y-28.441 Z0.099
G1 X16.443 Y-28.401 Z0.097
G1 X16.477 Y-28.357 Z0.095
G1 X16.505 Y-28.307 Z0.093
G1 X16.525 Y-28.255 Z0.091
G1 X16.538 Y-28.2 Z0.089
G1 X16.543 Y-28.144 Z0.087
G1 X16.539 Y-28.088 Z0.085
G1 X16.528 Y-28.033 Z0.083
G1 X16.51 Y-27.979 Z0.081
G1 X16.483 Y-27.93 Z0.079
G1 X16.45 Y-27.884 Z0.077
G1 X16.411 Y-27.843 Z0.075
G1 X16.367 Y-27.809 Z0.073
G1 X16.318 Y-27.781 Z0.071
G1 X16.266 Y-27.76 Z0.069
G1 X16.211 Y-27.747 Z0.068
G1 X16.155 Y-27.741 Z0.066
G1 X16.099 Y-27.744 Z0.064
G1 X16.044 Y-27.755 Z0.062
G1 X15.99 Y-27.773 Z0.06
G1 X15.94 Y-27.799 Z0.058
G1 X15.894 Y-27.831 Z0.056
G1 X15.853 Y-27.87 Z0.054
G1 X15.818 Y-27.914 Z0.052
G1 X15.79 Y-27.963 Z0.05
G1 X15.769 Y-28.015 Z0.048
G1 X15.755 Y-28.069 Z0.046
G1 X15.749 Y-28.125 Z0.044
G1 X15.751 Y-28.182 Z0.042
G1 X15.761 Y-28.237 Z0.04
G1 X15.779 Y-28.29 Z0.038
G1 X15.804 Y-28.341 Z0.036
G1 X15.837 Y-28.387 Z0.034
G1 X15.875 Y-28.428 Z0.032
G1 X15.919 Y-28.464 Z0.03
G1 X15.967 Y-28.492 Z0.028
G1 X16.019 Y-28.514 Z0.026
G1 X16.073 Y-28.528 Z0.024
G1 X16.129 Y-28.535 Z0.022
G1 X16.186 Y-28.533 Z0.02
G1 X16.241 Y-28.523 Z0.018
G1 X16.295 Y-28.506 Z0.016
G1 X16.345 Y-28.481 Z0.014
G1 X16.392 Y-28.45 Z0.012
G1 X16.433 Y-28.412 Z0.01
G1 X16.469 Y-28.368 Z0.008
G1 X16.498 Y-28.32 Z0.007
G1 X16.521 Y-28.269 Z0.005
G1 X16.535 Y-28.214 Z0.003
G1 X16.542 Y-28.158 Z0.001
G1 X16.541 Y-28.102 Z-0.001
G1 X16.532 Y-28.046 Z-0.003
G1 X16.515 Y-27.993 Z-0.005
G1 X16.491 Y-27.942 Z-0.007
G1 X16.459 Y-27.895 Z-0.009
G1 X16.422 Y-27.853 Z-0.011
G1 X16.379 Y-27.817 Z-0.013
G1 X16.331 Y-27.787 Z-0.015
G1 X16.279 Y-27.765 Z-0.017
G1 X16.225 Y-27.749 Z-0.019
G1 X16.169 Y-27.742 Z-0.021
G1 X16.113 Y-27.743 Z-0.023
G1 X16.057 Y-27.751 Z-0.025
G1 X16.004 Y-27.768 Z-0.027
G1 X15.953 Y-27.792 Z-0.029
G1 X15.906 Y-27.822 Z-0.031
G1 X15.863 Y-27.86 Z-0.033
G1 X15.827 Y-27.902 Z-0.035
G1 X15.796 Y-27.95 Z-0.037
G1 X15.773 Y-28.001 Z-0.039
G1 X15.758 Y-28.055 Z-0.041
G1 X15.75 Y-28.111 Z-0.043
G1 Y-28.167 Z-0.045
G1 X15.758 Y-28.223 Z-0.047
G1 X15.774 Y-28.277 Z-0.049
G1 X15.797 Y-28.328 Z-0.051
G1 X15.828 Y-28.376 Z-0.053
G1 X15.865 Y-28.418 Z-0.054
G1 X15.907 Y-28.455 Z-0.056
G1 X15.954 Y-28.486 Z-0.058
G1 X16.005 Y-28.509 Z-0.06
G1 X16.059 Y-28.526 Z-0.062
G1 X16.115 Y-28.534 Z-0.064
G1 X16.171 Z-0.066
G1 X16.227 Y-28.527 Z-0.068
G1 X16.281 Y-28.511 Z-0.07
G1 X16.333 Y-28.488 Z-0.072
G1 X16.38 Y-28.458 Z-0.074
G1 X16.423 Y-28.422 Z-0.076
G1 X16.461 Y-28.38 Z-0.078
G1 X16.492 Y-28.333 Z-0.08
G1 X16.516 Y-28.282 Z-0.082
G1 X16.532 Y-28.228 Z-0.084
G1 X16.541 Y-28.173 Z-0.086
G1 X16.542 Y-28.116 Z-0.088
G1 X16.535 Y-28.06 Z-0.09
G1 X16.52 Y-28.006 Z-0.092
G1 X16.498 Y-27.955 Z-0.094
G1 X16.468 Y-27.907 Z-0.096
G1 X16.432 Y-27.863 Z-0.098
G1 X16.39 Y-27.826 Z-0.1
G1 X16.344 Y-27.794 Z-0.102
G1 X16.293 Y-27.77 Z-0.104
G1 X16.239 Y-27.752 Z-0.106
G1 X16.184 Y-27.743 Z-0.108
G1 X16.127 Y-27.742 Z-0.11
G1 X16.072 Y-27.748 Z-0.112
G1 X16.017 Y-27.763 Z-0.114
G1 X15.965 Y-27.785 Z-0.115
G1 X15.917 Y-27.814 Z-0.117
G1 X15.873 Y-27.849 Z-0.119
G1 X15.835 Y-27.891 Z-0.121
G1 X15.803 Y-27.937 Z-0.123
G1 X15.779 Y-27.988 Z-0.125
G1 X15.761 Y-28.041 Z-0.127
G1 X15.751 Y-28.097 Z-0.129
G1 X15.749 Y-28.153 Z-0.131
G1 X15.755 Y-28.209 Z-0.133
G1 X15.769 Y-28.264 Z-0.135
G1 X15.791 Y-28.316 Z-0.137
G1 X15.819 Y-28.364 Z-0.139
G1 X15.855 Y-28.408 Z-0.141
G1 X15.896 Y-28.446 Z-0.143
G1 X15.942 Y-28.479 Z-0.145
G1 X15.992 Y-28.504 Z-0.147
G1 X16.045 Y-28.522 Z-0.149
G1 X16.101 Y-28.533 Z-0.151
G1 X16.157 Y-28.535 Z-0.153
G1 X16.213 Y-28.529 Z-0.155
G1 X16.268 Y-28.516 Z-0.157
G1 X16.32 Y-28.495 Z-0.159
G1 X16.369 Y-28.467 Z-0.161
G1 X16.413 Y-28.432 Z-0.163
G1 X16.452 Y-28.391 Z-0.165
G1 X16.484 Y-28.345 Z-0.167
G1 X16.51 Y-28.295 Z-0.169
G1 X16.529 Y-28.242 Z-0.171
G1 X16.54 Y-28.187 Z-0.173
G1 X16.543 Y-28.131 Z-0.175
G1 X16.538 Y-28.075 Z-0.176
G1 X16.525 Y-28.02 Z-0.178
G1 X16.504 Y-27.967 Z-0.18
G1 X16.476 Y-27.918 Z-0.182
G1 X16.442 Y-27.874 Z-0.184
G1 X16.401 Y-27.835 Z-0.186
G1 X16.356 Y-27.801 Z-0.188
G1 X16.306 Y-27.775 Z-0.19
G1 X16.253 Y-27.756 Z-0.192
G1 X16.198 Y-27.745 Z-0.194
G1 X16.142 Y-27.741 Z-0.196
G1 X16.086 Y-27.746 Z-0.198
G1 X16.031 Y-27.758 Z-0.2
G1 X15.978 Y-27.778 Z-0.202
G1 X15.929 Y-27.806 Z-0.204
G1 X15.884 Y-27.84 Z-0.206
G1 X15.844 Y-27.88 Z-0.208
G1 X15.811 Y-27.925 Z-0.21
G1 X15.784 Y-27.975 Z-0.212
G1 X15.765 Y-28.027 Z-0.214
G1 X15.753 Y-28.082 Z-0.216
G1 X15.749 Y-28.139 Z-0.218
G1 X15.753 Y-28.195 Z-0.22
G1 X15.765 Y-28.25 Z-0.222
G1 X15.785 Y-28.303 Z-0.224
G1 X15.811 Y-28.352 Z-0.226
G1 X15.845 Y-28.397 Z-0.228
G1 X15.885 Y-28.437 Z-0.23
G1 X15.93 Y-28.471 Z-0.232
G1 X15.979 Y-28.498 Z-0.234
G1 X16.032 Y-28.518 Z-0.236
G1 X16.087 Y-28.531 Z-0.237
G1 X16.143 Y-28.535 Z-0.239
G1 X16.199 Y-28.532 Z-0.241
G1 X16.254 Y-28.52 Z-0.243
G1 X16.307 Y-28.501 Z-0.245
G1 X16.357 Y-28.474 Z-0.247
G1 X16.402 Y-28.441 Z-0.249
G1 X16.442 Y-28.402 Z-0.251
G1 X16.477 Y-28.357 Z-0.253
G1 X16.504 Y-28.308 Z-0.255
G1 X16.525 Y-28.256 Z-0.257
G1 X16.538 Y-28.201 Z-0.259
G1 X16.543 Y-28.145 Z-0.261
G1 X16.54 Y-28.089 Z-0.263
G1 X16.529 Y-28.033 Z-0.265
G1 X16.51 Y-27.98 Z-0.267
G1 X16.484 Y-27.93 Z-0.269
G1 X16.451 Y-27.885 Z-0.271
G1 X16.412 Y-27.844 Z-0.273
G1 X16.368 Y-27.809 Z-0.275
G1 X16.319 Y-27.781 Z-0.277
G1 X16.267 Y-27.76 Z-0.279
G1 X16.212 Y-27.747 Z-0.281
G1 X16.156 Y-27.741 Z-0.283
G1 X16.1 Y-27.744 Z-0.285
G1 X16.045 Y-27.754 Z-0.287
G1 X15.991 Y-27.773 Z-0.289
G1 X15.941 Y-27.798 Z-0.291
G1 X15.895 Y-27.831 Z-0.293
G1 X15.854 Y-27.869 Z-0.295
G1 X15.819 Y-27.913 Z-0.297
G1 X15.79 Y-27.962 Z-0.298
G1 X15.769 Y-28.014 Z-0.3
G1 X15.755 Y-28.068 Z-0.302
G1 X15.749 Y-28.124 Z-0.304
G1 X15.751 Y-28.181 Z-0.306
G1 X15.761 Y-28.236 Z-0.308
G1 X15.779 Y-28.289 Z-0.31
G1 X15.804 Y-28.34 Z-0.312
G1 X15.836 Y-28.386 Z-0.314
G1 X15.874 Y-28.428 Z-0.316
G1 X15.918 Y-28.463 Z-0.318
G1 X15.966 Y-28.492 Z-0.32
G1 X16.018 Y-28.514 Z-0.322
G1 X16.072 Y-28.528 Z-0.324
G1 X16.128 Y-28.535 Z-0.326
G1 X16.185 Y-28.533 Z-0.328
G1 X16.24 Y-28.524 Z-0.33
G1 X16.294 Y-28.506 Z-0.332
G1 X16.344 Y-28.482 Z-0.334
G1 X16.391 Y-28.45 Z-0.336
G1 X16.433 Y-28.412 Z-0.338
G1 X16.469 Y-28.369 Z-0.34
G1 X16.498 Y-28.321 Z-0.342
G1 X16.52 Y-28.269 Z-0.344
G1 X16.535 Y-28.215 Z-0.346
G1 X16.542 Y-28.159 Z-0.348
G1 X16.541 Y-28.103 Z-0.35
G1 X16.532 Y-28.047 Z-0.352
G1 X16.515 Y-27.994 Z-0.354
G1 X16.491 Y-27.943 Z-0.356
G1 X16.46 Y-27.896 Z-0.358
G1 X16.423 Y-27.854 Z-0.359
G1 X16.38 Y-27.818 Z-0.361
G1 X16.332 Y-27.788 Z-0.363
G1 X16.28 Y-27.765 Z-0.365
G1 X16.226 Y-27.75 Z-0.367
G1 X16.17 Y-27.742 Z-0.369
G1 X16.114 Y-27.743 Z-0.371
G1 X16.058 Y-27.751 Z-0.373
G1 X16.005 Y-27.767 Z-0.375
G1 X15.953 Y-27.791 Z-0.377
G1 X15.906 Y-27.822 Z-0.379
G1 X15.864 Y-27.859 Z-0.381
G1 X15.827 Y-27.902 Z-0.383
G1 X15.797 Y-27.949 Z-0.385
G1 X15.774 Y-28 Z-0.387
G1 X15.758 Y-28.054 Z-0.389
G1 X15.75 Y-28.11 Z-0.391
G1 Y-28.166 Z-0.393
G1 X15.758 Y-28.222 Z-0.395
G1 X15.774 Y-28.276 Z-0.397
G1 X15.797 Y-28.327 Z-0.399
G1 X15.827 Y-28.375 Z-0.401
G1 X15.864 Y-28.418 Z-0.403
G1 X15.906 Y-28.455 Z-0.405
G1 X15.953 Y-28.485 Z-0.407
G1 X16.004 Y-28.509 Z-0.409
G1 X16.058 Y-28.525 Z-0.411
G1 X16.114 Y-28.534 Z-0.413
G1 X16.17 Z-0.415
G1 X16.226 Y-28.527 Z-0.417
G1 X16.28 Y-28.512 Z-0.419
G1 X16.332 Y-28.489 Z-0.42
G1 X16.38 Y-28.459 Z-0.422
G1 X16.423 Y-28.423 Z-0.424
G1 X16.46 Y-28.381 Z-0.426
G1 X16.491 Y-28.334 Z-0.428
G1 X16.515 Y-28.283 Z-0.43
G1 X16.532 Y-28.229 Z-0.432
G1 X16.541 Y-28.174 Z-0.434
G1 X16.542 Y-28.117 Z-0.436
G1 X16.535 Y-28.061 Z-0.438
G1 X16.52 Y-28.007 Z-0.44
G1 X16.498 Y-27.955 Z-0.442
G1 X16.469 Y-27.907 Z-0.444
G1 X16.433 Y-27.864 Z-0.446
G1 X16.391 Y-27.826 Z-0.448
G1 X16.344 Y-27.795 Z-0.45
G1 X16.294 Y-27.77 Z-0.452
G1 X16.24 Y-27.753 Z-0.454
G1 X16.185 Y-27.743 Z-0.456
G1 X16.128 Y-27.742 Z-0.458
G1 X16.072 Y-27.748 Z-0.46
G1 X16.018 Y-27.762 Z-0.462
G1 X15.966 Y-27.784 Z-0.464
G1 X15.918 Y-27.813 Z-0.466
G1 X15.874 Y-27.849 Z-0.468
G1 X15.836 Y-27.89 Z-0.47
G1 X15.804 Y-27.937 Z-0.472
G1 X15.779 Y-27.987 Z-0.474
G1 X15.761 Y-28.04 Z-0.476
G1 X15.751 Y-28.096 Z-0.478
G1 X15.749 Y-28.152 Z-0.48
G1 X15.755 Y-28.208 Z-0.481
G1 X15.769 Y-28.263 Z-0.483
G1 X15.79 Y-28.315 Z-0.485
G1 X15.819 Y-28.363 Z-0.487
G1 X15.854 Y-28.407 Z-0.489
G1 X15.895 Y-28.446 Z-0.491
G1 X15.941 Y-28.478 Z-0.493
G1 X15.991 Y-28.504 Z-0.495
G1 X16.044 Y-28.522 Z-0.497
G1 X16.1 Y-28.532 Z-0.499
G1 X16.156 Y-28.535 Z-0.501
G1 X16.212 Y-28.53 Z-0.503
G1 X16.267 Y-28.516 Z-0.505
G1 X16.319 Y-28.495 Z-0.507
G1 X16.368 Y-28.467 Z-0.509
G1 X16.412 Y-28.432 Z-0.511
G1 X16.451 Y-28.392 Z-0.513
G1 X16.484 Y-28.346 Z-0.515
G1 X16.51 Y-28.296 Z-0.517
G1 X16.529 Y-28.243 Z-0.519
G1 X16.54 Y-28.188 Z-0.521
G1 X16.543 Y-28.132 Z-0.523
G1 X16.538 Y-28.075 Z-0.525
G1 X16.525 Y-28.021 Z-0.527
G1 X16.504 Y-27.968 Z-0.529
G1 X16.477 Y-27.919 Z-0.531
G1 X16.442 Y-27.875 Z-0.533
G1 X16.402 Y-27.835 Z-0.535
G1 X16.357 Y-27.802 Z-0.537
G1 X16.307 Y-27.776 Z-0.539
G1 X16.254 Y-27.756 Z-0.541
G1 X16.199 Y-27.745 Z-0.542
G1 X16.143 Y-27.741 Z-0.544
G1 X16.087 Y-27.746 Z-0.546
G1 X16.032 Y-27.758 Z-0.548
G1 X15.979 Y-27.778 Z-0.55
G1 X15.93 Y-27.805 Z-0.552
G1 X15.885 Y-27.839 Z-0.554
G1 X15.845 Y-27.879 Z-0.556
G1 X15.811 Y-27.924 Z-0.558
G1 X15.785 Y-27.974 Z-0.56
G1 X15.765 Y-28.027 Z-0.562
G1 X15.753 Y-28.082 Z-0.564
G1 X15.749 Y-28.138 Z-0.566
G1 X15.753 Y-28.194 Z-0.568
G1 X15.765 Y-28.249 Z-0.57
G1 X15.784 Y-28.302 Z-0.572
G1 X15.811 Y-28.351 Z-0.574
G1 X15.844 Y-28.396 Z-0.576
G1 X15.884 Y-28.437 Z-0.578
G1 X15.929 Y-28.471 Z-0.58
G1 X15.978 Y-28.498 Z-0.582
G1 X16.031 Y-28.518 Z-0.584
G1 X16.086 Y-28.53 Z-0.586
G1 X16.142 Y-28.535 Z-0.588
G1 X16.198 Y-28.532 Z-0.59
G1 X16.253 Y-28.52 Z-0.592
G1 X16.306 Y-28.501 Z-0.594
G1 X16.356 Y-28.475 Z-0.596
G1 X16.401 Y-28.442 Z-0.598
G1 X16.442 Y-28.403 Z-0.6
G1 X16.476 Y-28.358 Z-0.602
G1 X16.504 Y-28.309 Z-0.603
G1 X16.525 Y-28.257 Z-0.605
G1 X16.537 Y-28.202 Z-0.607
G1 X16.543 Y-28.146 Z-0.609
G1 X16.54 Y-28.09 Z-0.611
G1 X16.529 Y-28.034 Z-0.613
G1 X16.51 Y-27.981 Z-0.615
G1 X16.484 Y-27.931 Z-0.617
G1 X16.452 Y-27.885 Z-0.619
G1 X16.413 Y-27.845 Z-0.621
G1 X16.369 Y-27.81 Z-0.623
G1 X16.32 Y-27.782 Z-0.625
G1 X16.268 Y-27.761 Z-0.627
G1 X16.213 Y-27.747 Z-0.629
G1 X16.157 Y-27.741 Z-0.631
G1 X16.101 Y-27.744 Z-0.633
G1 X16.045 Y-27.754 Z-0.635
G1 X15.992 Y-27.772 Z-0.637
G1 X15.942 Y-27.798 Z-0.639
G1 X15.896 Y-27.83 Z-0.641
G1 X15.855 Y-27.868 Z-0.643
G1 X15.819 Y-27.912 Z-0.645
G1 X15.791 Y-27.961 Z-0.647
G1 X15.769 Y-28.013 Z-0.649
G1 X15.755 Y-28.067 Z-0.651
G1 X15.749 Y-28.123 Z-0.653
G1 X15.751 Y-28.18 Z-0.655
G1 X15.761 Y-28.235 Z-0.657
G1 X15.778 Y-28.289 Z-0.659
G1 X15.803 Y-28.339 Z-0.661
G1 X15.835 Y-28.385 Z-0.663
G1 X15.873 Y-28.427 Z-0.664
G1 X15.917 Y-28.463 Z-0.666
G1 X15.965 Y-28.492 Z-0.668
G1 X16.017 Y-28.514 Z-0.67
G1 X16.071 Y-28.528 Z-0.672
G1 X16.127 Y-28.535 Z-0.674
G1 X16.184 Y-28.533 Z-0.676
G1 X16.239 Y-28.524 Z-0.678
G1 X16.293 Y-28.507 Z-0.68
G1 X16.343 Y-28.482 Z-0.682
G1 X16.39 Y-28.451 Z-0.684
G1 X16.432 Y-28.413 Z-0.686
G1 X16.468 Y-28.37 Z-0.688
G1 X16.498 Y-28.322 Z-0.69
G1 X16.52 Y-28.27 Z-0.692
G1 X16.535 Y-28.216 Z-0.694
G1 X16.542 Y-28.16 Z-0.696
G1 X16.541 Y-28.104 Z-0.698
G1 X16.532 Y-28.048 Z-0.7
G1 X16.516 Y-27.995 Z-0.702
G1 X16.492 Y-27.944 Z-0.704
G1 X16.461 Y-27.897 Z-0.706
G1 X16.423 Y-27.854 Z-0.708
G1 X16.38 Y-27.818 Z-0.71
G1 X16.333 Y-27.788 Z-0.712
G1 X16.281 Y-27.765 Z-0.714
G1 X16.227 Y-27.75 Z-0.716
G1 X16.171 Y-27.742 Z-0.718
G1 X16.115 Y-27.743 Z-0.72
G1 X16.059 Y-27.751 Z-0.722
G1 X16.005 Y-27.767 Z-0.724
G1 X15.954 Y-27.791 Z-0.725
G1 X15.907 Y-27.821 Z-0.727
G1 X15.865 Y-27.858 Z-0.729
G1 X15.828 Y-27.901 Z-0.731
G1 X15.797 Y-27.948 Z-0.733
G1 X15.774 Y-27.999 Z-0.735
G1 X15.758 Y-28.053 Z-0.737
G1 X15.75 Y-28.109 Z-0.739
G1 Y-28.165 Z-0.741
G1 X15.758 Y-28.221 Z-0.743
G1 X15.773 Y-28.275 Z-0.745
G1 X15.796 Y-28.327 Z-0.747
G1 X15.827 Y-28.374 Z-0.749
G1 X15.863 Y-28.417 Z-0.751
G1 X15.905 Y-28.454 Z-0.753
G1 X15.953 Y-28.485 Z-0.755
G1 X16.004 Y-28.509 Z-0.757
G1 X16.057 Y-28.525 Z-0.759
G1 X16.113 Y-28.534 Z-0.761
G1 X16.169 Z-0.763
G1 X16.225 Y-28.527 Z-0.765
G1 X16.279 Y-28.512 Z-0.767
G1 X16.331 Y-28.489 Z-0.769
G1 X16.379 Y-28.46 Z-0.771
G1 X16.422 Y-28.423 Z-0.773
G1 X16.459 Y-28.381 Z-0.775
G1 X16.491 Y-28.335 Z-0.777
G1 X16.515 Y-28.284 Z-0.779
G1 X16.532 Y-28.23 Z-0.781
G1 X16.541 Y-28.174 Z-0.783
G1 X16.542 Y-28.118 Z-0.785
G1 X16.535 Y-28.062 Z-0.786
G1 X16.521 Y-28.008 Z-0.788
G1 X16.498 Y-27.956 Z-0.79
G1 X16.469 Y-27.908 Z-0.792
G1 X16.433 Y-27.865 Z-0.794
G1 X16.392 Y-27.827 Z-0.796
G1 X16.345 Y-27.795 Z-0.798
G1 X16.295 Y-27.77 Z-0.8
G1 X16.241 Y-27.753 Z-0.802
G1 X16.186 Y-27.743 Z-0.804
G1 X16.129 Y-27.742 Z-0.806
G1 X16.073 Y-27.748 Z-0.808
G1 X16.019 Y-27.762 Z-0.81
G1 X15.967 Y-27.784 Z-0.812
G1 X15.919 Y-27.813 Z-0.814
G1 X15.875 Y-27.848 Z-0.816
G1 X15.837 Y-27.889 Z-0.818
G1 X15.804 Y-27.936 Z-0.82
G1 X15.779 Y-27.986 Z-0.822
G1 X15.761 Y-28.039 Z-0.824
G1 X15.751 Y-28.095 Z-0.826
G1 X15.749 Y-28.151 Z-0.828
G1 X15.755 Y-28.207 Z-0.83
G1 X15.769 Y-28.262 Z-0.832
G1 X15.79 Y-28.314 Z-0.834
G1 X15.818 Y-28.362 Z-0.836
G1 X15.853 Y-28.407 Z-0.838
G1 X15.894 Y-28.445 Z-0.84
G1 X15.94 Y-28.478 Z-0.842
G1 X15.99 Y-28.503 Z-0.844
G1 X16.044 Y-28.522 Z-0.846
G1 X16.099 Y-28.532 Z-0.847
G1 X16.155 Y-28.535 Z-0.849
G1 X16.211 Y-28.53 Z-0.851
G1 X16.266 Y-28.516 Z-0.853
G1 X16.318 Y-28.496 Z-0.855
G1 X16.367 Y-28.468 Z-0.857
G1 X16.411 Y-28.433 Z-0.859
G1 X16.45 Y-28.393 Z-0.861
G1 X16.483 Y-28.347 Z-0.863
G1 X16.51 Y-28.297 Z-0.865
G1 X16.528 Y-28.244 Z-0.867
G1 X16.539 Y-28.189 Z-0.869
G1 X16.543 Y-28.133 Z-0.871
G1 X16.538 Y-28.076 Z-0.873
G1 X16.525 Y-28.022 Z-0.875
G1 X16.505 Y-27.969 Z-0.877
G1 X16.477 Y-27.92 Z-0.879
G1 X16.443 Y-27.875 Z-0.881
G1 X16.403 Y-27.836 Z-0.883
G1 X16.357 Y-27.802 Z-0.885
G1 X16.308 Y-27.776 Z-0.887
G1 X16.255 Y-27.757 Z-0.889
G1 X16.2 Y-27.745 Z-0.891
G1 X16.144 Y-27.741 Z-0.893
G1 X16.088 Y-27.746 Z-0.895
G1 X16.033 Y-27.758 Z-0.897
G1 X15.98 Y-27.778 Z-0.899
G1 X15.931 Y-27.805 Z-0.901
G1 X15.885 Y-27.839 Z-0.903
G1 X15.846 Y-27.878 Z-0.905
G1 X15.812 Y-27.924 Z-0.907
G1 X15.785 Y-27.973 Z-0.908
G1 X15.765 Y-28.026 Z-0.91
G1 X15.753 Y-28.081 Z-0.912
G1 X15.749 Y-28.137 Z-0.914
G1 X15.753 Y-28.193 Z-0.916
G1 X15.764 Y-28.248 Z-0.918
G1 X15.784 Y-28.301 Z-0.92
G1 X15.81 Y-28.35 Z-0.922
G1 X15.844 Y-28.396 Z-0.924
G1 X15.883 Y-28.436 Z-0.926
G1 X15.928 Y-28.47 Z-0.928
G1 X15.977 Y-28.498 Z-0.93
G1 X16.03 Y-28.518 Z-0.932
G1 X16.085 Y-28.53 Z-0.934
G1 X16.141 Y-28.535 Z-0.936
G1 X16.197 Y-28.532 Z-0.938
G1 X16.252 Y-28.521 Z-0.94
G1 X16.305 Y-28.502 Z-0.942
G1 X16.355 Y-28.475 Z-0.944
G1 X16.401 Y-28.442 Z-0.946
G1 X16.441 Y-28.403 Z-0.948
G1 X16.476 Y-28.359 Z-0.95
G1 X16.504 Y-28.31 Z-0.952
G1 X16.524 Y-28.258 Z-0.954
G1 X16.537 Y-28.203 Z-0.956
G1 X16.543 Y-28.147 Z-0.958
G1 X16.54 Y-28.091 Z-0.96
G1 X16.529 Y-28.035 Z-0.962
G1 X16.511 Y-27.982 Z-0.964
G1 X16.485 Y-27.932 Z-0.966
G1 X16.452 Y-27.886 Z-0.968
G1 X16.414 Y-27.845 Z-0.969
G1 X16.369 Y-27.81 Z-0.971
G1 X16.321 Y-27.782 Z-0.973
G1 X16.269 Y-27.761 Z-0.975
G1 X16.214 Y-27.747 Z-0.977
G1 X16.158 Y-27.742 Z-0.979
G1 X16.102 Y-27.744 Z-0.981
G1 X16.046 Y-27.754 Z-0.983
G1 X15.993 Y-27.772 Z-0.985
G1 X15.943 Y-27.797 Z-0.987
G1 X15.896 Y-27.829 Z-0.989
G1 X15.855 Y-27.868 Z-0.991
G1 X15.82 Y-27.912 Z-0.993
G1 X15.791 Y-27.96 Z-0.995
G1 X15.77 Y-28.012 Z-0.997
G1 X15.755 Y-28.066 Z-0.999
G1 X15.749 Y-28.122 Z-1.001
G1 X15.751 Y-28.179 Z-1.003
G1 X15.761 Y-28.234 Z-1.005
G1 X15.778 Y-28.288 Z-1.007
G1 X15.803 Y-28.338 Z-1.009
G1 X15.835 Y-28.385 Z-1.011
G1 X15.873 Y-28.426 Z-1.013
G1 X15.916 Y-28.462 Z-1.015
G1 X15.964 Y-28.491 Z-1.017
G1 X16.016 Y-28.513 Z-1.019
G1 X16.071 Y-28.528 Z-1.021
G1 X16.126 Y-28.535 Z-1.023
G1 X16.183 Y-28.533 Z-1.025
G1 X16.238 Y-28.524 Z-1.027
G1 X16.292 Y-28.507 Z-1.029
G1 X16.343 Y-28.483 Z-1.03
G1 X16.389 Y-28.451 Z-1.032
G1 X16.431 Y-28.414 Z-1.034
G1 X16.467 Y-28.371 Z-1.036
G1 X16.497 Y-28.323 Z-1.038
G1 X16.52 Y-28.271 Z-1.04
G1 X16.535 Y-28.217 Z-1.042
G1 X16.542 Y-28.161 Z-1.044
G1 X16.541 Y-28.105 Z-1.046
G1 X16.533 Y-28.049 Z-1.048
G1 X16.516 Y-27.995 Z-1.05
G1 X16.492 Y-27.944 Z-1.052
G1 X16.461 Y-27.897 Z-1.054
G1 X16.424 Y-27.855 Z-1.056
G1 X16.381 Y-27.819 Z-1.058
G1 X16.334 Y-27.789 Z-1.06
G1 X16.282 Y-27.766 Z-1.062
G1 X16.228 Y-27.75 Z-1.064
G1 X16.172 Y-27.742 Z-1.066
G1 X16.116 Z-1.068
G1 X16.06 Y-27.751 Z-1.07
G1 X16.006 Y-27.767 Z-1.072
G1 X15.955 Y-27.79 Z-1.074
G1 X15.908 Y-27.821 Z-1.076
G1 X15.865 Y-27.857 Z-1.078
G1 X15.828 Y-27.9 Z-1.08
G1 X15.798 Y-27.947 Z-1.082
G1 X15.774 Y-27.998 Z-1.084
G1 X15.758 Y-28.052 Z-1.086
G1 X15.75 Y-28.108 Z-1.088
G1 Y-28.164 Z-1.09
G1 X15.757 Y-28.22 Z-1.091
G1 X15.773 Y-28.274 Z-1.093
G1 X15.796 Y-28.326 Z-1.095
G1 X15.826 Y-28.373 Z-1.097
G1 X15.863 Y-28.416 Z-1.099
G1 X15.905 Y-28.453 Z-1.101
G1 X15.952 Y-28.484 Z-1.103
G1 X16.003 Y-28.508 Z-1.105
G1 X16.057 Y-28.525 Z-1.107
G1 X16.112 Y-28.534 Z-1.109
G1 X16.168 Z-1.111
G1 X16.224 Y-28.527 Z-1.113
G1 X16.279 Y-28.512 Z-1.115
G1 X16.33 Y-28.49 Z-1.117
G1 X16.378 Y-28.46 Z-1.119
G1 X16.421 Y-28.424 Z-1.121
G1 X16.459 Y-28.382 Z-1.123
G1 X16.49 Y-28.335 Z-1.125
G1 X16.515 Y-28.285 Z-1.127
G1 X16.532 Y-28.231 Z-1.129
G1 X16.541 Y-28.175 Z-1.131
G1 X16.542 Y-28.119 Z-1.133
G1 X16.536 Y-28.063 Z-1.135
G1 X16.521 Y-28.009 Z-1.137
G1 X16.499 Y-27.957 Z-1.139
G1 X16.47 Y-27.909 Z-1.141
G1 X16.434 Y-27.865 Z-1.143
G1 X16.392 Y-27.827 Z-1.145
G1 X16.346 Y-27.796 Z-1.147
G1 X16.296 Y-27.771 Z-1.149
G1 X16.242 Y-27.753 Z-1.151
G1 X16.187 Y-27.743 Z-1.152
G1 X16.13 Y-27.742 Z-1.154
G1 X16.074 Y-27.748 Z-1.156
G1 X16.02 Y-27.762 Z-1.158
G1 X15.968 Y-27.783 Z-1.16
G1 X15.919 Y-27.812 Z-1.162
G1 X15.876 Y-27.848 Z-1.164
G1 X15.837 Y-27.889 Z-1.166
G1 X15.805 Y-27.935 Z-1.168
G1 X15.78 Y-27.985 Z-1.17
G1 X15.762 Y-28.039 Z-1.172
G1 X15.751 Y-28.094 Z-1.174
G1 X15.749 Y-28.15 Z-1.176
G1 X15.755 Y-28.206 Z-1.178
G1 X15.768 Y-28.261 Z-1.18
G1 X15.789 Y-28.313 Z-1.182
G1 X15.818 Y-28.362 Z-1.184
G1 X15.853 Y-28.406 Z-1.186
G1 X15.893 Y-28.445 Z-1.188
G1 X15.939 Y-28.477 Z-1.19
G1 X15.989 Y-28.503 Z-1.192
G1 X16.043 Y-28.521 Z-1.194
G1 X16.098 Y-28.532 Z-1.196
G1 X16.154 Y-28.535 Z-1.198
G1 X16.21 Y-28.53 Z-1.2
G1 X16.265 Y-28.517 Z-1.202
G1 X16.317 Y-28.496 Z-1.204
G1 X16.366 Y-28.468 Z-1.206
G1 X16.411 Y-28.434 Z-1.208
G1 X16.45 Y-28.393 Z-1.21
G1 X16.483 Y-28.348 Z-1.212
G1 X16.509 Y-28.298 Z-1.213
G1 X16.528 Y-28.245 Z-1.215
G1 X16.539 Y-28.19 Z-1.217
G1 X16.543 Y-28.133 Z-1.219
G1 X16.538 Y-28.077 Z-1.221
G1 X16.525 Y-28.022 Z-1.223
G1 X16.505 Y-27.97 Z-1.225
G1 X16.478 Y-27.921 Z-1.227
G1 X16.444 Y-27.876 Z-1.229
G1 X16.404 Y-27.836 Z-1.231
G1 X16.358 Y-27.803 Z-1.233
G1 X16.309 Y-27.776 Z-1.235
G1 X16.256 Y-27.757 Z-1.237
G1 X16.201 Y-27.745 Z-1.239
G1 X16.145 Y-27.741 Z-1.241
G1 X16.088 Y-27.745 Z-1.243
G1 X16.033 Y-27.758 Z-1.245
G1 X15.981 Y-27.777 Z-1.247
G1 X15.931 Y-27.804 Z-1.249
G1 X15.886 Y-27.838 Z-1.251
G1 X15.846 Y-27.878 Z-1.253
G1 X15.812 Y-27.923 Z-1.255
G1 X15.785 Y-27.972 Z-1.257
G1 X15.765 Y-28.025 Z-1.259
G1 X15.753 Y-28.08 Z-1.261
G1 X15.749 Y-28.136 Z-1.263
G1 X15.753 Y-28.192 Z-1.265
G1 X15.764 Y-28.247 Z-1.267
G1 X15.783 Y-28.3 Z-1.269
G1 X15.81 Y-28.35 Z-1.271
G1 X15.843 Y-28.395 Z-1.273
G1 X15.883 Y-28.435 Z-1.274
G1 X15.927 Y-28.47 Z-1.276
G1 X15.976 Y-28.497 Z-1.278
G1 X16.029 Y-28.517 Z-1.28
G1 X16.084 Y-28.53 Z-1.282
G1 X16.14 Y-28.535 Z-1.284
G1 X16.196 Y-28.532 Z-1.286
G1 X16.251 Y-28.521 Z-1.288
G1 X16.304 Y-28.502 Z-1.29
G1 X16.354 Y-28.476 Z-1.292
G1 X16.4 Y-28.443 Z-1.294
G1 X16.44 Y-28.404 Z-1.296
G1 X16.475 Y-28.36 Z-1.298
G1 X16.503 Y-28.311 Z-1.3
G1 X16.524 Y-28.259 Z-1.302
G1 X16.537 Y-28.204 Z-1.304
G1 X16.543 Y-28.148 Z-1.306
G1 X16.54 Y-28.092 Z-1.308
G1 X16.529 Y-28.036 Z-1.31
G1 X16.511 Y-27.983 Z-1.312
G1 X16.485 Y-27.933 Z-1.314
G1 X16.453 Y-27.887 Z-1.316
G1 X16.414 Y-27.846 Z-1.318
G1 X16.37 Y-27.811 Z-1.32
G1 X16.322 Y-27.782 Z-1.322
G1 X16.27 Y-27.761 Z-1.324
G1 X16.215 Y-27.747 Z-1.326
G1 X16.159 Y-27.742 Z-1.328
G1 X16.103 Y-27.744 Z-1.33
G1 X16.047 Y-27.754 Z-1.332
G1 X15.994 Y-27.772 Z-1.334
G1 X15.944 Y-27.797 Z-1.335
G1 X15.897 Y-27.829 Z-1.337
G1 X15.856 Y-27.867 Z-1.339
G1 X15.82 Y-27.911 Z-1.341
G1 X15.792 Y-27.959 Z-1.343
G1 X15.77 Y-28.011 Z-1.345
G1 X15.756 Y-28.066 Z-1.347
G1 X15.749 Y-28.121 Z-1.349
G1 X15.751 Y-28.178 Z-1.351
G1 X15.76 Y-28.233 Z-1.353
G1 X15.778 Y-28.287 Z-1.355
G1 X15.802 Y-28.337 Z-1.357
G1 X15.834 Y-28.384 Z-1.359
G1 X15.872 Y-28.426 Z-1.361
G1 X15.915 Y-28.461 Z-1.363
G1 X15.964 Y-28.491 Z-1.365
G1 X16.015 Y-28.513 Z-1.367
G1 X16.07 Y-28.528 Z-1.369
G1 X16.125 Y-28.535 Z-1.371
G1 X16.182 Y-28.533 Z-1.373
G1 X16.237 Y-28.524 Z-1.375
G1 X16.291 Y-28.508 Z-1.377
G1 X16.342 Y-28.483 Z-1.379
G1 X16.389 Y-28.452 Z-1.381
G1 X16.431 Y-28.415 Z-1.383
G1 X16.467 Y-28.371 Z-1.385
G1 X16.497 Y-28.324 Z-1.387
G1 X16.519 Y-28.272 Z-1.389
G1 X16.535 Y-28.218 Z-1.391
G1 X16.542 Y-28.162 Z-1.393
G1 X16.541 Y-28.106 Z-1.395
G1 X16.533 Y-28.05 Z-1.396
G1 X16.516 Y-27.996 Z-1.398
G1 X16.493 Y-27.945 Z-1.4
G1 X16.462 Y-27.898 Z-1.402
G1 X16.425 Y-27.856 Z-1.404
G1 X16.382 Y-27.819 Z-1.406
G1 X16.334 Y-27.789 Z-1.408
G1 X16.283 Y-27.766 Z-1.41
G1 X16.229 Y-27.75 Z-1.412
G1 X16.173 Y-27.742 Z-1.414
G1 X16.117 Z-1.416
G1 X16.061 Y-27.75 Z-1.418
G1 X16.007 Y-27.766 Z-1.42
G1 X15.956 Y-27.79 Z-1.422
G1 X15.909 Y-27.82 Z-1.424
G1 X15.866 Y-27.857 Z-1.426
G1 X15.829 Y-27.899 Z-1.428
G1 X15.798 Y-27.946 Z-1.43
G1 X15.775 Y-27.998 Z-1.432
G1 X15.758 Y-28.052 Z-1.434
G1 X15.75 Y-28.107 Z-1.436
G1 Y-28.163 Z-1.438
G1 X15.757 Y-28.219 Z-1.44
G1 X15.773 Y-28.273 Z-1.442
G1 X15.796 Y-28.325 Z-1.444
G1 X15.825 Y-28.373 Z-1.446
G1 X15.862 Y-28.416 Z-1.448
G1 X15.904 Y-28.453 Z-1.45
G1 X15.951 Y-28.484 Z-1.452
G1 X16.002 Y-28.508 Z-1.454
G1 X16.056 Y-28.525 Z-1.456
G1 X16.111 Y-28.534 Z-1.457
G1 X16.167 Z-1.459
G1 X16.223 Y-28.527 Z-1.461
G1 X16.278 Y-28.513 Z-1.463
G1 X16.329 Y-28.49 Z-1.465
G1 X16.377 Y-28.461 Z-1.467
G1 X16.421 Y-28.425 Z-1.469
G1 X16.458 Y-28.383 Z-1.471
G1 X16.49 Y-28.336 Z-1.473
G1 X16.514 Y-28.286 Z-1.475
G1 X16.531 Y-28.232 Z-1.477
G1 X16.541 Y-28.176 Z-1.479
G1 X16.542 Y-28.12 Z-1.481
G1 X16.536 Y-28.064 Z-1.483
G1 X16.521 Y-28.01 Z-1.485
G1 X16.499 Y-27.958 Z-1.487
G1 X16.47 Y-27.91 Z-1.489
G1 X16.435 Y-27.866 Z-1.491
G1 X16.393 Y-27.828 Z-1.493
G1 X16.347 Y-27.796 Z-1.495
G1 X16.296 Y-27.771 Z-1.497
G1 X16.243 Y-27.753 Z-1.499
G1 X16.187 Y-27.744 Z-1.501
G1 X16.131 Y-27.742 Z-1.503
G1 X16.075 Y-27.748 Z-1.505
G1 X16.021 Y-27.762 Z-1.507
G1 X15.969 Y-27.783 Z-1.509
G1 X15.92 Y-27.812 Z-1.511
G1 X15.876 Y-27.847 Z-1.513
G1 X15.838 Y-27.888 Z-1.515
G1 X15.805 Y-27.934 Z-1.517
G1 X15.78 Y-27.984 Z-1.518
G1 X15.762 Y-28.038 Z-1.52
G1 X15.751 Y-28.093 Z-1.522
G1 X15.749 Y-28.149 Z-1.524
G1 X15.755 Y-28.205 Z-1.526
G1 X15.768 Y-28.26 Z-1.528
G1 X15.789 Y-28.312 Z-1.53
G1 X15.817 Y-28.361 Z-1.532
G1 X15.852 Y-28.405 Z-1.534
G1 X15.893 Y-28.444 Z-1.536
G1 X15.939 Y-28.477 Z-1.538
G1 X15.989 Y-28.503 Z-1.54
G1 X16.042 Y-28.521 Z-1.542
G1 X16.097 Y-28.532 Z-1.544
G1 X16.153 Y-28.535 Z-1.546
G1 X16.209 Y-28.53 Z-1.548
G1 X16.264 Y-28.517 Z-1.55
G1 X16.316 Y-28.497 Z-1.552
G1 X16.365 Y-28.469 Z-1.554
G1 X16.41 Y-28.434 Z-1.556
G1 X16.449 Y-28.394 Z-1.558
G1 X16.482 Y-28.348 Z-1.56
G1 X16.509 Y-28.299 Z-1.562
G1 X16.528 Y-28.246 Z-1.564
G1 X16.539 Y-28.191 Z-1.566
G1 X16.543 Y-28.134 Z-1.568
G1 X16.538 Y-28.078 Z-1.57
G1 X16.526 Y-28.023 Z-1.572
G1 X16.506 Y-27.971 Z-1.574
G1 X16.478 Y-27.922 Z-1.576
G1 X16.444 Y-27.877 Z-1.578
G1 X16.404 Y-27.837 Z-1.579
G1 X16.359 Y-27.804 Z-1.581
G1 X16.31 Y-27.777 Z-1.583
G1 X16.257 Y-27.757 Z-1.585
G1 X16.202 Y-27.745 Z-1.587
G1 X16.146 Y-27.741 Z-1.589
G1 X16.089 Y-27.745 Z-1.591
G1 X16.034 Y-27.757 Z-1.593
G1 X15.982 Y-27.777 Z-1.595
G1 X15.932 Y-27.804 Z-1.597
G1 X15.887 Y-27.837 Z-1.599
G1 X15.847 Y-27.877 Z-1.601
G1 X15.813 Y-27.922 Z-1.603
G1 X15.786 Y-27.971 Z-1.605
G1 X15.766 Y-28.024 Z-1.607
G1 X15.753 Y-28.079 Z-1.609
G1 X15.749 Y-28.135 Z-1.611
G1 X15.752 Y-28.191 Z-1.613
G1 X15.764 Y-28.246 Z-1.615
G1 X15.783 Y-28.299 Z-1.617
G1 X15.809 Y-28.349 Z-1.619
G1 X15.843 Y-28.394 Z-1.621
G1 X15.882 Y-28.435 Z-1.623
G1 X15.926 Y-28.469 Z-1.625
G1 X15.976 Y-28.497 Z-1.627
G1 X16.028 Y-28.517 Z-1.629
G1 X16.083 Y-28.53 Z-1.631
G1 X16.139 Y-28.535 Z-1.633
G1 X16.195 Y-28.532 Z-1.635
G1 X16.25 Y-28.521 Z-1.637
G1 X16.303 Y-28.502 Z-1.639
G1 X16.353 Y-28.476 Z-1.64
G1 X16.399 Y-28.444 Z-1.642
G1 X16.44 Y-28.405 Z-1.644
G1 X16.475 Y-28.36 Z-1.646
G1 X16.503 Y-28.312 Z-1.648
G1 X16.524 Y-28.259 Z-1.65
G1 X16.537 Y-28.205 Z-1.652
G1 X16.543 Y-28.149 Z-1.654
G1 X16.54 Y-28.092 Z-1.656
G1 X16.53 Y-28.037 Z-1.658
G1 X16.511 Y-27.984 Z-1.66
G1 X16.486 Y-27.934 Z-1.662
G1 X16.454 Y-27.888 Z-1.664
G1 X16.415 Y-27.847 Z-1.666
G1 X16.371 Y-27.811 Z-1.668
G1 X16.322 Y-27.783 Z-1.67
G1 X16.27 Y-27.761 Z-1.672
G1 X16.216 Y-27.748 Z-1.674
G1 X16.16 Y-27.742 Z-1.676
G1 X16.104 Y-27.744 Z-1.678
G1 X16.048 Y-27.754 Z-1.68
G1 X15.995 Y-27.771 Z-1.682
G1 X15.944 Y-27.796 Z-1.684
G1 X15.898 Y-27.828 Z-1.686
G1 X15.857 Y-27.866 Z-1.688
G1 X15.821 Y-27.91 Z-1.69
G1 X15.792 Y-27.958 Z-1.692
G1 X15.77 Y-28.01 Z-1.694
G1 X15.756 Y-28.065 Z-1.696
G1 X15.749 Y-28.121 Z-1.698
G1 X15.751 Y-28.177 Z-1.7
G1 X15.76 Y-28.232 Z-1.701
G1 X15.777 Y-28.286 Z-1.703
G1 X15.802 Y-28.337 Z-1.705
G1 X15.834 Y-28.383 Z-1.707
G1 X15.871 Y-28.425 Z-1.709
G1 X15.915 Y-28.461 Z-1.711
G1 X15.963 Y-28.49 Z-1.713
G1 X16.014 Y-28.513 Z-1.715
G1 X16.069 Y-28.528 Z-1.717
G1 X16.125 Y-28.535 Z-1.719
G1 X16.181 Y-28.534 Z-1.721
G1 X16.236 Y-28.525 Z-1.723
G1 X16.29 Y-28.508 Z-1.725
G1 X16.341 Y-28.484 Z-1.727
G1 X16.388 Y-28.453 Z-1.729
G1 X16.43 Y-28.415 Z-1.731
G1 X16.466 Y-28.372 Z-1.733
G1 X16.496 Y-28.324 Z-1.735
G1 X16.519 Y-28.273 Z-1.737
G1 X16.534 Y-28.219 Z-1.739
G1 X16.542 Y-28.163 Z-1.741
G1 X16.541 Y-28.107 Z-1.743
G1 X16.533 Y-28.051 Z-1.745
G1 X16.517 Y-27.997 Z-1.747
G1 X16.493 Y-27.946 Z-1.749
G1 X16.462 Y-27.899 Z-1.751
G1 X16.425 Y-27.856 Z-1.753
G1 X16.383 Y-27.82 Z-1.755
G1 X16.335 Y-27.789 Z-1.757
G1 X16.284 Y-27.766 Z-1.759
G1 X16.23 Y-27.75 Z-1.761
G1 X16.174 Y-27.742 Z-1.762
G1 X16.118 Z-1.764
G1 X16.062 Y-27.75 Z-1.766
G1 X16.008 Y-27.766 Z-1.768
G1 X15.957 Y-27.789 Z-1.77
G1 X15.909 Y-27.819 Z-1.772
G1 X15.867 Y-27.856 Z-1.774
G1 X15.829 Y-27.898 Z-1.776
G1 X15.799 Y-27.946 Z-1.778
G1 X15.775 Y-27.997 Z-1.78
G1 X15.759 Y-28.051 Z-1.782
G1 X15.75 Y-28.106 Z-1.784
G1 Y-28.163 Z-1.786
G1 X15.757 Y-28.218 Z-1.788
G1 X15.772 Y-28.273 Z-1.79
G1 X15.795 Y-28.324 Z-1.792
G1 X15.825 Y-28.372 Z-1.794
G1 X15.861 Y-28.415 Z-1.796
G1 X15.903 Y-28.452 Z-1.798
G1 X15.95 Y-28.483 Z-1.8
G1 X16.001 Y-28.508 Z-1.802
G1 X16.055 Y-28.524 Z-1.804
G1 X16.11 Y-28.533 Z-1.806
G1 X16.167 Y-28.535 Z-1.808
G1 X16.222 Y-28.528 Z-1.81
G1 X16.277 Y-28.513 Z-1.812
G1 X16.328 Y-28.491 Z-1.814
G1 X16.376 Y-28.461 Z-1.816
G1 X16.42 Y-28.425 Z-1.818
G1 X16.458 Y-28.384 Z-1.82
G1 X16.489 Y-28.337 Z-1.822
G1 X16.514 Y-28.286 Z-1.823
G1 X16.531 Y-28.233 Z-1.825
G1 X16.541 Y-28.177 Z-1.827
G1 X16.542 Y-28.121 Z-1.829
G1 X16.536 Y-28.065 Z-1.831
G1 X16.522 Y-28.011 Z-1.833
G1 X16.5 Y-27.959 Z-1.835
G1 X16.471 Y-27.91 Z-1.837
G1 X16.435 Y-27.867 Z-1.839
G1 X16.394 Y-27.829 Z-1.841
G1 X16.348 Y-27.797 Z-1.843
G1 X16.297 Y-27.771 Z-1.845
G1 X16.244 Y-27.754 Z-1.847
G1 X16.188 Y-27.744 Z-1.849
G1 X16.132 Y-27.742 Z-1.851
G1 X16.076 Y-27.747 Z-1.853
G1 X16.022 Y-27.761 Z-1.855
G1 X15.97 Y-27.783 Z-1.857
G1 X15.921 Y-27.811 Z-1.859
G1 X15.877 Y-27.846 Z-1.861
G1 X15.838 Y-27.887 Z-1.863
G1 X15.806 Y-27.933 Z-1.865
G1 X15.78 Y-27.983 Z-1.867
G1 X15.762 Y-28.037 Z-1.869
G1 X15.752 Y-28.092 Z-1.871
G1 X15.749 Y-28.148 Z-1.873
G1 X15.754 Y-28.204 Z-1.875
G1 X15.768 Y-28.259 Z-1.877
G1 X15.789 Y-28.311 Z-1.879
G1 X15.817 Y-28.36 Z-1.881
G1 X15.851 Y-28.404 Z-1.883
G1 X15.892 Y-28.443 Z-1.884
G1 X15.938 Y-28.476 Z-1.886
G1 X15.988 Y-28.502 Z-1.888
G1 X16.041 Y-28.521 Z-1.89
G1 X16.096 Y-28.532 Z-1.892
G1 X16.152 Y-28.535 Z-1.894
G1 X16.208 Y-28.53 Z-1.896
G1 X16.263 Y-28.517 Z-1.898
G1 X16.316 Y-28.497 Z-1.9
G1 X16.365 Y-28.469 Z-1.902
G1 X16.409 Y-28.435 Z-1.904
G1 X16.449 Y-28.395 Z-1.906
G1 X16.482 Y-28.349 Z-1.908
G1 X16.508 Y-28.3 Z-1.91
G1 X16.528 Y-28.247 Z-1.912
G1 X16.539 Y-28.192 Z-1.914
G1 X16.543 Y-28.135 Z-1.916
G1 X16.538 Y-28.079 Z-1.918
G1 X16.526 Y-28.024 Z-1.92
G1 X16.506 Y-27.972 Z-1.922
G1 X16.479 Y-27.922 Z-1.924
G1 X16.445 Y-27.877 Z-1.926
G1 X16.405 Y-27.838 Z-1.928
G1 X16.36 Y-27.804 Z-1.93
G1 X16.31 Y-27.777 Z-1.932
G1 X16.258 Y-27.757 Z-1.934
G1 X16.203 Y-27.745 Z-1.936
G1 X16.147 Y-27.741 Z-1.938
G1 X16.09 Y-27.745 Z-1.94
G1 X16.035 Y-27.757 Z-1.942
G1 X15.982 Y-27.776 Z-1.944
G1 X15.933 Y-27.803 Z-1.945
G1 X15.888 Y-27.837 Z-1.947
G1 X15.848 Y-27.876 Z-1.949
G1 X15.814 Y-27.921 Z-1.951
G1 X15.786 Y-27.97 Z-1.953
G1 X15.766 Y-28.023 Z-1.955
G1 X15.754 Y-28.078 Z-1.957
G1 X15.749 Y-28.134 Z-1.959
G1 X15.752 Y-28.19 Z-1.961
G1 X15.764 Y-28.245 Z-1.963
G1 X15.783 Y-28.298 Z-1.965
G1 X15.809 Y-28.348 Z-1.967
G1 X15.842 Y-28.394 Z-1.969
G1 X15.881 Y-28.434 Z-1.971
G1 X15.926 Y-28.468 Z-1.973
G1 X15.975 Y-28.496 Z-1.975
G1 X16.027 Y-28.517 Z-1.977
G1 X16.082 Y-28.53 Z-1.979
G1 X16.138 Y-28.535 Z-1.981
G1 X16.194 Y-28.532 Z-1.983
G1 X16.249 Y-28.521 Z-1.985
G1 X16.303 Y-28.503 Z-1.987
G1 X16.353 Y-28.477 Z-1.989
G1 X16.398 Y-28.444 Z-1.991
G1 X16.439 Y-28.405 Z-1.993
G1 X16.474 Y-28.361 Z-1.995
G1 X16.502 Y-28.313 Z-1.997
G1 X16.523 Y-28.26 Z-1.999
G1 X16.537 Y-28.206 Z-2.001
G1 X16.542 Y-28.15 Z-2.003
G1 X16.54 Y-28.093 Z-2.005
G1 X16.53 Y-28.038 Z-2.006
G1 X16.512 Y-27.985 Z-2.008
G1 X16.486 Y-27.935 Z-2.01
G1 X16.454 Y-27.888 Z-2.012
G1 X16.416 Y-27.847 Z-2.014
G1 X16.372 Y-27.812 Z-2.016
G1 X16.323 Y-27.783 Z-2.018
G1 X16.271 Y-27.762 Z-2.02
G1 X16.217 Y-27.748 Z-2.022
G1 X16.161 Y-27.742 Z-2.024
G1 X16.105 Y-27.743 Z-2.026
G1 X16.049 Y-27.753 Z-2.028
G1 X15.996 Y-27.771 Z-2.03
G1 X15.945 Y-27.796 Z-2.032
G1 X15.899 Y-27.828 Z-2.034
G1 X15.857 Y-27.866 Z-2.036
G1 X15.822 Y-27.909 Z-2.038
G1 X15.792 Y-27.957 Z-2.04
G1 X15.77 Y-28.009 Z-2.042
G1 X15.756 Y-28.064 Z-2.044
G1 X15.749 Y-28.12 Z-2.046
G1 X15.751 Y-28.176 Z-2.048
G1 X15.76 Y-28.231 Z-2.05
G1 X15.777 Y-28.285 Z-2.052
G1 X15.802 Y-28.336 Z-2.054
G1 X15.833 Y-28.382 Z-2.056
G1 X15.871 Y-28.424 Z-2.058
G1 X15.914 Y-28.46 Z-2.06
G1 X15.962 Y-28.49 Z-2.062
G1 X16.013 Y-28.512 Z-2.064
G1 X16.068 Y-28.527 Z-2.066
G1 X16.124 Y-28.534 Z-2.067
G1 X16.18 Z-2.069
G1 X16.235 Y-28.525 Z-2.071
G1 X16.289 Y-28.508 Z-2.073
G1 X16.34 Y-28.484 Z-2.075
G1 X16.387 Y-28.453 Z-2.077
G1 X16.429 Y-28.416 Z-2.079
G1 X16.466 Y-28.373 Z-2.081
G1 X16.496 Y-28.325 Z-2.083
G1 X16.519 Y-28.274 Z-2.085
G1 X16.534 Y-28.22 Z-2.087
G1 X16.542 Y-28.164 Z-2.089
G1 X16.541 Y-28.108 Z-2.091
G1 X16.533 Y-28.052 Z-2.093
G1 X16.517 Y-27.998 Z-2.095
G1 X16.494 Y-27.947 Z-2.097
G1 X16.463 Y-27.9 Z-2.099
G1 X16.426 Y-27.857 Z-2.101
G1 X16.383 Y-27.82 Z-2.103
G1 X16.336 Y-27.79 Z-2.105
G1 X16.285 Y-27.766 Z-2.107
G1 X16.231 Y-27.751 Z-2.109
G1 X16.175 Y-27.742 Z-2.111
G1 X16.119 Z-2.113
G1 X16.063 Y-27.75 Z-2.115
G1 X16.009 Y-27.766 Z-2.117
G1 X15.958 Y-27.789 Z-2.119
G1 X15.91 Y-27.819 Z-2.121
G1 X15.867 Y-27.855 Z-2.123
G1 X15.83 Y-27.898 Z-2.125
G1 X15.799 Y-27.945 Z-2.127
G1 X15.775 Y-27.996 Z-2.128
G1 X15.759 Y-28.05 Z-2.13
G1 X15.75 Y-28.105 Z-2.132
G1 Y-28.162 Z-2.134
G1 X15.757 Y-28.217 Z-2.136
G1 X15.772 Y-28.272 Z-2.138
G1 X15.795 Y-28.323 Z-2.14
G1 X15.824 Y-28.371 Z-2.142
G1 X15.861 Y-28.414 Z-2.144
G1 X15.902 Y-28.452 Z-2.146
G1 X15.949 Y-28.483 Z-2.148
G1 X16 Y-28.507 Z-2.15
G1 X16.054 Y-28.524 Z-2.152
G1 X16.109 Y-28.533 Z-2.154
G1 X16.166 Y-28.535 Z-2.156
G1 X16.221 Y-28.528 Z-2.158
G1 X16.276 Y-28.513 Z-2.16
G1 X16.328 Y-28.491 Z-2.162
G1 X16.376 Y-28.462 Z-2.164
G1 X16.419 Y-28.426 Z-2.166
G1 X16.457 Y-28.384 Z-2.168
G1 X16.489 Y-28.338 Z-2.17
G1 X16.514 Y-28.287 Z-2.172
G1 X16.531 Y-28.234 Z-2.174
G1 X16.541 Y-28.178 Z-2.176
G1 X16.542 Y-28.122 Z-2.178
G1 X16.536 Y-28.066 Z-2.18
G1 X16.522 Y-28.012 Z-2.182
G1 X16.5 Y-27.96 Z-2.184
G1 X16.471 Y-27.911 Z-2.186
G1 X16.436 Y-27.867 Z-2.188
G1 X16.395 Y-27.829 Z-2.189
G1 X16.348 Y-27.797 Z-2.191
G1 X16.298 Y-27.772 Z-2.193
G1 X16.245 Y-27.754 Z-2.195
G1 X16.189 Y-27.744 Z-2.197
G1 X16.133 Y-27.742 Z-2.199
G1 X16.077 Y-27.747 Z-2.201
G1 X16.023 Y-27.761 Z-2.203
G1 X15.97 Y-27.782 Z-2.205
G1 X15.922 Y-27.811 Z-2.207
G1 X15.878 Y-27.846 Z-2.209
G1 X15.839 Y-27.886 Z-2.211
G1 X15.806 Y-27.932 Z-2.213
G1 X15.781 Y-27.983 Z-2.215
G1 X15.762 Y-28.036 Z-2.217
G1 X15.752 Y-28.091 Z-2.219
G1 X15.749 Y-28.147 Z-2.221
G1 X15.754 Y-28.203 Z-2.223
G1 X15.767 Y-28.258 Z-2.225
G1 X15.788 Y-28.31 Z-2.227
G1 X15.816 Y-28.359 Z-2.229
G1 X15.851 Y-28.404 Z-2.231
G1 X15.891 Y-28.443 Z-2.233
G1 X15.937 Y-28.476 Z-2.235
G1 X15.987 Y-28.502 Z-2.237
G1 X16.04 Y-28.521 Z-2.239
G1 X16.095 Y-28.532 Z-2.241
G1 X16.151 Y-28.535 Z-2.243
G1 X16.207 Y-28.53 Z-2.245
G1 X16.262 Y-28.518 Z-2.247
G1 X16.315 Y-28.497 Z-2.249
G1 X16.364 Y-28.47 Z-2.25
G1 X16.409 Y-28.436 Z-2.252
G1 X16.448 Y-28.395 Z-2.254
G1 X16.481 Y-28.35 Z-2.256
G1 X16.508 Y-28.3 Z-2.258
G1 X16.527 Y-28.248 Z-2.26
G1 X16.539 Y-28.192 Z-2.262
G1 X16.543 Y-28.136 Z-2.264
G1 X16.538 Y-28.08 Z-2.266
G1 X16.526 Y-28.025 Z-2.268
G1 X16.506 Y-27.973 Z-2.27
G1 X16.479 Y-27.923 Z-2.272
G1 X16.446 Y-27.878 Z-2.274
G1 X16.406 Y-27.838 Z-2.276
G1 X16.361 Y-27.805 Z-2.278
G1 X16.311 Y-27.777 Z-2.28
G1 X16.259 Y-27.758 Z-2.282
G1 X16.204 Y-27.746 Z-2.284
G1 X16.147 Y-27.741 Z-2.286
G1 X16.091 Y-27.745 Z-2.288
G1 X16.036 Y-27.757 Z-2.29
G1 X15.983 Y-27.776 Z-2.292
G1 X15.934 Y-27.803 Z-2.294
G1 X15.888 Y-27.836 Z-2.296
G1 X15.848 Y-27.876 Z-2.298
G1 X15.814 Y-27.92 Z-2.3
G1 X15.787 Y-27.969 Z-2.302
G1 X15.766 Y-28.022 Z-2.304
G1 X15.754 Y-28.077 Z-2.306
G1 X15.749 Y-28.133 Z-2.308
G1 X15.752 Y-28.189 Z-2.31
G1 X15.763 Y-28.244 Z-2.311
G1 X15.782 Y-28.297 Z-2.313
G1 X15.808 Y-28.347 Z-2.315
G1 X15.841 Y-28.393 Z-2.317
G1 X15.88 Y-28.433 Z-2.319
G1 X15.925 Y-28.468 Z-2.321
G1 X15.974 Y-28.496 Z-2.323
G1 X16.026 Y-28.517 Z-2.325
G1 X16.081 Y-28.53 Z-2.327
G1 X16.137 Y-28.535 Z-2.329
G1 X16.193 Y-28.532 Z-2.331
G1 X16.248 Y-28.522 Z-2.333
G1 X16.302 Y-28.503 Z-2.335
G1 X16.352 Y-28.477 Z-2.337
G1 X16.398 Y-28.445 Z-2.339
G1 X16.439 Y-28.406 Z-2.341
G1 X16.474 Y-28.362 Z-2.343
G1 X16.502 Y-28.313 Z-2.345
G1 X16.523 Y-28.261 Z-2.347
G1 X16.537 Y-28.207 Z-2.349
G1 X16.542 Y-28.151 Z-2.351
G1 X16.54 Y-28.094 Z-2.353
G1 X16.53 Y-28.039 Z-2.355
G1 X16.512 Y-27.986 Z-2.357
G1 X16.487 Y-27.935 Z-2.359
G1 X16.455 Y-27.889 Z-2.361
G1 X16.416 Y-27.848 Z-2.363
G1 X16.373 Y-27.813 Z-2.365
G1 X16.324 Y-27.784 Z-2.367
G1 X16.272 Y-27.762 Z-2.369
G1 X16.218 Y-27.748 Z-2.371
G1 X16.162 Y-27.742 Z-2.372
G1 X16.105 Y-27.743 Z-2.374
G1 X16.05 Y-27.753 Z-2.376
G1 X15.996 Y-27.77 Z-2.378
G1 X15.946 Y-27.795 Z-2.38
G1 X15.899 Y-27.827 Z-2.382
G1 X15.858 Y-27.865 Z-2.384
G1 X15.822 Y-27.908 Z-2.386
G1 X15.793 Y-27.957 Z-2.388
G1 X15.771 Y-28.008 Z-2.39
G1 X15.756 Y-28.063 Z-2.392
G1 X15.749 Y-28.119 Z-2.394
G1 X15.751 Y-28.175 Z-2.396
G1 X15.76 Y-28.23 Z-2.398
G1 X15.777 Y-28.284 Z-2.4
G1 X15.801 Y-28.335 Z-2.402
G1 X15.832 Y-28.382 Z-2.404
G1 X15.87 Y-28.424 Z-2.406
G1 X15.913 Y-28.46 Z-2.408
G1 X15.961 Y-28.489 Z-2.41
G1 X16.013 Y-28.512 Z-2.412
G1 X16.067 Y-28.527 Z-2.414
G1 X16.123 Y-28.534 Z-2.416
G1 X16.179 Z-2.418
G1 X16.235 Y-28.525 Z-2.42
G1 X16.288 Y-28.509 Z-2.422
G1 X16.339 Y-28.485 Z-2.424
G1 X16.386 Y-28.454 Z-2.426
G1 X16.429 Y-28.417 Z-2.428
G1 X16.465 Y-28.374 Z-2.43
G1 X16.495 Y-28.326 Z-2.431
G1 X16.518 Y-28.275 Z-2.433
G1 X16.534 Y-28.221 Z-2.435
G1 X16.542 Y-28.165 Z-2.437
G1 Y-28.109 Z-2.439
G1 X16.533 Y-28.053 Z-2.441
G1 X16.517 Y-27.999 Z-2.443
G1 X16.494 Y-27.948 Z-2.445
G1 X16.464 Y-27.9 Z-2.447
G1 X16.427 Y-27.858 Z-2.449
G1 X16.384 Y-27.821 Z-2.451
G1 X16.337 Y-27.79 Z-2.453
G1 X16.286 Y-27.767 Z-2.455
G1 X16.232 Y-27.751 Z-2.457
G1 X16.176 Y-27.742 Z-2.459
G1 X16.12 Z-2.461
G1 X16.064 Y-27.75 Z-2.463
G1 X16.01 Y-27.765 Z-2.465
G1 X15.958 Y-27.788 Z-2.467
G1 X15.911 Y-27.818 Z-2.469
G1 X15.868 Y-27.855 Z-2.471
G1 X15.831 Y-27.897 Z-2.473
G1 X15.8 Y-27.944 Z-2.475
G1 X15.776 Y-27.995 Z-2.477
G1 X15.759 Y-28.049 Z-2.479
G1 X15.75 Y-28.104 Z-2.481
G1 Y-28.161 Z-2.483
G1 X15.757 Y-28.216 Z-2.485
G1 X15.772 Y-28.271 Z-2.487
G1 X15.794 Y-28.322 Z-2.489
G1 X15.824 Y-28.37 Z-2.491
G1 X15.86 Y-28.413 Z-2.492
G1 X15.902 Y-28.451 Z-2.494
G1 X15.948 Y-28.483 Z-2.496
G1 X15.999 Y-28.507 Z-2.498
G1 X16.053 Y-28.524 Z-2.5
G1 X16.108 Y-28.533 Z-2.502
G1 X16.165 Y-28.535 Z-2.504
G1 X16.221 Y-28.528 Z-2.506
G1 X16.275 Y-28.513 Z-2.508
G1 X16.327 Y-28.491 Z-2.51
G1 X16.375 Y-28.462 Z-2.512
G1 X16.418 Y-28.427 Z-2.514
G1 X16.457 Y-28.385 Z-2.516
G1 X16.488 Y-28.339 Z-2.518
G1 X16.513 Y-28.288 Z-2.52
G1 X16.531 Y-28.235 Z-2.522
G1 X16.541 Y-28.179 Z-2.524
G1 X16.542 Y-28.123 Z-2.526
G1 X16.536 Y-28.067 Z-2.528
G1 X16.522 Y-28.012 Z-2.53
G1 X16.501 Y-27.96 Z-2.532
G1 X16.472 Y-27.912 Z-2.534
G1 X16.437 Y-27.868 Z-2.536
G1 X16.395 Y-27.83 Z-2.538
G1 X16.349 Y-27.797 Z-2.54
G1 X16.299 Y-27.772 Z-2.542
G1 X16.246 Y-27.754 Z-2.544
G1 X16.19 Y-27.744 Z-2.546
G1 X16.134 Y-27.742 Z-2.548
G1 X16.078 Y-27.747 Z-2.55
G1 X16.023 Y-27.761 Z-2.552
G1 X15.971 Y-27.782 Z-2.553
G1 X15.923 Y-27.81 Z-2.555
G1 X15.878 Y-27.845 Z-2.557
G1 X15.84 Y-27.886 Z-2.559
G1 X15.807 Y-27.932 Z-2.561
G1 X15.781 Y-27.982 Z-2.563
G1 X15.763 Y-28.035 Z-2.565
G1 X15.752 Y-28.09 Z-2.567
G1 X15.749 Y-28.146 Z-2.569
G1 X15.754 Y-28.202 Z-2.571
G1 X15.767 Y-28.257 Z-2.573
G1 X15.788 Y-28.31 Z-2.575
G1 X15.816 Y-28.358 Z-2.577
G1 X15.85 Y-28.403 Z-2.579
G1 X15.891 Y-28.442 Z-2.581
G1 X15.936 Y-28.475 Z-2.583
G1 X15.986 Y-28.501 Z-2.585
G1 X16.039 Y-28.52 Z-2.587
G1 X16.094 Y-28.532 Z-2.589
G1 X16.15 Y-28.535 Z-2.591
G1 X16.206 Y-28.53 Z-2.593
G1 X16.261 Y-28.518 Z-2.595
G1 X16.314 Y-28.498 Z-2.597
G1 X16.363 Y-28.47 Z-2.599
G1 X16.408 Y-28.436 Z-2.601
G1 X16.447 Y-28.396 Z-2.603
G1 X16.481 Y-28.351 Z-2.605
G1 X16.508 Y-28.301 Z-2.607
G1 X16.527 Y-28.248 Z-2.609
G1 X16.539 Y-28.193 Z-2.611
G1 X16.543 Y-28.137 Z-2.613
G1 X16.539 Y-28.081 Z-2.614
G1 X16.526 Y-28.026 Z-2.616
G1 X16.507 Y-27.973 Z-2.618
G1 X16.48 Y-27.924 Z-2.62
G1 X16.446 Y-27.879 Z-2.622
G1 X16.406 Y-27.839 Z-2.624
G1 X16.361 Y-27.805 Z-2.626
G1 X16.312 Y-27.778 Z-2.628
G1 X16.259 Y-27.758 Z-2.63
G1 X16.205 Y-27.746 Z-2.632
G1 X16.148 Y-27.741 Z-2.634
G1 X16.092 Y-27.745 Z-2.636
G1 X16.037 Y-27.757 Z-2.638
G1 X15.984 Y-27.776 Z-2.64
G1 X15.935 Y-27.802 Z-2.642
G1 X15.889 Y-27.836 Z-2.644
G1 X15.849 Y-27.875 Z-2.646
G1 X15.815 Y-27.92 Z-2.648
G1 X15.787 Y-27.969 Z-2.65
G1 X15.767 Y-28.021 Z-2.652
G1 X15.754 Y-28.076 Z-2.654
G1 X15.749 Y-28.132 Z-2.656
G1 X15.752 Y-28.188 Z-2.658
G1 X15.763 Y-28.243 Z-2.66
G1 X15.782 Y-28.297 Z-2.662
G1 X15.808 Y-28.346 Z-2.664
G1 X15.841 Y-28.392 Z-2.666
G1 X15.88 Y-28.433 Z-2.668
G1 X15.924 Y-28.467 Z-2.67
G1 X15.973 Y-28.495 Z-2.672
G1 X16.025 Y-28.516 Z-2.674
G1 X16.08 Y-28.53 Z-2.675
G1 X16.136 Y-28.535 Z-2.677
G1 X16.192 Y-28.532 Z-2.679
G1 X16.248 Y-28.522 Z-2.681
G1 X16.301 Y-28.504 Z-2.683
G1 X16.351 Y-28.478 Z-2.685
G1 X16.397 Y-28.446 Z-2.687
G1 X16.438 Y-28.407 Z-2.689
G1 X16.473 Y-28.363 Z-2.691
G1 X16.501 Y-28.314 Z-2.693
G1 X16.523 Y-28.262 Z-2.695
G1 X16.537 Y-28.208 Z-2.697
G1 X16.542 Y-28.152 Z-2.699
G1 X16.54 Y-28.095 Z-2.701
G1 X16.53 Y-28.04 Z-2.703
G1 X16.513 Y-27.987 Z-2.705
G1 X16.487 Y-27.936 Z-2.707
G1 X16.455 Y-27.89 Z-2.709
G1 X16.417 Y-27.849 Z-2.711
G1 X16.373 Y-27.813 Z-2.713
G1 X16.325 Y-27.784 Z-2.715
G1 X16.273 Y-27.762 Z-2.717
G1 X16.219 Y-27.748 Z-2.719
G1 X16.163 Y-27.742 Z-2.721
G1 X16.106 Y-27.743 Z-2.723
G1 X16.051 Y-27.753 Z-2.725
G1 X15.997 Y-27.77 Z-2.727
G1 X15.947 Y-27.795 Z-2.729
G1 X15.9 Y-27.826 Z-2.731
G1 X15.859 Y-27.864 Z-2.733
G1 X15.823 Y-27.908 Z-2.735
G1 X15.793 Y-27.956 Z-2.736
G1 X15.771 Y-28.007 Z-2.738
G1 X15.756 Y-28.062 Z-2.74
G1 X15.749 Y-28.118 Z-2.742
G1 X15.751 Y-28.174 Z-2.744
G1 X15.76 Y-28.23 Z-2.746
G1 X15.776 Y-28.283 Z-2.748
G1 X15.801 Y-28.334 Z-2.75
G1 X15.832 Y-28.381 Z-2.752
G1 X15.869 Y-28.423 Z-2.754
G1 X15.912 Y-28.459 Z-2.756
G1 X15.96 Y-28.489 Z-2.758
G1 X16.012 Y-28.512 Z-2.76
G1 X16.066 Y-28.527 Z-2.762
G1 X16.122 Y-28.534 Z-2.764
G1 X16.178 Z-2.766
G1 X16.234 Y-28.525 Z-2.768
G1 X16.288 Y-28.509 Z-2.77
G1 X16.339 Y-28.485 Z-2.772
G1 X16.386 Y-28.454 Z-2.774
G1 X16.428 Y-28.417 Z-2.776
G1 X16.465 Y-28.374 Z-2.778
G1 X16.495 Y-28.327 Z-2.78
G1 X16.518 Y-28.276 Z-2.782
G1 X16.534 Y-28.222 Z-2.784
G1 X16.542 Y-28.166 Z-2.786
G1 Y-28.11 Z-2.788
G1 X16.534 Y-28.054 Z-2.79
G1 X16.518 Y-28 Z-2.792
G1 X16.494 Y-27.949 Z-2.794
G1 X16.464 Y-27.901 Z-2.796
G1 X16.427 Y-27.859 Z-2.797
G1 X16.385 Y-27.821 Z-2.799
G1 X16.338 Y-27.791 Z-2.801
G1 X16.287 Y-27.767 Z-2.803
G1 X16.233 Y-27.751 Z-2.805
G1 X16.177 Y-27.743 Z-2.807
G1 X16.121 Y-27.742 Z-2.809
G1 X16.065 Y-27.75 Z-2.811
G1 X16.011 Y-27.765 Z-2.813
G1 X15.959 Y-27.788 Z-2.815
G1 X15.912 Y-27.818 Z-2.817
G1 X15.869 Y-27.854 Z-2.819
G1 X15.831 Y-27.896 Z-2.821
G1 X15.8 Y-27.943 Z-2.823
G1 X15.776 Y-27.994 Z-2.825
G1 X15.759 Y-28.048 Z-2.827
G1 X15.75 Y-28.103 Z-2.829
G1 X15.749 Y-28.16 Z-2.831
G1 X15.757 Y-28.216 Z-2.833
G1 X15.771 Y-28.27 Z-2.835
G1 X15.794 Y-28.322 Z-2.837
G1 X15.823 Y-28.369 Z-2.839
G1 X15.859 Y-28.413 Z-2.841
G1 X15.901 Y-28.451 Z-2.843
G1 X15.948 Y-28.482 Z-2.845
G1 X15.998 Y-28.507 Z-2.847
G1 X16.052 Y-28.524 Z-2.849
G1 X16.107 Y-28.533 Z-2.851
G1 X16.164 Y-28.535 Z-2.853
G1 X16.22 Y-28.528 Z-2.855
G1 X16.274 Y-28.514 Z-2.857
G1 X16.326 Y-28.492 Z-2.858
G1 X16.374 Y-28.463 Z-2.86
G1 X16.418 Y-28.427 Z-2.862
G1 X16.456 Y-28.386 Z-2.864
G1 X16.488 Y-28.339 Z-2.866
G1 X16.513 Y-28.289 Z-2.868
G1 X16.531 Y-28.236 Z-2.87
G1 X16.54 Y-28.18 Z-2.872
G1 X16.542 Y-28.124 Z-2.874
G1 X16.536 Y-28.068 Z-2.876
G1 X16.522 Y-28.013 Z-2.878
G1 X16.501 Y-27.961 Z-2.88
G1 X16.472 Y-27.913 Z-2.882
G1 X16.437 Y-27.869 Z-2.884
G1 X16.396 Y-27.83 Z-2.886
G1 X16.35 Y-27.798 Z-2.888
G1 X16.3 Y-27.772 Z-2.89
G1 X16.247 Y-27.754 Z-2.892
G1 X16.191 Y-27.744 Z-2.894
G1 X16.135 Y-27.741 Z-2.896
G1 X16.079 Y-27.747 Z-2.898
G1 X16.024 Y-27.76 Z-2.9
G1 X15.972 Y-27.781 Z-2.902
G1 X15.923 Y-27.81 Z-2.904
G1 X15.879 Y-27.844 Z-2.906
G1 X15.84 Y-27.885 Z-2.908
G1 X15.807 Y-27.931 Z-2.91
G1 X15.781 Y-27.981 Z-2.912
G1 X15.763 Y-28.034 Z-2.914
G1 X15.752 Y-28.089 Z-2.916
G1 X15.749 Y-28.145 Z-2.918
G1 X15.754 Y-28.201 Z-2.919
G1 X15.767 Y-28.256 Z-2.921
G1 X15.787 Y-28.309 Z-2.923
G1 X15.815 Y-28.358 Z-2.925
G1 X15.849 Y-28.402 Z-2.927
G1 X15.89 Y-28.442 Z-2.929
G1 X15.935 Y-28.475 Z-2.931
G1 X15.985 Y-28.501 Z-2.933
G1 X16.038 Y-28.52 Z-2.935
G1 X16.093 Y-28.532 Z-2.937
G1 X16.149 Y-28.535 Z-2.939
G1 X16.205 Y-28.531 Z-2.941
G1 X16.26 Y-28.518 Z-2.943
G1 X16.313 Y-28.498 Z-2.945
G1 X16.362 Y-28.471 Z-2.947
G1 X16.407 Y-28.437 Z-2.949
G1 X16.447 Y-28.397 Z-2.951
G1 X16.48 Y-28.352 Z-2.953
G1 X16.507 Y-28.302 Z-2.955
G1 X16.527 Y-28.249 Z-2.957
G1 X16.539 Y-28.194 Z-2.959
G1 X16.543 Y-28.138 Z-2.961
G1 X16.539 Y-28.084
G1 X16.528 Y-28.031
G1 X16.51 Y-27.98
G1 X16.485 Y-27.932
G1 X16.454 Y-27.888
G1 X16.417 Y-27.848
G1 X16.375 Y-27.814
G1 X16.328 Y-27.786
G1 X16.279 Y-27.764
G1 X16.227 Y-27.75
G1 X16.173 Y-27.742
G1 X16.119
G1 X16.065 Y-27.75
G1 X16.013 Y-27.764
G1 X15.963 Y-27.786
G1 X15.917 Y-27.814
G1 X15.875 Y-27.848
G1 X15.838 Y-27.888
G1 X15.807 Y-27.932
G1 X15.782 Y-27.98
G1 X15.764 Y-28.031
G1 X15.753 Y-28.084
G1 X15.749 Y-28.138
G1 X15.753 Y-28.192
G1 X15.764 Y-28.245
G1 X15.782 Y-28.296
G1 X15.807 Y-28.344
G1 X15.838 Y-28.389
G1 X15.875 Y-28.428
G1 X15.917 Y-28.462
G1 X15.963 Y-28.491
G1 X16.013 Y-28.512
G1 X16.065 Y-28.527
G1 X16.119 Y-28.534
G1 X16.173
G1 X16.227 Y-28.527
G1 X16.279 Y-28.512
G1 X16.328 Y-28.491
G1 X16.375 Y-28.462
G1 X16.417 Y-28.428
G1 X16.454 Y-28.389
G1 X16.485 Y-28.344
G1 X16.51 Y-28.296
G1 X16.528 Y-28.245
G1 X16.539 Y-28.192
G1 X16.543 Y-28.138
; MOVEMENT_CUTTING
G1 X16.589 Y-27.864 F360
G1 X16.605 Y-27.715
G1 X16.585 Y-27.648
G1 X16.558 Y-27.584
G1 X16.524 Y-27.524
G1 X16.483 Y-27.468
G1 X16.436 Y-27.417
G1 X16.384 Y-27.372
G1 X16.327 Y-27.333
G1 X16.265 Y-27.3
G1 X16.201 Y-27.275
G1 X16.134 Y-27.257
G1 X16.066 Y-27.247
G1 X15.996 Y-27.245
G1 X15.927 Y-27.251
G1 X15.842 Y-27.263
G1 X15.759 Y-27.282
G1 X15.678 Y-27.309
G1 X15.599 Y-27.344
G1 X15.525 Y-27.385
G1 X15.454 Y-27.433
G1 X15.388 Y-27.488
G1 X15.327 Y-27.548
G1 X15.272 Y-27.614
G1 X15.223 Y-27.684
G1 X15.181 Y-27.758
G1 X15.145 Y-27.837
G1 X15.117 Y-27.917
G1 X15.097 Y-28.001
G1 X15.084 Y-28.085
G1 X15.079 Y-28.171
G1 X15.082 Y-28.256
G1 X15.093 Y-28.341
G1 X15.111 Y-28.425
G1 X15.137 Y-28.507
G1 X15.171 Y-28.586
G1 X15.209 Y-28.668
G1 X15.254 Y-28.748
G1 X15.305 Y-28.823
G1 X15.363 Y-28.894
G1 X15.427 Y-28.959
G1 X15.496 Y-29.019
G1 X15.57 Y-29.073
G1 X15.648 Y-29.12
G1 X15.729 Y-29.161
G1 X15.814 Y-29.194
G1 X15.902 Y-29.22
G1 X15.991 Y-29.239
G1 X16.082 Y-29.25
G1 X16.173 Y-29.253
G1 X16.264 Y-29.248
G1 X16.354 Y-29.236
G1 X16.444 Y-29.216
G1 X16.531 Y-29.189
G1 X16.615 Y-29.154
G1 X16.696 Y-29.112
G1 X16.774 Y-29.064
G1 X16.847 Y-29.009
G1 X16.915 Y-28.948
G1 X16.994 Y-28.878
G1 X17.069 Y-28.802
G1 X17.137 Y-28.72
G1 X17.2 Y-28.634
G1 X17.255 Y-28.543
G1 X17.304 Y-28.448
G1 X17.345 Y-28.35
G1 X17.379 Y-28.249
G1 X17.406 Y-28.146
G1 X17.424 Y-28.041
G1 X17.435 Y-27.935
G1 X17.438 Y-27.829
G1 X17.433 Y-27.722
G1 X17.42 Y-27.616
G1 X17.399 Y-27.512
G1 X17.371 Y-27.409
G1 X17.335 Y-27.309
G1 X17.291 Y-27.212
G1 X17.24 Y-27.118
G1 X17.183 Y-27.029
G1 X17.119 Y-26.943
G1 X17.049 Y-26.863
G1 X16.973 Y-26.789
G1 X16.891 Y-26.72
G1 X16.805 Y-26.657
G1 X16.715 Y-26.601
G1 X16.62 Y-26.552
G1 X16.522 Y-26.511
G1 X16.421 Y-26.476
G1 X16.318 Y-26.449
G1 X16.213 Y-26.43
G1 X16.101 Y-26.413
G1 X15.987 Y-26.404
G1 X15.873 Y-26.403
G1 X15.759 Y-26.409
G1 X15.645 Y-26.422
G1 X15.533 Y-26.443
G1 X15.422 Y-26.472
G1 X15.314 Y-26.508
G1 X15.208 Y-26.551
G1 X15.105 Y-26.6
G1 X15.006 Y-26.657
G1 X14.911 Y-26.72
G1 X14.82 Y-26.789
G1 X14.734 Y-26.865
G1 X14.654 Y-26.945
G1 X14.578 Y-27.031
G1 X14.509 Y-27.122
G1 X14.446 Y-27.217
G1 X14.389 Y-27.316
G1 X14.339 Y-27.419
G1 X14.296 Y-27.524
G1 X14.26 Y-27.633
G1 X14.226 Y-27.753
G1 X14.199 Y-27.875
G1 X14.179 Y-27.999
G1 X14.168 Y-28.123
G1 X14.165 Y-28.249
G1 X14.169 Y-28.374
G1 X14.182 Y-28.498
G1 X14.202 Y-28.621
G1 X14.23 Y-28.743
G1 X14.266 Y-28.863
G1 X14.309 Y-28.981
G1 X14.36 Y-29.095
G1 X14.418 Y-29.206
G1 X14.483 Y-29.313
G1 X14.555 Y-29.416
G1 X14.632 Y-29.513
G1 X14.716 Y-29.606
G1 X14.806 Y-29.693
G1 X14.901 Y-29.775
G1 X15.001 Y-29.85
G1 X15.106 Y-29.919
G1 X15.215 Y-29.981
G1 X15.327 Y-30.035
G1 X15.443 Y-30.083
G1 X15.561 Y-30.123
G1 X15.682 Y-30.156
G1 X15.805 Y-30.18
G1 X15.929 Y-30.197
G1 X16.053 Y-30.206
G1 X16.179 Y-30.208
G1 X16.304 Y-30.201
G1 X16.439 Y-30.187
G1 X16.573 Y-30.165
G1 X16.706 Y-30.136
G1 X16.837 Y-30.099
G1 X16.965 Y-30.054
G1 X17.091 Y-30.002
G1 X17.213 Y-29.943
G1 X17.332 Y-29.877
G1 X17.447 Y-29.803
G1 X17.557 Y-29.724
G1 X17.662 Y-29.638
G1 X17.762 Y-29.545
G1 X17.857 Y-29.448
G1 X17.945 Y-29.345
G1 X18.028 Y-29.236
G1 X18.104 Y-29.124
G1 X18.173 Y-29.007
G1 X18.236 Y-28.886
G1 X18.291 Y-28.762
G1 X18.339 Y-28.634
G1 X18.379 Y-28.504
G1 X18.412 Y-28.372
G1 X18.437 Y-28.239
G1 X18.454 Y-28.104
G1 X18.463 Y-27.968
G1 X18.464 Y-27.832
G1 X18.459 Y-27.692
G1 X18.446 Y-27.552
G1 X18.425 Y-27.413
G1 X18.397 Y-27.275
G1 X18.361 Y-27.139
G1 X18.317 Y-27.005
G1 X18.266 Y-26.874
G1 X18.208 Y-26.747
G1 X18.142 Y-26.622
G1 X18.07 Y-26.501
G1 X17.991 Y-26.385
G1 X17.906 Y-26.273
G1 X17.814 Y-26.166
G1 X17.717 Y-26.065
G1 X17.615 Y-25.969
G1 X17.507 Y-25.879
G1 X17.394 Y-25.795
G1 X17.277 Y-25.717
G1 X17.155 Y-25.646
G1 X17.03 Y-25.582
G1 X16.901 Y-25.525
G1 X16.77 Y-25.476
G1 X16.636 Y-25.433
G1 X16.5 Y-25.399
G1 X16.362 Y-25.372
G1 X16.222 Y-25.353
G1 X16.082 Y-25.341
G1 X15.942 Y-25.337
G1 X15.801 Y-25.342
G1 X15.656 Y-25.35
G1 X15.511 Y-25.366
G1 X15.368 Y-25.39
G1 X15.226 Y-25.421
G1 X15.085 Y-25.459
G1 X14.947 Y-25.504
G1 X14.811 Y-25.556
G1 X14.678 Y-25.615
G1 X14.549 Y-25.681
G1 X14.423 Y-25.754
G1 X14.301 Y-25.833
G1 X14.183 Y-25.918
G1 X14.069 Y-26.009
G1 X13.961 Y-26.106
G1 X13.857 Y-26.208
G1 X13.759 Y-26.315
G1 X13.667 Y-26.428
G1 X13.58 Y-26.544
G1 X13.5 Y-26.666
G1 X13.426 Y-26.791
G1 X13.358 Y-26.92
G1 X13.298 Y-27.052
G1 X13.244 Y-27.187
G1 X13.197 Y-27.325
G1 X13.157 Y-27.464
G1 X13.125 Y-27.606
G1 X13.099 Y-27.749
G1 X13.082 Y-27.894
G1 X13.068 Y-28.047
G1 X13.062 Y-28.201
G1 X13.063 Y-28.355
G1 X13.072 Y-28.509
G1 X13.089 Y-28.662
G1 X13.114 Y-28.814
G1 X13.146 Y-28.964
G1 X13.185 Y-29.113
G1 X13.232 Y-29.26
G1 X13.286 Y-29.404
G1 X13.347 Y-29.545
G1 X13.416 Y-29.683
G1 X13.49 Y-29.818
G1 X13.572 Y-29.948
G1 X13.66 Y-30.074
G1 X13.754 Y-30.196
G1 X13.854 Y-30.313
G1 X13.96 Y-30.425
G1 X14.071 Y-30.531
G1 X14.188 Y-30.632
G1 X14.309 Y-30.727
G1 X14.435 Y-30.816
G1 X14.565 Y-30.898
G1 X14.699 Y-30.973
G1 X14.837 Y-31.042
G1 X14.978 Y-31.104
G1 X15.122 Y-31.159
G1 X15.268 Y-31.207
G1 X15.417 Y-31.247
G1 X15.567 Y-31.28
G1 X15.719 Y-31.305
G1 X15.872 Y-31.322
G1 X16.026 Y-31.332
G1 X16.18 Y-31.335
G1 X16.334 Y-31.329
G1 X16.487 Y-31.316
G1 X16.651 Y-31.298
G1 X16.813 Y-31.271
G1 X16.974 Y-31.237
G1 X17.133 Y-31.195
G1 X17.29 Y-31.146
G1 X17.445 Y-31.089
G1 X17.596 Y-31.025
G1 X17.744 Y-30.954
G1 X17.889 Y-30.876
G1 X18.03 Y-30.79
G1 X18.167 Y-30.699
G1 X18.299 Y-30.601
G1 X18.426 Y-30.496
G1 X18.548 Y-30.386
G1 X18.665 Y-30.27
G1 X18.776 Y-30.148
G1 X18.881 Y-30.022
G1 X18.98 Y-29.89
G1 X19.072 Y-29.754
G1 X19.158 Y-29.614
G1 X19.237 Y-29.469
G1 X19.309 Y-29.321
G1 X19.374 Y-29.17
G1 X19.432 Y-29.016
G1 X19.482 Y-28.859
G1 X19.525 Y-28.7
G1 X19.56 Y-28.54
G1 X19.587 Y-28.377
G1 X19.606 Y-28.214
G1 X19.618 Y-28.05
G1 X19.624 Y-27.88
G1 X19.622 Y-27.711
G1 X19.612 Y-27.541
G1 X19.594 Y-27.373
G1 X19.569 Y-27.205
G1 X19.536 Y-27.039
G1 X19.495 Y-26.874
G1 X19.447 Y-26.712
G1 X19.391 Y-26.552
G1 X19.328 Y-26.394
G1 X19.258 Y-26.24
G1 X19.181 Y-26.089
G1 X19.097 Y-25.942
G1 X19.006 Y-25.799
G1 X18.908 Y-25.66
G1 X18.805 Y-25.526
G1 X18.695 Y-25.396
G1 X18.58 Y-25.272
G1 X18.458 Y-25.154
G1 X18.332 Y-25.041
G1 X18.2 Y-24.934
G1 X18.064 Y-24.833
G1 X17.923 Y-24.738
G1 X17.778 Y-24.651
G1 X17.629 Y-24.57
G1 X17.477 Y-24.496
G1 X17.321 Y-24.429
G1 X17.162 Y-24.369
G1 X17.001 Y-24.317
G1 X16.837 Y-24.272
G1 X16.672 Y-24.234
G1 X16.505 Y-24.205
G1 X16.337 Y-24.183
G1 X16.168 Y-24.169
G1 X15.998 Y-24.163
G1 X15.825 Y-24.161
G1 X15.652 Y-24.166
G1 X15.479 Y-24.179
G1 X15.307 Y-24.2
G1 X15.136 Y-24.228
G1 X14.966 Y-24.263
G1 X14.798 Y-24.306
G1 X14.633 Y-24.356
G1 X14.469 Y-24.413
G1 X14.308 Y-24.478
G1 X14.15 Y-24.549
G1 X13.995 Y-24.627
G1 X13.844 Y-24.711
G1 X13.697 Y-24.803
G1 X13.553 Y-24.9
G1 X13.414 Y-25.004
G1 X13.28 Y-25.113
G1 X13.151 Y-25.228
G1 X13.026 Y-25.349
G1 X12.907 Y-25.475
G1 X12.794 Y-25.606
G1 X12.686 Y-25.742
G1 X12.585 Y-25.883
G1 X12.49 Y-26.028
G1 X12.401 Y-26.176
G1 X12.318 Y-26.329
G1 X12.242 Y-26.485
G1 X12.174 Y-26.644
G1 X12.112 Y-26.806
G1 X12.057 Y-26.97
G1 X12.009 Y-27.137
G1 X11.964 Y-27.316
G1 X11.927 Y-27.497
G1 X11.898 Y-27.68
G1 X11.876 Y-27.863
G1 X11.863 Y-28.047
G1 X11.857 Y-28.232
G1 X11.86 Y-28.417
G1 X11.87 Y-28.602
G1 X11.889 Y-28.786
G1 X11.915 Y-28.969
G1 X11.949 Y-29.15
G1 X11.991 Y-29.33
G1 X12.041 Y-29.508
G1 X12.098 Y-29.684
G1 X12.163 Y-29.857
G1 X12.236 Y-30.027
G1 X12.315 Y-30.194
G1 X12.402 Y-30.357
G1 X12.496 Y-30.516
G1 X12.597 Y-30.672
G1 X12.704 Y-30.822
G1 X12.817 Y-30.968
G1 X12.937 Y-31.109
G1 X13.063 Y-31.244
G1 X13.194 Y-31.374
G1 X13.331 Y-31.498
G1 X13.474 Y-31.616
G1 X13.621 Y-31.728
G1 X13.773 Y-31.834
G1 X13.929 Y-31.932
G1 X14.089 Y-32.024
G1 X14.254 Y-32.109
G1 X14.421 Y-32.187
G1 X14.592 Y-32.257
G1 X14.766 Y-32.32
G1 X14.943 Y-32.375
G1 X15.121 Y-32.423
G1 X15.302 Y-32.463
G1 X15.484 Y-32.495
G1 X15.667 Y-32.519
G1 X15.851 Y-32.535
G1 X16.039 Y-32.546
G1 X16.227 Y-32.55
G1 X16.415 Y-32.546
G1 X16.602 Y-32.534
G1 X16.789 Y-32.514
G1 X16.975 Y-32.487
G1 X17.16 Y-32.453
G1 X17.343 Y-32.411
G1 X17.524 Y-32.361
G1 X17.703 Y-32.305
G1 X17.88 Y-32.241
G1 X18.054 Y-32.169
G1 X18.225 Y-32.091
G1 X18.392 Y-32.006
G1 X18.556 Y-31.914
G1 X18.716 Y-31.816
G1 X18.872 Y-31.711
G1 X19.024 Y-31.6
G1 X19.171 Y-31.483
G1 X19.313 Y-31.359
G1 X19.45 Y-31.231
G1 X19.581 Y-31.096
G1 X19.707 Y-30.957
G1 X19.827 Y-30.813
G1 X19.942 Y-30.663
G1 X20.05 Y-30.51
G1 X20.151 Y-30.351
G1 X20.246 Y-30.189
G1 X20.335 Y-30.024
G1 X20.417 Y-29.854
G1 X20.491 Y-29.682
G1 X20.559 Y-29.507
G1 X20.619 Y-29.329
G1 X20.676 Y-29.143
G1 X20.726 Y-28.954
G1 X20.768 Y-28.764
G1 X20.802 Y-28.573
G1 X20.829 Y-28.38
G1 X20.848 Y-28.186
G1 X20.859 Y-27.992
G1 X20.863 Y-27.797
G1 X20.858 Y-27.602
G1 X20.846 Y-27.408
G1 X20.826 Y-27.214
G1 X20.798 Y-27.022
G1 X20.763 Y-26.83
G1 X20.72 Y-26.64
G1 X20.669 Y-26.452
G1 X20.611 Y-26.267
G1 X20.546 Y-26.083
G1 X20.473 Y-25.903
G1 X20.393 Y-25.725
G1 X20.306 Y-25.551
G1 X20.212 Y-25.38
G1 X20.112 Y-25.214
G1 X20.005 Y-25.051
G1 X19.891 Y-24.893
G1 X19.771 Y-24.74
G1 X19.645 Y-24.591
G1 X19.514 Y-24.448
G1 X19.376 Y-24.31
G1 X19.233 Y-24.177
G1 X19.086 Y-24.051
G1 X18.933 Y-23.93
G1 X18.775 Y-23.816
G1 X18.613 Y-23.708
G1 X18.447 Y-23.607
G1 X18.277 Y-23.512
G1 X18.103 Y-23.425
G1 X17.926 Y-23.344
G1 X17.745 Y-23.27
G1 X17.56 Y-23.201
G1 X17.372 Y-23.138
G1 X17.181 Y-23.083
G1 X16.989 Y-23.035
G1 X16.795 Y-22.994
G1 X16.599 Y-22.961
G1 X16.403 Y-22.936
G1 X16.205 Y-22.918
G1 X16.007 Y-22.908
G1 X15.809 Y-22.905
G1 X15.611 Y-22.91
G1 X15.413 Y-22.922
G1 X15.215 Y-22.942
G1 X15.019 Y-22.97
G1 X14.824 Y-23.005
G1 X14.63 Y-23.048
G1 X14.438 Y-23.098
G1 X14.249 Y-23.155
G1 X14.061 Y-23.219
G1 X13.876 Y-23.291
G1 X13.694 Y-23.37
G1 X13.515 Y-23.455
G1 X13.34 Y-23.548
G1 X13.168 Y-23.647
G1 X13 Y-23.752
G1 X12.837 Y-23.864
G1 X12.678 Y-23.983
G1 X12.523 Y-24.107
G1 X12.373 Y-24.237
G1 X12.229 Y-24.372
G1 X12.089 Y-24.514
G1 X11.956 Y-24.66
G1 X11.827 Y-24.811
G1 X11.705 Y-24.967
G1 X11.589 Y-25.128
G1 X11.474 Y-25.298
G1 X11.365 Y-25.472
G1 X11.262 Y-25.649
G1 X11.166 Y-25.831
G1 X11.078 Y-26.016
G1 X10.996 Y-26.204
G1 X10.921 Y-26.396
G1 X10.854 Y-26.589
G1 X10.794 Y-26.786
G1 X10.741 Y-26.984
G1 X10.696 Y-27.184
G1 X10.658 Y-27.386
G1 X10.628 Y-27.589
G1 X10.606 Y-27.793
G1 X10.591 Y-27.998
G1 X10.584 Y-28.203
G1 X10.585 Y-28.408
G1 X10.593 Y-28.613
G1 X10.609 Y-28.818
G1 X10.633 Y-29.022
G1 X10.665 Y-29.225
G1 X10.704 Y-29.426
G1 X10.751 Y-29.626
G1 X10.805 Y-29.824
G1 X10.866 Y-30.02
G1 X10.935 Y-30.213
G1 X11.011 Y-30.404
G1 X11.094 Y-30.592
G1 X11.185 Y-30.776
G1 X11.282 Y-30.957
G1 X11.385 Y-31.134
G1 X11.496 Y-31.307
G1 X11.613 Y-31.476
G1 X11.736 Y-31.64
G1 X11.865 Y-31.8
G1 X12 Y-31.954
G1 X12.141 Y-32.104
G1 X12.287 Y-32.248
G1 X12.439 Y-32.388
G1 X12.595 Y-32.523
G1 X12.756 Y-32.653
G1 X12.922 Y-32.776
G1 X13.093 Y-32.894
G1 X13.267 Y-33.005
G1 X13.446 Y-33.109
G1 X13.628 Y-33.207
G1 X13.813 Y-33.299
G1 X14.002 Y-33.383
G1 X14.194 Y-33.461
G1 X14.388 Y-33.531
G1 X14.585 Y-33.595
G1 X14.784 Y-33.651
G1 X14.985 Y-33.7
G1 X15.187 Y-33.742
G1 X15.391 Y-33.776
G1 X15.596 Y-33.803
G1 X15.802 Y-33.822
G1 X16.009 Y-33.834
G1 X16.216 Y-33.839
G1 X16.422 Y-33.835
G1 X16.629 Y-33.825
G1 X16.835 Y-33.807
G1 X17.04 Y-33.781
G1 X17.244 Y-33.748
G1 X17.447 Y-33.707
G1 X17.648 Y-33.659
G1 X17.848 Y-33.604
G1 X18.045 Y-33.542
G1 X18.24 Y-33.472
G1 X18.432 Y-33.396
G1 X18.629 Y-33.311
G1 X18.822 Y-33.219
G1 X19.013 Y-33.12
G1 X19.199 Y-33.015
G1 X19.382 Y-32.903
G1 X19.561 Y-32.784
G1 X19.735 Y-32.659
G1 X19.905 Y-32.528
G1 X20.07 Y-32.391
G1 X20.23 Y-32.249
G1 X20.385 Y-32.1
G1 X20.534 Y-31.946
G1 X20.678 Y-31.787
G1 X20.816 Y-31.623
G1 X20.948 Y-31.455
G1 X21.074 Y-31.281
G1 X21.194 Y-31.103
G1 X21.308 Y-30.921
G1 X21.414 Y-30.735
G1 X21.514 Y-30.546
G1 X21.608 Y-30.353
G1 X21.694 Y-30.156
G1 X21.773 Y-29.957
G1 X21.845 Y-29.755
G1 X21.91 Y-29.551
G1 X21.968 Y-29.344
G1 X22.018 Y-29.136
G1 X22.061 Y-28.926
G1 X22.096 Y-28.714
G1 X22.123 Y-28.501
G1 X22.143 Y-28.288
G1 X22.156 Y-28.074
G1 X22.16 Y-27.859
G1 X22.157 Y-27.645
G1 X22.147 Y-27.431
G1 X22.129 Y-27.217
G1 X22.103 Y-27.004
G1 X22.069 Y-26.793
G1 X22.028 Y-26.582
G1 X21.98 Y-26.373
G1 X21.923 Y-26.158
G1 X21.858 Y-25.944
G1 X21.785 Y-25.733
G1 X21.705 Y-25.525
G1 X21.618 Y-25.32
G1 X21.523 Y-25.118
G1 X21.422 Y-24.92
G1 X21.313 Y-24.725
G1 X21.198 Y-24.534
G1 X21.075 Y-24.348
G1 X20.947 Y-24.166
G1 X20.811 Y-23.988
G1 X20.67 Y-23.816
G1 X20.522 Y-23.649
G1 X20.369 Y-23.487
G1 X20.21 Y-23.33
G1 X20.046 Y-23.18
G1 X19.876 Y-23.035
G1 X19.701 Y-22.897
G1 X19.522 Y-22.764
G1 X19.338 Y-22.639
G1 X19.149 Y-22.519
G1 X18.956 Y-22.407
G1 X18.76 Y-22.302
G1 X18.56 Y-22.203
G1 X18.356 Y-22.112
G1 X18.15 Y-22.028
G1 X17.94 Y-21.952
G1 X17.728 Y-21.883
G1 X17.514 Y-21.821
G1 X17.297 Y-21.768
G1 X17.079 Y-21.722
G1 X16.859 Y-21.683
G1 X16.639 Y-21.653
G1 X16.417 Y-21.631
G1 X16.194 Y-21.616
G1 X15.971 Y-21.609
G1 X15.748 Y-21.611
G1 X15.526 Y-21.62
G1 X15.302 Y-21.635
G1 X15.08 Y-21.658
G1 X14.858 Y-21.688
G1 X14.638 Y-21.726
G1 X14.419 Y-21.772
G1 X14.201 Y-21.825
G1 X13.986 Y-21.885
G1 X13.773 Y-21.953
G1 X13.562 Y-22.028
G1 X13.354 Y-22.11
G1 X13.149 Y-22.199
G1 X12.947 Y-22.295
G1 X12.748 Y-22.398
G1 X12.553 Y-22.508
G1 X12.362 Y-22.624
G1 X12.175 Y-22.747
G1 X11.992 Y-22.876
G1 X11.814 Y-23.011
G1 X11.641 Y-23.152
G1 X11.472 Y-23.299
G1 X11.309 Y-23.452
G1 X11.15 Y-23.61
G1 X10.998 Y-23.774
G1 X10.851 Y-23.942
G1 X10.71 Y-24.116
G1 X10.575 Y-24.294
G1 X10.446 Y-24.477
G1 X10.323 Y-24.664
G1 X10.207 Y-24.855
G1 X10.097 Y-25.05
G1 X9.994 Y-25.249
G1 X9.898 Y-25.451
G1 X9.809 Y-25.656
G1 X9.727 Y-25.864
G1 X9.649 Y-26.082
G1 X9.578 Y-26.302
G1 X9.514 Y-26.524
G1 X9.458 Y-26.749
G1 X9.41 Y-26.975
G1 X9.37 Y-27.203
G1 X9.337 Y-27.431
G1 X9.312 Y-27.661
G1 X9.294 Y-27.892
G1 X9.285 Y-28.123
G1 X9.284 Y-28.354
G1 X9.29 Y-28.585
G1 X9.304 Y-28.816
G1 X9.326 Y-29.046
G1 X9.356 Y-29.276
G1 X9.393 Y-29.504
G1 X9.438 Y-29.731
G1 X9.491 Y-29.956
G1 X9.552 Y-30.179
G1 X9.62 Y-30.4
G1 X9.696 Y-30.619
G1 X9.778 Y-30.834
G1 X9.869 Y-31.047
G1 X9.966 Y-31.257
G1 X10.07 Y-31.463
G1 X10.182 Y-31.666
G1 X10.3 Y-31.865
G1 X10.425 Y-32.06
G1 X10.556 Y-32.25
G1 X10.694 Y-32.436
G1 X10.838 Y-32.617
G1 X10.988 Y-32.793
G1 X11.144 Y-32.963
G1 X11.305 Y-33.129
G1 X11.473 Y-33.288
G1 X11.645 Y-33.442
G1 X11.823 Y-33.591
G1 X12.005 Y-33.733
G1 X12.193 Y-33.868
G1 X12.384 Y-33.998
G1 X12.58 Y-34.12
G1 X12.78 Y-34.236
G1 X12.983 Y-34.346
G1 X13.19 Y-34.45
G1 X13.399 Y-34.547
G1 X13.612 Y-34.637
G1 X13.828 Y-34.72
G1 X14.046 Y-34.795
G1 X14.266 Y-34.864
G1 X14.489 Y-34.925
G1 X14.713 Y-34.979
G1 X14.94 Y-35.026
G1 X15.167 Y-35.065
G1 X15.396 Y-35.097
G1 X15.626 Y-35.121
G1 X15.856 Y-35.138
G1 X16.087 Y-35.147
G1 X16.318 Y-35.148
G1 X16.548 Y-35.142
G1 X16.779 Y-35.128
G1 X17.009 Y-35.107
G1 X17.238 Y-35.079
G1 X17.466 Y-35.042
G1 X17.693 Y-34.999
G1 X17.918 Y-34.948
G1 X18.142 Y-34.889
G1 X18.363 Y-34.824
G1 X18.582 Y-34.751
G1 X18.799 Y-34.671
G1 X19.013 Y-34.584
G1 X19.224 Y-34.49
G1 X19.431 Y-34.389
G1 X19.646 Y-34.276
G1 X19.857 Y-34.157
G1 X20.064 Y-34.031
G1 X20.266 Y-33.898
G1 X20.464 Y-33.759
G1 X20.657 Y-33.613
G1 X20.846 Y-33.461
G1 X21.029 Y-33.302
G1 X21.207 Y-33.138
G1 X21.38 Y-32.968
G1 X21.546 Y-32.792
G1 X21.707 Y-32.611
G1 X21.862 Y-32.425
G1 X22.011 Y-32.234
G1 X22.153 Y-32.038
G1 X22.289 Y-31.837
G1 X22.418 Y-31.632
G1 X22.54 Y-31.423
G1 X22.655 Y-31.21
G1 X22.763 Y-30.993
G1 X22.864 Y-30.773
G1 X22.958 Y-30.549
G1 X23.044 Y-30.323
G1 X23.123 Y-30.094
G1 X23.194 Y-29.862
G1 X23.258 Y-29.629
G1 X23.313 Y-29.393
G1 X23.361 Y-29.156
G1 X23.401 Y-28.917
G1 X23.433 Y-28.677
G1 X23.458 Y-28.436
G1 X23.474 Y-28.194
G1 X23.482 Y-27.952
G1 X23.483 Y-27.71
G1 X23.475 Y-27.467
G1 X23.459 Y-27.226
G1 X23.436 Y-26.985
G1 X23.404 Y-26.745
G1 X23.365 Y-26.506
G1 X23.318 Y-26.268
G1 X23.263 Y-26.032
G1 X23.2 Y-25.798
G1 X23.129 Y-25.566
G1 X23.051 Y-25.337
G1 X22.966 Y-25.11
G1 X22.874 Y-24.888
G1 X22.776 Y-24.668
G1 X22.67 Y-24.451
G1 X22.558 Y-24.238
G1 X22.439 Y-24.029
G1 X22.314 Y-23.823
G1 X22.182 Y-23.621
G1 X22.044 Y-23.424
G1 X21.899 Y-23.231
G1 X21.749 Y-23.043
G1 X21.592 Y-22.86
G1 X21.43 Y-22.682
G1 X21.263 Y-22.509
G1 X21.09 Y-22.342
G1 X20.911 Y-22.18
G1 X20.728 Y-22.023
G1 X20.54 Y-21.873
G1 X20.347 Y-21.729
G1 X20.15 Y-21.591
G1 X19.948 Y-21.459
G1 X19.742 Y-21.333
G1 X19.533 Y-21.215
G1 X19.319 Y-21.103
G1 X19.103 Y-20.997
G1 X18.883 Y-20.899
G1 X18.66 Y-20.808
G1 X18.434 Y-20.724
G1 X18.206 Y-20.647
G1 X17.976 Y-20.577
G1 X17.743 Y-20.514
G1 X17.508 Y-20.459
G1 X17.272 Y-20.412
G1 X17.035 Y-20.372
G1 X16.796 Y-20.34
G1 X16.556 Y-20.315
G1 X16.316 Y-20.297
G1 X16.076 Y-20.288
G1 X15.835 Y-20.286
G1 X15.594 Y-20.291
G1 X15.353 Y-20.305
G1 X15.109 Y-20.324
G1 X14.864 Y-20.351
G1 X14.621 Y-20.385
G1 X14.379 Y-20.427
G1 X14.139 Y-20.477
G1 X13.9 Y-20.534
G1 X13.663 Y-20.599
G1 X13.428 Y-20.671
G1 X13.196 Y-20.75
G1 X12.966 Y-20.837
G1 X12.739 Y-20.93
G1 X12.515 Y-21.031
G1 X12.294 Y-21.139
G1 X12.077 Y-21.253
G1 X11.864 Y-21.375
G1 X11.654 Y-21.503
G1 X11.448 Y-21.637
G1 X11.247 Y-21.778
G1 X11.051 Y-21.925
G1 X10.859 Y-22.078
G1 X10.671 Y-22.237
G1 X10.489 Y-22.402
G1 X10.313 Y-22.572
G1 X10.141 Y-22.748
G1 X9.975 Y-22.93
G1 X9.815 Y-23.116
G1 X9.661 Y-23.307
G1 X9.513 Y-23.503
G1 X9.371 Y-23.703
G1 X9.236 Y-23.908
G1 X9.107 Y-24.117
G1 X8.984 Y-24.33
G1 X8.868 Y-24.547
G1 X8.76 Y-24.767
G1 X8.653 Y-24.995
G1 X8.553 Y-25.227
G1 X8.461 Y-25.462
G1 X8.376 Y-25.7
G1 X8.299 Y-25.94
G1 X8.23 Y-26.182
G1 X8.167 Y-26.427
G1 X8.113 Y-26.673
G1 X8.067 Y-26.921
G1 X8.028 Y-27.171
G1 X7.997 Y-27.421
G1 X7.974 Y-27.672
G1 X7.959 Y-27.924
G1 X7.951 Y-28.177
G1 X7.952 Y-28.429
G1 X7.961 Y-28.681
G1 X7.977 Y-28.933
G1 X8.002 Y-29.184
G1 X8.034 Y-29.434
G1 X8.074 Y-29.683
G1 X8.122 Y-29.931
G1 X8.177 Y-30.177
G1 X8.241 Y-30.421
G1 X8.312 Y-30.664
G1 X8.39 Y-30.903
G1 X8.476 Y-31.141
G1 X8.57 Y-31.375
G1 X8.67 Y-31.606
G1 X8.78 Y-31.839
G1 X8.896 Y-32.068
G1 X9.019 Y-32.293
G1 X9.149 Y-32.515
G1 X9.287 Y-32.732
G1 X9.43 Y-32.945
G1 X9.581 Y-33.153
G1 X9.738 Y-33.357
G1 X9.901 Y-33.555
G1 X10.07 Y-33.749
G1 X10.245 Y-33.937
G1 X10.425 Y-34.119
G1 X10.612 Y-34.296
G1 X10.804 Y-34.467
G1 X11.001 Y-34.632
G1 X11.203 Y-34.791
G1 X11.41 Y-34.943
G1 X11.621 Y-35.089
G1 X11.837 Y-35.228
G1 X12.057 Y-35.36
G1 X12.281 Y-35.486
G1 X12.509 Y-35.604
G1 X12.741 Y-35.715
G1 X12.976 Y-35.819
G1 X13.214 Y-35.916
G1 X13.455 Y-36.005
G1 X13.698 Y-36.087
G1 X13.944 Y-36.161
G1 X14.192 Y-36.228
G1 X14.443 Y-36.286
G1 X14.694 Y-36.337
G1 X14.948 Y-36.38
G1 X15.202 Y-36.415
G1 X15.458 Y-36.442
G1 X15.714 Y-36.462
G1 X15.97 Y-36.473
G1 X16.227 Y-36.476
G1 X16.484 Y-36.471
G1 X16.741 Y-36.459
G1 X16.997 Y-36.438
G1 X17.252 Y-36.411
G1 X17.507 Y-36.376
G1 X17.76 Y-36.334
G1 X18.012 Y-36.284
G1 X18.263 Y-36.226
G1 X18.511 Y-36.161
G1 X18.758 Y-36.089
G1 X19.002 Y-36.009
G1 X19.244 Y-35.922
G1 X19.483 Y-35.828
G1 X19.719 Y-35.727
G1 X19.951 Y-35.618
G1 X20.181 Y-35.503
G1 X20.407 Y-35.381
G1 X20.629 Y-35.252
G1 X20.847 Y-35.116
G1 X21.061 Y-34.974
G1 X21.271 Y-34.826
G1 X21.476 Y-34.671
G1 X21.677 Y-34.51
G1 X21.872 Y-34.344
G1 X22.063 Y-34.171
G1 X22.248 Y-33.993
G1 X22.428 Y-33.81
G1 X22.602 Y-33.621
G1 X22.77 Y-33.427
G1 X22.932 Y-33.228
G1 X23.089 Y-33.024
G1 X23.239 Y-32.816
G1 X23.383 Y-32.603
G1 X23.521 Y-32.386
G1 X23.651 Y-32.165
G1 X23.776 Y-31.94
G1 X23.893 Y-31.711
G1 X24.004 Y-31.479
G1 X24.111 Y-31.239
G1 X24.21 Y-30.995
G1 X24.303 Y-30.748
G1 X24.388 Y-30.499
G1 X24.465 Y-30.247
G1 X24.535 Y-29.993
G1 X24.597 Y-29.737
G1 X24.651 Y-29.479
G1 X24.698 Y-29.219
G1 X24.736 Y-28.959
G1 X24.767 Y-28.697
G1 X24.79 Y-28.435
G1 X24.805 Y-28.171
G1 X24.812 Y-27.908
G1 X24.811 Y-27.645
G1 X24.803 Y-27.381
G1 X24.786 Y-27.118
G1 X24.761 Y-26.856
G1 X24.729 Y-26.594
G1 X24.688 Y-26.334
G1 X24.64 Y-26.075
G1 X24.584 Y-25.818
G1 X24.521 Y-25.562
G1 X24.449 Y-25.308
G1 X24.37 Y-25.057
G1 X24.284 Y-24.808
G1 X24.19 Y-24.562
G1 X24.088 Y-24.318
G1 X23.98 Y-24.078
G1 X23.864 Y-23.842
G1 X23.741 Y-23.609
G1 X23.611 Y-23.379
G1 X23.475 Y-23.154
G1 X23.331 Y-22.933
G1 X23.181 Y-22.716
G1 X23.025 Y-22.504
G1 X22.862 Y-22.297
G1 X22.693 Y-22.095
G1 X22.518 Y-21.898
G1 X22.339 Y-21.705
G1 X22.153 Y-21.518
G1 X21.963 Y-21.336
G1 X21.767 Y-21.16
G1 X21.566 Y-20.99
G1 X21.36 Y-20.825
G1 X21.149 Y-20.667
G1 X20.934 Y-20.515
G1 X20.714 Y-20.369
G1 X20.49 Y-20.23
G1 X20.263 Y-20.098
G1 X20.031 Y-19.972
G1 X19.796 Y-19.853
G1 X19.558 Y-19.741
G1 X19.316 Y-19.636
G1 X19.071 Y-19.538
G1 X18.824 Y-19.448
G1 X18.574 Y-19.364
G1 X18.322 Y-19.288
G1 X18.067 Y-19.22
G1 X17.811 Y-19.159
G1 X17.553 Y-19.105
G1 X17.293 Y-19.059
G1 X17.033 Y-19.021
G1 X16.771 Y-18.99
G1 X16.509 Y-18.967
G1 X16.246 Y-18.952
G1 X15.982 Y-18.945
G1 X15.719
G1 X15.455 Y-18.953
G1 X15.192 Y-18.968
G1 X14.93 Y-18.992
G1 X14.668 Y-19.023
G1 X14.408 Y-19.061
G1 X14.148 Y-19.108
G1 X13.89 Y-19.162
G1 X13.634 Y-19.223
G1 X13.38 Y-19.292
G1 X13.128 Y-19.368
G1 X12.876 Y-19.45
G1 X12.627 Y-19.539
G1 X12.381 Y-19.636
G1 X12.137 Y-19.739
G1 X11.897 Y-19.849
G1 X11.66 Y-19.966
G1 X11.426 Y-20.09
G1 X11.196 Y-20.22
G1 X10.97 Y-20.357
G1 X10.748 Y-20.501
G1 X10.53 Y-20.65
G1 X10.316 Y-20.806
G1 X10.107 Y-20.968
G1 X9.903 Y-21.136
G1 X9.704 Y-21.31
G1 X9.509 Y-21.489
G1 X9.32 Y-21.674
G1 X9.137 Y-21.864
G1 X8.958 Y-22.06
G1 X8.786 Y-22.26
G1 X8.619 Y-22.466
G1 X8.458 Y-22.676
G1 X8.304 Y-22.89
G1 X8.155 Y-23.109
G1 X8.013 Y-23.332
G1 X7.878 Y-23.559
G1 X7.749 Y-23.79
G1 X7.626 Y-24.024
G1 X7.511 Y-24.262
G1 X7.402 Y-24.503
G1 X7.3 Y-24.747
G1 X7.205 Y-24.994
G1 X7.118 Y-25.243
G1 X7.037 Y-25.495
G1 X6.961 Y-25.756
G1 X6.892 Y-26.019
G1 X6.831 Y-26.284
G1 X6.778 Y-26.55
G1 X6.732 Y-26.818
G1 X6.694 Y-27.087
G1 X6.664 Y-27.357
G1 X6.641 Y-27.628
G1 X6.626 Y-27.899
G1 X6.619 Y-28.171
G1 Y-28.442
G1 X6.628 Y-28.714
G1 X6.644 Y-28.985
G1 X6.668 Y-29.256
G1 X6.7 Y-29.526
G1 X6.739 Y-29.794
G1 X6.786 Y-30.062
G1 X6.841 Y-30.328
G1 X6.903 Y-30.593
G1 X6.973 Y-30.855
G1 X7.05 Y-31.116
G1 X7.135 Y-31.374
G1 X7.227 Y-31.63
G1 X7.326 Y-31.882
G1 X7.433 Y-32.132
G1 X7.546 Y-32.379
G1 X7.667 Y-32.623
G1 X7.794 Y-32.863
G1 X7.929 Y-33.099
G1 X8.07 Y-33.331
G1 X8.218 Y-33.559
G1 X8.372 Y-33.783
G1 X8.532 Y-34.002
G1 X8.699 Y-34.216
G1 X8.872 Y-34.426
G1 X9.05 Y-34.631
G1 X9.235 Y-34.83
G1 X9.425 Y-35.024
G1 X9.621 Y-35.213
G1 X9.821 Y-35.396
G1 X10.027 Y-35.573
G1 X10.238 Y-35.744
G1 X10.454 Y-35.909
G1 X10.675 Y-36.068
G1 X10.9 Y-36.22
G1 X11.129 Y-36.366
G1 X11.362 Y-36.506
G1 X11.599 Y-36.638
G1 X11.84 Y-36.764
G1 X12.085 Y-36.883
G1 X12.332 Y-36.995
G1 X12.583 Y-37.099
G1 X12.839 Y-37.199
G1 X13.098 Y-37.292
G1 X13.36 Y-37.378
G1 X13.624 Y-37.456
G1 X13.89 Y-37.526
G1 X14.158 Y-37.589
G1 X14.428 Y-37.645
G1 X14.699 Y-37.693
G1 X14.971 Y-37.733
G1 X15.244 Y-37.765
G1 X15.518 Y-37.79
G1 X15.793 Y-37.807
G1 X16.068 Y-37.816
G1 X16.343 Y-37.818
G1 X16.618 Y-37.812
G1 X16.893 Y-37.798
G1 X17.168 Y-37.776
G1 X17.441 Y-37.746
G1 X17.714 Y-37.709
G1 X17.986 Y-37.664
G1 X18.256 Y-37.612
G1 X18.524 Y-37.552
G1 X18.791 Y-37.484
G1 X19.056 Y-37.409
G1 X19.318 Y-37.326
G1 X19.579 Y-37.236
G1 X19.836 Y-37.139
G1 X20.091 Y-37.034
G1 X20.342 Y-36.923
G1 X20.591 Y-36.804
G1 X20.835 Y-36.678
G1 X21.077 Y-36.546
G1 X21.314 Y-36.406
G1 X21.547 Y-36.26
G1 X21.776 Y-36.108
G1 X22.006 Y-35.947
G1 X22.23 Y-35.779
G1 X22.45 Y-35.606
G1 X22.665 Y-35.426
G1 X22.875 Y-35.24
G1 X23.08 Y-35.049
G1 X23.279 Y-34.852
G1 X23.473 Y-34.649
G1 X23.661 Y-34.441
G1 X23.843 Y-34.228
G1 X24.019 Y-34.01
G1 X24.189 Y-33.787
G1 X24.352 Y-33.56
G1 X24.51 Y-33.328
G1 X24.66 Y-33.091
G1 X24.804 Y-32.851
G1 X24.941 Y-32.607
G1 X25.072 Y-32.359
G1 X25.195 Y-32.107
G1 X25.312 Y-31.852
G1 X25.421 Y-31.594
G1 X25.523 Y-31.333
G1 X25.617 Y-31.069
G1 X25.705 Y-30.803
G1 X25.784 Y-30.534
G1 X25.857 Y-30.263
G1 X25.921 Y-29.991
G1 X25.978 Y-29.716
G1 X26.028 Y-29.44
G1 X26.069 Y-29.163
G1 X26.103 Y-28.885
G1 X26.13 Y-28.606
G1 X26.148 Y-28.326
G1 X26.158 Y-28.046
G1 X26.161 Y-27.766
G1 X26.156 Y-27.486
G1 X26.143 Y-27.206
G1 X26.123 Y-26.927
G1 X26.094 Y-26.648
G1 X26.058 Y-26.37
G1 X26.014 Y-26.093
G1 X25.962 Y-25.818
G1 X25.903 Y-25.544
G1 X25.836 Y-25.272
G1 X25.761 Y-25.002
G1 X25.679 Y-24.734
G1 X25.59 Y-24.468
G1 X25.493 Y-24.205
G1 X25.389 Y-23.945
G1 X25.277 Y-23.688
G1 X25.159 Y-23.434
G1 X25.033 Y-23.183
G1 X24.901 Y-22.936
G1 X24.762 Y-22.693
G1 X24.616 Y-22.454
G1 X24.461 Y-22.214
G1 X24.301 Y-21.978
G1 X24.133 Y-21.747
G1 X23.96 Y-21.52
G1 X23.78 Y-21.298
G1 X23.594 Y-21.082
G1 X23.402 Y-20.871
G1 X23.204 Y-20.665
G1 X23.001 Y-20.464
G1 X22.792 Y-20.27
G1 X22.578 Y-20.081
G1 X22.359 Y-19.898
G1 X22.135 Y-19.721
G1 X21.906 Y-19.551
G1 X21.672 Y-19.387
G1 X21.434 Y-19.229
G1 X21.192 Y-19.079
G1 X20.946 Y-18.935
G1 X20.695 Y-18.797
G1 X20.441 Y-18.667
G1 X20.184 Y-18.544
G1 X19.923 Y-18.428
G1 X19.659 Y-18.32
G1 X19.392 Y-18.218
G1 X19.122 Y-18.125
G1 X18.85 Y-18.038
G1 X18.576 Y-17.959
G1 X18.3 Y-17.888
G1 X18.021 Y-17.825
G1 X17.741 Y-17.769
G1 X17.46 Y-17.721
G1 X17.177 Y-17.681
G1 X16.894 Y-17.649
G1 X16.609 Y-17.624
G1 X16.324 Y-17.608
G1 X16.039 Y-17.599
G1 X15.754
G1 X15.468 Y-17.606
G1 X15.183 Y-17.621
G1 X14.899 Y-17.644
G1 X14.615 Y-17.675
G1 X14.332 Y-17.713
G1 X14.051 Y-17.76
G1 X13.77 Y-17.814
G1 X13.492 Y-17.876
G1 X13.213 Y-17.944
G1 X12.936 Y-18.02
G1 X12.661 Y-18.103
G1 X12.388 Y-18.193
G1 X12.118 Y-18.291
G1 X11.85 Y-18.396
G1 X11.586 Y-18.509
G1 X11.325 Y-18.628
G1 X11.067 Y-18.755
G1 X10.813 Y-18.889
G1 X10.562 Y-19.029
G1 X10.315 Y-19.176
G1 X10.073 Y-19.33
G1 X9.834 Y-19.491
G1 X9.601 Y-19.658
G1 X9.371 Y-19.831
G1 X9.147 Y-20.01
G1 X8.928 Y-20.196
G1 X8.713 Y-20.387
G1 X8.504 Y-20.584
G1 X8.301 Y-20.787
G1 X8.103 Y-20.995
G1 X7.91 Y-21.208
G1 X7.724 Y-21.427
G1 X7.544 Y-21.651
G1 X7.369 Y-21.879
G1 X7.202 Y-22.112
G1 X7.04 Y-22.35
G1 X6.885 Y-22.592
G1 X6.737 Y-22.838
G1 X6.595 Y-23.088
G1 X6.46 Y-23.341
G1 X6.333 Y-23.599
G1 X6.212 Y-23.86
G1 X6.098 Y-24.123
G1 X5.992 Y-24.39
G1 X5.893 Y-24.66
G1 X5.801 Y-24.932
G1 X5.715 Y-25.211
G1 X5.636 Y-25.492
G1 X5.564 Y-25.775
G1 X5.5 Y-26.06
G1 X5.444 Y-26.346
G1 X5.396 Y-26.634
G1 X5.355 Y-26.923
G1 X5.322 Y-27.213
G1 X5.297 Y-27.504
G1 X5.28 Y-27.795
G1 X5.271 Y-28.087
G1 X5.269 Y-28.379
G1 X5.276 Y-28.671
G1 X5.29 Y-28.962
G1 X5.312 Y-29.254
G1 X5.342 Y-29.544
G1 X5.38 Y-29.833
G1 X5.425 Y-30.122
G1 X5.478 Y-30.409
G1 X5.539 Y-30.694
G1 X5.608 Y-30.978
G1 X5.684 Y-31.26
G1 X5.768 Y-31.539
G1 X5.859 Y-31.817
G1 X5.958 Y-32.091
G1 X6.064 Y-32.363
G1 X6.177 Y-32.632
G1 X6.298 Y-32.898
G1 X6.426 Y-33.16
G1 X6.56 Y-33.419
G1 X6.702 Y-33.675
G1 X6.85 Y-33.926
G1 X7.006 Y-34.173
G1 X7.167 Y-34.416
G1 X7.336 Y-34.655
G1 X7.51 Y-34.889
G1 X7.691 Y-35.118
G1 X7.878 Y-35.342
G1 X8.071 Y-35.561
G1 X8.27 Y-35.775
G1 X8.474 Y-35.983
G1 X8.684 Y-36.186
G1 X8.9 Y-36.383
G1 X9.12 Y-36.574
G1 X9.346 Y-36.759
G1 X9.576 Y-36.938
G1 X9.812 Y-37.111
G1 X10.051 Y-37.277
G1 X10.296 Y-37.437
G1 X10.544 Y-37.591
G1 X10.797 Y-37.737
G1 X11.053 Y-37.877
G1 X11.313 Y-38.009
G1 X11.577 Y-38.135
G1 X11.843 Y-38.253
G1 X12.117 Y-38.367
G1 X12.393 Y-38.474
G1 X12.673 Y-38.574
G1 X12.954 Y-38.666
G1 X13.238 Y-38.75
G1 X13.525 Y-38.827
G1 X13.813 Y-38.896
G1 X14.103 Y-38.958
G1 X14.394 Y-39.012
G1 X14.687 Y-39.057
G1 X14.981 Y-39.096
G1 X15.276 Y-39.126
G1 X15.571 Y-39.148
G1 X15.868 Y-39.163
G1 X16.164 Y-39.169
G1 X16.46 Y-39.168
G1 X16.756 Y-39.159
G1 X17.052 Y-39.141
G1 X17.348 Y-39.116
G1 X17.642 Y-39.083
G1 X17.936 Y-39.043
G1 X18.228 Y-38.994
G1 X18.519 Y-38.938
G1 X18.809 Y-38.874
G1 X19.096 Y-38.802
G1 X19.382 Y-38.723
G1 X19.665 Y-38.635
G1 X19.946 Y-38.541
G1 X20.224 Y-38.439
G1 X20.5 Y-38.33
G1 X20.772 Y-38.213
G1 X21.041 Y-38.089
G1 X21.307 Y-37.958
G1 X21.57 Y-37.82
G1 X21.828 Y-37.675
G1 X22.083 Y-37.523
G1 X22.333 Y-37.364
G1 X22.579 Y-37.199
G1 X22.821 Y-37.027
G1 X23.06 Y-36.848
G1 X23.295 Y-36.663
G1 X23.524 Y-36.472
G1 X23.749 Y-36.274
G1 X23.968 Y-36.071
G1 X24.182 Y-35.862
G1 X24.391 Y-35.648
G1 X24.593 Y-35.428
G1 X24.79 Y-35.203
G1 X24.981 Y-34.973
G1 X25.166 Y-34.738
G1 X25.345 Y-34.498
G1 X25.517 Y-34.254
G1 X25.683 Y-34.005
G1 X25.842 Y-33.752
G1 X25.994 Y-33.495
G1 X26.14 Y-33.234
G1 X26.279 Y-32.969
G1 X26.411 Y-32.701
G1 X26.536 Y-32.429
G1 X26.653 Y-32.154
G1 X26.763 Y-31.877
G1 X26.866 Y-31.596
G1 X26.962 Y-31.313
G1 X27.05 Y-31.027
G1 X27.131 Y-30.739
G1 X27.204 Y-30.449
G1 X27.27 Y-30.158
G1 X27.327 Y-29.864
G1 X27.377 Y-29.57
G1 X27.42 Y-29.274
G1 X27.454 Y-28.977
G1 X27.481 Y-28.679
G1 X27.5 Y-28.38
G1 X27.511 Y-28.082
G1 X27.514 Y-27.783
G1 X27.51 Y-27.484
G1 X27.498 Y-27.185
G1 X27.477 Y-26.887
G1 X27.449 Y-26.589
G1 X27.414 Y-26.292
G1 X27.37 Y-25.997
G1 X27.319 Y-25.702
G1 X27.26 Y-25.409
G1 X27.193 Y-25.118
G1 X27.119 Y-24.828
G1 X27.037 Y-24.541
G1 X26.947 Y-24.255
G1 X26.851 Y-23.972
G1 X26.746 Y-23.692
G1 X26.635 Y-23.415
G1 X26.516 Y-23.14
G1 X26.39 Y-22.869
G1 X26.257 Y-22.602
G1 X26.117 Y-22.337
G1 X25.97 Y-22.077
G1 X25.817 Y-21.82
G1 X25.657 Y-21.568
G1 X25.49 Y-21.318
G1 X25.317 Y-21.072
G1 X25.138 Y-20.83
G1 X24.953 Y-20.594
G1 X24.761 Y-20.362
G1 X24.564 Y-20.135
G1 X24.361 Y-19.914
G1 X24.152 Y-19.697
G1 X23.938 Y-19.486
G1 X23.718 Y-19.281
G1 X23.493 Y-19.082
G1 X23.264 Y-18.888
G1 X23.029 Y-18.7
G1 X22.789 Y-18.519
G1 X22.545 Y-18.343
G1 X22.296 Y-18.174
G1 X22.043 Y-18.012
G1 X21.786 Y-17.856
G1 X21.525 Y-17.707
G1 X21.261 Y-17.564
G1 X20.992 Y-17.429
G1 X20.721 Y-17.3
G1 X20.446 Y-17.179
G1 X20.168 Y-17.064
G1 X19.887 Y-16.957
G1 X19.604 Y-16.857
G1 X19.318 Y-16.764
G1 X19.029 Y-16.679
G1 X18.739 Y-16.601
G1 X18.447 Y-16.531
G1 X18.153 Y-16.468
G1 X17.857 Y-16.413
G1 X17.56 Y-16.366
G1 X17.262 Y-16.326
G1 X16.963 Y-16.294
G1 X16.664 Y-16.27
G1 X16.364 Y-16.253
G1 X16.063 Y-16.244
G1 X15.763 Y-16.243
G1 X15.462 Y-16.25
G1 X15.162 Y-16.264
G1 X14.862 Y-16.286
G1 X14.563 Y-16.316
G1 X14.265 Y-16.354
G1 X13.967 Y-16.399
G1 X13.672 Y-16.452
G1 X13.377 Y-16.512
G1 X13.08 Y-16.579
G1 X12.784 Y-16.654
G1 X12.49 Y-16.736
G1 X12.199 Y-16.826
G1 X11.909 Y-16.923
G1 X11.623 Y-17.028
G1 X11.339 Y-17.14
G1 X11.058 Y-17.259
G1 X10.781 Y-17.385
G1 X10.506 Y-17.519
G1 X10.235 Y-17.659
G1 X9.968 Y-17.806
G1 X9.705 Y-17.96
G1 X9.446 Y-18.121
G1 X9.191 Y-18.288
G1 X8.94 Y-18.462
G1 X8.694 Y-18.642
G1 X8.452 Y-18.828
G1 X8.216 Y-19.021
G1 X7.984 Y-19.219
G1 X7.757 Y-19.423
G1 X7.536 Y-19.634
G1 X7.321 Y-19.849
G1 X7.11 Y-20.07
G1 X6.906 Y-20.297
G1 X6.707 Y-20.528
G1 X6.515 Y-20.765
G1 X6.328 Y-21.006
G1 X6.148 Y-21.253
G1 X5.974 Y-21.503
G1 X5.807 Y-21.758
G1 X5.646 Y-22.017
G1 X5.492 Y-22.281
G1 X5.345 Y-22.548
G1 X5.205 Y-22.819
G1 X5.071 Y-23.093
G1 X4.945 Y-23.371
G1 X4.826 Y-23.651
G1 X4.714 Y-23.935
G1 X4.609 Y-24.222
G1 X4.509 Y-24.515
G1 X4.417 Y-24.811
G1 X4.333 Y-25.109
G1 X4.256 Y-25.41
G1 X4.186 Y-25.712
G1 X4.125 Y-26.016
G1 X4.071 Y-26.321
G1 X4.025 Y-26.628
G1 X3.986 Y-26.935
G1 X3.956 Y-27.244
G1 X3.933 Y-27.553
G1 X3.918 Y-27.863
G1 X3.912 Y-28.173
G1 X3.913 Y-28.483
G1 X3.921 Y-28.793
G1 X3.938 Y-29.102
G1 X3.963 Y-29.411
G1 X3.995 Y-29.719
G1 X4.036 Y-30.027
G1 X4.084 Y-30.333
G1 X4.139 Y-30.638
G1 X4.203 Y-30.941
G1 X4.274 Y-31.243
G1 X4.353 Y-31.543
G1 X4.44 Y-31.841
G1 X4.534 Y-32.136
G1 X4.635 Y-32.429
G1 X4.744 Y-32.719
G1 X4.861 Y-33.007
G1 X4.984 Y-33.291
G1 X5.115 Y-33.572
G1 X5.253 Y-33.85
G1 X5.398 Y-34.124
G1 X5.549 Y-34.394
G1 X5.708 Y-34.661
G1 X5.873 Y-34.923
G1 X6.045 Y-35.181
G1 X6.224 Y-35.434
G1 X6.409 Y-35.683
G1 X6.6 Y-35.927
G1 X6.797 Y-36.166
G1 X7 Y-36.401
G1 X7.209 Y-36.629
G1 X7.424 Y-36.853
G1 X7.645 Y-37.071
G1 X7.871 Y-37.283
G1 X8.102 Y-37.489
G1 X8.339 Y-37.69
G1 X8.58 Y-37.884
G1 X8.826 Y-38.073
G1 X9.077 Y-38.254
G1 X9.333 Y-38.43
G1 X9.593 Y-38.599
G1 X9.857 Y-38.761
G1 X10.125 Y-38.916
G1 X10.398 Y-39.065
G1 X10.673 Y-39.207
G1 X10.953 Y-39.341
G1 X11.239 Y-39.472
G1 X11.529 Y-39.594
G1 X11.822 Y-39.71
G1 X12.118 Y-39.818
G1 X12.417 Y-39.919
G1 X12.718 Y-40.012
G1 X13.021 Y-40.098
G1 X13.326 Y-40.176
G1 X13.633 Y-40.246
G1 X13.942 Y-40.308
G1 X14.252 Y-40.363
G1 X14.564 Y-40.41
G1 X14.876 Y-40.449
G1 X15.19 Y-40.48
G1 X15.504 Y-40.503
G1 X15.819 Y-40.518
G1 X16.134 Y-40.525
G1 X16.449
G1 X16.764 Y-40.516
G1 X17.078 Y-40.5
G1 X17.392 Y-40.475
G1 X17.706 Y-40.443
G1 X18.018 Y-40.403
G1 X18.33 Y-40.355
G1 X18.64 Y-40.299
G1 X18.948 Y-40.235
G1 X19.255 Y-40.163
G1 X19.56 Y-40.084
G1 X19.863 Y-39.997
G1 X20.163 Y-39.903
G1 X20.461 Y-39.801
G1 X20.757 Y-39.692
G1 X21.049 Y-39.575
G1 X21.339 Y-39.451
G1 X21.625 Y-39.319
G1 X21.908 Y-39.181
G1 X22.187 Y-39.035
G1 X22.463 Y-38.882
G1 X22.734 Y-38.723
G1 X23.002 Y-38.556
G1 X23.265 Y-38.383
G1 X23.524 Y-38.204
G1 X23.778 Y-38.017
G1 X24.028 Y-37.825
G1 X24.272 Y-37.626
