;Fusion 360 CAM 2.0.7046
; Posts processor: DIYCNC_Marlin20.cps
; Gcode generated: Sat Dec 28 10:26:06 2019 GMT
; Document: garagePCB v4
; Setup: Setup1
; 
; Ranges table:
; X: Min=0.41 Max=49.522 Size=49.113
; Y: Min=-0.573 Max=34.886 Size=35.458
; Z: Min=0 Max=10 Size=10
; 
; Tools table:
; T1 D=3.175 CR=0 TAPER=45deg - ZMIN=0 - chamfer mill 

; *** START begin ***
G90
G21
M84 S0
G92 X0 Y0 Z0
; *** START end ***

; *** SECTION begin ***
;Engrave2 - Milling - Tool: 1 -  chamfer mill
; X Min: 0.41 - X Max: 49.522
; Y Min: -0.573 - Y Max: 34.886
; Z Min: 0 - Z Max: 10
; COMMAND_START_SPINDLE
; COMMAND_SPINDLE_CLOCKWISE
;M0 Turn ON 24000RPM
; COMMAND_COOLANT_ON
;M117  Engrave2
G0 Z10 F300
G0 X43.422 Y8.921 F2500
G0 Z5 F300
; MOVEMENT_LEAD_IN
G1 Z0 F480
; MOVEMENT_CUTTING
G1 X43.425 Y8.916 F2100
G1 X43.428 Y8.912
G1 X43.43 Y8.907
G1 X43.433 Y8.902
G1 X43.436 Y8.898
G1 X43.439 Y8.894
G1 X43.441 Y8.89
G1 X43.444 Y8.886
G1 X43.445 Y8.885
G1 X43.448 Y8.881
G1 X43.449 Y8.879
G1 X43.453 Y8.874
G1 X43.454 Y8.873
G1 X43.457 Y8.867
G1 X43.458 Y8.866
G1 X43.461 Y8.86
G1 X43.465 Y8.854
G1 Y8.853
G1 X43.469 Y8.847
G1 Y8.846
G1 X43.472 Y8.84
G1 X43.473 Y8.838
G1 X43.476 Y8.832
G1 X43.479 Y8.826
G1 X43.48 Y8.824
G1 X43.482 Y8.818
G1 X43.483 Y8.817
G1 X43.485 Y8.811
G1 X43.486 Y8.809
G1 X43.488 Y8.803
G1 Y8.802
G1 X43.491 Y8.796
G1 Y8.795
G1 X43.493 Y8.789
G1 Y8.788
G1 X43.495 Y8.781
G1 X43.496 Y8.78
G1 X43.498 Y8.773
G1 Y8.772
G1 X43.5 Y8.766
G1 Y8.765
G1 X43.501 Y8.758
G1 X43.503 Y8.752
G1 Y8.75
G1 X43.504 Y8.744
G1 Y8.742
G1 X43.505 Y8.737
G1 Y8.735
G1 X43.506 Y8.729
G1 Y8.728
G1 Y8.722
G1 X43.507 Y8.72
G1 Y8.715
G1 Y8.711
G1 Y8.707
G1 Y8.703
G1 X43.508 Y8.697
G1 X43.509 Y8.692
G1 X43.51 Y8.687
G1 X43.511 Y8.681
G1 X43.512 Y8.675
G1 X43.514 Y8.668
G1 X43.515 Y8.662
G1 X43.517 Y8.655
G1 X43.519 Y8.648
G1 X43.522 Y8.641
G1 X43.524 Y8.634
G1 X43.526 Y8.627
G1 X43.529 Y8.62
G1 X43.531 Y8.613
G1 X43.534 Y8.606
G1 X43.536 Y8.6
G1 X43.539 Y8.593
G1 X43.542 Y8.586
G1 X43.545 Y8.58
G1 X43.548 Y8.574
G1 X43.551 Y8.568
G1 X43.554 Y8.561
G1 X43.555 Y8.56
G1 X43.559 Y8.552
G1 X43.562 Y8.544
G1 X43.563 Y8.543
G1 X43.567 Y8.534
G1 X43.57 Y8.525
G1 X43.571
G1 X43.574 Y8.515
G1 X43.578 Y8.505
G1 Y8.504
G1 X43.582 Y8.494
G1 X43.585 Y8.484
G1 X43.586 Y8.483
G1 X43.589 Y8.473
G1 X43.593 Y8.462
G1 X43.596 Y8.451
G1 Y8.45
G1 X43.6 Y8.439
G1 X43.603 Y8.428
G1 X43.606 Y8.416
G1 X43.607
G1 X43.61 Y8.404
G1 X43.613 Y8.393
G1 X43.615 Y8.381
G1 X43.616
G1 X43.618 Y8.37
G1 Y8.369
G1 X43.621 Y8.358
G1 X43.623 Y8.347
G1 X43.626 Y8.336
G1 Y8.335
G1 X43.628 Y8.325
G1 Y8.324
G1 X43.63 Y8.314
G1 X43.634 Y8.292
G1 X43.636 Y8.28
G1 X43.642 Y8.298
G1 X43.65 Y8.32
G1 X43.658 Y8.345
G1 X43.711 Y8.513
G1 X43.718 Y8.527
G1 X43.729 Y8.538
G1 X43.743 Y8.546
G1 X43.759 Y8.548
G1 X43.972
G1 X43.973
G1 X44.007 Y8.547
G1 X44.01
G1 X44.041 Y8.545
G1 X44.044
G1 X44.073 Y8.542
G1 X44.076
G1 X44.102 Y8.537
G1 X44.105
G1 X44.129 Y8.532
G1 X44.132 Y8.531
G1 X44.153 Y8.525
G1 X44.157 Y8.524
G1 X44.176 Y8.517
G1 X44.18 Y8.515
G1 X44.195 Y8.508
G1 X44.2 Y8.505
G1 X44.213 Y8.497
G1 X44.219 Y8.493
G1 X44.229 Y8.485
G1 X44.236 Y8.478
G1 X44.243 Y8.469
G1 X44.25 Y8.46
G1 X44.254 Y8.451
G1 X44.258 Y8.437
G1 X44.26 Y8.428
G1 Y8.411
G1 X44.258 Y8.402
G1 X44.253 Y8.387
G1 X44.249 Y8.379
G1 X44.242 Y8.369
G1 X44.234 Y8.36
G1 X44.228 Y8.354
G1 X44.217 Y8.345
G1 X44.211 Y8.341
G1 X44.197 Y8.333
G1 X44.192 Y8.331
G1 X44.175 Y8.324
G1 X44.171 Y8.322
G1 X44.151 Y8.315
G1 X44.148 Y8.314
G1 X44.124 Y8.308
G1 X44.121
G1 X44.095 Y8.303
G1 X44.092 Y8.302
G1 X44.062 Y8.298
G1 X44.06
G1 X44.026 Y8.295
G1 X44.025
G1 X43.892 Y8.287
G1 X43.802 Y8.085
G1 Y8.084
G1 X43.785 Y8.046
G1 X43.784
G1 X43.768 Y8.011
G1 X43.767 Y8.01
G1 X43.751 Y7.979
G1 Y7.977
G1 X43.735 Y7.95
G1 X43.734 Y7.949
G1 X43.72 Y7.925
G1 X43.718 Y7.922
G1 X43.704 Y7.902
G1 X43.702 Y7.899
G1 X43.689 Y7.883
G1 X43.685 Y7.879
G1 X43.672 Y7.866
G1 X43.666 Y7.861
G1 X43.654 Y7.852
G1 X43.645 Y7.847
G1 X43.633 Y7.842
G1 X43.619 Y7.838
G1 X43.607 Y7.836
G1 X43.591 Y7.837
G1 X43.58 Y7.839
G1 X43.566 Y7.844
G1 X43.555 Y7.85
G1 X43.545 Y7.857
G1 X43.534 Y7.866
G1 X43.528 Y7.873
G1 X43.517 Y7.886
G1 X43.514 Y7.891
G1 X43.503 Y7.908
G1 X43.501 Y7.912
G1 X43.49 Y7.933
G1 X43.489 Y7.936
G1 X43.478 Y7.961
G1 X43.477 Y7.964
G1 X43.466 Y7.993
G1 Y7.994
G1 X43.455 Y8.027
G1 X43.454 Y8.028
G1 X43.443 Y8.065
G1 Y8.066
G1 X43.431 Y8.107
G1 Y8.108
G1 X43.42 Y8.152
G1 X43.419 Y8.153
G1 X43.407 Y8.201
G1 X43.404 Y8.214
G1 X43.401 Y8.226
G1 X43.398 Y8.239
G1 X43.395 Y8.251
G1 X43.391 Y8.265
G1 X43.388 Y8.278
G1 X43.384 Y8.291
G1 X43.38 Y8.304
G1 X43.376 Y8.317
G1 X43.372 Y8.33
G1 X43.368 Y8.343
G1 X43.364 Y8.356
G1 X43.361 Y8.368
G1 X43.357 Y8.38
G1 X43.353 Y8.392
G1 X43.349 Y8.404
G1 X43.345 Y8.415
G1 X43.341 Y8.426
G1 X43.338 Y8.436
G1 X43.334 Y8.446
G1 X43.331 Y8.455
G1 X43.327 Y8.464
G1 X43.324 Y8.471
G1 X43.321 Y8.479
G1 X43.318 Y8.486
G1 X43.315 Y8.494
G1 X43.311 Y8.502
G1 X43.308 Y8.51
G1 X43.306 Y8.516
G1 X43.305 Y8.514
G1 Y8.513
G1 X43.302 Y8.504
G1 X43.299 Y8.496
G1 X43.298 Y8.494
G1 X43.295 Y8.486
G1 X43.292 Y8.477
G1 Y8.476
G1 X43.289 Y8.468
G1 X43.288 Y8.467
G1 X43.285 Y8.459
G1 Y8.458
G1 X43.281 Y8.451
G1 X43.278 Y8.443
G1 X43.277 Y8.441
G1 X43.273 Y8.434
G1 X43.265 Y8.417
G1 X43.256 Y8.399
G1 X43.248 Y8.382
G1 X43.24 Y8.365
G1 X43.233 Y8.349
G1 X43.225 Y8.332
G1 X43.218 Y8.316
G1 X43.211 Y8.3
G1 X43.205 Y8.283
G1 X43.198 Y8.267
G1 X43.192 Y8.251
G1 X43.186 Y8.235
G1 X43.179 Y8.218
G1 X43.173 Y8.201
G1 X43.168 Y8.184
G1 X43.162 Y8.167
G1 X43.156 Y8.15
G1 X43.15 Y8.132
G1 X43.145 Y8.114
G1 X43.139 Y8.095
G1 X43.134 Y8.076
G1 X43.128 Y8.056
G1 X43.122 Y8.036
G1 X43.116 Y8.015
G1 Y8.014
G1 X43.107 Y7.983
G1 Y7.981
G1 X43.097 Y7.952
G1 X43.096 Y7.95
G1 X43.087 Y7.925
G1 X43.086 Y7.922
G1 X43.076 Y7.9
G1 X43.074 Y7.897
G1 X43.064 Y7.878
G1 X43.062 Y7.874
G1 X43.051 Y7.858
G1 X43.048 Y7.853
G1 X43.038 Y7.841
G1 X43.033 Y7.835
G1 X43.022 Y7.826
G1 X43.014 Y7.82
G1 X43.004 Y7.813
G1 X42.993 Y7.808
G1 X42.982 Y7.805
G1 X42.968 Y7.803
G1 X42.957 Y7.802
G1 X42.944 Y7.804
G1 X42.933 Y7.806
G1 X42.921 Y7.81
G1 X42.91 Y7.816
G1 X42.902 Y7.822
G1 X42.891 Y7.83
G1 X42.886 Y7.835
G1 X42.875 Y7.847
G1 X42.871 Y7.852
G1 X42.86 Y7.867
G1 X42.857 Y7.87
G1 X42.846 Y7.889
G1 X42.845 Y7.891
G1 X42.834 Y7.913
G1 X42.832 Y7.915
G1 X42.822 Y7.939
G1 X42.821 Y7.941
G1 X42.81 Y7.969
G1 X42.809 Y7.97
G1 X42.799 Y8.001
G1 X42.798 Y8.002
G1 X42.788 Y8.035
G1 X42.787 Y8.037
G1 X42.777 Y8.073
G1 X42.776 Y8.074
G1 X42.766 Y8.113
G1 Y8.114
G1 X42.763 Y8.127
G1 X42.76 Y8.14
G1 X42.756 Y8.153
G1 X42.752 Y8.166
G1 X42.749 Y8.179
G1 X42.745 Y8.192
G1 X42.741 Y8.205
G1 X42.737 Y8.218
G1 X42.733 Y8.231
G1 X42.728 Y8.243
G1 X42.724 Y8.255
G1 X42.72 Y8.267
G1 X42.716 Y8.278
G1 X42.712 Y8.289
G1 X42.708 Y8.3
G1 X42.704 Y8.31
G1 X42.7 Y8.319
G1 X42.697 Y8.328
G1 X42.693 Y8.336
G1 X42.689 Y8.343
G1 X42.686 Y8.35
G1 X42.683 Y8.355
G1 X42.681 Y8.36
G1 X42.678 Y8.364
G1 X42.675 Y8.369
G1 X42.674 Y8.371
G1 X42.671 Y8.377
G1 X42.67 Y8.378
G1 X42.667 Y8.384
G1 X42.666 Y8.386
G1 X42.663 Y8.392
G1 X42.662 Y8.394
G1 X42.659 Y8.401
G1 X42.656 Y8.408
G1 Y8.41
G1 X42.653 Y8.417
G1 X42.652 Y8.418
G1 X42.65 Y8.426
G1 Y8.427
G1 X42.647 Y8.435
G1 Y8.436
G1 X42.644 Y8.444
G1 Y8.445
G1 X42.642 Y8.453
G1 Y8.454
G1 X42.639 Y8.462
G1 Y8.464
G1 X42.637 Y8.472
G1 Y8.473
G1 X42.635 Y8.482
G1 Y8.483
G1 Y8.484
G1 X42.634 Y8.481
G1 Y8.48
G1 X42.632 Y8.469
G1 Y8.468
G1 X42.629 Y8.457
G1 X42.626 Y8.445
G1 Y8.444
G1 X42.624 Y8.433
G1 X42.623
G1 X42.621 Y8.421
G1 X42.62 Y8.42
G1 X42.617 Y8.408
G1 X42.614 Y8.396
G1 Y8.395
G1 X42.61 Y8.384
G1 Y8.383
G1 X42.607 Y8.371
G1 X42.603 Y8.359
G1 X42.599 Y8.347
G1 Y8.346
G1 X42.595 Y8.335
G1 Y8.334
G1 X42.591 Y8.323
G1 X42.587 Y8.312
G1 Y8.311
G1 X42.583 Y8.3
G1 X42.579 Y8.289
G1 X42.578
G1 X42.574 Y8.278
G1 X42.57 Y8.268
G1 Y8.267
G1 X42.565 Y8.257
G1 X42.561 Y8.248
G1 Y8.247
G1 X42.557 Y8.239
G1 X42.556 Y8.238
G1 X42.553 Y8.23
G1 X42.552 Y8.229
G1 X42.548 Y8.222
G1 X42.544 Y8.214
G1 X42.54 Y8.206
G1 X42.536 Y8.198
G1 X42.532 Y8.19
G1 X42.531 Y8.189
G1 X42.527 Y8.181
G1 X42.523 Y8.173
G1 X42.518 Y8.164
G1 X42.514 Y8.156
G1 X42.51 Y8.148
G1 Y8.147
G1 X42.505 Y8.139
G1 X42.501 Y8.131
G1 Y8.13
G1 X42.497 Y8.123
G1 X42.493 Y8.115
G1 X42.489 Y8.107
G1 X42.485 Y8.099
G1 X42.481 Y8.092
G1 X42.477 Y8.085
G1 Y8.084
G1 X42.473 Y8.078
G1 X42.47 Y8.071
G1 X42.467 Y8.065
G1 X42.464 Y8.059
G1 X42.461 Y8.054
G1 Y8.053
G1 X42.458 Y8.048
G1 X42.443 Y8.019
G1 X42.429 Y7.992
G1 X42.416 Y7.967
G1 X42.405 Y7.945
G1 X42.394 Y7.925
G1 Y7.924
G1 X42.384 Y7.907
G1 Y7.906
G1 X42.375 Y7.891
G1 Y7.89
G1 X42.367 Y7.876
G1 X42.36 Y7.864
G1 X42.359 Y7.862
G1 X42.352 Y7.853
G1 X42.351 Y7.85
G1 X42.345 Y7.843
G1 X42.342 Y7.84
G1 X42.337 Y7.834
G1 X42.333 Y7.83
G1 X42.328 Y7.825
G1 X42.321 Y7.82
G1 X42.317 Y7.817
G1 X42.307 Y7.812
G1 X42.302 Y7.81
G1 X42.289 Y7.807
G1 X42.285
G1 X42.271 Y7.808
G1 X42.267
G1 X42.256 Y7.812
G1 X42.251 Y7.814
G1 X42.244 Y7.818
G1 X42.24 Y7.821
G1 X42.236 Y7.824
G1 X42.231 Y7.828
G1 X42.228 Y7.83
G1 X42.223 Y7.834
G1 X42.221 Y7.836
G1 X42.216 Y7.842
G1 X42.21 Y7.848
G1 X42.203 Y7.855
G1 X42.202 Y7.856
G1 X42.198 Y7.86
G1 X42.196 Y7.862
G1 X42.192 Y7.867
G1 X42.191 Y7.868
G1 X42.187 Y7.873
G1 X42.186 Y7.875
G1 X42.182 Y7.881
G1 X42.181 Y7.882
G1 X42.177 Y7.888
G1 X42.176 Y7.889
G1 X42.173 Y7.896
G1 X42.172 Y7.897
G1 X42.168 Y7.904
G1 Y7.905
G1 X42.164 Y7.912
G1 X42.163 Y7.913
G1 X42.16 Y7.92
G1 X42.159 Y7.921
G1 X42.155 Y7.929
G1 Y7.93
G1 X42.151 Y7.938
G1 Y7.939
G1 X42.147 Y7.947
G1 Y7.948
G1 X42.144 Y7.957
G1 X42.143
G1 X42.14 Y7.966
G1 X42.139 Y7.967
G1 X42.136 Y7.976
G1 Y7.977
G1 X42.133 Y7.986
G1 X42.129 Y7.995
G1 Y7.997
G1 X42.126 Y8.006
G1 X42.123 Y8.016
G1 Y8.017
G1 X42.12 Y8.026
G1 Y8.027
G1 X42.118 Y8.036
G1 X42.117 Y8.037
G1 X42.115 Y8.047
G1 X42.113 Y8.056
G1 Y8.058
G1 X42.111 Y8.067
G1 X42.109 Y8.076
G1 X42.107 Y8.084
G1 X42.105 Y8.093
G1 X42.103 Y8.102
G1 X42.101 Y8.111
G1 X42.098 Y8.12
G1 X42.095 Y8.13
G1 X42.093 Y8.139
G1 X42.09 Y8.148
G1 X42.087 Y8.157
G1 X42.084 Y8.166
G1 X42.081 Y8.175
G1 X42.077 Y8.183
G1 X42.074 Y8.192
G1 X42.071 Y8.2
G1 X42.068 Y8.207
G1 X42.064 Y8.215
G1 X42.061 Y8.222
G1 X42.058 Y8.229
G1 X42.054 Y8.235
G1 X42.052 Y8.24
G1 X42.049 Y8.245
G1 X42.046 Y8.25
G1 X42.043 Y8.254
G1 X42.04 Y8.259
G1 X42.038 Y8.261
G1 X42.035 Y8.267
G1 X42.031 Y8.273
G1 X42.03 Y8.275
G1 X42.027 Y8.281
G1 X42.026 Y8.283
G1 X42.023 Y8.289
G1 Y8.29
G1 X42.02 Y8.297
G1 X42.019 Y8.298
G1 X42.016 Y8.305
G1 X42.015 Y8.306
G1 X42.013 Y8.314
G1 X42.01 Y8.321
G1 X42.009 Y8.323
G1 X42.007 Y8.33
G1 X42.006 Y8.331
G1 X42.004 Y8.339
G1 X42.003 Y8.34
G1 X42.001 Y8.348
G1 X41.999 Y8.356
G1 X41.998 Y8.357
G1 X41.996 Y8.365
G1 Y8.366
G1 X41.994 Y8.374
G1 X41.992 Y8.382
G1 Y8.384
G1 X41.99 Y8.392
G1 X41.989 Y8.4
G1 Y8.401
G1 X41.987 Y8.409
G1 Y8.41
G1 X41.986 Y8.418
G1 Y8.42
G1 X41.985 Y8.427
G1 Y8.428
G1 Y8.435
G1 Y8.436
G1 X41.984 Y8.443
G1 Y8.445
G1 Y8.452
G1 Y8.476
G1 X41.983 Y8.497
G1 X41.981 Y8.517
G1 X41.979 Y8.534
G1 X41.976 Y8.55
G1 X41.973 Y8.563
G1 X41.97 Y8.574
G1 X41.966 Y8.582
G1 X41.965 Y8.584
G1 X41.958 Y8.577
G1 X41.951 Y8.568
G1 X41.944 Y8.556
G1 X41.935 Y8.542
G1 X41.926 Y8.524
G1 X41.925 Y8.523
G1 X41.914 Y8.503
G1 X41.911 Y8.499
G1 X41.898 Y8.48
G1 X41.895 Y8.476
G1 X41.88 Y8.459
G1 X41.877 Y8.455
G1 X41.86 Y8.439
G1 X41.857 Y8.436
G1 X41.839 Y8.421
G1 X41.836 Y8.419
G1 X41.817 Y8.406
G1 X41.814 Y8.404
G1 X41.794 Y8.391
G1 X41.791 Y8.39
G1 X41.77 Y8.379
G1 X41.767 Y8.378
G1 X41.745 Y8.368
G1 X41.742 Y8.367
G1 X41.721 Y8.359
G1 X41.718 Y8.358
G1 X41.696 Y8.352
G1 X41.693 Y8.351
G1 X41.671 Y8.347
G1 X41.668 Y8.346
G1 X41.647 Y8.343
G1 X41.643
G1 X41.622 Y8.342
G1 X41.618 Y8.341
G1 X41.599 Y8.342
G1 X41.594
G1 X41.575 Y8.345
G1 X41.57 Y8.346
G1 X41.553 Y8.35
G1 X41.547 Y8.351
G1 X41.531 Y8.357
G1 X41.524 Y8.361
G1 X41.51 Y8.368
G1 X41.503 Y8.373
G1 X41.492 Y8.383
G1 X41.485 Y8.39
G1 X41.475 Y8.402
G1 X41.469 Y8.41
G1 X41.462 Y8.424
G1 X41.459 Y8.433
G1 X41.454 Y8.449
G1 X41.452 Y8.458
G1 X41.451 Y8.476
G1 Y8.481
G1 Y8.488
G1 Y8.49
G1 Y8.496
G1 X41.452 Y8.499
G1 Y8.505
G1 X41.453 Y8.507
G1 X41.454 Y8.513
G1 Y8.516
G1 X41.455 Y8.521
G1 X41.457 Y8.525
G1 X41.458 Y8.53
G1 X41.46 Y8.534
G1 X41.462 Y8.538
G1 X41.464 Y8.542
G1 X41.466 Y8.546
G1 X41.468 Y8.55
G1 X41.471 Y8.554
G1 X41.474 Y8.559
G1 X41.477 Y8.563
G1 X41.481 Y8.566
G1 X41.484 Y8.569
G1 X41.488 Y8.573
G1 X41.492 Y8.576
G1 X41.495 Y8.578
G1 X41.5 Y8.581
G1 X41.503 Y8.583
G1 X41.508 Y8.586
G1 X41.512 Y8.587
G1 X41.516 Y8.589
G1 X41.52 Y8.591
G1 X41.525 Y8.592
G1 X41.528 Y8.593
G1 X41.534 Y8.595
G1 X41.537 Y8.596
G1 X41.543 Y8.597
G1 X41.545
G1 X41.552 Y8.598
G1 X41.554 Y8.599
G1 X41.561 Y8.6
G1 X41.563
G1 X41.571
G1 X41.572
G1 X41.581 Y8.601
G1 X41.582
G1 X41.591
G1 X41.592
G1 X41.6
G1 X41.612 Y8.602
G1 X41.622 Y8.603
G1 X41.631 Y8.604
G1 X41.639 Y8.606
G1 X41.646 Y8.608
G1 X41.653 Y8.611
G1 X41.659 Y8.615
G1 X41.665 Y8.619
G1 X41.671 Y8.623
G1 X41.677 Y8.629
G1 X41.683 Y8.636
G1 X41.689 Y8.643
G1 X41.695 Y8.652
G1 X41.701 Y8.663
G1 X41.707 Y8.674
G1 X41.713 Y8.688
G1 X41.718 Y8.702
G1 X41.724 Y8.718
G1 X41.73 Y8.736
G1 X41.735 Y8.754
G1 X41.741 Y8.775
G1 X41.746 Y8.797
G1 X41.751 Y8.82
G1 X41.756 Y8.846
G1 Y8.847
G1 X41.762 Y8.874
G1 X41.763 Y8.877
G1 X41.771 Y8.903
G1 X41.772 Y8.906
G1 X41.78 Y8.93
G1 X41.781 Y8.933
G1 X41.791 Y8.956
G1 X41.792 Y8.959
G1 X41.803 Y8.98
G1 X41.805 Y8.983
G1 X41.816 Y9.003
G1 X41.818 Y9.006
G1 X41.83 Y9.023
G1 X41.832 Y9.026
G1 X41.844 Y9.042
G1 X41.847 Y9.045
G1 X41.86 Y9.059
G1 X41.863 Y9.062
G1 X41.876 Y9.074
G1 X41.88 Y9.077
G1 X41.893 Y9.087
G1 X41.898 Y9.09
G1 X41.911 Y9.097
G1 X41.917 Y9.1
G1 X41.929 Y9.106
G1 X41.937 Y9.108
G1 X41.949 Y9.111
G1 X41.958 Y9.112
G1 X41.97 Y9.113
G1 X41.981
G1 X41.992 Y9.111
G1 X42.003 Y9.108
G1 X42.014 Y9.103
G1 X42.024 Y9.098
G1 X42.034 Y9.091
G1 X42.042 Y9.083
G1 X42.05 Y9.074
G1 X42.056 Y9.066
G1 X42.063 Y9.054
G1 X42.067 Y9.047
G1 X42.073 Y9.031
G1 X42.075 Y9.025
G1 X42.079 Y9.007
G1 X42.08 Y9.002
G1 X42.083 Y8.981
G1 Y8.976
G1 X42.084 Y8.952
G1 Y8.951
G1 Y8.945
G1 X42.085 Y8.94
G1 Y8.934
G1 X42.086 Y8.927
G1 Y8.921
G1 X42.087 Y8.915
G1 X42.088 Y8.908
G1 X42.09 Y8.901
G1 X42.091 Y8.894
G1 X42.093 Y8.888
G1 X42.095 Y8.881
G1 X42.097 Y8.874
G1 X42.099 Y8.867
G1 X42.101 Y8.861
G1 X42.103 Y8.854
G1 X42.105 Y8.848
G1 X42.108 Y8.842
G1 X42.11 Y8.837
G1 X42.113 Y8.831
G1 X42.115 Y8.826
G1 X42.117 Y8.822
G1 X42.12 Y8.817
G1 X42.122 Y8.813
G1 X42.125 Y8.809
G1 X42.128 Y8.804
G1 X42.13 Y8.801
G1 X42.134 Y8.795
G1 Y8.794
G1 X42.138 Y8.787
G1 X42.139 Y8.785
G1 X42.143 Y8.777
G1 Y8.776
G1 X42.147 Y8.767
G1 X42.148
G1 X42.152 Y8.757
G1 X42.156 Y8.747
G1 Y8.746
G1 X42.161 Y8.735
G1 X42.165 Y8.723
G1 X42.169 Y8.711
G1 X42.174 Y8.699
G1 Y8.698
G1 X42.178 Y8.685
G1 X42.183 Y8.672
G1 Y8.671
G1 X42.187 Y8.658
G1 Y8.657
G1 X42.191 Y8.643
G1 X42.195 Y8.629
G1 X42.196
G1 X42.2 Y8.614
G1 X42.204 Y8.6
G1 Y8.599
G1 X42.208 Y8.584
G1 X42.211 Y8.569
G1 X42.215 Y8.554
G1 X42.219 Y8.539
G1 Y8.538
G1 X42.222 Y8.524
G1 Y8.523
G1 X42.225 Y8.509
G1 X42.236 Y8.461
G1 X42.246 Y8.418
G1 X42.257 Y8.38
G1 X42.267 Y8.346
G1 X42.278 Y8.318
G1 X42.288 Y8.295
G1 X42.297 Y8.278
G1 X42.303 Y8.269
G1 X42.305 Y8.272
G1 X42.314 Y8.286
G1 X42.323 Y8.306
G1 X42.333 Y8.332
G1 X42.343 Y8.362
G1 X42.353 Y8.398
G1 X42.363 Y8.438
G1 X42.373 Y8.483
G1 X42.383 Y8.532
G1 X42.393 Y8.586
G1 X42.394 Y8.596
G1 X42.395 Y8.597
G1 X42.396 Y8.608
G1 X42.397
G1 X42.399 Y8.618
G1 Y8.619
G1 X42.401 Y8.629
G1 X42.403 Y8.639
G1 X42.405 Y8.649
G1 Y8.65
G1 X42.408 Y8.659
G1 X42.41 Y8.669
G1 X42.413 Y8.678
G1 Y8.679
G1 X42.415 Y8.687
G1 Y8.688
G1 X42.418 Y8.696
G1 Y8.697
G1 X42.421 Y8.705
G1 Y8.706
G1 X42.423 Y8.713
G1 X42.426 Y8.72
G1 Y8.722
G1 X42.429 Y8.729
G1 Y8.73
G1 X42.432 Y8.736
G1 Y8.737
G1 X42.435 Y8.742
G1 Y8.744
G1 X42.438 Y8.749
G1 X42.439 Y8.751
G1 X42.441 Y8.756
G1 X42.442 Y8.758
G1 X42.445 Y8.762
G1 Y8.763
G1 X42.448 Y8.767
G1 X42.451 Y8.771
G1 X42.453 Y8.774
G1 X42.456 Y8.777
G1 X42.458 Y8.78
G1 X42.463 Y8.785
G1 X42.464
G1 X42.465 Y8.788
G1 X42.467 Y8.791
G1 X42.468 Y8.795
G1 X42.471 Y8.8
G1 X42.473 Y8.805
G1 X42.475 Y8.811
G1 X42.477 Y8.817
G1 X42.479 Y8.824
G1 X42.481 Y8.831
G1 X42.483 Y8.839
G1 X42.485 Y8.846
G1 X42.487 Y8.854
G1 X42.49 Y8.863
G1 X42.492 Y8.871
G1 X42.493 Y8.879
G1 X42.495 Y8.888
G1 X42.497 Y8.897
G1 X42.499 Y8.906
G1 X42.5 Y8.916
G1 X42.501 Y8.917
G1 X42.505 Y8.937
G1 Y8.94
G1 X42.51 Y8.959
G1 X42.511 Y8.962
G1 X42.517 Y8.979
G1 X42.518 Y8.982
G1 X42.525 Y8.998
G1 X42.526 Y9.001
G1 X42.534 Y9.016
G1 X42.535 Y9.019
G1 X42.543 Y9.033
G1 X42.546 Y9.036
G1 X42.554 Y9.048
G1 X42.556 Y9.051
G1 X42.565 Y9.062
G1 X42.568 Y9.065
G1 X42.577 Y9.074
G1 X42.581 Y9.077
G1 X42.59 Y9.085
G1 X42.595 Y9.088
G1 X42.604 Y9.094
G1 X42.61 Y9.097
G1 X42.619 Y9.102
G1 X42.626 Y9.104
G1 X42.635 Y9.107
G1 X42.644 Y9.108
G1 X42.653 Y9.109
G1 X42.663
G1 X42.671
G1 X42.682 Y9.106
G1 X42.69 Y9.104
G1 X42.7 Y9.099
G1 X42.707 Y9.095
G1 X42.716 Y9.089
G1 X42.722 Y9.083
G1 X42.729 Y9.075
G1 X42.735 Y9.067
G1 X42.739 Y9.061
G1 X42.744 Y9.051
G1 X42.747 Y9.044
G1 X42.751 Y9.032
G1 X42.753 Y9.026
G1 X42.756 Y9.012
G1 X42.757 Y9.007
G1 X42.759 Y8.991
G1 Y8.988
G1 X42.76 Y8.969
G1 Y8.968
G1 Y8.963
G1 Y8.958
G1 Y8.954
G1 X42.761 Y8.949
G1 Y8.944
G1 X42.762 Y8.939
G1 Y8.935
G1 X42.763 Y8.93
G1 X42.764 Y8.925
G1 X42.765 Y8.921
G1 X42.766 Y8.917
G1 X42.767 Y8.912
G1 X42.768 Y8.908
G1 X42.769 Y8.904
G1 X42.77 Y8.901
G1 X42.772 Y8.897
G1 X42.773 Y8.894
G1 X42.774 Y8.891
G1 X42.775 Y8.889
G1 X42.776 Y8.887
G1 X42.777 Y8.886
G1 Y8.885
G1 X42.778 Y8.884
G1 X42.779 Y8.883
G1 Y8.882
G1 X42.782 Y8.879
G1 X42.784 Y8.876
G1 X42.786 Y8.873
G1 X42.788 Y8.87
G1 X42.79 Y8.865
G1 X42.792 Y8.863
G1 X42.794 Y8.857
G1 X42.795 Y8.856
G1 X42.797 Y8.85
G1 X42.798 Y8.849
G1 X42.801 Y8.842
G1 Y8.841
G1 X42.804 Y8.833
G1 X42.808 Y8.825
G1 Y8.824
G1 X42.811 Y8.815
G1 X42.812 Y8.814
G1 X42.815 Y8.805
G1 X42.818 Y8.795
G1 Y8.794
G1 X42.822 Y8.784
G1 Y8.783
G1 X42.826 Y8.772
G1 Y8.771
G1 X42.829 Y8.76
G1 X42.833 Y8.748
G1 Y8.747
G1 X42.837 Y8.735
G1 X42.84 Y8.722
G1 X42.844 Y8.709
G1 Y8.708
G1 X42.848 Y8.695
G1 X42.851 Y8.682
G1 Y8.681
G1 X42.855 Y8.668
G1 Y8.667
G1 X42.858 Y8.654
G1 Y8.653
G1 X42.862 Y8.64
G1 Y8.639
G1 X42.865 Y8.625
G1 X42.868 Y8.611
G1 X42.871 Y8.598
G1 X42.875 Y8.585
G1 X42.878 Y8.572
G1 X42.882 Y8.56
G1 X42.885 Y8.548
G1 X42.888 Y8.537
G1 X42.892 Y8.526
G1 X42.895 Y8.515
G1 X42.899 Y8.505
G1 X42.902 Y8.496
G1 X42.905 Y8.487
G1 X42.908 Y8.479
G1 X42.911 Y8.471
G1 X42.914 Y8.464
G1 X42.917 Y8.459
G1 X42.919 Y8.454
G1 X42.92 Y8.452
G1 X42.928 Y8.447
G1 X42.93 Y8.446
G1 X42.936 Y8.44
G1 X42.938 Y8.438
G1 X42.941 Y8.434
G1 X42.943 Y8.431
G1 X42.946 Y8.427
G1 X42.948 Y8.424
G1 X42.95 Y8.421
G1 X42.951 Y8.418
G1 X42.953 Y8.414
G1 X42.954 Y8.41
G1 X42.955 Y8.408
G1 X42.957 Y8.403
G1 Y8.402
G1 X42.959 Y8.397
G1 X42.96 Y8.394
G1 X42.961 Y8.389
G1 Y8.388
G1 X42.963 Y8.382
G1 Y8.381
G1 X42.965 Y8.375
G1 Y8.374
G1 X42.966 Y8.367
G1 Y8.366
G1 X42.967 Y8.359
G1 X42.968 Y8.358
G1 X42.969 Y8.351
G1 Y8.35
G1 X42.97 Y8.343
G1 Y8.341
G1 X42.971 Y8.334
G1 Y8.333
G1 Y8.325
G1 Y8.324
G1 X42.972 Y8.317
G1 Y8.318
G1 X42.979 Y8.339
G1 X42.986 Y8.361
G1 X42.993 Y8.385
G1 X43 Y8.409
G1 X43.006 Y8.434
G1 X43.012 Y8.46
G1 X43.018 Y8.486
G1 X43.024 Y8.512
G1 X43.029 Y8.538
G1 X43.034 Y8.563
G1 X43.038 Y8.588
G1 X43.042 Y8.612
G1 X43.045 Y8.636
G1 X43.048 Y8.658
G1 X43.049 Y8.678
G1 X43.051 Y8.697
G1 Y8.715
G1 Y8.721
G1 Y8.722
G1 Y8.728
G1 Y8.729
G1 X43.052 Y8.735
G1 Y8.736
G1 Y8.741
G1 Y8.743
G1 X43.053 Y8.748
G1 Y8.749
G1 X43.054 Y8.754
G1 Y8.756
G1 X43.055 Y8.761
G1 Y8.762
G1 X43.056 Y8.767
G1 X43.057 Y8.769
G1 X43.058 Y8.774
G1 Y8.775
G1 X43.059 Y8.78
G1 X43.06 Y8.781
G1 X43.061 Y8.786
G1 X43.062 Y8.787
G1 X43.063 Y8.791
G1 X43.064 Y8.793
G1 X43.065 Y8.797
G1 X43.066 Y8.798
G1 X43.067 Y8.802
G1 X43.069 Y8.805
G1 X43.071 Y8.809
G1 X43.072 Y8.81
G1 X43.073 Y8.813
G1 X43.075 Y8.817
G1 X43.077 Y8.819
G1 X43.079 Y8.822
G1 X43.081 Y8.824
G1 X43.085 Y8.829
G1 X43.087 Y8.831
G1 X43.089 Y8.833
G1 X43.091 Y8.835
G1 X43.097 Y8.839
G1 X43.099 Y8.841
G1 X43.105 Y8.844
G1 X43.107 Y8.845
G1 X43.111 Y8.846
G1 X43.112 Y8.849
G1 X43.114 Y8.853
G1 X43.116 Y8.857
G1 X43.118 Y8.862
G1 X43.12 Y8.867
G1 X43.122 Y8.872
G1 X43.124 Y8.878
G1 X43.126 Y8.884
G1 X43.128 Y8.89
G1 X43.13 Y8.897
G1 X43.132 Y8.904
G1 X43.133 Y8.911
G1 X43.135 Y8.919
G1 X43.137 Y8.926
G1 X43.138 Y8.934
G1 X43.139 Y8.936
G1 X43.142 Y8.952
G1 X43.143 Y8.956
G1 X43.148 Y8.971
G1 X43.149 Y8.975
G1 X43.155 Y8.989
G1 X43.157 Y8.993
G1 X43.163 Y9.006
G1 X43.165 Y9.01
G1 X43.172 Y9.022
G1 X43.174 Y9.026
G1 X43.182 Y9.037
G1 X43.184 Y9.04
G1 X43.193 Y9.051
G1 X43.196 Y9.054
G1 X43.204 Y9.063
G1 X43.208 Y9.066
G1 X43.217 Y9.074
G1 X43.22 Y9.077
G1 X43.229 Y9.083
G1 X43.234 Y9.086
G1 X43.243 Y9.092
G1 X43.248 Y9.094
G1 X43.257 Y9.098
G1 X43.263 Y9.101
G1 X43.272 Y9.103
G1 X43.279 Y9.105
G1 X43.288 Y9.107
G1 X43.296
G1 X43.305
G1 X43.313
G1 X43.322 Y9.105
G1 X43.331 Y9.103
G1 X43.339 Y9.1
G1 X43.347 Y9.095
G1 X43.355 Y9.091
G1 X43.363 Y9.085
G1 X43.369 Y9.079
G1 X43.375 Y9.072
G1 X43.38 Y9.064
G1 X43.385 Y9.057
G1 X43.389 Y9.047
G1 X43.392 Y9.04
G1 X43.395 Y9.029
G1 X43.397 Y9.023
G1 X43.399 Y9.01
G1 X43.4 Y9.005
G1 X43.401 Y8.99
G1 Y8.989
G1 Y8.986
G1 Y8.984
G1 X43.402 Y8.981
G1 Y8.978
G1 X43.403 Y8.974
G1 X43.404 Y8.97
G1 X43.405 Y8.965
G1 X43.406 Y8.961
G1 X43.408 Y8.956
G1 X43.41 Y8.951
G1 X43.411 Y8.947
G1 X43.413 Y8.941
G1 X43.415 Y8.936
G1 X43.418 Y8.932
G1 X43.42 Y8.926
G1 X43.422 Y8.921
; MOVEMENT_RAPID
G0 Z5 F300
G0 X44.295 F2500
; MOVEMENT_LEAD_IN
G1 Z0 F480
; MOVEMENT_CUTTING
G1 Y10.472 F2100
G1 X44.299 Y10.491
G1 X44.31 Y10.507
G1 X44.326 Y10.518
G1 X44.345 Y10.521
G1 X45.394
G1 X46.443
G1 X46.462 Y10.518
G1 X46.479 Y10.507
G1 X46.489 Y10.491
G1 X46.493 Y10.472
G1 Y6.457
G1 X46.49 Y6.438
G1 X46.479 Y6.422
G1 X46.464 Y6.411
G1 X46.446 Y6.407
G1 X46.206 Y6.396
G1 X46.013 Y6.388
G1 X46.004 Y5.004
G1 X45.995 Y3.573
G1 X45.991 Y3.554
G1 X45.98 Y3.538
G1 X45.964 Y3.527
G1 X45.945 Y3.523
G1 X32.919
G1 X19.893
G1 X19.874 Y3.527
G1 X19.858 Y3.538
G1 X19.847 Y3.554
G1 X19.843 Y3.573
G1 X19.819 Y5.499
G1 X19.818 Y5.652
G1 X19.816 Y5.846
G1 X19.815 Y6.079
G1 X19.813 Y6.35
G1 X19.812 Y6.656
G1 X19.81 Y6.996
G1 X19.809 Y7.367
G1 X19.808 Y7.769
G1 X19.806 Y8.2
G1 X19.805 Y8.658
G1 X19.804 Y9.14
G1 X19.803 Y9.647
G1 X19.802 Y10.174
G1 X19.801 Y10.722
G1 X19.8 Y11.288
G1 X19.799 Y11.87
G1 X19.798 Y12.467
G1 Y13.077
G1 X19.797 Y13.699
G1 Y14.329
G1 X19.796 Y14.968
G1 Y15.613
G1 Y16.262
G1 Y16.913
G1 Y26.352
G1 X13.481
G1 X7.166
G1 Y25.939
G1 X7.162 Y25.92
G1 X7.151 Y25.904
G1 X7.135 Y25.893
G1 X7.116 Y25.889
G1 X3.027
G1 X3.008 Y25.893
G1 X2.991 Y25.904
G1 X2.981 Y25.92
G1 X2.977 Y25.939
G1 Y27.86
G1 X2.981 Y27.879
G1 X2.991 Y27.895
G1 X3.008 Y27.906
G1 X3.027 Y27.91
G1 X5.071
G1 X7.116
G1 X7.135 Y27.906
G1 X7.151 Y27.895
G1 X7.162 Y27.879
G1 X7.166 Y27.86
G1 Y27.611
G1 Y27.412
G1 X13.961
G1 X20.806
G1 X20.825 Y27.408
G1 X20.841 Y27.397
G1 X20.852 Y27.381
G1 X20.856 Y27.362
G1 Y18.489
G1 Y15.969
G1 Y14.723
G1 Y13.569
G1 Y12.506
G1 X20.857 Y11.529
G1 Y10.635
G1 X20.858 Y9.82
G1 Y9.08
G1 X20.859 Y8.532
G1 Y8.412
G1 X20.86 Y7.812
G1 X20.862 Y7.277
G1 X20.863 Y6.803
G1 X20.864 Y6.51
G1 X20.865 Y6.386
G1 X20.867 Y6.023
G1 X20.869 Y5.711
G1 X20.872 Y5.445
G1 X20.875 Y5.222
G1 X20.878 Y5.039
G1 X20.882 Y4.892
G1 X20.886 Y4.777
G1 X20.89 Y4.691
G1 X20.895 Y4.631
G1 X20.898 Y4.604
G1 X20.992 Y4.602
G1 X21.348 Y4.599
G1 X21.909 Y4.596
G1 X22.639 Y4.593
G1 X22.656
G1 X23.568 Y4.591
G1 X24.625 Y4.589
G1 X25.805 Y4.588
G1 X27.088 Y4.586
G1 X28.454 Y4.585
G1 X29.881 Y4.584
G1 X31.351
G1 X32.841
G1 X33.891
G1 X34.331
G1 X35.651
G1 X35.802
G1 X37.231 Y4.585
G1 X38.599 Y4.586
G1 X39.886 Y4.587
G1 X41.07 Y4.589
G1 X42.13 Y4.591
G1 X43.048 Y4.593
G1 X43.801 Y4.595
G1 X44.369 Y4.598
G1 X44.731 Y4.601
G1 X44.864 Y4.604
G1 X44.928 Y4.617
G1 X44.944 Y5.01
G1 X44.945 Y5.04
G1 X44.946 Y5.073
G1 X44.947 Y5.107
G1 X44.948 Y5.142
G1 X44.949 Y5.18
G1 X44.95 Y5.218
G1 Y5.257
G1 X44.951 Y5.298
G1 Y5.339
G1 Y5.381
G1 Y5.424
G1 Y5.467
G1 Y5.51
G1 Y5.554
G1 Y5.597
G1 X44.95 Y5.641
G1 Y5.684
G1 X44.949 Y5.726
G1 Y5.768
G1 X44.948 Y5.809
G1 X44.947 Y5.849
G1 X44.946 Y5.888
G1 X44.945 Y5.926
G1 X44.944 Y5.963
G1 X44.927 Y6.439
G1 X44.345
G1 X44.326 Y6.443
G1 X44.31 Y6.454
G1 X44.299 Y6.47
G1 X44.295 Y6.489
G1 Y8.419
G1 Y8.921
; MOVEMENT_RAPID
G0 Z5 F300
G0 X47.069 F2500
; MOVEMENT_LEAD_IN
G1 Z0 F480
; MOVEMENT_CUTTING
G1 Y9.92 F2100
G1 Y17.818
G1 X44.004
G1 Y16.303
G1 X44 Y16.284
G1 X43.99 Y16.268
G1 X43.973 Y16.257
G1 X43.954 Y16.253
G1 X42.905
G1 X41.856
G1 X41.837 Y16.257
G1 X41.821 Y16.268
G1 X41.81 Y16.284
G1 X41.806 Y16.303
G1 Y18.312
G1 Y20.321
G1 X41.81 Y20.34
G1 X41.821 Y20.357
G1 X41.837 Y20.367
G1 X41.856 Y20.371
G1 X43.954
G1 X43.973 Y20.367
G1 X43.99 Y20.357
G1 X44 Y20.34
G1 X44.004 Y20.321
G1 Y19.592
G1 Y18.913
G1 X48.079
G1 X48.098 Y18.909
G1 X48.114 Y18.899
G1 X48.125 Y18.882
G1 X48.129 Y18.863
G1 Y1.049
G1 X48.125 Y1.029
G1 X48.114 Y1.013
G1 X48.098 Y1.002
G1 X48.079 Y0.999
G1 X32.653
G1 X17.226
G1 X17.207 Y1.002
G1 X17.191 Y1.013
G1 X17.18 Y1.029
G1 X17.176 Y1.048
G1 X17.153 Y2.942
G1 X17.151 Y3.09
G1 X17.149 Y3.274
G1 X17.148 Y3.491
G1 X17.146 Y3.741
G1 X17.145 Y4.021
G1 X17.144 Y4.33
G1 X17.142 Y4.667
G1 X17.141 Y5.03
G1 X17.139 Y5.417
G1 X17.138 Y5.827
G1 X17.137 Y6.258
G1 X17.136 Y6.71
G1 X17.135 Y7.179
G1 X17.134 Y7.666
G1 X17.133 Y8.167
G1 X17.132 Y8.682
G1 Y9.21
G1 X17.131 Y9.748
G1 X17.13 Y10.294
G1 Y10.849
G1 X17.129 Y11.409
G1 Y11.973
G1 Y12.541
G1 Y13.11
G1 Y13.706
G1 Y14.287
G1 X17.128 Y14.851
G1 Y15.399
G1 X17.127 Y15.929
G1 Y16.44
G1 X17.126 Y16.932
G1 X17.125 Y17.402
G1 X17.124 Y17.852
G1 X17.123 Y18.279
G1 X17.121 Y18.682
G1 X17.12 Y19.062
G1 X17.119 Y19.416
G1 X17.117 Y19.745
G1 X17.115 Y20.047
G1 X17.114 Y20.32
G1 X17.112 Y20.565
G1 X17.11 Y20.781
G1 X17.108 Y20.966
G1 X17.106 Y21.119
G1 X17.104 Y21.241
G1 X17.102 Y21.328
G1 X17.101 Y21.356
G1 X17.096
G1 X17.038 Y21.357
G1 X16.959 Y21.358
G1 X16.859 Y21.359
G1 X16.74
G1 X16.602 Y21.36
G1 X16.446
G1 X16.273
G1 X16.083
G1 X15.877 Y21.361
G1 X15.656 Y21.36
G1 X15.421
G1 X15.173
G1 X14.912 Y21.359
G1 X14.639
G1 X14.354 Y21.358
G1 X14.06 Y21.357
G1 X13.755 Y21.356
G1 X13.442 Y21.355
G1 X13.121 Y21.354
G1 X12.792 Y21.353
G1 X12.457 Y21.351
G1 X12.116 Y21.35
G1 X7.166 Y21.326
G1 Y20.925
G1 X7.162 Y20.906
G1 X7.151 Y20.89
G1 X7.135 Y20.879
G1 X7.116 Y20.875
G1 X5.098 Y20.884
G1 X3.08 Y20.894
G1 X3.061 Y20.897
G1 X3.045 Y20.908
G1 X3.034 Y20.924
G1 X3.03 Y20.943
G1 X3.021 Y21.903
G1 X3.02 Y21.943
G1 Y21.968
G1 Y22.033
G1 X3.019 Y22.096
G1 Y22.159
G1 Y22.22
G1 X3.018 Y22.279
G1 Y22.337
G1 Y22.392
G1 Y22.446
G1 X3.019 Y22.498
G1 Y22.547
G1 Y22.594
G1 Y22.639
G1 X3.02 Y22.68
G1 Y22.719
G1 X3.021 Y22.754
G1 X3.022 Y22.787
G1 X3.023 Y22.816
G1 Y22.841
G1 Y22.842
G1 X3.024 Y22.863
G1 Y22.864
G1 X3.025 Y22.882
G1 Y22.883
G1 X3.026 Y22.896
G1 X3.027 Y22.898
G1 X3.028 Y22.908
G1 Y22.913
G1 X3.03 Y22.918
G1 X3.034 Y22.93
G1 X3.041 Y22.941
G1 X3.045 Y22.945
G1 X3.061 Y22.957
G1 X3.069 Y22.961
G1 X3.078 Y22.964
G1 X3.091 Y22.968
G1 X3.095 Y22.969
G1 X3.114 Y22.972
G1 X3.117 Y22.973
G1 X3.141 Y22.976
G1 X3.142
G1 X3.173 Y22.979
G1 X3.174
G1 X3.21 Y22.982
G1 X3.211
G1 X3.254 Y22.985
G1 X3.255
G1 X3.305 Y22.987
G1 X3.363 Y22.989
G1 X3.428 Y22.991
G1 X3.501 Y22.993
G1 X3.582 Y22.995
G1 X3.671 Y22.996
G1 X3.77 Y22.998
G1 X3.877 Y22.999
G1 X3.994 Y23
G1 X4.121
G1 X4.258 Y23.001
G1 X4.405 Y23.002
G1 X4.563
G1 X4.733
G1 X4.913
G1 X5.071
G1 X7.116
G1 X7.135 Y22.999
G1 X7.151 Y22.988
G1 X7.162 Y22.972
G1 X7.166 Y22.952
G1 Y22.655
G1 Y22.408
G1 X12.611 Y22.39
G1 X12.986 Y22.389
G1 X13.355 Y22.387
G1 X13.716 Y22.386
G1 X14.069 Y22.384
G1 X14.413 Y22.383
G1 X14.747 Y22.381
G1 X15.07 Y22.38
G1 X15.382 Y22.378
G1 X15.682 Y22.376
G1 X15.968 Y22.375
G1 X16.241 Y22.373
G1 X16.498 Y22.371
G1 X16.74 Y22.369
G1 X16.965 Y22.368
G1 X17.174 Y22.366
G1 X17.363 Y22.364
G1 X17.534 Y22.363
G1 X17.685 Y22.361
G1 X17.815 Y22.359
G1 X17.924 Y22.358
G1 X18.01 Y22.356
G1 X18.011
G1 X18.074 Y22.355
G1 X18.113 Y22.353
G1 X18.117
G1 X18.131 Y22.352
G1 X18.148 Y22.347
G1 X18.162 Y22.337
G1 X18.172 Y22.322
G1 X18.176 Y22.305
G1 X18.177 Y22.28
G1 Y22.278
G1 X18.178 Y22.207
G1 X18.179 Y22.092
G1 Y22.091
G1 X18.181 Y21.933
G1 X18.182 Y21.733
G1 X18.183 Y21.494
G1 X18.184 Y21.216
G1 X18.185 Y20.901
G1 X18.186 Y20.551
G1 X18.187 Y20.168
G1 Y19.752
G1 X18.188 Y19.306
G1 X18.189 Y18.83
G1 Y18.327
G1 X18.19 Y17.799
G1 Y17.246
G1 X18.191 Y16.67
G1 Y16.072
G1 Y15.612
G1 Y15.455
G1 Y14.82
G1 Y14.168
G1 Y13.501
G1 Y12.82
G1 Y12.128
G1 X18.187 Y2.023
G1 X32.628
G1 X47.069
G1 Y6.457
G1 Y8.464
G1 Y8.921
; MOVEMENT_RAPID
G0 Z5 F300
G0 X49.522 F2500
; MOVEMENT_LEAD_IN
G1 Z0 F480
; MOVEMENT_CUTTING
G1 Y17.156 F2100
G1 Y34.886
G1 X26.317
G1 X25.215
G1 X0.411
G1 Y31.169
G1 Y27.86
G1 Y26.899
G1 Y21.473
G1 X0.41 Y17.156
G1 Y3.279
G1 Y-0.573
G1 X3.427
G1 X49.522
G1 Y8.921
; MOVEMENT_RAPID
G0 Z5 F300
G0 X41.373 F2500
; MOVEMENT_LEAD_IN
G1 Z0 F480
; MOVEMENT_CUTTING
G1 Y8.48 F2100
G1 Y6.525
G1 X41.369 Y6.505
G1 X41.358 Y6.489
G1 X41.342 Y6.478
G1 X41.323 Y6.475
G1 X40.256
G1 X39.189
G1 X39.17 Y6.478
G1 X39.154 Y6.489
G1 X39.143 Y6.505
G1 X39.139 Y6.525
G1 Y8.018
G1 Y10.4
G1 X39.143 Y10.419
G1 X39.153 Y10.435
G1 X39.169 Y10.446
G1 X39.187 Y10.45
G1 X39.356 Y10.457
G1 X39.357
G1 X39.369 Y10.458
G1 X39.381
G1 X39.394
G1 X39.395
G1 X39.408 Y10.459
G1 X39.422
G1 X39.436
G1 X39.451
G1 X39.48 Y10.46
G1 X39.481
G1 X39.496
G1 X39.511
G1 X39.541 Y10.459
G1 X39.556
G1 X39.571
G1 X39.586
G1 X39.601 Y10.458
G1 X39.615
G1 X39.629
G1 X39.643 Y10.457
G1 X39.656
G1 X39.669 Y10.456
G1 X39.681
G1 X39.682
G1 X39.693 Y10.455
G1 X39.805 Y10.449
G1 X39.827 Y11.386
G1 X39.831 Y11.542
G1 X39.834 Y11.695
G1 X39.837 Y11.847
G1 X39.839 Y11.997
G1 X39.842 Y12.147
G1 X39.844 Y12.295
G1 X39.846 Y12.443
G1 X39.847 Y12.59
G1 X39.848 Y12.738
G1 X39.849 Y12.886
G1 Y13.035
G1 Y13.184
G1 Y13.335
G1 Y13.487
G1 X39.848 Y13.641
G1 X39.847 Y13.798
G1 X39.846 Y13.956
G1 X39.844 Y14.117
G1 X39.842 Y14.282
G1 X39.84 Y14.449
G1 X39.837 Y14.62
G1 X39.834 Y14.796
G1 X39.831 Y14.975
G1 X39.827 Y15.158
G1 X39.805 Y16.289
G1 X39.332
G1 X39.313 Y16.292
G1 X39.296 Y16.303
G1 X39.286 Y16.319
G1 X39.282 Y16.339
G1 Y20.321
G1 X39.286 Y20.34
G1 X39.296 Y20.357
G1 X39.313 Y20.367
G1 X39.332 Y20.371
G1 X41.323
G1 X41.342 Y20.367
G1 X41.358 Y20.357
G1 X41.369 Y20.34
G1 X41.373 Y20.321
G1 Y18.33
G1 Y16.339
G1 X41.369 Y16.319
G1 X41.358 Y16.303
G1 X41.342 Y16.292
G1 X41.323 Y16.289
G1 X41.074
G1 X40.875
G1 X40.884 Y13.379
G1 X40.893 Y10.466
G1 X40.987 Y10.462
G1 X40.997
G1 X41.007 Y10.461
G1 X41.018
G1 X41.028 Y10.46
G1 X41.039
G1 X41.05
G1 X41.061 Y10.459
G1 X41.083 Y10.458
G1 X41.084
G1 X41.094
G1 X41.116 Y10.457
G1 X41.127
G1 X41.138 Y10.456
G1 X41.148
G1 X41.158
G1 X41.159
G1 X41.168 Y10.455
G1 X41.178
G1 X41.187 Y10.454
G1 X41.196
G1 X41.204
G1 X41.205
G1 X41.212
G1 X41.22 Y10.453
G1 X41.227
G1 X41.324 Y10.45
G1 X41.343 Y10.446
G1 X41.359 Y10.435
G1 X41.369 Y10.419
G1 X41.373 Y10.4
G1 Y8.921
; MOVEMENT_RAPID
G0 Z5 F300
G0 X38.426 Y8.897 F2500
; MOVEMENT_LEAD_IN
G1 Z0 F480
; MOVEMENT_CUTTING
G1 X38.433 Y8.018 F2100
G1 X38.43 Y7.999
G1 X38.419 Y7.983
G1 X38.403 Y7.972
G1 X38.383 Y7.968
G1 X37.524
G1 X37.435
G1 X37.352
G1 X37.275
G1 X37.204 Y7.967
G1 X37.138
G1 X37.078 Y7.966
G1 X37.023 Y7.965
G1 X36.974 Y7.964
G1 X36.928 Y7.963
G1 X36.888 Y7.962
G1 X36.852 Y7.96
G1 X36.82 Y7.959
G1 X36.792 Y7.957
G1 X36.768 Y7.955
G1 X36.748 Y7.952
G1 X36.732 Y7.95
G1 X36.719 Y7.947
G1 X36.713 Y7.946
G1 Y7.945
G1 Y7.942
G1 Y7.94
G1 X36.712 Y7.937
G1 X36.711 Y7.935
G1 Y7.932
G1 X36.71 Y7.929
G1 X36.709 Y7.926
G1 X36.708 Y7.924
G1 X36.707 Y7.921
G1 X36.706 Y7.919
G1 X36.705 Y7.916
G1 X36.704 Y7.914
G1 X36.703 Y7.911
G1 X36.701 Y7.907
G1 X36.699 Y7.905
G1 Y7.904
G1 X36.697 Y7.901
G1 X36.695 Y7.898
G1 X36.693 Y7.895
G1 X36.692 Y7.894
G1 X36.691 Y7.892
G1 X36.687 Y7.888
G1 X36.686 Y7.886
G1 X36.684 Y7.884
G1 X36.682 Y7.883
G1 X36.679 Y7.88
G1 X36.677 Y7.878
G1 X36.674 Y7.876
G1 X36.672 Y7.875
G1 X36.668 Y7.872
G1 X36.666 Y7.871
G1 X36.662 Y7.869
G1 X36.66 Y7.868
G1 X36.656 Y7.866
G1 X36.653 Y7.865
G1 X36.649 Y7.864
G1 X36.647 Y7.863
G1 X36.645
G1 X36.644 Y7.861
G1 Y7.86
G1 Y7.859
G1 Y7.857
G1 Y7.854
G1 X36.643 Y7.846
G1 X36.641 Y7.835
G1 X36.638 Y7.825
G1 X36.632 Y7.811
G1 X36.629 Y7.806
G1 X36.62 Y7.789
G1 X36.618 Y7.786
G1 X36.605 Y7.767
G1 X36.604 Y7.765
G1 X36.588 Y7.743
G1 X36.587 Y7.742
G1 X36.569 Y7.719
G1 X36.568 Y7.718
G1 X36.547 Y7.693
G1 Y7.692
G1 X36.524 Y7.666
G1 X36.523
G1 X36.499 Y7.639
G1 Y7.638
G1 X36.473 Y7.611
G1 Y7.61
G1 X36.446 Y7.582
G1 X36.445
G1 X36.418 Y7.554
G1 X36.39 Y7.526
G1 X36.362 Y7.499
G1 X36.361
G1 X36.334 Y7.473
G1 X36.333
G1 X36.306 Y7.448
G1 X36.28 Y7.425
G1 X36.279 Y7.424
G1 X36.254 Y7.404
G1 X36.253 Y7.403
G1 X36.23 Y7.385
G1 X36.228 Y7.384
G1 X36.207 Y7.368
G1 X36.205 Y7.367
G1 X36.186 Y7.354
G1 X36.183 Y7.352
G1 X36.166 Y7.343
G1 X36.161 Y7.34
G1 X36.147 Y7.334
G1 X36.137 Y7.331
G1 X36.126 Y7.329
G1 X36.118 Y7.328
G1 X36.115
G1 X36.113
G1 X36.111
G1 X36.11 Y7.327
G1 X36.108
G1 X36.107
G1 X36.104 Y7.315
G1 X36.1 Y7.305
G1 X36.094 Y7.296
G1 X36.081 Y7.28
G1 X36.07 Y7.271
G1 X36.049 Y7.257
G1 X36.042 Y7.253
G1 X36.013 Y7.241
G1 X36.008 Y7.239
G1 X35.973 Y7.228
G1 X35.97 Y7.227
G1 X35.929 Y7.218
G1 X35.926 Y7.217
G1 X35.88 Y7.21
G1 X35.878 Y7.209
G1 X35.828 Y7.203
G1 X35.826
G1 X35.772 Y7.199
G1 X35.77
G1 X35.713 Y7.196
G1 X35.712
G1 X35.652 Y7.194
G1 X35.651
G1 X35.589
G1 X35.588
G1 X35.525 Y7.196
G1 X35.524
G1 X35.46 Y7.199
G1 X35.459
G1 X35.396 Y7.204
G1 X35.395
G1 X35.333 Y7.21
G1 X35.331
G1 X35.271 Y7.217
G1 X35.269 Y7.218
G1 X35.211 Y7.226
G1 X35.209 Y7.227
G1 X35.154 Y7.237
G1 X35.152 Y7.238
G1 X35.1 Y7.249
G1 X35.098 Y7.25
G1 X35.05 Y7.263
G1 X35.047 Y7.264
G1 X35.004 Y7.279
G1 X35.001 Y7.28
G1 X34.964 Y7.296
G1 X34.959 Y7.299
G1 X34.928 Y7.316
G1 X34.925 Y7.318
G1 X34.916 Y7.324
G1 X34.907 Y7.33
G1 X34.898 Y7.335
G1 X34.889 Y7.341
G1 X34.881 Y7.346
G1 X34.872 Y7.352
G1 X34.864 Y7.357
G1 X34.855 Y7.362
G1 X34.848 Y7.366
G1 X34.84 Y7.371
G1 X34.832 Y7.375
G1 X34.825 Y7.379
G1 X34.819 Y7.383
G1 X34.812 Y7.386
G1 X34.806 Y7.389
G1 X34.801 Y7.392
G1 X34.796 Y7.395
G1 X34.791 Y7.397
G1 X34.788 Y7.398
G1 X34.785 Y7.399
G1 X34.784 Y7.4
G1 X34.783
G1 X34.776 Y7.401
G1 X34.766 Y7.404
G1 X34.758 Y7.407
G1 X34.753 Y7.41
G1 X34.743 Y7.415
G1 X34.74 Y7.417
G1 X34.729 Y7.424
G1 X34.727 Y7.426
G1 X34.715 Y7.435
G1 X34.714 Y7.436
G1 X34.701 Y7.446
G1 X34.7 Y7.447
G1 X34.686 Y7.458
G1 X34.685 Y7.459
G1 X34.671 Y7.472
G1 X34.67 Y7.473
G1 X34.656 Y7.486
G1 X34.655 Y7.487
G1 X34.64 Y7.501
G1 Y7.502
G1 X34.625 Y7.517
G1 X34.624
G1 X34.609 Y7.533
G1 X34.608
G1 X34.594 Y7.549
G1 X34.593
G1 X34.579 Y7.565
G1 X34.578 Y7.566
G1 X34.564 Y7.581
G1 Y7.582
G1 X34.551 Y7.597
G1 X34.55 Y7.598
G1 X34.538 Y7.613
G1 X34.537 Y7.614
G1 X34.526 Y7.628
G1 X34.525 Y7.629
G1 X34.516 Y7.643
G1 X34.515 Y7.644
G1 X34.506 Y7.657
G1 X34.505 Y7.659
G1 X34.498 Y7.67
G1 X34.496 Y7.673
G1 X34.491 Y7.683
G1 X34.489 Y7.688
G1 X34.486 Y7.697
G1 X34.483 Y7.706
G1 X34.482 Y7.713
G1 X34.481 Y7.719
G1 Y7.721
G1 Y7.722
G1 Y7.723
G1 X34.48 Y7.724
G1 Y7.726
G1 X34.479 Y7.728
G1 Y7.729
G1 X34.478 Y7.731
G1 X34.477 Y7.733
G1 X34.476 Y7.734
G1 X34.474 Y7.737
G1 X34.473 Y7.738
G1 X34.472 Y7.74
G1 X34.47 Y7.742
G1 X34.469 Y7.743
G1 X34.468 Y7.745
G1 X34.466 Y7.746
G1 X34.465 Y7.748
G1 X34.463 Y7.749
G1 X34.462 Y7.75
G1 X34.461 Y7.751
G1 X34.458 Y7.753
G1 X34.455 Y7.755
G1 X34.453 Y7.756
G1 X34.449 Y7.759
G1 X34.447 Y7.761
G1 X34.443 Y7.764
G1 X34.442 Y7.765
G1 X34.439 Y7.768
G1 X34.437 Y7.77
G1 X34.433 Y7.774
G1 X34.429 Y7.778
G1 X34.428 Y7.78
G1 X34.424 Y7.784
G1 X34.423 Y7.785
G1 X34.419 Y7.79
G1 X34.418 Y7.791
G1 X34.414 Y7.796
G1 X34.41 Y7.801
G1 X34.409 Y7.802
G1 X34.405 Y7.807
G1 Y7.808
G1 X34.401 Y7.814
G1 X34.4 Y7.815
G1 X34.396 Y7.821
G1 X34.392 Y7.827
G1 X34.391 Y7.828
G1 X34.388 Y7.834
G1 X34.387
G1 X34.383 Y7.841
G1 Y7.842
G1 X34.379 Y7.848
G1 X34.375 Y7.855
G1 Y7.856
G1 X34.371 Y7.862
G1 X34.37 Y7.863
G1 X34.367 Y7.87
G1 X34.363 Y7.877
G1 Y7.878
G1 X34.359 Y7.885
G1 X34.356 Y7.892
G1 X34.355 Y7.893
G1 X34.352 Y7.9
G1 X34.348 Y7.91
G1 X34.343 Y7.92
G1 X34.339 Y7.928
G1 X34.336 Y7.934
G1 X34.332 Y7.939
G1 X34.329 Y7.944
G1 X34.327 Y7.947
G1 X34.324 Y7.949
G1 X34.322 Y7.951
G1 X34.319 Y7.953
G1 X34.316 Y7.955
G1 X34.311 Y7.957
G1 X34.305 Y7.959
G1 X34.297 Y7.96
G1 X34.288 Y7.962
G1 X34.277 Y7.964
G1 X34.264 Y7.965
G1 X34.25 Y7.966
G1 X34.234 Y7.967
G1 X34.215
G1 X34.195 Y7.968
G1 X34.173
G1 X34.149
G1 X34.123
G1 X33.941
G1 Y6.524
G1 X33.937 Y6.504
G1 X33.927 Y6.488
G1 X33.91 Y6.477
G1 X33.891 Y6.474
G1 X32.762 Y6.483
G1 X31.633 Y6.492
G1 X31.614 Y6.496
G1 X31.598 Y6.507
G1 X31.587 Y6.523
G1 X31.583 Y6.542
G1 Y10.418
G1 X31.587 Y10.437
G1 X31.598 Y10.454
G1 X31.614 Y10.464
G1 X31.633 Y10.468
G1 X33.874
G1 X33.893 Y10.465
G1 X33.909 Y10.454
G1 X33.92 Y10.438
G1 X33.924 Y10.419
G1 X33.933 Y9.699
G1 X33.942 Y9.028
G1 X34.159
G1 X34.184
G1 X34.208
G1 X34.23 Y9.029
G1 X34.25
G1 X34.269 Y9.03
G1 X34.287
G1 X34.303 Y9.031
G1 X34.317 Y9.032
G1 X34.33 Y9.033
G1 X34.342 Y9.035
G1 X34.352 Y9.036
G1 X34.361 Y9.038
G1 X34.368 Y9.039
G1 X34.374 Y9.041
G1 X34.376 Y9.042
G1 X34.377 Y9.051
G1 X34.38 Y9.061
G1 X34.386 Y9.076
G1 X34.389 Y9.082
G1 X34.398 Y9.099
G1 X34.4 Y9.103
G1 X34.413 Y9.122
G1 X34.415 Y9.125
G1 X34.43 Y9.147
G1 X34.432 Y9.148
G1 X34.451 Y9.172
G1 X34.452 Y9.173
G1 X34.473 Y9.198
G1 X34.474 Y9.199
G1 X34.497 Y9.226
G1 X34.498
G1 X34.524 Y9.254
G1 Y9.255
G1 X34.552 Y9.283
G1 X34.581 Y9.312
G1 X34.582 Y9.313
G1 X34.612 Y9.342
G1 X34.613
G1 X34.644 Y9.371
G1 X34.645 Y9.372
G1 X34.676 Y9.4
G1 X34.677 Y9.401
G1 X34.709 Y9.429
G1 X34.71 Y9.43
G1 X34.742 Y9.457
G1 X34.743 Y9.458
G1 X34.776 Y9.485
G1 X34.809 Y9.511
G1 X34.841 Y9.535
G1 X34.842 Y9.536
G1 X34.873 Y9.558
G1 X34.874 Y9.559
G1 X34.903 Y9.579
G1 X34.905 Y9.58
G1 X34.933 Y9.598
G1 X34.935 Y9.599
G1 X34.961 Y9.615
G1 X34.963 Y9.616
G1 X34.988 Y9.629
G1 X34.992 Y9.631
G1 X35.018 Y9.642
G1 X35.022 Y9.643
G1 X35.053 Y9.654
G1 X35.055 Y9.655
G1 X35.09 Y9.665
G1 X35.093 Y9.666
G1 X35.132 Y9.675
G1 X35.133 Y9.676
G1 X35.175 Y9.684
G1 X35.177 Y9.685
G1 X35.222 Y9.693
G1 X35.223
G1 X35.27 Y9.7
G1 X35.271
G1 X35.32 Y9.707
G1 X35.321
G1 X35.371 Y9.713
G1 X35.372
G1 X35.423 Y9.718
G1 X35.424
G1 X35.475 Y9.722
G1 X35.476
G1 X35.527 Y9.725
G1 X35.578 Y9.727
G1 X35.579
G1 X35.628 Y9.729
G1 X35.629
G1 X35.676
G1 X35.677
G1 X35.722
G1 X35.723
G1 X35.766 Y9.727
G1 X35.767
G1 X35.807 Y9.724
G1 X35.809
G1 X35.844 Y9.72
G1 X35.847
G1 X35.878 Y9.715
G1 X35.882
G1 X35.909 Y9.709
G1 X35.913 Y9.707
G1 X35.935 Y9.7
G1 X35.942 Y9.697
G1 X35.959 Y9.689
G1 X35.97 Y9.681
G1 X35.98 Y9.672
G1 X35.986 Y9.665
G1 X35.987 Y9.664
G1 X35.988 Y9.663
G1 X35.989 Y9.662
G1 X35.991 Y9.66
G1 X35.993 Y9.657
G1 X35.996 Y9.655
G1 X35.999 Y9.652
G1 X36.003 Y9.649
G1 X36.006 Y9.647
G1 X36.01 Y9.643
G1 X36.015 Y9.64
G1 X36.019 Y9.637
G1 X36.024 Y9.634
G1 X36.029 Y9.63
G1 X36.034 Y9.627
G1 X36.039 Y9.623
G1 X36.045 Y9.62
G1 X36.05 Y9.617
G1 X36.055 Y9.613
G1 X36.061 Y9.61
G1 X36.067 Y9.607
G1 X36.072 Y9.604
G1 X36.078 Y9.601
G1 X36.083 Y9.598
G1 X36.119 Y9.58
G1 Y9.579
G1 X36.152 Y9.562
G1 X36.153
G1 X36.184 Y9.544
G1 X36.185
G1 X36.215 Y9.527
G1 X36.243 Y9.511
G1 X36.244 Y9.51
G1 X36.271 Y9.494
G1 X36.272
G1 X36.297 Y9.478
G1 X36.298 Y9.477
G1 X36.321 Y9.461
G1 X36.322 Y9.46
G1 X36.344 Y9.445
G1 X36.346 Y9.444
G1 X36.367 Y9.428
G1 X36.368 Y9.427
G1 X36.388 Y9.411
G1 X36.389 Y9.41
G1 X36.408 Y9.394
G1 X36.409 Y9.393
G1 X36.427 Y9.376
G1 X36.429 Y9.375
G1 X36.446 Y9.358
G1 X36.447 Y9.357
G1 X36.463 Y9.34
G1 X36.465 Y9.338
G1 X36.48 Y9.321
G1 X36.481 Y9.319
G1 X36.497 Y9.301
G1 X36.498 Y9.299
G1 X36.512 Y9.28
G1 X36.513 Y9.279
G1 X36.528 Y9.259
G1 Y9.258
G1 X36.542 Y9.237
G1 X36.543 Y9.236
G1 X36.557 Y9.214
G1 X36.558 Y9.213
G1 X36.571 Y9.19
G1 X36.572
G1 X36.585 Y9.166
G1 X36.586 Y9.165
G1 X36.6 Y9.14
G1 Y9.139
G1 X36.65 Y9.046
G1 X37.007
G1 X37.344
G1 X37.353 Y12.667
G1 X37.362 Y16.289
G1 X36.665
G1 X36.646 Y16.292
G1 X36.63 Y16.303
G1 X36.619 Y16.319
G1 X36.615 Y16.339
G1 Y20.321
G1 X36.619 Y20.34
G1 X36.63 Y20.357
G1 X36.646 Y20.367
G1 X36.665 Y20.371
G1 X38.835
G1 X38.854 Y20.367
G1 X38.87 Y20.356
G1 X38.881 Y20.34
G1 X38.885 Y20.321
G1 X38.875 Y18.339
G1 X38.866 Y16.356
G1 X38.862 Y16.338
G1 X38.852 Y16.322
G1 X38.837 Y16.311
G1 X38.819 Y16.306
G1 X38.602 Y16.296
G1 X38.432 Y16.288
G1 X38.409 Y15.076
G1 X38.407 Y14.984
G1 X38.405 Y14.88
G1 X38.404 Y14.764
G1 X38.403 Y14.639
G1 X38.402 Y14.504
G1 X38.401 Y14.359
G1 X38.4 Y14.206
G1 Y14.045
G1 X38.399 Y13.877
G1 Y13.703
G1 Y13.522
G1 Y13.336
G1 Y13.146
G1 Y12.951
G1 Y12.753
G1 X38.4 Y12.552
G1 Y12.349
G1 X38.401 Y12.144
G1 X38.402 Y11.938
G1 X38.403 Y11.732
G1 X38.404 Y11.527
G1 X38.406 Y11.322
G1 X38.407 Y11.119
G1 X38.409 Y10.919
G1 X38.426 Y8.897
; MOVEMENT_RAPID
G0 Z5 F300
G0 X26.368 F2500
; MOVEMENT_LEAD_IN
G1 Z0 F480
; MOVEMENT_CUTTING
G1 Y8.48 F2100
G1 Y6.524
G1 X26.364 Y6.504
G1 X26.353 Y6.488
G1 X26.336 Y6.477
G1 X26.317 Y6.474
G1 X25.206 Y6.483
G1 X24.095 Y6.492
G1 X24.076 Y6.496
G1 X24.06 Y6.507
G1 X24.049 Y6.523
G1 X24.045 Y6.542
G1 X24.036 Y7.282
G1 X24.027 Y7.967
G1 X23.985 Y7.962
G1 X23.977 Y7.961
G1 X23.971 Y7.96
G1 X23.965 Y7.958
G1 X23.959 Y7.957
G1 X23.954 Y7.955
G1 X23.949 Y7.953
G1 X23.944 Y7.951
G1 X23.94 Y7.948
G1 X23.935 Y7.946
G1 X23.931 Y7.942
G1 X23.926 Y7.939
G1 X23.922 Y7.935
G1 X23.917 Y7.931
G1 X23.912 Y7.925
G1 X23.908 Y7.92
G1 X23.903 Y7.913
G1 X23.898 Y7.906
G1 X23.892 Y7.899
G1 X23.887 Y7.89
G1 X23.881 Y7.881
G1 X23.876 Y7.871
G1 X23.87 Y7.86
G1 X23.864 Y7.849
G1 X23.858 Y7.836
G1 X23.857 Y7.835
G1 X23.843 Y7.807
G1 X23.842 Y7.805
G1 X23.826 Y7.777
G1 X23.825 Y7.775
G1 X23.806 Y7.746
G1 X23.805 Y7.745
G1 X23.785 Y7.715
G1 X23.784 Y7.714
G1 X23.762 Y7.684
G1 X23.761 Y7.683
G1 X23.737 Y7.653
G1 X23.736 Y7.652
G1 X23.711 Y7.622
G1 X23.71 Y7.621
G1 X23.684 Y7.591
G1 X23.683 Y7.59
G1 X23.655 Y7.56
G1 Y7.559
G1 X23.626 Y7.529
G1 X23.596 Y7.5
G1 Y7.499
G1 X23.566 Y7.471
G1 X23.565 Y7.47
G1 X23.535 Y7.442
G1 X23.534
G1 X23.504 Y7.415
G1 X23.503
G1 X23.472 Y7.389
G1 X23.471 Y7.388
G1 X23.441 Y7.364
G1 X23.44
G1 X23.409 Y7.341
G1 X23.408 Y7.34
G1 X23.378 Y7.319
G1 X23.377 Y7.318
G1 X23.347 Y7.299
G1 X23.346 Y7.298
G1 X23.317 Y7.281
G1 X23.316 Y7.28
G1 X23.288 Y7.264
G1 X23.286 Y7.263
G1 X23.259 Y7.25
G1 X23.256 Y7.249
G1 X23.23 Y7.238
G1 X23.227 Y7.237
G1 X23.203 Y7.229
G1 X23.201 Y7.228
G1 X23.19 Y7.225
G1 X23.179 Y7.221
G1 X23.169 Y7.218
G1 X23.158 Y7.215
G1 X23.147 Y7.211
G1 X23.136 Y7.208
G1 X23.125 Y7.204
G1 X23.115 Y7.2
G1 X23.104 Y7.197
G1 X23.094 Y7.193
G1 X23.084 Y7.19
G1 X23.074 Y7.186
G1 X23.064 Y7.183
G1 X23.055 Y7.179
G1 X23.046 Y7.176
G1 X23.037 Y7.173
G1 X23.029 Y7.17
G1 X23.022 Y7.167
G1 X23.015 Y7.164
G1 X23.008 Y7.161
G1 X23.002 Y7.158
G1 X22.998 Y7.156
G1 X22.993 Y7.154
G1 X22.989 Y7.152
G1 X22.986 Y7.151
G1 X22.974 Y7.145
G1 X22.969 Y7.144
G1 X22.953 Y7.139
G1 X22.95 Y7.138
G1 X22.931 Y7.134
G1 X22.929 Y7.133
G1 X22.907 Y7.129
G1 X22.905
G1 X22.882 Y7.126
G1 X22.88
G1 X22.854 Y7.123
G1 X22.853
G1 X22.826 Y7.12
G1 X22.825
G1 X22.796 Y7.118
G1 X22.795
G1 X22.766 Y7.117
G1 X22.765
G1 X22.735 Y7.116
G1 X22.734
G1 X22.704 Y7.115
G1 X22.703
G1 X22.672
G1 X22.642 Y7.116
G1 X22.641
G1 X22.612 Y7.117
G1 X22.611
G1 X22.583 Y7.118
G1 X22.582
G1 X22.556 Y7.12
G1 X22.554
G1 X22.53 Y7.122
G1 X22.528
G1 X22.506 Y7.125
G1 X22.504
G1 X22.484 Y7.128
G1 X22.482 Y7.129
G1 X22.464 Y7.132
G1 X22.461 Y7.133
G1 X22.447 Y7.137
G1 X22.441 Y7.14
G1 X22.43 Y7.144
G1 X22.42 Y7.15
G1 X22.414 Y7.155
G1 X22.405 Y7.164
G1 X22.398 Y7.175
G1 X22.396 Y7.18
G1 X22.395 Y7.182
G1 X22.394
G1 X22.392 Y7.183
G1 X22.39
G1 X22.387 Y7.184
G1 X22.385
G1 X22.382 Y7.185
G1 X22.379
G1 X22.376
G1 X22.373 Y7.186
G1 X22.368
G1 X22.366
G1 X22.342 Y7.187
G1 X22.337 Y7.188
G1 X22.311 Y7.193
G1 X22.307 Y7.194
G1 X22.278 Y7.201
G1 X22.275 Y7.202
G1 X22.244 Y7.213
G1 X22.241
G1 X22.208 Y7.226
G1 X22.206 Y7.227
G1 X22.171 Y7.242
G1 X22.17 Y7.243
G1 X22.133 Y7.26
G1 X22.132
G1 X22.095 Y7.279
G1 X22.094
G1 X22.056 Y7.3
G1 X22.055
G1 X22.017 Y7.322
G1 X22.016
G1 X21.979 Y7.345
G1 X21.978
G1 X21.94 Y7.369
G1 X21.903 Y7.393
G1 X21.902 Y7.394
G1 X21.867 Y7.418
G1 X21.866 Y7.419
G1 X21.833 Y7.443
G1 X21.832 Y7.444
G1 X21.801 Y7.468
G1 X21.799 Y7.469
G1 X21.77 Y7.493
G1 X21.769 Y7.494
G1 X21.743 Y7.518
G1 X21.741 Y7.519
G1 X21.718 Y7.542
G1 X21.716 Y7.544
G1 X21.696 Y7.565
G1 X21.694 Y7.568
G1 X21.678 Y7.588
G1 X21.675 Y7.592
G1 X21.663 Y7.611
G1 X21.659 Y7.618
G1 X21.652 Y7.635
G1 X21.648 Y7.646
G1 X21.646 Y7.661
G1 X21.645 Y7.664
G1 Y7.666
G1 X21.643 Y7.669
G1 X21.642 Y7.672
G1 X21.64 Y7.677
G1 X21.637 Y7.682
G1 X21.635 Y7.687
G1 X21.632 Y7.693
G1 X21.628 Y7.7
G1 X21.625 Y7.707
G1 X21.621 Y7.714
G1 X21.616 Y7.721
G1 X21.612 Y7.729
G1 X21.607 Y7.737
G1 X21.603 Y7.745
G1 X21.597 Y7.754
G1 X21.592 Y7.763
G1 X21.587 Y7.772
G1 X21.581 Y7.78
G1 X21.575 Y7.789
G1 X21.57 Y7.798
G1 X21.564 Y7.807
G1 X21.562 Y7.81
G1 X21.544 Y7.841
G1 X21.542 Y7.846
G1 X21.526 Y7.883
G1 X21.524 Y7.887
G1 X21.51 Y7.929
G1 X21.509 Y7.932
G1 X21.496 Y7.98
G1 X21.495 Y7.982
G1 X21.483 Y8.034
G1 Y8.036
G1 X21.473 Y8.091
G1 X21.472 Y8.093
G1 X21.463 Y8.151
G1 Y8.153
G1 X21.456 Y8.214
G1 Y8.215
G1 X21.45 Y8.277
G1 X21.449 Y8.278
G1 X21.445 Y8.341
G1 Y8.343
G1 X21.442 Y8.406
G1 Y8.407
G1 X21.44 Y8.47
G1 Y8.471
G1 Y8.533
G1 Y8.534
G1 X21.441 Y8.594
G1 Y8.595
G1 X21.444 Y8.653
G1 X21.445 Y8.654
G1 X21.449 Y8.708
G1 Y8.71
G1 X21.455 Y8.76
G1 X21.456 Y8.763
G1 X21.463 Y8.808
G1 X21.464 Y8.811
G1 X21.473 Y8.852
G1 X21.474 Y8.856
G1 X21.484 Y8.89
G1 X21.486 Y8.896
G1 X21.499 Y8.924
G1 X21.503 Y8.931
G1 X21.517 Y8.952
G1 X21.526 Y8.963
G1 X21.541 Y8.976
G1 X21.551 Y8.982
G1 X21.561 Y8.986
G1 X21.573 Y8.989
G1 Y8.991
G1 Y8.992
G1 Y8.993
G1 X21.574 Y8.995
G1 Y8.997
G1 Y8.999
G1 Y9.004
G1 X21.575 Y9.009
G1 X21.576 Y9.017
G1 X21.578 Y9.022
G1 X21.579 Y9.026
G1 X21.581 Y9.032
G1 X21.583 Y9.036
G1 X21.586 Y9.043
G1 X21.587 Y9.045
G1 X21.591 Y9.052
G1 X21.592 Y9.054
G1 X21.597 Y9.062
G1 X21.598 Y9.064
G1 X21.604 Y9.073
G1 X21.605 Y9.074
G1 X21.611 Y9.084
G1 X21.612 Y9.085
G1 X21.619 Y9.095
G1 Y9.096
G1 X21.627 Y9.106
G1 X21.628 Y9.107
G1 X21.636 Y9.119
G1 X21.637
G1 X21.646 Y9.131
G1 X21.656 Y9.144
G1 X21.657
G1 X21.667 Y9.157
G1 X21.668
G1 X21.679 Y9.171
G1 X21.69 Y9.184
G1 Y9.185
G1 X21.702 Y9.198
G1 X21.703 Y9.199
G1 X21.715 Y9.213
G1 X21.728 Y9.227
G1 X21.742 Y9.241
G1 Y9.242
G1 X21.756 Y9.256
G1 Y9.257
G1 X21.77 Y9.271
G1 X21.784 Y9.286
G1 X21.799 Y9.301
G1 X21.814 Y9.315
G1 Y9.316
G1 X21.828 Y9.33
G1 X21.829
G1 X21.843 Y9.344
G1 X21.858 Y9.358
G1 X21.872 Y9.371
G1 X21.873
G1 X21.887 Y9.384
G1 Y9.385
G1 X21.901 Y9.397
G1 X21.915 Y9.409
G1 X21.916 Y9.41
G1 X21.929 Y9.421
G1 X21.942 Y9.432
G1 X21.943 Y9.433
G1 X21.955 Y9.443
G1 X21.956
G1 X21.968 Y9.453
G1 X21.969 Y9.454
G1 X21.981 Y9.463
G1 X21.993 Y9.472
G1 X22.004 Y9.48
G1 X22.005 Y9.481
G1 X22.015 Y9.488
G1 X22.016 Y9.489
G1 X22.026 Y9.495
G1 X22.027 Y9.496
G1 X22.036 Y9.502
G1 X22.037
G1 X22.046 Y9.507
G1 X22.047 Y9.508
G1 X22.055 Y9.512
G1 X22.057 Y9.514
G1 X22.064 Y9.517
G1 X22.067 Y9.518
G1 X22.073 Y9.521
G1 X22.078 Y9.522
G1 X22.083 Y9.524
G1 X22.091 Y9.525
G1 X22.096 Y9.526
G1 X22.1
G1 X22.103
G1 X22.105
G1 X22.106
G1 X22.108 Y9.527
G1 X22.109
G1 X22.11
G1 X22.111 Y9.529
G1 X22.113 Y9.536
G1 X22.115 Y9.538
G1 X22.117 Y9.543
G1 X22.119 Y9.545
G1 X22.123 Y9.55
G1 X22.125 Y9.553
G1 X22.128 Y9.556
G1 X22.13 Y9.558
G1 X22.133 Y9.561
G1 X22.135 Y9.563
G1 X22.138 Y9.565
G1 X22.141 Y9.568
G1 X22.143 Y9.569
G1 X22.147 Y9.572
G1 X22.148 Y9.573
G1 X22.152 Y9.576
G1 X22.154
G1 X22.158 Y9.579
G1 X22.16 Y9.58
G1 X22.165 Y9.583
G1 X22.166
G1 X22.171 Y9.586
G1 X22.172
G1 X22.178 Y9.589
G1 X22.184 Y9.592
G1 X22.185
G1 X22.191 Y9.595
G1 X22.192
G1 X22.198 Y9.598
G1 X22.199
G1 X22.205 Y9.6
G1 X22.206
G1 X22.213 Y9.603
G1 X22.214
G1 X22.221 Y9.605
G1 X22.228 Y9.607
G1 X22.229 Y9.608
G1 X22.236 Y9.61
G1 X22.237
G1 X22.244 Y9.612
G1 X22.245
G1 X22.253 Y9.614
G1 X22.321 Y9.628
G1 X22.324 Y10.661
G1 Y10.884
G1 Y11.272
G1 X22.325 Y11.809
G1 Y12.481
G1 Y13.272
G1 Y14.168
G1 X22.326 Y15.152
G1 Y16.211
G1 Y19.678
G1 Y20.88
G1 X22.325 Y22.081
G1 Y23.264
G1 Y24.415
G1 Y25.519
G1 Y26.56
G1 Y27.362
G1 X22.324 Y27.523
G1 Y28.393
G1 Y29.155
G1 X22.323 Y29.794
G1 Y30.295
G1 Y30.642
G1 X22.322 Y30.82
G1 X22.321 Y31.152
G1 X14.743
G1 X7.166
G1 Y30.669
G1 X7.162 Y30.649
G1 X7.151 Y30.633
G1 X7.135 Y30.622
G1 X7.116 Y30.619
G1 X5.107
G1 X3.098
G1 X3.079 Y30.622
G1 X3.063 Y30.633
G1 X3.052 Y30.649
G1 X3.048 Y30.669
G1 Y31.27
G1 Y32.767
G1 X3.052 Y32.786
G1 X3.063 Y32.803
G1 X3.079 Y32.813
G1 X3.098 Y32.817
G1 X5.098 Y32.808
G1 X7.099 Y32.799
G1 X7.117 Y32.795
G1 X7.133 Y32.785
G1 X7.144 Y32.769
G1 X7.148 Y32.75
G1 X7.159 Y32.457
G1 X7.167 Y32.212
G1 X23.339
G1 X23.358 Y32.208
G1 X23.374 Y32.197
G1 X23.385 Y32.181
G1 X23.389 Y32.162
G1 X23.38 Y21.948
G1 X23.379 Y20.368
G1 X23.377 Y19.006
G1 Y18.926
G1 X23.376 Y17.617
G1 X23.375 Y16.433
G1 Y15.369
G1 X23.374 Y14.419
G1 Y13.575
G1 Y12.832
G1 Y12.183
G1 X23.375 Y11.622
G1 X23.376 Y11.142
G1 X23.378 Y10.737
G1 X23.38 Y10.401
G1 X23.383 Y10.128
G1 X23.386 Y9.91
G1 X23.389 Y9.742
G1 X23.394 Y9.618
G1 X23.398 Y9.531
G1 X23.404 Y9.477
G1 X23.406 Y9.465
G1 X23.412 Y9.463
G1 X23.423 Y9.458
G1 X23.426 Y9.456
G1 X23.438 Y9.45
G1 X23.441 Y9.449
G1 X23.454 Y9.441
G1 X23.456 Y9.44
G1 X23.47 Y9.431
G1 X23.471 Y9.43
G1 X23.486 Y9.42
G1 X23.487 Y9.419
G1 X23.503 Y9.408
G1 X23.504 Y9.407
G1 X23.52 Y9.395
G1 X23.521 Y9.394
G1 X23.537 Y9.381
G1 X23.538
G1 X23.554 Y9.367
G1 X23.571 Y9.352
G1 X23.572
G1 X23.588 Y9.337
G1 X23.604 Y9.322
G1 X23.605 Y9.321
G1 X23.62 Y9.306
G1 X23.621
G1 X23.636 Y9.291
G1 X23.637 Y9.29
G1 X23.651 Y9.275
G1 X23.652
G1 X23.665 Y9.26
G1 X23.666 Y9.259
G1 X23.678 Y9.246
G1 X23.679 Y9.244
G1 X23.69 Y9.231
G1 X23.691 Y9.23
G1 X23.701 Y9.217
G1 X23.702 Y9.215
G1 X23.711 Y9.204
G1 X23.712 Y9.201
G1 X23.719 Y9.191
G1 X23.721 Y9.187
G1 X23.726 Y9.177
G1 X23.729 Y9.172
G1 X23.732 Y9.163
G1 X23.734 Y9.154
G1 X23.735 Y9.147
G1 X23.736 Y9.143
G1 Y9.137
G1 X23.737 Y9.135
G1 X23.738 Y9.131
G1 X23.741 Y9.126
G1 X23.744 Y9.121
G1 X23.749 Y9.115
G1 X23.755 Y9.108
G1 X23.762 Y9.101
G1 X23.77 Y9.094
G1 X23.779 Y9.087
G1 X23.789 Y9.08
G1 X23.799 Y9.074
G1 X23.811 Y9.067
G1 X23.823 Y9.061
G1 X23.835 Y9.055
G1 X23.848 Y9.05
G1 X23.861 Y9.045
G1 X23.874 Y9.041
G1 X23.887 Y9.037
G1 X23.901 Y9.034
G1 X23.914 Y9.031
G1 X23.928 Y9.03
G1 X23.941 Y9.028
G1 X23.954
G1 X24.027
G1 Y10.39
G1 X24.031 Y10.408
G1 X24.04 Y10.424
G1 X24.055 Y10.435
G1 X24.073 Y10.44
G1 X24.345 Y10.463
G1 X24.346
G1 X24.393 Y10.466
G1 X24.394
G1 X24.449 Y10.47
G1 X24.45
G1 X24.511 Y10.473
G1 X24.512
G1 X24.579 Y10.475
G1 X24.652 Y10.478
G1 X24.73 Y10.48
G1 X24.811 Y10.481
G1 X24.895 Y10.483
G1 X24.982 Y10.484
G1 X25.07 Y10.485
G1 X25.16
G1 X25.249
G1 X25.25
G1 X25.339
G1 X25.427
G1 X25.514 Y10.484
G1 X25.598 Y10.483
G1 X25.679 Y10.481
G1 X25.756 Y10.48
G1 X25.757
G1 X25.829 Y10.478
G1 X25.83
G1 X25.897 Y10.475
G1 X25.898
G1 X25.959 Y10.473
G1 X26.014 Y10.47
G1 X26.015
G1 X26.063 Y10.466
G1 X26.064
G1 X26.103 Y10.463
G1 X26.104
G1 X26.323 Y10.44
G1 X26.34 Y10.435
G1 X26.355 Y10.424
G1 X26.364 Y10.408
G1 X26.368 Y10.39
G1 Y8.897
; MOVEMENT_RAPID
G0 Z5 F300
G0 X23.084 Y6.781 F2500
; MOVEMENT_LEAD_IN
G1 Z0 F480
; MOVEMENT_CUTTING
G1 X23.085 Y6.779 F2100
G1 X23.093 Y6.766
G1 X23.096 Y6.759
G1 X23.101 Y6.746
G1 X23.103 Y6.737
G1 X23.105 Y6.725
G1 X23.106 Y6.716
G1 Y6.705
G1 X23.105 Y6.693
G1 X23.102 Y6.683
G1 X23.098 Y6.672
G1 X23.094 Y6.663
G1 X23.088 Y6.653
G1 X23.081 Y6.644
G1 X23.074 Y6.637
G1 X23.065 Y6.63
G1 X23.058 Y6.625
G1 X23.046 Y6.618
G1 X23.04 Y6.615
G1 X23.026 Y6.609
G1 X23.02 Y6.607
G1 X23.005 Y6.603
G1 X22.999 Y6.602
G1 X22.982 Y6.6
G1 X22.977 Y6.599
G1 X22.958 Y6.598
G1 X22.954
G1 X22.933 Y6.599
G1 X22.929
G1 X22.907 Y6.602
G1 X22.903
G1 X22.879 Y6.607
G1 X22.876 Y6.608
G1 X22.85 Y6.614
G1 X22.847 Y6.615
G1 X22.82 Y6.624
G1 X22.774 Y6.638
G1 X22.734 Y6.647
G1 X22.7 Y6.652
G1 X22.67 Y6.654
G1 X22.646 Y6.652
G1 X22.628 Y6.647
G1 X22.615 Y6.642
G1 X22.606 Y6.636
G1 X22.601 Y6.629
G1 X22.597 Y6.621
G1 X22.594 Y6.611
G1 Y6.598
G1 X22.596 Y6.582
G1 X22.602 Y6.562
G1 X22.611 Y6.54
G1 X22.625 Y6.516
G1 X22.642 Y6.491
G1 X22.664 Y6.465
G1 X22.69 Y6.438
G1 X22.72 Y6.411
G1 X22.754 Y6.384
G1 X22.792 Y6.357
G1 X22.834 Y6.332
G1 X22.882 Y6.306
G1 X22.912 Y6.29
G1 X22.914 Y6.289
G1 X22.943 Y6.272
G1 X22.945 Y6.271
G1 X22.972 Y6.253
G1 X22.974 Y6.251
G1 X22.999 Y6.232
G1 X23.001 Y6.231
G1 X23.025 Y6.211
G1 X23.027 Y6.209
G1 X23.048 Y6.189
G1 X23.051 Y6.187
G1 X23.07 Y6.165
G1 X23.072 Y6.163
G1 X23.09 Y6.141
G1 X23.092 Y6.139
G1 X23.109 Y6.116
G1 X23.111 Y6.114
G1 X23.125 Y6.091
G1 X23.127 Y6.088
G1 X23.139 Y6.064
G1 X23.141 Y6.061
G1 X23.151 Y6.037
G1 X23.153 Y6.033
G1 X23.162 Y6.009
G1 X23.163 Y6.005
G1 X23.169 Y5.98
G1 X23.17 Y5.977
G1 X23.175 Y5.951
G1 X23.176 Y5.948
G1 X23.179 Y5.922
G1 Y5.918
G1 X23.18 Y5.892
G1 Y5.889
G1 X23.179 Y5.862
G1 Y5.859
G1 X23.176 Y5.832
G1 X23.175 Y5.829
G1 X23.17 Y5.802
G1 X23.169 Y5.799
G1 X23.162 Y5.772
G1 X23.161 Y5.769
G1 X23.152 Y5.742
G1 X23.151 Y5.739
G1 X23.14 Y5.712
G1 X23.139 Y5.709
G1 X23.126 Y5.683
G1 X23.123 Y5.678
G1 X23.104 Y5.649
G1 X23.099 Y5.643
G1 X23.075 Y5.616
G1 X23.071 Y5.611
G1 X23.042 Y5.588
G1 X23.038 Y5.584
G1 X23.006 Y5.563
G1 X23.001 Y5.56
G1 X22.966 Y5.542
G1 X22.962 Y5.54
G1 X22.924 Y5.523
G1 X22.92 Y5.522
G1 X22.879 Y5.508
G1 X22.876 Y5.507
G1 X22.834 Y5.496
G1 X22.831
G1 X22.787 Y5.487
G1 X22.784 Y5.486
G1 X22.739 Y5.48
G1 X22.736
G1 X22.691 Y5.476
G1 X22.688
G1 X22.643 Y5.475
G1 X22.64
G1 X22.596 Y5.476
G1 X22.593
G1 X22.55 Y5.48
G1 X22.547
G1 X22.505 Y5.487
G1 X22.502
G1 X22.462 Y5.496
G1 X22.458 Y5.497
G1 X22.422 Y5.509
G1 X22.417 Y5.51
G1 X22.384 Y5.524
G1 X22.379 Y5.526
G1 X22.35 Y5.543
G1 X22.344 Y5.546
G1 X22.318 Y5.565
G1 X22.312 Y5.571
G1 X22.292 Y5.592
G1 X22.286 Y5.6
G1 X22.27 Y5.624
G1 X22.265 Y5.634
G1 X22.256 Y5.66
G1 X22.253 Y5.671
G1 X22.25 Y5.7
G1 X22.249 Y5.707
G1 X22.25 Y5.715
G1 Y5.723
G1 Y5.724
G1 Y5.731
G1 Y5.733
G1 X22.251 Y5.739
G1 Y5.742
G1 X22.252 Y5.747
G1 X22.253 Y5.751
G1 X22.254 Y5.756
G1 Y5.758
G1 X22.255 Y5.763
G1 X22.257 Y5.768
G1 X22.259 Y5.772
G1 X22.26 Y5.776
G1 X22.262 Y5.78
G1 X22.265 Y5.786
G1 X22.267 Y5.789
G1 X22.272 Y5.795
G1 X22.274 Y5.797
G1 X22.28 Y5.803
G1 X22.282 Y5.805
G1 X22.289 Y5.81
G1 X22.292 Y5.812
G1 X22.299 Y5.815
G1 X22.303 Y5.816
G1 X22.309 Y5.818
G1 X22.313 Y5.819
G1 X22.319 Y5.82
G1 X22.323 Y5.821
G1 X22.328
G1 X22.332
G1 X22.337
G1 X22.342
G1 X22.345
G1 X22.35 Y5.82
G1 X22.353
G1 X22.359 Y5.819
G1 X22.361 Y5.818
G1 X22.367 Y5.817
G1 X22.369 Y5.816
G1 X22.376 Y5.815
G1 X22.377 Y5.814
G1 X22.385 Y5.812
G1 X22.386
G1 X22.393 Y5.81
G1 X22.45 Y5.794
G1 X22.503 Y5.783
G1 X22.554 Y5.775
G1 X22.601 Y5.772
G1 X22.645 Y5.771
G1 X22.686 Y5.774
G1 X22.723 Y5.779
G1 X22.756 Y5.787
G1 X22.784 Y5.797
G1 X22.808 Y5.809
G1 X22.828 Y5.822
G1 X22.842 Y5.835
G1 X22.853 Y5.848
G1 X22.859 Y5.86
G1 X22.862 Y5.873
G1 Y5.886
G1 X22.859 Y5.901
G1 X22.852 Y5.919
G1 X22.84 Y5.938
G1 X22.821 Y5.96
G1 X22.796 Y5.983
G1 X22.764 Y6.007
G1 X22.725 Y6.031
G1 X22.677 Y6.055
G1 X22.639 Y6.074
G1 X22.637 Y6.075
G1 X22.6 Y6.094
G1 X22.599 Y6.095
G1 X22.564 Y6.115
G1 X22.562
G1 X22.53 Y6.136
G1 X22.528
G1 X22.497 Y6.157
G1 X22.496 Y6.158
G1 X22.467 Y6.179
G1 X22.465 Y6.18
G1 X22.438 Y6.201
G1 X22.437 Y6.203
G1 X22.412 Y6.224
G1 X22.41 Y6.226
G1 X22.387 Y6.247
G1 X22.386 Y6.249
G1 X22.365 Y6.271
G1 X22.363 Y6.274
G1 X22.344 Y6.296
G1 X22.343 Y6.299
G1 X22.326 Y6.321
G1 X22.324 Y6.324
G1 X22.31 Y6.347
G1 X22.308 Y6.35
G1 X22.296 Y6.373
G1 X22.294 Y6.377
G1 X22.284 Y6.4
G1 X22.282 Y6.404
G1 X22.274 Y6.428
G1 X22.273 Y6.432
G1 X22.267 Y6.456
G1 X22.266 Y6.46
G1 X22.262 Y6.484
G1 Y6.488
G1 X22.26 Y6.513
G1 Y6.517
G1 Y6.542
G1 X22.261 Y6.546
G1 X22.263 Y6.571
G1 Y6.575
G1 X22.268 Y6.6
G1 X22.269 Y6.604
G1 X22.276 Y6.63
G1 X22.277 Y6.633
G1 X22.285 Y6.659
G1 X22.287 Y6.663
G1 X22.297 Y6.687
G1 X22.3 Y6.691
G1 X22.313 Y6.714
G1 X22.315 Y6.718
G1 X22.33 Y6.74
G1 X22.333 Y6.744
G1 X22.351 Y6.764
G1 X22.353 Y6.767
G1 X22.373 Y6.787
G1 X22.375 Y6.789
G1 X22.396 Y6.808
G1 X22.399 Y6.81
G1 X22.422 Y6.827
G1 X22.425 Y6.829
G1 X22.449 Y6.845
G1 X22.452 Y6.846
G1 X22.477 Y6.861
G1 X22.48 Y6.862
G1 X22.507 Y6.875
G1 X22.51 Y6.876
G1 X22.537 Y6.888
G1 X22.54 Y6.889
G1 X22.569 Y6.899
G1 X22.572 Y6.9
G1 X22.601 Y6.908
G1 X22.604 Y6.909
G1 X22.633 Y6.915
G1 X22.636 Y6.916
G1 X22.667 Y6.921
G1 X22.669
G1 X22.7 Y6.925
G1 X22.703
G1 X22.733 Y6.927
G1 X22.736
G1 X22.767 Y6.926
G1 X22.77
G1 X22.8 Y6.924
G1 X22.804
G1 X22.833 Y6.92
G1 X22.837 Y6.919
G1 X22.866 Y6.913
G1 X22.87
G1 X22.898 Y6.905
G1 X22.902 Y6.904
G1 X22.93 Y6.894
G1 X22.933 Y6.892
G1 X22.96 Y6.88
G1 X22.963 Y6.878
G1 X22.988 Y6.865
G1 X22.99 Y6.864
G1 X23.012 Y6.85
G1 X23.015 Y6.848
G1 X23.033 Y6.835
G1 X23.036 Y6.832
G1 X23.052 Y6.818
G1 X23.055 Y6.815
G1 X23.068 Y6.802
G1 X23.071 Y6.798
G1 X23.082 Y6.784
G1 X23.084 Y6.781
; MOVEMENT_RAPID
G0 Z5 F300
G0 X15.155 Y6.763 F2500
; MOVEMENT_LEAD_IN
G1 Z0 F480
; MOVEMENT_CUTTING
G1 X15.158 Y5.265 F2100
G1 X15.16 Y4.701
G1 X15.162 Y4.188
G1 X15.163 Y3.724
G1 X15.165 Y3.307
G1 Y2.935
G1 X15.164 Y2.604
G1 X15.161 Y2.312
G1 X15.156 Y2.058
G1 Y2.057
G1 X15.149 Y1.837
G1 Y1.836
G1 X15.138 Y1.649
G1 Y1.647
G1 X15.124 Y1.489
G1 Y1.487
G1 X15.106 Y1.356
G1 X15.105 Y1.352
G1 X15.083 Y1.246
G1 X15.082 Y1.241
G1 X15.055 Y1.157
G1 X15.052 Y1.15
G1 X15.021 Y1.086
G1 X15.015 Y1.077
G1 X14.978 Y1.031
G1 X14.968 Y1.022
G1 X14.925 Y0.99
G1 X14.913 Y0.984
G1 X14.864 Y0.964
G1 X14.854 Y0.962
G1 X14.798 Y0.953
G1 X14.791 Y0.952
G1 X14.728 Y0.95
G1 X14.724
G1 X14.653 Y0.954
G1 X14.652
G1 X14.573 Y0.96
G1 X14.487 Y0.967
G1 X14.392 Y0.971
G1 X13.972 Y0.981
G1 X13.958 Y0.983
G1 X13.946 Y0.989
G1 X13.936 Y0.998
G1 X13.832 Y1.114
G1 X13.728 Y1.23
G1 X13.719 Y1.245
G1 X13.715 Y1.263
G1 Y4.58
G1 Y4.888
G1 Y5.178
G1 Y5.398
G1 Y5.45
G1 Y5.706
G1 X13.714 Y5.945
G1 X13.713 Y6.169
G1 Y6.377
G1 X13.712 Y6.569
G1 X13.711 Y6.747
G1 X13.709 Y6.911
G1 X13.708 Y7.061
G1 X13.706 Y7.197
G1 X13.705 Y7.32
G1 X13.703 Y7.431
G1 X13.701 Y7.529
G1 X13.698 Y7.616
G1 X13.696 Y7.691
G1 X13.693 Y7.755
G1 X13.69 Y7.808
G1 X13.687 Y7.851
G1 X13.684 Y7.884
G1 X13.682 Y7.898
G1 X13.654 Y7.901
G1 X13.61 Y7.904
G1 X13.551 Y7.907
G1 X13.479 Y7.91
G1 X13.391 Y7.913
G1 X13.289 Y7.915
G1 X13.17 Y7.918
G1 X13.036 Y7.92
G1 X12.884 Y7.922
G1 X12.715 Y7.923
G1 X12.527 Y7.925
G1 X12.321 Y7.926
G1 X12.095 Y7.928
G1 X11.849 Y7.929
G1 X11.583 Y7.93
G1 X11.295
G1 X10.986 Y7.931
G1 X10.654 Y7.932
G1 X10.299
G1 X9.92
G1 X9.517
G1 X9.09
G1 X8.662
G1 X8.259
G1 X7.88
G1 X7.525
G1 X7.194 Y7.931
G1 X6.884 Y7.93
G1 X6.596
G1 X6.33 Y7.929
G1 X6.084 Y7.928
G1 X5.858 Y7.926
G1 X5.652 Y7.925
G1 X5.465 Y7.923
G1 X5.295 Y7.922
G1 X5.143 Y7.92
G1 X5.009 Y7.918
G1 X4.89 Y7.915
G1 X4.788 Y7.913
G1 X4.7 Y7.91
G1 X4.628 Y7.907
G1 X4.569 Y7.904
G1 X4.525 Y7.901
G1 X4.497 Y7.898
G1 X4.495 Y7.884
G1 X4.492 Y7.852
G1 X4.489 Y7.809
G1 X4.486 Y7.756
G1 X4.483 Y7.692
G1 X4.481 Y7.618
G1 X4.478 Y7.532
G1 X4.476 Y7.434
G1 X4.474 Y7.324
G1 X4.473 Y7.202
G1 X4.471 Y7.067
G1 X4.47 Y6.918
G1 X4.469 Y6.756
G1 X4.467 Y6.579
G1 X4.466 Y6.388
G1 Y6.182
G1 X4.465 Y5.961
G1 X4.464 Y5.723
G1 Y5.469
G1 Y5.199
G1 Y4.911
G1 Y4.606
G1 Y4.133
G1 Y3.703
G1 X4.465 Y3.314
G1 Y3.048
G1 Y2.964
G1 Y2.651
G1 Y2.65
G1 X4.463 Y2.372
G1 X4.459 Y2.127
G1 Y2.126
G1 X4.454 Y1.912
G1 Y1.911
G1 X4.446 Y1.725
G1 Y1.724
G1 X4.436 Y1.565
G1 X4.435 Y1.564
G1 X4.422 Y1.43
G1 Y1.427
G1 X4.405 Y1.316
G1 X4.404 Y1.312
G1 X4.383 Y1.221
G1 X4.381 Y1.216
G1 X4.356 Y1.144
G1 X4.353 Y1.137
G1 X4.323 Y1.081
G1 X4.317 Y1.072
G1 X4.282 Y1.031
G1 X4.273 Y1.023
G1 X4.233 Y0.994
G1 X4.222 Y0.989
G1 X4.176 Y0.971
G1 X4.167 Y0.968
G1 X4.115 Y0.958
G1 X4.108 Y0.957
G1 X4.05 Y0.954
G1 X4.046
G1 X3.98 Y0.955
G1 X3.979
G1 X3.906 Y0.958
G1 X3.825 Y0.961
G1 X3.738 Y0.963
G1 X3.65 Y0.961
G1 X3.57 Y0.957
G1 X3.497 Y0.952
G1 X3.495
G1 X3.429 Y0.95
G1 X3.425
G1 X3.366 Y0.953
G1 X3.359 Y0.954
G1 X3.306 Y0.964
G1 X3.296 Y0.967
G1 X3.25 Y0.987
G1 X3.239 Y0.993
G1 X3.198 Y1.025
G1 X3.189 Y1.035
G1 X3.154 Y1.081
G1 X3.149 Y1.09
G1 X3.119 Y1.153
G1 X3.117 Y1.16
G1 X3.092 Y1.243
G1 X3.091 Y1.248
G1 X3.07 Y1.353
G1 X3.069 Y1.356
G1 X3.052 Y1.485
G1 Y1.487
G1 X3.039 Y1.643
G1 Y1.644
G1 X3.029 Y1.829
G1 Y1.83
G1 X3.021 Y2.047
G1 Y2.048
G1 X3.016 Y2.298
G1 Y2.299
G1 X3.013 Y2.586
G1 X3.011 Y2.912
G1 Y3.279
G1 Y3.69
G1 X3.012 Y4.147
G1 X3.013 Y4.652
G1 Y5.209
G1 Y5.713
G1 Y6.174
G1 X3.014 Y6.593
G1 Y6.973
G1 X3.015 Y7.316
G1 X3.016 Y7.623
G1 Y7.624
G1 X3.017 Y7.898
G1 X3.019 Y8.141
G1 X3.022 Y8.355
G1 X3.025 Y8.542
G1 X3.029 Y8.703
G1 Y8.704
G1 X3.034 Y8.842
G1 Y8.843
G1 X3.04 Y8.96
G1 Y8.961
G1 X3.047 Y9.059
G1 Y9.06
G1 X3.055 Y9.141
G1 X3.056 Y9.143
G1 X3.065 Y9.209
G1 Y9.212
G1 X3.076 Y9.265
G1 X3.077 Y9.269
G1 X3.089 Y9.311
G1 X3.091 Y9.316
G1 X3.104 Y9.348
G1 X3.107 Y9.355
G1 X3.123 Y9.38
G1 X3.127 Y9.386
G1 X3.144 Y9.407
G1 X3.148 Y9.412
G1 X3.166 Y9.43
G1 X3.169 Y9.432
G1 X3.189 Y9.449
G1 X3.19
G1 X3.212 Y9.467
G1 X3.216 Y9.47
G1 X3.257 Y9.498
G1 X3.259 Y9.499
G1 X3.352 Y9.556
G1 X3.491 Y9.64
G1 X3.672 Y9.748
G1 X3.89 Y9.878
G1 X4.14 Y10.026
G1 X4.418 Y10.19
G1 X4.72 Y10.368
G1 X5.04 Y10.556
G1 X5.373 Y10.751
G1 X5.716 Y10.952
G1 X6.064 Y11.155
G1 X6.411 Y11.358
G1 X6.754 Y11.558
G1 X7.088 Y11.752
G1 X7.407 Y11.938
G1 X7.708 Y12.113
G1 X7.986 Y12.273
G1 X8.236 Y12.417
G1 X8.453 Y12.542
G1 X8.634 Y12.645
G1 X8.772 Y12.723
G1 X8.773
G1 X8.865 Y12.774
G1 X8.866 Y12.775
G1 X8.907 Y12.795
G1 X8.915 Y12.799
G1 X8.941 Y12.807
G1 X8.944
G1 X8.97 Y12.814
G1 X8.974
G1 X9.001 Y12.819
G1 X9.005
G1 X9.033 Y12.821
G1 X9.038
G1 X9.068 Y12.82
G1 X9.072
G1 X9.105 Y12.816
G1 X9.109 Y12.815
G1 X9.145 Y12.808
G1 X9.148 Y12.807
G1 X9.188 Y12.796
G1 X9.191 Y12.795
G1 X9.236 Y12.78
G1 X9.238 Y12.779
G1 X9.288 Y12.759
G1 X9.29
G1 X9.346 Y12.734
G1 X9.347
G1 X9.411 Y12.704
G1 X9.412 Y12.703
G1 X9.483 Y12.668
G1 X9.484
G1 X9.563 Y12.627
G1 X9.564 Y12.626
G1 X9.652 Y12.579
G1 X9.653
G1 X9.751 Y12.525
G1 X9.86 Y12.464
G1 X9.981 Y12.396
G1 X10.113 Y12.321
G1 X10.258 Y12.237
G1 X10.416 Y12.146
G1 X10.588 Y12.045
G1 X10.775 Y11.936
G1 X10.978 Y11.818
G1 X11.093 Y11.75
G1 X11.212 Y11.68
G1 X11.334 Y11.609
G1 X11.458 Y11.536
G1 X11.584 Y11.462
G1 X11.712 Y11.388
G1 X11.841 Y11.312
G1 X11.97 Y11.237
G1 X12.1 Y11.161
G1 X12.229 Y11.085
G1 X12.358 Y11.009
G1 X12.486 Y10.935
G1 X12.613 Y10.861
G1 X12.737 Y10.788
G1 X12.86 Y10.716
G1 X12.979 Y10.646
G1 X13.096 Y10.578
G1 X13.208 Y10.512
G1 X13.317 Y10.448
G1 X13.422 Y10.387
G1 X13.521 Y10.329
G1 X13.615 Y10.274
G1 X13.704 Y10.222
G1 X13.786 Y10.174
G1 X13.902 Y10.106
G1 X14.011 Y10.042
G1 X14.113 Y9.983
G1 X14.207 Y9.927
G1 X14.295 Y9.875
G1 X14.376 Y9.826
G1 X14.451 Y9.781
G1 X14.519 Y9.739
G1 X14.52
G1 X14.583 Y9.7
G1 X14.641 Y9.664
G1 X14.694 Y9.631
G1 X14.742 Y9.6
G1 Y9.599
G1 X14.785 Y9.571
G1 X14.786
G1 X14.824 Y9.544
G1 X14.825
G1 X14.86 Y9.52
G1 Y9.519
G1 X14.891 Y9.496
G1 X14.892
G1 X14.92 Y9.475
G1 X14.921 Y9.474
G1 X14.945 Y9.454
G1 X14.946 Y9.453
G1 X14.967 Y9.435
G1 X14.969 Y9.434
G1 X14.987 Y9.417
G1 X14.989 Y9.415
G1 X15.005 Y9.399
G1 X15.006 Y9.397
G1 X15.02 Y9.382
G1 X15.022 Y9.38
G1 X15.034 Y9.364
G1 X15.036 Y9.362
G1 X15.046 Y9.347
G1 X15.047 Y9.346
G1 X15.14 Y9.207
G1 X15.147 Y9.193
G1 X15.149 Y9.179
G1 X15.155 Y6.763
; MOVEMENT_RAPID
G0 Z5 F300
G0 X12.936 Y5.619 F2500
; MOVEMENT_LEAD_IN
G1 Z0 F480
; MOVEMENT_CUTTING
G1 X12.938 Y5.615 F2100
G1 X12.957 Y5.567
G1 X12.959 Y5.561
G1 X12.972 Y5.512
G1 X12.974 Y5.506
G1 X12.981 Y5.456
G1 X12.982 Y5.45
G1 X12.983 Y5.399
G1 Y5.393
G1 X12.978 Y5.342
G1 X12.977 Y5.336
G1 X12.966 Y5.286
G1 X12.964 Y5.279
G1 X12.946 Y5.231
G1 X12.943 Y5.224
G1 X12.918 Y5.177
G1 X12.914 Y5.171
G1 X12.882 Y5.126
G1 X12.878 Y5.121
G1 X12.837 Y5.079
G1 X12.833 Y5.075
G1 X12.785 Y5.036
G1 X12.78 Y5.032
G1 X12.724 Y4.997
G1 X12.722 Y4.996
G1 X12.696 Y4.981
G1 X12.672 Y4.968
G1 X12.651 Y4.956
G1 X12.632 Y4.945
G1 X12.614 Y4.934
G1 X12.599 Y4.925
G1 X12.586 Y4.917
G1 X12.576 Y4.909
G1 X12.567 Y4.902
G1 X12.56 Y4.896
G1 X12.555 Y4.892
G1 X12.552 Y4.888
G1 X12.551 Y4.885
G1 X12.55 Y4.884
G1 X12.549 Y4.883
G1 Y4.881
G1 Y4.879
G1 X12.55 Y4.875
G1 X12.551 Y4.869
G1 X12.552 Y4.862
G1 X12.555 Y4.853
G1 X12.559 Y4.842
G1 X12.563 Y4.83
G1 X12.568 Y4.816
G1 X12.569 Y4.815
G1 X12.595 Y4.738
G1 X12.596 Y4.735
G1 X12.62 Y4.642
G1 X12.621 Y4.64
G1 X12.644 Y4.535
G1 Y4.533
G1 X12.666 Y4.416
G1 Y4.415
G1 X12.686 Y4.287
G1 X12.687 Y4.286
G1 X12.705 Y4.149
G1 Y4.148
G1 X12.723 Y4.004
G1 Y4.003
G1 X12.738 Y3.853
G1 Y3.852
G1 X12.752 Y3.697
G1 Y3.696
G1 X12.764 Y3.538
G1 Y3.537
G1 X12.774 Y3.377
G1 X12.782 Y3.216
G1 X12.789 Y3.057
G1 Y3.056
G1 X12.793 Y2.9
G1 Y2.899
G1 X12.795 Y2.747
G1 Y2.746
G1 Y2.599
G1 X12.794 Y2.598
G1 X12.792 Y2.458
G1 Y2.457
G1 X12.787 Y2.326
G1 Y2.325
G1 X12.78 Y2.203
G1 Y2.202
G1 X12.77 Y2.092
G1 Y2.09
G1 X12.758 Y1.992
G1 Y1.99
G1 X12.743 Y1.907
G1 X12.742 Y1.903
G1 X12.725 Y1.835
G1 X12.723 Y1.829
G1 X12.703 Y1.779
G1 X12.7 Y1.774
G1 X12.684 Y1.743
G1 X12.683 Y1.742
G1 X12.667 Y1.712
G1 X12.666 Y1.711
G1 X12.65 Y1.684
G1 X12.649 Y1.682
G1 X12.632 Y1.657
G1 X12.631 Y1.655
G1 X12.615 Y1.632
G1 X12.613 Y1.63
G1 X12.597 Y1.609
G1 X12.595 Y1.607
G1 X12.578 Y1.587
G1 X12.576 Y1.585
G1 X12.558 Y1.567
G1 X12.555 Y1.565
G1 X12.537 Y1.548
G1 X12.534 Y1.546
G1 X12.514 Y1.532
G1 X12.511 Y1.529
G1 X12.49 Y1.516
G1 X12.487 Y1.515
G1 X12.465 Y1.503
G1 X12.462 Y1.501
G1 X12.439 Y1.491
G1 X12.435 Y1.49
G1 X12.41 Y1.481
G1 X12.407 Y1.48
G1 X12.381 Y1.472
G1 X12.378
G1 X12.35 Y1.465
G1 X12.347
G1 X12.317 Y1.459
G1 X12.315
G1 X12.282 Y1.454
G1 X12.28
G1 X12.245 Y1.451
G1 X12.244 Y1.45
G1 X12.206 Y1.448
G1 X12.205
G1 X12.164 Y1.446
G1 X12.163 Y1.445
G1 X12.12 Y1.444
G1 X12.073 Y1.443
G1 X12.023
G1 X12.022
G1 X11.961 Y1.444
G1 X11.96
G1 X11.902 Y1.447
G1 X11.9
G1 X11.845 Y1.452
G1 X11.842 Y1.453
G1 X11.79 Y1.46
G1 X11.788
G1 X11.738 Y1.47
G1 X11.736
G1 X11.689 Y1.482
G1 X11.686 Y1.483
G1 X11.643 Y1.496
G1 X11.64 Y1.497
G1 X11.599 Y1.513
G1 X11.595 Y1.515
G1 X11.557 Y1.533
G1 X11.554 Y1.535
G1 X11.518 Y1.555
G1 X11.515 Y1.557
G1 X11.482 Y1.58
G1 X11.479 Y1.583
G1 X11.448 Y1.608
G1 X11.445 Y1.611
G1 X11.417 Y1.638
G1 X11.414 Y1.642
G1 X11.389 Y1.672
G1 X11.387 Y1.675
G1 X11.364 Y1.707
G1 X11.362 Y1.711
G1 X11.342 Y1.746
G1 X11.34 Y1.75
G1 X11.323 Y1.787
G1 X11.321 Y1.79
G1 X11.306 Y1.83
G1 X11.305 Y1.833
G1 X11.292 Y1.876
G1 X11.291 Y1.879
G1 X11.281 Y1.924
G1 Y1.927
G1 X11.273 Y1.974
G1 X11.272 Y1.977
G1 X11.267 Y2.027
G1 X11.266 Y2.029
G1 X11.263 Y2.082
G1 Y2.084
G1 X11.262 Y2.14
G1 Y2.141
G1 Y2.279
G1 X6.923
G1 X6.908 Y2.096
G1 Y2.093
G1 X6.898 Y2.015
G1 X6.897 Y2.01
G1 X6.878 Y1.936
G1 X6.877 Y1.931
G1 X6.851 Y1.862
G1 X6.849 Y1.857
G1 X6.816 Y1.792
G1 X6.814 Y1.787
G1 X6.775 Y1.727
G1 X6.772 Y1.723
G1 X6.728 Y1.667
G1 X6.725 Y1.664
G1 X6.676 Y1.613
G1 X6.672 Y1.61
G1 X6.618 Y1.564
G1 X6.615 Y1.562
G1 X6.557 Y1.521
G1 X6.553 Y1.519
G1 X6.492 Y1.484
G1 X6.488 Y1.482
G1 X6.424 Y1.453
G1 X6.42 Y1.452
G1 X6.354 Y1.428
G1 X6.35 Y1.427
G1 X6.282 Y1.41
G1 X6.277 Y1.409
G1 X6.208 Y1.398
G1 X6.204 Y1.397
G1 X6.134 Y1.392
G1 X6.129
G1 X6.059 Y1.394
G1 X6.055
G1 X5.985 Y1.402
G1 X5.98 Y1.403
G1 X5.912 Y1.418
G1 X5.907 Y1.419
G1 X5.84 Y1.441
G1 X5.835 Y1.443
G1 X5.771 Y1.472
G1 X5.766 Y1.475
G1 X5.704 Y1.511
G1 X5.699 Y1.514
G1 X5.641 Y1.558
G1 X5.636 Y1.562
G1 X5.582 Y1.613
G1 X5.578 Y1.617
G1 X5.527 Y1.676
G1 X5.525 Y1.678
G1 X5.423 Y1.813
G1 X5.415 Y1.827
G1 X5.413 Y1.842
G1 X5.402 Y2.788
G1 X5.401 Y2.92
G1 Y2.921
G1 X5.4 Y3.049
G1 X5.401 Y3.172
G1 X5.402 Y3.291
G1 X5.404 Y3.405
G1 X5.407 Y3.515
G1 X5.411 Y3.62
G1 Y3.621
G1 X5.416 Y3.721
G1 Y3.722
G1 X5.422 Y3.819
G1 X5.428 Y3.912
G1 Y3.913
G1 X5.436 Y4.002
G1 X5.444 Y4.088
G1 X5.454 Y4.17
G1 Y4.171
G1 X5.464 Y4.249
G1 Y4.25
G1 X5.476 Y4.324
G1 Y4.325
G1 X5.488 Y4.397
G1 Y4.398
G1 X5.502 Y4.466
G1 Y4.468
G1 X5.516 Y4.533
G1 Y4.534
G1 X5.532 Y4.597
G1 Y4.598
G1 X5.549 Y4.658
G1 Y4.659
G1 X5.566 Y4.716
G1 X5.567 Y4.718
G1 X5.585 Y4.772
G1 X5.586 Y4.774
G1 X5.605 Y4.826
G1 X5.606 Y4.827
G1 X5.627 Y4.877
G1 X5.628 Y4.88
G1 Y4.882
G1 X5.627 Y4.883
G1 X5.626 Y4.885
G1 X5.623 Y4.888
G1 X5.62 Y4.891
G1 X5.616 Y4.894
G1 X5.611 Y4.898
G1 X5.605 Y4.902
G1 X5.599 Y4.906
G1 X5.591 Y4.911
G1 X5.583 Y4.916
G1 X5.574 Y4.921
G1 X5.564 Y4.926
G1 X5.553 Y4.932
G1 X5.541 Y4.938
G1 X5.539 Y4.939
G1 X5.473 Y4.976
G1 X5.468 Y4.979
G1 X5.411 Y5.019
G1 X5.406 Y5.023
G1 X5.357 Y5.067
G1 X5.353 Y5.072
G1 X5.311 Y5.119
G1 X5.307 Y5.124
G1 X5.273 Y5.174
G1 X5.27 Y5.18
G1 X5.244 Y5.232
G1 X5.241 Y5.237
G1 X5.222 Y5.291
G1 X5.22 Y5.297
G1 X5.208 Y5.351
G1 X5.207 Y5.357
G1 X5.202 Y5.412
G1 Y5.418
G1 X5.203 Y5.472
G1 X5.204 Y5.478
G1 X5.212 Y5.531
G1 X5.213 Y5.537
G1 X5.228 Y5.589
G1 X5.23 Y5.595
G1 X5.25 Y5.644
G1 X5.253 Y5.65
G1 X5.279 Y5.697
G1 X5.282 Y5.702
G1 X5.315 Y5.746
G1 X5.318 Y5.751
G1 X5.356 Y5.791
G1 X5.361 Y5.795
G1 X5.404 Y5.831
G1 X5.409 Y5.835
G1 X5.457 Y5.866
G1 X5.462 Y5.869
G1 X5.515 Y5.895
G1 X5.521 Y5.897
G1 X5.579 Y5.917
G1 X5.585 Y5.919
G1 X5.647 Y5.932
G1 X5.653 Y5.933
G1 X5.72 Y5.939
G1 X5.726
G1 X5.797 Y5.938
G1 X5.802 Y5.937
G1 X5.877 Y5.928
G1 X5.88 Y5.927
G1 X5.892 Y5.925
G1 X5.904 Y5.923
G1 X5.917 Y5.921
G1 X5.928 Y5.919
G1 X5.94 Y5.917
G1 X5.951 Y5.915
G1 X5.962 Y5.914
G1 X5.973 Y5.912
G1 X5.983 Y5.911
G1 X5.993 Y5.91
G1 X6.002 Y5.908
G1 X6.01 Y5.907
G1 X6.019 Y5.906
G1 X6.026
G1 X6.033 Y5.905
G1 X6.035 Y5.909
G1 X6.04 Y5.92
G1 X6.045 Y5.932
G1 X6.051 Y5.945
G1 X6.057 Y5.96
G1 X6.063 Y5.976
G1 X6.071 Y5.992
G1 X6.078 Y6.01
G1 X6.086 Y6.029
G1 X6.094 Y6.049
G1 X6.103 Y6.07
G1 X6.111 Y6.091
G1 X6.121 Y6.113
G1 X6.13 Y6.136
G1 X6.14 Y6.16
G1 X6.15 Y6.184
G1 X6.16 Y6.208
G1 X6.17 Y6.233
G1 X6.18 Y6.259
G1 X6.231 Y6.383
G1 X6.232 Y6.384
G1 X6.28 Y6.498
G1 X6.281 Y6.499
G1 X6.328 Y6.604
G1 X6.329 Y6.605
G1 X6.376 Y6.7
G1 X6.378 Y6.703
G1 X6.426 Y6.789
G1 X6.428 Y6.792
G1 X6.479 Y6.87
G1 X6.481 Y6.873
G1 X6.536 Y6.944
G1 X6.539 Y6.947
G1 X6.598 Y7.01
G1 X6.602 Y7.013
G1 X6.668 Y7.069
G1 X6.672 Y7.072
G1 X6.745 Y7.121
G1 X6.749 Y7.124
G1 X6.83 Y7.166
G1 X6.834 Y7.168
G1 X6.925 Y7.205
G1 X6.929 Y7.207
G1 X7.029 Y7.238
G1 X7.033 Y7.239
G1 X7.146 Y7.265
G1 X7.148
G1 X7.274 Y7.287
G1 X7.276
G1 X7.416 Y7.305
G1 X7.418
G1 X7.574 Y7.319
G1 X7.575
G1 X7.747 Y7.329
G1 X7.748
G1 X7.938 Y7.337
G1 X7.939
G1 X8.147 Y7.342
G1 X8.148
G1 X8.377 Y7.345
G1 X8.628 Y7.346
G1 X8.901
G1 X9.197 Y7.345
G1 X10.94 Y7.339
G1 X10.952 Y7.338
G1 X10.962 Y7.334
G1 X11.195 Y7.219
G1 X11.196
G1 X11.24 Y7.196
G1 X11.242
G1 X11.284 Y7.173
G1 X11.285 Y7.172
G1 X11.326 Y7.149
G1 X11.327 Y7.148
G1 X11.367 Y7.124
G1 X11.368
G1 X11.405 Y7.099
G1 X11.407 Y7.098
G1 X11.443 Y7.073
G1 X11.444 Y7.072
G1 X11.478 Y7.046
G1 X11.48 Y7.044
G1 X11.513 Y7.017
G1 X11.515 Y7.016
G1 X11.546 Y6.987
G1 X11.548 Y6.986
G1 X11.579 Y6.956
G1 X11.58 Y6.955
G1 X11.61 Y6.924
G1 X11.611 Y6.922
G1 X11.64 Y6.89
G1 X11.641 Y6.888
G1 X11.669 Y6.854
G1 X11.671 Y6.852
G1 X11.698 Y6.816
G1 X11.699 Y6.815
G1 X11.726 Y6.777
G1 X11.727 Y6.775
G1 X11.753 Y6.735
G1 X11.754 Y6.734
G1 X11.78 Y6.691
G1 X11.781 Y6.69
G1 X11.807 Y6.646
G1 Y6.645
G1 X11.833 Y6.597
G1 Y6.596
G1 X11.859 Y6.547
G1 Y6.546
G1 X11.885 Y6.493
G1 X11.886 Y6.492
G1 X11.912 Y6.437
G1 Y6.436
G1 X11.938 Y6.378
G1 Y6.377
G1 X11.965 Y6.316
G1 X11.978 Y6.286
G1 X11.99 Y6.258
G1 X12.002 Y6.229
G1 X12.014 Y6.202
G1 X12.026 Y6.175
G1 X12.037 Y6.148
G1 X12.048 Y6.123
G1 X12.059 Y6.098
G1 X12.069 Y6.074
G1 X12.079 Y6.052
G1 X12.088 Y6.03
G1 X12.097 Y6.01
G1 X12.106 Y5.99
G1 X12.114 Y5.972
G1 X12.121 Y5.956
G1 X12.128 Y5.941
G1 Y5.94
G1 X12.134 Y5.927
G1 X12.14 Y5.914
G1 X12.144 Y5.905
G1 X12.146
G1 X12.153 Y5.906
G1 X12.16
G1 X12.168 Y5.907
G1 X12.177 Y5.908
G1 X12.186 Y5.91
G1 X12.196 Y5.911
G1 X12.206 Y5.912
G1 X12.217 Y5.914
G1 X12.228 Y5.915
G1 X12.239 Y5.917
G1 X12.251 Y5.919
G1 X12.262 Y5.921
G1 X12.275 Y5.923
G1 X12.287 Y5.925
G1 X12.299 Y5.927
G1 X12.302 Y5.928
G1 X12.37 Y5.936
G1 X12.376 Y5.937
G1 X12.441 Y5.938
G1 X12.447
G1 X12.509 Y5.932
G1 X12.515 Y5.931
G1 X12.574 Y5.919
G1 X12.579 Y5.917
G1 X12.635 Y5.899
G1 X12.64 Y5.897
G1 X12.692 Y5.873
G1 X12.697 Y5.87
G1 X12.745 Y5.841
G1 X12.75 Y5.838
G1 X12.793 Y5.804
G1 X12.798 Y5.801
G1 X12.837 Y5.764
G1 X12.841 Y5.76
G1 X12.875 Y5.719
G1 X12.878 Y5.715
G1 X12.908 Y5.671
G1 X12.911 Y5.666
G1 X12.936 Y5.62
G1 Y5.619
; MOVEMENT_RAPID
G0 Z5 F300
G0 X11.695 Y5.255 F2500
; MOVEMENT_LEAD_IN
G1 Z0 F480
; MOVEMENT_CUTTING
G1 X11.687 Y5.282 F2100
G1 X11.677 Y5.312
G1 X11.666 Y5.344
G1 X11.653 Y5.379
G1 X11.638 Y5.417
G1 X11.622 Y5.458
G1 X11.605 Y5.503
G1 X11.553 Y5.634
G1 X11.504 Y5.756
G1 X11.46 Y5.868
G1 X11.418 Y5.972
G1 X11.379 Y6.066
G1 X11.343 Y6.153
G1 X11.309 Y6.231
G1 X11.277 Y6.302
G1 X11.248 Y6.367
G1 X11.22 Y6.424
G1 X11.194 Y6.476
G1 X11.169 Y6.522
G1 X11.146 Y6.562
G1 X11.123 Y6.598
G1 X11.101 Y6.629
G1 X11.08 Y6.656
G1 X11.058 Y6.68
G1 X11.037 Y6.701
G1 X11.016 Y6.719
G1 X10.993 Y6.736
G1 X10.97 Y6.752
G1 X10.945 Y6.767
G1 X10.918 Y6.781
G1 X10.893 Y6.794
G1 X10.863 Y6.802
G1 X10.802 Y6.811
G1 X10.711 Y6.82
G1 X10.596 Y6.828
G1 X10.46 Y6.836
G1 X10.304 Y6.843
G1 X10.133 Y6.849
G1 X9.949 Y6.855
G1 X9.754 Y6.86
G1 X9.55 Y6.864
G1 X9.342 Y6.867
G1 X9.13 Y6.87
G1 X8.919 Y6.871
G1 X8.71 Y6.872
G1 X8.506
G1 X8.31 Y6.871
G1 X8.124 Y6.869
G1 X7.951 Y6.866
G1 X7.794 Y6.862
G1 X7.655 Y6.857
G1 X7.538 Y6.851
G1 X7.444 Y6.844
G1 X7.379 Y6.836
G1 X7.346 Y6.828
G1 X7.316 Y6.816
G1 X7.285 Y6.802
G1 X7.256 Y6.788
G1 X7.229 Y6.773
G1 X7.204 Y6.757
G1 X7.18 Y6.74
G1 X7.157 Y6.721
G1 X7.134 Y6.7
G1 X7.112 Y6.676
G1 X7.09 Y6.649
G1 X7.067 Y6.618
G1 X7.044 Y6.582
G1 X7.02 Y6.543
G1 X6.995 Y6.498
G1 X6.969 Y6.449
G1 X6.941 Y6.393
G1 X6.912 Y6.332
G1 X6.882 Y6.265
G1 X6.849 Y6.191
G1 X6.815 Y6.11
G1 X6.778 Y6.022
G1 X6.738 Y5.926
G1 X6.696 Y5.822
G1 X6.651 Y5.71
G1 X6.624 Y5.643
G1 X6.599 Y5.581
G1 X6.576 Y5.523
G1 X6.556 Y5.469
G1 X6.537 Y5.419
G1 X6.521 Y5.374
G1 X6.507 Y5.332
G1 X6.495 Y5.294
G1 X6.485 Y5.259
G1 X6.477 Y5.227
G1 X6.471 Y5.199
G1 X6.466 Y5.173
G1 X6.464 Y5.15
G1 X6.463 Y5.13
G1 X6.464 Y5.112
G1 X6.466 Y5.097
G1 X6.469 Y5.083
G1 X6.473 Y5.07
G1 X6.479 Y5.057
G1 X6.486 Y5.045
G1 X6.494 Y5.033
G1 X6.505 Y5.021
G1 X6.517 Y5.008
G1 X6.531 Y4.994
G1 X6.608 Y4.921
G1 X9.095
G1 X11.58
G1 X11.65 Y5.003
G1 X11.663 Y5.019
G1 X11.674 Y5.033
G1 X11.684 Y5.046
G1 X11.692 Y5.058
G1 X11.699 Y5.07
G1 X11.705 Y5.081
G1 X11.709 Y5.092
G1 X11.713 Y5.102
G1 X11.715 Y5.113
G1 X11.717 Y5.125
G1 Y5.139
G1 Y5.153
G1 X11.715 Y5.17
G1 X11.712 Y5.188
G1 X11.708 Y5.208
G1 X11.702 Y5.231
G1 X11.695 Y5.255
; MOVEMENT_RAPID
G0 Z5 F300
G0 X11.536 Y3.957 F2500
; MOVEMENT_LEAD_IN
G1 Z0 F480
; MOVEMENT_CUTTING
G1 X11.475 Y3.964 F2100
G1 X11.411 Y3.97
G1 X11.345 Y3.975
G1 X11.278 Y3.98
G1 X11.21 Y3.984
G1 X11.143 Y3.987
G1 X11.076 Y3.989
G1 X11.011 Y3.991
G1 X10.949
G1 X10.89 Y3.99
G1 X10.835 Y3.989
G1 X10.785 Y3.986
G1 X10.74 Y3.982
G1 X10.703 Y3.977
G1 X10.674 Y3.971
G1 X10.655 Y3.965
G1 X10.63 Y3.953
G1 X10.607 Y3.936
G1 X10.585 Y3.914
G1 X10.565 Y3.888
G1 X10.547 Y3.858
G1 X10.531 Y3.824
G1 X10.517 Y3.787
G1 X10.506 Y3.747
G1 X10.498 Y3.705
G1 X10.492 Y3.662
G1 X10.488 Y3.618
G1 Y3.573
G1 X10.49 Y3.529
G1 X10.495 Y3.485
G1 X10.502 Y3.443
G1 X10.512 Y3.403
G1 X10.525 Y3.365
G1 X10.539 Y3.33
G1 X10.556 Y3.299
G1 X10.575 Y3.272
G1 X10.595 Y3.25
G1 X10.617 Y3.232
G1 X10.64 Y3.219
G1 X10.665 Y3.21
G1 X10.695 Y3.204
G1 X10.732 Y3.198
G1 X10.776 Y3.194
G1 X10.825 Y3.191
G1 X10.878 Y3.188
G1 X10.934 Y3.187
G1 X10.994
G1 X11.056 Y3.188
G1 X11.12 Y3.189
G1 X11.184 Y3.192
G1 X11.249 Y3.195
G1 X11.314 Y3.2
G1 X11.377 Y3.205
G1 X11.439 Y3.21
G1 X11.499 Y3.217
G1 X11.556 Y3.224
G1 X11.61 Y3.231
G1 X11.659 Y3.239
G1 X11.703 Y3.248
G1 X11.741 Y3.256
G1 X11.772 Y3.265
G1 X11.796 Y3.274
G1 X11.808 Y3.28
G1 X11.811 Y3.282
G1 X11.818 Y3.291
G1 X11.826 Y3.306
G1 X11.834 Y3.325
G1 X11.841 Y3.347
G1 X11.848 Y3.372
G1 X11.854 Y3.399
G1 X11.859 Y3.428
G1 X11.864 Y3.459
G1 X11.867 Y3.491
G1 X11.87 Y3.524
G1 X11.871 Y3.557
G1 Y3.591
G1 Y3.625
G1 X11.87 Y3.658
G1 X11.867 Y3.691
G1 X11.864 Y3.723
G1 X11.859 Y3.754
G1 X11.854 Y3.783
G1 X11.848 Y3.81
G1 X11.841 Y3.835
G1 X11.834 Y3.857
G1 X11.826 Y3.876
G1 X11.818 Y3.891
G1 X11.812 Y3.899
G1 X11.809 Y3.901
G1 X11.795 Y3.908
G1 X11.77 Y3.916
G1 X11.736 Y3.925
G1 X11.694 Y3.933
G1 X11.647 Y3.942
G1 X11.594 Y3.949
G1 X11.536 Y3.957
; MOVEMENT_RAPID
G0 Z5 F300
G0 X7.668 Y3.733 F2500
; MOVEMENT_LEAD_IN
G1 Z0 F480
; MOVEMENT_CUTTING
G1 X7.667 Y3.763 F2100
G1 X7.663 Y3.795
G1 X7.659 Y3.823
G1 X7.653 Y3.847
G1 X7.646 Y3.867
G1 X7.638 Y3.883
G1 X7.629 Y3.897
G1 X7.617 Y3.908
G1 X7.603 Y3.919
G1 X7.586 Y3.928
G1 X7.563 Y3.937
G1 X7.536 Y3.945
G1 X7.504 Y3.952
G1 X7.466 Y3.958
G1 X7.423 Y3.962
G1 X7.374 Y3.966
G1 X7.319 Y3.969
G1 X7.259 Y3.971
G1 X7.192 Y3.973
G1 X7.119 Y3.974
G1 X7.039 Y3.975
G1 X6.948 Y3.977
G1 X6.864
G1 X6.788 Y3.978
G1 X6.719 Y3.977
G1 X6.657 Y3.976
G1 X6.601 Y3.973
G1 X6.551 Y3.97
G1 X6.508 Y3.965
G1 X6.47 Y3.958
G1 X6.438 Y3.951
G1 X6.412 Y3.942
G1 X6.391 Y3.932
G1 X6.374 Y3.921
G1 X6.361 Y3.909
G1 X6.35 Y3.895
G1 X6.341 Y3.878
G1 X6.333 Y3.858
G1 X6.326 Y3.834
G1 X6.321 Y3.805
G1 X6.317 Y3.771
G1 X6.315 Y3.733
G1 X6.313 Y3.691
G1 Y3.644
G1 Y3.592
G1 Y3.54
G1 Y3.492
G1 Y3.448
G1 X6.314 Y3.41
G1 X6.317 Y3.376
G1 X6.32 Y3.347
G1 X6.325 Y3.323
G1 X6.331 Y3.303
G1 X6.338 Y3.288
G1 X6.347 Y3.275
G1 X6.357 Y3.265
G1 X6.37 Y3.256
G1 X6.387 Y3.247
G1 X6.409 Y3.239
G1 X6.437 Y3.233
G1 X6.471 Y3.227
G1 X6.511 Y3.222
G1 X6.557 Y3.219
G1 X6.609 Y3.217
G1 X6.668 Y3.215
G1 X6.733
G1 X6.806 Y3.214
G1 X6.886
G1 X6.974
G1 X7.063
G1 X7.144 Y3.215
G1 X7.219
G1 X7.286 Y3.216
G1 X7.346 Y3.218
G1 X7.401 Y3.221
G1 X7.448 Y3.225
G1 X7.49 Y3.23
G1 X7.526 Y3.236
G1 X7.556 Y3.244
G1 X7.581 Y3.252
G1 X7.601 Y3.262
G1 X7.616 Y3.272
G1 X7.628 Y3.284
G1 X7.638 Y3.297
G1 X7.646 Y3.312
G1 X7.653 Y3.332
G1 X7.659 Y3.355
G1 X7.664 Y3.383
G1 X7.667 Y3.416
G1 X7.669 Y3.453
G1 X7.67 Y3.494
G1 X7.671 Y3.54
G1 Y3.591
G1 X7.67 Y3.641
G1 Y3.686
G1 X7.669 Y3.727
G1 X7.668 Y3.733
; MOVEMENT_RAPID
G0 Z5 F300
G0 X2.001 Y20.776 F2500
; MOVEMENT_LEAD_IN
G1 Z0 F480
; MOVEMENT_CUTTING
G1 X1.999 Y20.775 F2100
G1 X1.939 Y20.758
G1 X1.935 Y20.757
G1 X1.876 Y20.746
G1 X1.872 Y20.745
G1 X1.813 Y20.739
G1 X1.809
G1 X1.751 Y20.737
G1 X1.747
G1 X1.69 Y20.741
G1 X1.686
G1 X1.631 Y20.75
G1 X1.627 Y20.751
G1 X1.573 Y20.764
G1 X1.569 Y20.765
G1 X1.517 Y20.783
G1 X1.513 Y20.784
G1 X1.463 Y20.806
G1 X1.459 Y20.808
G1 X1.411 Y20.835
G1 X1.408 Y20.837
G1 X1.362 Y20.867
G1 X1.359 Y20.87
G1 X1.317 Y20.904
G1 X1.313 Y20.907
G1 X1.274 Y20.945
G1 X1.271 Y20.948
G1 X1.235 Y20.99
G1 X1.232 Y20.994
G1 X1.199 Y21.039
G1 X1.197 Y21.043
G1 X1.168 Y21.091
G1 X1.166 Y21.095
G1 X1.14 Y21.147
G1 X1.139 Y21.151
G1 X1.117 Y21.206
G1 X1.116 Y21.21
G1 X1.099 Y21.268
G1 X1.098 Y21.272
G1 X1.086 Y21.333
G1 X1.085 Y21.337
G1 X1.077 Y21.401
G1 Y21.405
G1 X1.075 Y21.471
G1 Y21.475
G1 X1.077 Y21.541
G1 Y21.544
G1 X1.083 Y21.608
G1 X1.084 Y21.611
G1 X1.094 Y21.672
G1 X1.095 Y21.675
G1 X1.109 Y21.733
G1 X1.11 Y21.737
G1 X1.128 Y21.792
G1 X1.13 Y21.795
G1 X1.151 Y21.847
G1 X1.153 Y21.851
G1 X1.178 Y21.899
G1 X1.18 Y21.903
G1 X1.209 Y21.948
G1 X1.211 Y21.952
G1 X1.243 Y21.994
G1 X1.245 Y21.997
G1 X1.28 Y22.036
G1 X1.283 Y22.039
G1 X1.32 Y22.074
G1 X1.324 Y22.076
G1 X1.364 Y22.108
G1 X1.368 Y22.11
G1 X1.41 Y22.138
G1 X1.414 Y22.14
G1 X1.459 Y22.163
G1 X1.463 Y22.165
G1 X1.51 Y22.185
G1 X1.515 Y22.186
G1 X1.564 Y22.201
G1 X1.568 Y22.202
G1 X1.619 Y22.213
G1 X1.624 Y22.214
G1 X1.677 Y22.221
G1 X1.681
G1 X1.735 Y22.223
G1 X1.739
G1 X1.796 Y22.221
G1 X1.8
G1 X1.857 Y22.214
G1 X1.861 Y22.213
G1 X1.919 Y22.201
G1 X1.923 Y22.2
G1 X1.982 Y22.183
G1 X1.986 Y22.182
G1 X2.046 Y22.161
G1 X2.049 Y22.16
G1 X2.066 Y22.152
G1 X2.068 Y22.151
G1 X2.085 Y22.143
G1 X2.087 Y22.142
G1 X2.103 Y22.134
G1 X2.104 Y22.133
G1 X2.119 Y22.124
G1 X2.122 Y22.123
G1 X2.136 Y22.113
G1 X2.138 Y22.112
G1 X2.151 Y22.103
G1 X2.153 Y22.101
G1 X2.166 Y22.091
G1 X2.167 Y22.09
G1 X2.179 Y22.079
G1 X2.181 Y22.078
G1 X2.192 Y22.067
G1 X2.194 Y22.065
G1 X2.203 Y22.055
G1 X2.205 Y22.052
G1 X2.214 Y22.041
G1 X2.216 Y22.039
G1 X2.224 Y22.028
G1 X2.225 Y22.025
G1 X2.232 Y22.014
G1 X2.234 Y22.011
G1 X2.239 Y22
G1 X2.241 Y21.996
G1 X2.245 Y21.985
G1 X2.247 Y21.981
G1 X2.25 Y21.97
G1 X2.251 Y21.965
G1 X2.253 Y21.955
G1 X2.254 Y21.949
G1 X2.255 Y21.939
G1 Y21.933
G1 X2.254 Y21.923
G1 Y21.916
G1 X2.252 Y21.906
G1 X2.25 Y21.9
G1 X2.247 Y21.89
G1 X2.244 Y21.884
G1 X2.24 Y21.875
G1 X2.237 Y21.869
G1 X2.231 Y21.86
G1 X2.227 Y21.855
G1 X2.22 Y21.847
G1 X2.214 Y21.842
G1 X2.211 Y21.839
G1 X2.205 Y21.835
G1 X2.202 Y21.833
G1 X2.196 Y21.83
G1 X2.192 Y21.828
G1 X2.186 Y21.826
G1 X2.181 Y21.824
G1 X2.177 Y21.823
G1 X2.172 Y21.822
G1 X2.167
G1 X2.162 Y21.821
G1 X2.159
G1 X2.153
G1 X2.149
G1 X2.143
G1 X2.141
G1 X2.134 Y21.822
G1 X2.131
G1 X2.124 Y21.823
G1 X2.122
G1 X2.115 Y21.824
G1 X2.113 Y21.825
G1 X2.105 Y21.826
G1 X2.103 Y21.827
G1 X2.095 Y21.829
G1 X2.093
G1 X2.085 Y21.832
G1 X2.083
G1 X2.074 Y21.835
G1 X2.073
G1 X2.063 Y21.838
G1 X2.062 Y21.839
G1 X2.052 Y21.842
G1 X2.051 Y21.843
G1 X2.041 Y21.846
G1 X2.04 Y21.847
G1 X2.029 Y21.851
G1 X2.028
G1 X2.017 Y21.856
G1 X2.016
G1 X2.005 Y21.861
G1 X2.004
G1 X1.992 Y21.867
G1 X1.991
G1 X1.979 Y21.873
G1 X1.967 Y21.879
G1 X1.923 Y21.898
G1 X1.882 Y21.911
G1 X1.841 Y21.921
G1 X1.8 Y21.926
G1 X1.762 Y21.927
G1 X1.724 Y21.925
G1 X1.687 Y21.919
G1 X1.652 Y21.909
G1 X1.618 Y21.896
G1 X1.586 Y21.88
G1 X1.555 Y21.861
G1 X1.526 Y21.838
G1 X1.5 Y21.813
G1 X1.475 Y21.785
G1 X1.453 Y21.755
G1 X1.434 Y21.721
G1 X1.417 Y21.686
G1 X1.403 Y21.648
G1 X1.392 Y21.608
G1 X1.384 Y21.566
G1 X1.381 Y21.538
G1 X1.38 Y21.522
G1 X1.379 Y21.476
G1 X1.382 Y21.428
G1 X1.389 Y21.379
G1 X1.401 Y21.332
G1 X1.417 Y21.288
G1 X1.436 Y21.246
G1 X1.459 Y21.208
G1 X1.486 Y21.174
G1 X1.514 Y21.142
G1 X1.545 Y21.114
G1 X1.578 Y21.089
G1 X1.612 Y21.068
G1 X1.646 Y21.051
G1 X1.681 Y21.037
G1 X1.715 Y21.027
G1 X1.748 Y21.022
G1 X1.779 Y21.02
G1 X1.808 Y21.022
G1 X1.835 Y21.028
G1 X1.858 Y21.037
G1 X1.879 Y21.05
G1 X1.897 Y21.066
G1 X1.912 Y21.085
G1 X1.924 Y21.11
G1 X1.933 Y21.14
G1 X1.938 Y21.177
G1 X1.939 Y21.221
G1 X1.931 Y21.359
G1 X1.806 Y21.367
G1 X1.805
G1 X1.788 Y21.368
G1 X1.772 Y21.369
G1 X1.757 Y21.37
G1 X1.756
G1 X1.742 Y21.372
G1 X1.729 Y21.373
G1 X1.728 Y21.374
G1 X1.716 Y21.375
G1 X1.715
G1 X1.704 Y21.377
G1 X1.702 Y21.378
G1 X1.692 Y21.38
G1 X1.691
G1 X1.682 Y21.382
G1 X1.679 Y21.383
G1 X1.671 Y21.385
G1 X1.669 Y21.386
G1 X1.661 Y21.389
G1 X1.658 Y21.39
G1 X1.652 Y21.393
G1 X1.648 Y21.394
G1 X1.642 Y21.398
G1 X1.638 Y21.4
G1 X1.633 Y21.403
G1 X1.629 Y21.406
G1 X1.625 Y21.41
G1 X1.62 Y21.414
G1 X1.616 Y21.418
G1 X1.612 Y21.423
G1 X1.609 Y21.427
G1 X1.606 Y21.432
G1 X1.603 Y21.437
G1 X1.601 Y21.442
G1 X1.599 Y21.447
G1 X1.597 Y21.452
G1 X1.595 Y21.458
G1 X1.594 Y21.462
G1 X1.593 Y21.467
G1 X1.592 Y21.471
G1 X1.591 Y21.477
G1 Y21.481
G1 X1.59 Y21.487
G1 Y21.49
G1 Y21.497
G1 Y21.499
G1 Y21.507
G1 Y21.509
G1 X1.591 Y21.516
G1 Y21.519
G1 X1.592 Y21.526
G1 X1.593 Y21.53
G1 X1.594 Y21.536
G1 X1.596 Y21.542
G1 X1.598 Y21.548
G1 X1.6 Y21.554
G1 X1.603 Y21.559
G1 X1.607 Y21.566
G1 X1.611 Y21.571
G1 X1.616 Y21.577
G1 X1.621 Y21.581
G1 X1.627 Y21.586
G1 X1.632 Y21.59
G1 X1.638 Y21.593
G1 X1.645 Y21.596
G1 X1.649 Y21.598
G1 X1.657 Y21.601
G1 X1.661 Y21.602
G1 X1.67 Y21.605
G1 X1.673
G1 X1.683 Y21.607
G1 X1.686 Y21.608
G1 X1.697 Y21.609
G1 X1.699
G1 X1.712 Y21.61
G1 X1.714 Y21.611
G1 X1.728
G1 X1.729
G1 X1.746 Y21.612
G1 X1.747
G1 X1.765
G1 X1.785
G1 X1.786
G1 X1.808
G1 X1.832 Y21.611
G1 X1.858 Y21.61
G1 X1.887 Y21.609
G1 X1.918 Y21.608
G1 X2.135 Y21.6
G1 X2.193 Y21.598
G1 X2.211 Y21.594
G1 X2.227 Y21.583
G1 X2.237 Y21.568
G1 X2.241 Y21.55
G1 X2.251 Y21.24
G1 X2.262 Y20.93
G1 X2.259 Y20.912
G1 X2.249 Y20.896
G1 X2.235 Y20.884
G1 X2.128 Y20.829
G1 X2.127
G1 X2.067 Y20.801
G1 X2.063 Y20.799
G1 X2.003 Y20.777
G1 X2.001 Y20.776
; MOVEMENT_RAPID
G0 Z5 F300
G0 X1.748 Y30.436 F2500
; MOVEMENT_LEAD_IN
G1 Z0 F480
; MOVEMENT_CUTTING
G1 X1.742 Y30.437 F2100
G1 X1.626 Y30.448
G1 X1.511 Y30.459
G1 X1.494 Y30.464
G1 X1.479 Y30.474
G1 X1.47 Y30.489
G1 X1.466 Y30.506
G1 X1.455 Y30.764
G1 X1.447 Y30.974
G1 X1.304
G1 X1.303
G1 X1.273
G1 X1.272
G1 X1.243 Y30.975
G1 X1.216
G1 X1.215
G1 X1.19 Y30.976
G1 X1.189
G1 X1.167 Y30.978
G1 X1.165
G1 X1.144 Y30.98
G1 X1.143
G1 X1.123 Y30.982
G1 X1.122
G1 X1.104 Y30.985
G1 X1.102 Y30.986
G1 X1.086 Y30.989
G1 X1.083
G1 X1.068 Y30.993
G1 X1.065 Y30.994
G1 X1.052 Y30.998
G1 X1.048 Y31
G1 X1.037 Y31.005
G1 X1.032 Y31.007
G1 X1.022 Y31.012
G1 X1.018 Y31.015
G1 X1.008 Y31.021
G1 X1.004 Y31.025
G1 X0.996 Y31.032
G1 X0.991 Y31.036
G1 X0.984 Y31.044
G1 X0.981 Y31.049
G1 X0.975 Y31.057
G1 X0.972 Y31.063
G1 X0.967 Y31.072
G1 X0.965 Y31.077
G1 X0.961 Y31.087
G1 X0.959 Y31.092
G1 X0.957 Y31.103
G1 X0.956 Y31.107
G1 X0.953 Y31.118
G1 Y31.122
G1 X0.951 Y31.134
G1 Y31.137
G1 X0.95 Y31.151
G1 Y31.153
G1 Y31.168
G1 Y31.169
G1 Y31.181
G1 Y31.192
G1 Y31.194
G1 X0.951 Y31.204
G1 Y31.206
G1 Y31.215
G1 X0.952 Y31.218
G1 X0.953 Y31.226
G1 X0.954 Y31.23
G1 X0.955 Y31.238
G1 X0.957 Y31.243
G1 X0.959 Y31.25
G1 X0.962 Y31.256
G1 X0.965 Y31.262
G1 X0.968 Y31.269
G1 X0.972 Y31.274
G1 X0.978 Y31.281
G1 X0.983 Y31.285
G1 X0.988 Y31.29
G1 X0.994 Y31.295
G1 X1 Y31.298
G1 X1.007 Y31.302
G1 X1.012 Y31.305
G1 X1.02 Y31.308
G1 X1.025 Y31.309
G1 X1.035 Y31.312
G1 X1.037 Y31.313
G1 X1.048 Y31.316
G1 X1.051
G1 X1.064 Y31.318
G1 X1.066 Y31.319
G1 X1.08 Y31.32
G1 X1.081 Y31.321
G1 X1.097 Y31.322
G1 X1.098
G1 X1.116 Y31.324
G1 X1.117
G1 X1.136 Y31.325
G1 X1.137
G1 X1.159 Y31.327
G1 X1.183 Y31.328
G1 X1.209 Y31.329
G1 X1.238 Y31.33
G1 X1.432 Y31.339
G1 X1.44 Y31.524
G1 X1.441 Y31.56
G1 Y31.561
G1 X1.443 Y31.594
G1 Y31.595
G1 X1.445 Y31.626
G1 X1.447 Y31.654
G1 Y31.655
G1 X1.449 Y31.681
G1 Y31.682
G1 X1.451 Y31.705
G1 Y31.706
G1 X1.454 Y31.727
G1 Y31.729
G1 X1.457 Y31.748
G1 Y31.75
G1 X1.46 Y31.767
G1 Y31.769
G1 X1.464 Y31.784
G1 X1.465 Y31.787
G1 X1.469 Y31.8
G1 X1.47 Y31.804
G1 X1.475 Y31.816
G1 X1.477 Y31.82
G1 X1.482 Y31.83
G1 X1.485 Y31.835
G1 X1.491 Y31.844
G1 X1.495 Y31.849
G1 X1.501 Y31.856
G1 X1.507 Y31.861
G1 X1.514 Y31.867
G1 X1.521 Y31.871
G1 X1.529 Y31.876
G1 X1.536 Y31.879
G1 X1.544 Y31.882
G1 X1.551 Y31.884
G1 X1.56 Y31.886
G1 X1.565
G1 X1.575 Y31.888
G1 X1.579
G1 X1.59
G1 X1.593
G1 X1.605
G1 X1.608
G1 X1.621 Y31.887
G1 X1.622
G1 X1.636 Y31.885
G1 X1.637
G1 X1.648 Y31.884
G1 X1.65
G1 X1.66 Y31.882
G1 X1.661
G1 X1.671 Y31.88
G1 X1.674
G1 X1.683 Y31.878
G1 X1.685 Y31.877
G1 X1.693 Y31.875
G1 X1.698 Y31.873
G1 X1.705 Y31.87
G1 X1.71 Y31.868
G1 X1.717 Y31.865
G1 X1.722 Y31.861
G1 X1.728 Y31.857
G1 X1.734 Y31.853
G1 X1.739 Y31.848
G1 X1.744 Y31.843
G1 X1.749 Y31.837
G1 X1.752 Y31.831
G1 X1.757 Y31.824
G1 X1.759 Y31.819
G1 X1.763 Y31.811
G1 X1.765 Y31.807
G1 X1.769 Y31.797
G1 X1.77 Y31.794
G1 X1.773 Y31.783
G1 X1.774 Y31.78
G1 X1.776 Y31.768
G1 X1.777 Y31.766
G1 X1.779 Y31.751
G1 X1.78 Y31.75
G1 X1.782 Y31.734
G1 Y31.733
G1 X1.784 Y31.715
G1 X1.785 Y31.714
G1 X1.787 Y31.694
G1 X1.789 Y31.672
G1 X1.791 Y31.648
G1 Y31.647
G1 X1.793 Y31.621
G1 X1.795 Y31.592
G1 X1.797 Y31.561
G1 X1.811 Y31.339
G1 X2.009 Y31.33
G1 X2.251 Y31.32
G1 X2.267 Y31.316
G1 X2.281 Y31.308
G1 X2.291 Y31.296
G1 X2.298 Y31.281
G1 X2.299 Y31.265
G1 X2.288 Y31.151
G1 X2.277 Y31.037
G1 X2.272 Y31.02
G1 X2.261 Y31.006
G1 X2.246 Y30.996
G1 X2.229 Y30.992
G1 X1.989 Y30.981
G1 X1.797 Y30.973
G1 Y30.486
G1 X1.793 Y30.467
G1 X1.783 Y30.451
G1 X1.767 Y30.44
G1 X1.748 Y30.436
; MOVEMENT_RAPID
G0 Z5 F300
G0 X24.063 F2500
; MOVEMENT_LEAD_IN
G1 Z0 F480
; MOVEMENT_CUTTING
G1 Y32.731 F2100
G1 X24.067 Y32.75
G1 X24.078 Y32.766
G1 X24.094 Y32.777
G1 X24.113 Y32.781
G1 X24.967
G1 X26.317
G1 X26.337 Y32.777
G1 X26.353 Y32.766
G1 X26.364 Y32.75
G1 X26.368 Y32.731
G1 Y31.927
G1 Y29.353
G1 X26.364 Y29.334
G1 X26.353 Y29.318
G1 X26.337 Y29.307
G1 X26.317 Y29.303
G1 X26.015
G1 X25.763
G1 Y26.169
G1 Y22.932
G1 X26.301 Y22.914
G1 X26.32 Y22.909
G1 X26.336 Y22.898
G1 X26.346 Y22.882
G1 X26.35 Y22.864
G1 X26.359 Y20.935
G1 X26.368 Y19.006
G1 X26.364 Y18.987
G1 X26.354 Y18.97
G1 X26.337 Y18.959
G1 X26.318 Y18.955
G1 X25.215
G1 X24.112
G1 X24.093 Y18.959
G1 X24.077 Y18.97
G1 X24.066 Y18.987
G1 X24.062 Y19.006
G1 X24.071 Y20.935
G1 X24.081 Y22.864
G1 X24.084 Y22.883
G1 X24.095 Y22.898
G1 X24.11 Y22.909
G1 X24.129 Y22.914
G1 X24.458 Y22.924
G1 X24.739 Y22.932
G1 Y26.118
G1 Y29.303
G1 X24.113
G1 X24.094 Y29.307
G1 X24.078 Y29.318
G1 X24.067 Y29.334
G1 X24.063 Y29.353
G1 Y30.436
; MOVEMENT_RAPID
G0 Z5 F300
G0 X29.088 Y30.465 F2500
; MOVEMENT_LEAD_IN
G1 Z0 F480
; MOVEMENT_CUTTING
G1 X29.085 Y31.006 F2100
G1 X29.084 Y31.118
G1 Y31.228
G1 X29.083 Y31.336
G1 Y31.441
G1 Y31.545
G1 Y31.645
G1 Y31.742
G1 Y31.837
G1 Y31.927
G1 Y32.014
G1 Y32.097
G1 X29.084 Y32.175
G1 Y32.249
G1 X29.085 Y32.318
G1 Y32.382
G1 X29.086 Y32.441
G1 Y32.494
G1 X29.087 Y32.541
G1 X29.088 Y32.583
G1 X29.089 Y32.618
G1 X29.09 Y32.646
G1 Y32.647
G1 X29.091 Y32.668
G1 Y32.67
G1 X29.092 Y32.684
G1 X29.093 Y32.688
G1 X29.094 Y32.695
G1 X29.097 Y32.706
G1 X29.102 Y32.716
G1 X29.105 Y32.72
G1 X29.117 Y32.732
G1 X29.122 Y32.736
G1 X29.131 Y32.741
G1 X29.139 Y32.745
G1 X29.145 Y32.747
G1 X29.156 Y32.75
G1 X29.16 Y32.751
G1 X29.174 Y32.754
G1 X29.177 Y32.755
G1 X29.195 Y32.758
G1 X29.197
G1 X29.218 Y32.761
G1 X29.219
G1 X29.244 Y32.763
G1 X29.245
G1 X29.273 Y32.766
G1 X29.274
G1 X29.306 Y32.768
G1 X29.307
G1 X29.343 Y32.769
G1 X29.344
G1 X29.384 Y32.771
G1 X29.385
G1 X29.43 Y32.772
G1 X29.48 Y32.773
G1 X29.481
G1 X29.535 Y32.774
G1 X29.536
G1 X29.595
G1 X29.66 Y32.775
G1 X29.73
G1 X29.731
G1 X29.806
G1 X29.887
G1 X29.888
G1 X29.975
G1 X30.068 Y32.774
G1 X30.167 Y32.773
G1 X30.273
G1 X31.385 Y32.763
G1 X31.404 Y32.759
G1 X31.42 Y32.748
G1 X31.431 Y32.732
G1 X31.434 Y32.713
G1 X31.444 Y31.033
G1 X31.453 Y29.353
G1 X31.449 Y29.334
G1 X31.438 Y29.318
G1 X31.422 Y29.307
G1 X31.403 Y29.303
G1 X31.047
G1 X30.741
G1 Y26.633
G1 Y24.624
G1 Y23.963
G1 X31.171
G1 X31.601
G1 Y25.335
G1 X31.605 Y25.354
G1 X31.616 Y25.37
G1 X31.632 Y25.381
G1 X31.651 Y25.385
G1 X32.754
G1 X33.856
G1 X33.875 Y25.381
G1 X33.891 Y25.37
G1 X33.902 Y25.354
G1 X33.906 Y25.335
G1 Y21.459
G1 X33.902 Y21.44
G1 X33.891 Y21.424
G1 X33.875 Y21.413
G1 X33.856 Y21.409
G1 X31.651
G1 X31.632 Y21.413
G1 X31.616 Y21.424
G1 X31.605 Y21.44
G1 X31.601 Y21.459
G1 Y22.223
G1 Y22.938
G1 X29.802
G1 X29.783 Y22.942
G1 X29.767 Y22.953
G1 X29.756 Y22.969
G1 X29.752 Y22.988
G1 Y26.118
G1 Y29.302
G1 X29.472 Y29.311
G1 X29.143 Y29.321
G1 X29.124 Y29.325
G1 X29.109 Y29.336
G1 X29.098 Y29.352
G1 X29.094 Y29.37
G1 X29.088 Y30.465
; MOVEMENT_RAPID
G0 Z5 F300
G0 X35.655 F2500
; MOVEMENT_LEAD_IN
G1 Z0 F480
; MOVEMENT_CUTTING
G1 Y32.766 F2100
G1 X35.659 Y32.786
G1 X35.669 Y32.802
G1 X35.686 Y32.813
G1 X35.705 Y32.817
G1 X41.874
G1 X48.043
G1 X48.063 Y32.813
G1 X48.079 Y32.802
G1 X48.09 Y32.786
G1 X48.093 Y32.766
G1 Y29.691
G1 Y26.615
G1 X48.09 Y26.596
G1 X48.079 Y26.58
G1 X48.063 Y26.569
G1 X48.043 Y26.565
G1 X43.954
G1 X42.905
G1 X41.874
G1 X35.705
G1 X35.686 Y26.569
G1 X35.669 Y26.58
G1 X35.659 Y26.596
G1 X35.655 Y26.615
G1 Y29.353
G1 Y30.465
; MOVEMENT_RAPID
G0 Z5 F300
G0 X36.507 Y30.469 F2500
; MOVEMENT_LEAD_IN
G1 Z0 F480
; MOVEMENT_CUTTING
G1 X36.51 Y29.682 F2100
G1 X36.512 Y29.3
G1 X36.517 Y27.956
G1 X36.519 Y27.394
G1 X41.883 Y27.385
G1 X42.579 Y27.384
G1 X47.247 Y27.376
G1 Y29.673
G1 Y31.085
G1 Y31.97
G1 X36.501
G1 X36.507 Y30.469
; MOVEMENT_RAPID
G0 Z5 F300
G0 X37.629 Y29.56 F2500
; MOVEMENT_LEAD_IN
G1 Z0 F480
; MOVEMENT_CUTTING
G1 X37.649 Y29.585 F2100
G1 X37.65 Y29.586
G1 X37.681 Y29.622
G1 X37.682 Y29.623
G1 X37.717 Y29.66
G1 Y29.661
G1 X37.755 Y29.7
G1 X37.756 Y29.701
G1 X37.797 Y29.742
G1 X37.798 Y29.743
G1 X37.838 Y29.781
G1 X37.84 Y29.782
G1 X37.882 Y29.818
G1 X37.883 Y29.82
G1 X37.926 Y29.854
G1 X37.928 Y29.855
G1 X37.972 Y29.888
G1 X37.974 Y29.889
G1 X38.019 Y29.92
G1 X38.02 Y29.921
G1 X38.066 Y29.95
G1 X38.068 Y29.951
G1 X38.114 Y29.978
G1 X38.116 Y29.979
G1 X38.163 Y30.004
G1 X38.164 Y30.005
G1 X38.211 Y30.028
G1 X38.213
G1 X38.259 Y30.049
G1 X38.261 Y30.05
G1 X38.307 Y30.068
G1 X38.309 Y30.069
G1 X38.355 Y30.085
G1 X38.357 Y30.086
G1 X38.402 Y30.099
G1 X38.404 Y30.1
G1 X38.447 Y30.111
G1 X38.45 Y30.112
G1 X38.492 Y30.121
G1 X38.495
G1 X38.536 Y30.127
G1 X38.539
G1 X38.578 Y30.131
G1 X38.582
G1 X38.619 Y30.132
G1 X38.623
G1 X38.658 Y30.129
G1 X38.663
G1 X38.695 Y30.124
G1 X38.7 Y30.122
G1 X38.73 Y30.114
G1 X38.737 Y30.112
G1 X38.764 Y30.101
G1 X38.77 Y30.098
G1 X38.794 Y30.084
G1 X38.801 Y30.079
G1 X38.822 Y30.061
G1 X38.825 Y30.059
G1 X38.827 Y30.057
G1 X38.829 Y30.055
G1 X38.831 Y30.053
G1 X38.832
G1 X38.833 Y30.052
G1 X38.834 Y30.051
G1 X38.835
G1 X38.836
G1 X38.837
G1 X38.838
G1 X38.84 Y30.052
G1 X38.841 Y30.053
G1 X38.843 Y30.054
G1 X38.845 Y30.055
G1 X38.847 Y30.057
G1 X38.851 Y30.06
G1 X38.858 Y30.065
G1 X38.868 Y30.073
G1 X38.881 Y30.083
G1 X38.896 Y30.096
G1 X38.914 Y30.11
G1 X38.934 Y30.126
G1 X38.956 Y30.144
G1 X39.007 Y30.185
G1 X39.036 Y30.207
G1 X39.066 Y30.232
G1 X39.098 Y30.257
G1 X39.132 Y30.284
G1 X39.166 Y30.312
G1 X39.203 Y30.342
G1 X39.241 Y30.372
G1 X39.279 Y30.403
G1 X39.319 Y30.435
G1 X39.36 Y30.468
G1 X39.402 Y30.502
G1 X39.444 Y30.536
G1 X39.445
G1 X39.488 Y30.571
G1 X39.532 Y30.606
G1 X39.626 Y30.682
G1 X39.716 Y30.754
G1 X39.801 Y30.822
G1 X39.802
G1 X39.883 Y30.887
G1 X39.96 Y30.948
G1 X39.961
G1 X40.034 Y31.006
G1 X40.104 Y31.06
G1 Y31.061
G1 X40.171 Y31.112
G1 X40.235 Y31.161
G1 X40.295 Y31.206
G1 X40.352 Y31.249
G1 X40.353 Y31.25
G1 X40.407 Y31.29
G1 X40.408
G1 X40.46 Y31.328
G1 X40.51 Y31.364
G1 X40.558 Y31.398
G1 X40.604 Y31.429
G1 X40.648 Y31.459
G1 X40.69 Y31.487
G1 X40.691
G1 X40.731 Y31.513
G1 X40.732 Y31.514
G1 X40.771 Y31.538
G1 X40.772 Y31.539
G1 X40.81 Y31.562
G1 X40.811
G1 X40.848 Y31.584
G1 X40.849
G1 X40.885 Y31.605
G1 X40.886
G1 X40.922 Y31.625
G1 X40.954 Y31.642
G1 X40.955 Y31.643
G1 X40.985 Y31.658
G1 X40.986
G1 X41.014 Y31.672
G1 X41.015 Y31.673
G1 X41.042 Y31.686
G1 X41.043
G1 X41.068 Y31.697
G1 X41.07 Y31.698
G1 X41.094 Y31.708
G1 X41.095
G1 X41.118 Y31.717
G1 X41.12 Y31.718
G1 X41.142 Y31.725
G1 X41.144
G1 X41.164 Y31.731
G1 X41.167 Y31.732
G1 X41.187 Y31.736
G1 X41.189 Y31.737
G1 X41.208 Y31.74
G1 X41.211 Y31.741
G1 X41.229 Y31.742
G1 X41.233 Y31.743
G1 X41.25
G1 X41.254
G1 X41.27 Y31.742
G1 X41.274
G1 X41.29 Y31.74
G1 X41.295 Y31.739
G1 X41.31 Y31.736
G1 X41.314 Y31.734
G1 X41.329 Y31.73
G1 X41.333 Y31.728
G1 X41.348 Y31.722
G1 X41.351 Y31.72
G1 X41.366 Y31.713
G1 X41.369 Y31.711
G1 X41.383 Y31.702
G1 X41.386 Y31.701
G1 X41.4 Y31.691
G1 X41.402 Y31.689
G1 X41.416 Y31.678
G1 X41.418 Y31.676
G1 X41.432 Y31.664
G1 X41.434 Y31.662
G1 X41.448 Y31.648
G1 X41.45 Y31.647
G1 X41.468 Y31.628
G1 X41.47 Y31.625
G1 X41.487 Y31.606
