;Fusion 360 CAM 2.0.7046
; Posts processor: DIYCNC_Marlin20.cps
; Gcode generated: Wed Dec 25 13:31:29 2019 GMT
; Document: garagePCB v3
; Setup: Setup1
; 
; Ranges table:
; X: Min=1.051 Max=48.028 Size=46.977
; Y: Min=1.05 Max=32.716 Size=31.666
; Z: Min=-2 Max=10 Size=12
; 
; Tools table:
; T1 D=3.175 CR=0 TAPER=45deg - ZMIN=-2 - chamfer mill 

; *** START begin ***
G90
G21
M84 S0
G92 X0 Y0 Z0
; *** START end ***

; *** SECTION begin ***
;Engrave2 - Milling - Tool: 1 -  chamfer mill
; X Min: 1.051 - X Max: 48.028
; Y Min: 1.05 - Y Max: 32.716
; Z Min: -2 - Z Max: 10
; COMMAND_START_SPINDLE
; COMMAND_SPINDLE_CLOCKWISE
;M0 Turn ON 24000RPM
; COMMAND_COOLANT_ON
;M117  Engrave2
G0 Z10 F300
G0 X1.051 Y31.145 F2500
G0 Z4 F300
; MOVEMENT_LEAD_IN
G1 Z-1 F3
; MOVEMENT_CUTTING
G1 X1.114 Y31.15 Z-1.064 F15
G1 X1.112 Y31.149 Z-1.062
G1 X1.095 Y31.09 Z-1
G1 X1.112 Y31.149 Z-1.062
G1 X1.105 Y31.143 Z-1.054
G1 X1.103 Y31.141 Z-1.052
G1 X1.085 Y31.093 Z-1
G1 X1.103 Y31.141 Z-1.052
G1 X1.098 Y31.137 Z-1.046
G1 X1.097 Y31.136 Z-1.044
G1 X1.078 Y31.096 Z-1
G1 X1.097 Y31.136 Z-1.044
G1 X1.093 Y31.132 Z-1.039
G1 X1.091 Y31.131 Z-1.038
G1 X1.072 Y31.099 Z-1
G1 X1.091 Y31.131 Z-1.038
G1 X1.089 Y31.129 Z-1.034
G1 X1.087 Y31.128 Z-1.032
G1 Y31.127
G1 X1.086 Z-1.03
G1 X1.064 Y31.105 Z-1
G1 X1.086 Y31.127 Z-1.03
G1 X1.062 Y31.108 Z-1
G1 X1.086 Y31.127 Z-1.03
G1 X1.087 Z-1.032
G1 X1.06 Y31.111 Z-1
G1 X1.087 Y31.127 Z-1.032
G1 Y31.128
G1 X1.068 Y31.102 Z-1
G1 X1.087 Y31.128 Z-1.032
G1 X1.089 Y31.129 Z-1.034
G1 X1.058 Y31.115 Z-1
G1 X1.089 Y31.129 Z-1.034
G1 X1.091 Y31.131 Z-1.038
G1 X1.093 Y31.132 Z-1.039
G1 X1.056 Y31.12 Z-1
G1 X1.093 Y31.132 Z-1.039
G1 X1.097 Y31.136 Z-1.044
G1 X1.098 Y31.137 Z-1.046
G1 X1.054 Y31.127 Z-1
G1 X1.098 Y31.137 Z-1.046
G1 X1.103 Y31.141 Z-1.052
G1 X1.105 Y31.143 Z-1.054
G1 X1.052 Y31.135 Z-1
G1 X1.105 Y31.143 Z-1.054
G1 X1.112 Y31.149 Z-1.062
G1 X1.114 Y31.15 Z-1.064
G1 X1.12 Y31.155 Z-1.069
G1 X1.115 Y31.158 Z-1.065
G1 X1.113 Y31.16 Z-1.063
G1 X1.103 Y31.169 Z-1.053
G1 X1.098 Y31.174 Z-1.048
G1 X1.091 Y31.18 Z-1.041
G1 X1.085 Y31.185 Z-1.035
G1 X1.08 Y31.19 Z-1.029
G1 X1.074 Y31.194 Z-1.024
G1 X1.07 Y31.198 Z-1.02
G1 X1.065 Y31.202 Z-1.014
G1 X1.062 Y31.216 Z-1
G1 X1.065 Y31.202 Z-1.014
G1 X1.062 Y31.204 Z-1.011
G1 X1.057 Y31.209 Z-1.006
G1 X1.056 Y31.214 Z-1
G1 X1.057 Y31.209 Z-1.006
G1 X1.056 Y31.21 Z-1.004
G1 X1.052 Y31.213 Z-1
G1 X1.056 Y31.21 Z-1.004
G1 X1.052 Z-1.001
G1 X1.056 Z-1.004
G1 X1.057 Y31.209 Z-1.006
G1 X1.062 Y31.204 Z-1.011
G1 X1.051 Y31.206 Z-1
G1 X1.062 Y31.204 Z-1.011
G1 X1.065 Y31.202 Z-1.014
G1 X1.07 Y31.198 Z-1.02
G1 X1.074 Y31.194 Z-1.024
G1 X1.07 Y31.218 Z-1
G1 X1.074 Y31.194 Z-1.024
G1 X1.08 Y31.19 Z-1.029
G1 X1.085 Y31.185 Z-1.035
G1 X1.091 Y31.18 Z-1.041
G1 X1.098 Y31.174 Z-1.048
G1 X1.103 Y31.169 Z-1.053
G1 X1.113 Y31.16 Z-1.063
G1 X1.115 Y31.158 Z-1.065
G1 X1.12 Y31.155 Z-1.069
G1 X1.122 Y31.154 Z-1.07
G1 X1.107 Y31.087 Z-1
G1 X1.122 Y31.154 Z-1.07
G1 X1.129
G1 X1.132 Z-1.071
G1 X1.146 Y31.153 Z-1.072
G1 X1.147
G1 X1.161 Z-1.074
G1 X1.168
G1 X1.179 Y31.152 Z-1.075
G1 X1.191 Z-1.076
G1 X1.199
G1 X1.217 Z-1.077
G1 X1.222
G1 X1.246 Y31.153 Z-1.078
G1 X1.247
G1 X1.274 Z-1.079
G1 X1.304 Y31.154
G1 X1.486 Y31.158 Z-1.083
G1 X1.516 Y31.159 Z-1.086
G1 X1.54 Y31.16 Z-1.094
G1 X1.574 Y31.162 Z-1.109
G1 X1.622 Y31.165 Z-1.14
G1 Y31.209 Z-1.114
G1 Y31.239 Z-1.101
G1 Y31.281 Z-1.093
G1 X1.619 Y31.516 Z-1.08
G1 Y31.527 Z-1.079
G1 Y31.537
G1 Y31.547 Z-1.078
G1 Y31.549
G1 Y31.557 Z-1.077
G1 Y31.567
G1 Y31.577 Z-1.076
G1 Y31.58
G1 Y31.586
G1 Y31.596 Z-1.075
G1 Y31.606 Z-1.074
G1 Y31.608
G1 Y31.615
G1 Y31.625 Z-1.073
G1 Y31.634 Z-1.072
G1 Y31.643
G1 Y31.652 Z-1.071
G1 Y31.657 Z-1.07
G1 Y31.661
G1 Y31.669 Z-1.069
G1 Y31.678
G1 Y31.686 Z-1.068
G1 Y31.694 Z-1.067
G1 Y31.696
G1 Y31.701 Z-1.066
G1 Y31.709 Z-1.065
G1 Y31.711
G1 X1.618 Y31.716
G1 Y31.722 Z-1.064
G1 Y31.723
G1 X1.62 Y31.724 Z-1.062
G1 X1.63 Y31.735 Z-1.05
G1 X1.632 Y31.737 Z-1.048
G1 X1.64 Y31.745 Z-1.038
G1 X1.642 Y31.748 Z-1.036
G1 X1.676 Y31.757 Z-1
G1 X1.642 Y31.748 Z-1.036
G1 X1.648 Y31.754 Z-1.028
G1 X1.653 Y31.782 Z-1
G1 X1.648 Y31.754 Z-1.028
G1 X1.65 Y31.757 Z-1.025
G1 X1.674 Y31.764 Z-1
G1 X1.65 Y31.757 Z-1.025
G1 X1.654 Y31.762 Z-1.02
G1 X1.659 Y31.78 Z-1
G1 X1.654 Y31.762 Z-1.02
G1 X1.656 Y31.764 Z-1.017
G1 X1.672 Y31.77 Z-1
G1 X1.656 Y31.764 Z-1.017
G1 X1.659 Y31.767 Z-1.013
G1 X1.663 Y31.779 Z-1
G1 X1.659 Y31.767 Z-1.013
G1 X1.661 Y31.769 Z-1.01
G1 X1.67 Y31.774 Z-1
G1 X1.661 Y31.769 Z-1.01
G1 X1.663 Y31.771 Z-1.008
G1 X1.664 Y31.773 Z-1.006
G1 X1.665 Y31.774 Z-1.004
G1 X1.666 Y31.775 Z-1.003
G1 X1.668 Y31.777 Z-1
G1 X1.666 Y31.775 Z-1.003
G1 X1.668 Y31.777 Z-1
G1 X1.666 Y31.775 Z-1.003
G1 X1.665 Y31.774 Z-1.004
G1 X1.667 Y31.777 Z-1.001
G1 X1.665 Y31.774 Z-1.004
G1 X1.664 Y31.773 Z-1.006
G1 X1.669 Y31.776 Z-1
G1 X1.664 Y31.773 Z-1.006
G1 X1.663 Y31.771 Z-1.008
G1 X1.666 Y31.778 Z-1
G1 X1.663 Y31.771 Z-1.008
G1 X1.661 Y31.769 Z-1.01
G1 X1.659 Y31.767 Z-1.013
G1 X1.656 Y31.764 Z-1.017
G1 X1.654 Y31.762 Z-1.02
G1 X1.65 Y31.757 Z-1.025
G1 X1.648 Y31.754 Z-1.028
G1 X1.642 Y31.748 Z-1.036
G1 X1.64 Y31.745 Z-1.038
G1 X1.632 Y31.737 Z-1.048
G1 X1.63 Y31.735 Z-1.05
G1 X1.62 Y31.724 Z-1.062
G1 X1.618 Y31.723 Z-1.064
G1 X1.615 Y31.726 Z-1.06
G1 Y31.727
G1 X1.556 Y31.735 Z-1
G1 X1.615 Y31.727 Z-1.06
G1 X1.614 Y31.728 Z-1.058
G1 Y31.729
G1 X1.612 Y31.731 Z-1.056
G1 X1.61 Y31.733 Z-1.054
G1 Y31.734 Z-1.053
G1 X1.606 Y31.738 Z-1.049
G1 X1.605 Y31.74 Z-1.047
G1 X1.603 Y31.742 Z-1.045
G1 X1.6 Y31.746 Z-1.041
G1 X1.597 Y31.75 Z-1.037
G1 X1.595 Y31.752 Z-1.035
G1 X1.592 Y31.786 Z-1
G1 X1.595 Y31.752 Z-1.035
G1 X1.594 Y31.753 Z-1.033
G1 X1.593 Y31.754 Z-1.032
G1 X1.59 Y31.757 Z-1.029
G1 Y31.758 Z-1.028
G1 X1.588 Y31.76 Z-1.026
G1 X1.585 Y31.764 Z-1.022
G1 X1.583 Y31.766 Z-1.019
G1 X1.579 Y31.785 Z-1
G1 X1.583 Y31.766 Z-1.019
G1 X1.581 Y31.768 Z-1.016
G1 X1.58 Y31.769 Z-1.015
G1 X1.578 Y31.772 Z-1.012
G1 X1.577 Y31.774 Z-1.01
G1 X1.576 Y31.775 Z-1.009
G1 X1.574 Y31.777 Z-1.007
G1 Y31.778 Z-1.006
G1 X1.572 Y31.779 Z-1.004
G1 Y31.78 Z-1.003
G1 X1.57 Y31.782 Z-1
G1 X1.572 Y31.78 Z-1.003
G1 Y31.779 Z-1.004
G1 X1.574 Y31.778 Z-1.006
G1 Y31.777 Z-1.007
G1 X1.573 Y31.783 Z-1
G1 X1.574 Y31.777 Z-1.007
G1 X1.576 Y31.775 Z-1.009
G1 X1.577 Y31.774 Z-1.01
G1 X1.578 Y31.772 Z-1.012
G1 X1.58 Y31.769 Z-1.015
G1 X1.581 Y31.768 Z-1.016
G1 X1.583 Y31.766 Z-1.019
G1 X1.585 Y31.764 Z-1.022
G1 X1.588 Y31.76 Z-1.026
G1 X1.59 Y31.758 Z-1.028
G1 Y31.757 Z-1.029
G1 X1.593 Y31.754 Z-1.032
G1 X1.594 Y31.753 Z-1.033
G1 X1.595 Y31.752 Z-1.035
G1 X1.597 Y31.75 Z-1.037
G1 X1.6 Y31.746 Z-1.041
G1 X1.603 Y31.742 Z-1.045
G1 X1.605 Y31.74 Z-1.047
G1 X1.606 Y31.738 Z-1.049
G1 X1.61 Y31.734 Z-1.053
G1 Y31.733 Z-1.054
G1 X1.612 Y31.731 Z-1.056
G1 X1.614 Y31.729 Z-1.058
G1 Y31.728
G1 X1.615 Y31.727 Z-1.06
G1 Y31.726
G1 X1.618 Y31.723 Z-1.064
G1 Y31.722
G1 Y31.716 Z-1.065
G1 X1.619 Y31.711
G1 Y31.709
G1 Y31.701 Z-1.066
G1 Y31.696 Z-1.067
G1 Y31.694
G1 Y31.686 Z-1.068
G1 Y31.678 Z-1.069
G1 Y31.669
G1 Y31.661 Z-1.07
G1 Y31.657
G1 Y31.652 Z-1.071
G1 Y31.643 Z-1.072
G1 Y31.634
G1 Y31.625 Z-1.073
G1 Y31.615 Z-1.074
G1 Y31.608
G1 Y31.606
G1 Y31.596 Z-1.075
G1 Y31.586 Z-1.076
G1 Y31.58
G1 Y31.577
G1 Y31.567 Z-1.077
G1 Y31.557
G1 Y31.549 Z-1.078
G1 Y31.547
G1 Y31.537 Z-1.079
G1 Y31.527
G1 Y31.516 Z-1.08
G1 X1.622 Y31.281 Z-1.093
G1 Y31.239 Z-1.101
G1 Y31.209 Z-1.114
G1 Y31.165 Z-1.14
G1 X1.623
G1 X1.667 Y31.162 Z-1.112
G1 X1.698 Y31.16 Z-1.097
G1 X1.741 Y31.157 Z-1.086
G1 X1.759 Y31.156 Z-1.085
G1 X1.981 Z-1.075
G1 X2.118 Z-1.069
G1 X2.181 Y31.09 Z-1
G1 X2.118 Y31.156 Z-1.069
G1 X2.13 Y31.166 Z-1.059
G1 X2.194 Y31.222 Z-1
G1 X2.13 Y31.166 Z-1.059
G1 X2.118 Y31.156 Z-1.069
G1 X1.981 Z-1.075
G1 X1.759 Z-1.085
G1 X1.741 Y31.157 Z-1.086
G1 X1.698 Y31.16 Z-1.097
G1 X1.667 Y31.162 Z-1.112
G1 X1.623 Y31.165 Z-1.14
G1 X1.622 Y31.113 Z-1.105
G1 X1.621 Y31.077 Z-1.087
G1 Y31.051 Z-1.079
G1 Y31.021 Z-1.076
G1 X1.629 Y30.616 Z-1.068
G1 X1.564 Y30.554 Z-1
G1 X1.629 Y30.616 Z-1.068
G1 X1.697 Y30.541 Z-1
; MOVEMENT_RAPID
G0 Z5 F300
G0 X1.175 Y21.471 F2500
G0 Z4 F300
; MOVEMENT_LEAD_IN
G1 Z-1 F3
; MOVEMENT_CUTTING
G1 X1.227 Y21.469 Z-1.052 F15
G1 X1.231 Y21.534 Z-1.05
G1 X1.236 Y21.591
G1 X1.243 Y21.64 Z-1.052
G1 X1.258 Y21.69 Z-1.051
G1 X1.275 Y21.741
G1 X1.291 Y21.78 Z-1.054
G1 X1.241 Y21.802 Z-1
G1 X1.291 Y21.78 Z-1.054
G1 X1.322 Y21.835 Z-1.053
G1 X1.348 Y21.874 Z-1.055
G1 X1.304 Y21.909 Z-1
G1 X1.348 Y21.874 Z-1.055
G1 X1.358 Y21.885 Z-1.054
G1 X1.394 Y21.922 Z-1.052
G1 X1.439 Y21.963
G1 X1.407 Y22.005 Z-1
G1 X1.439 Y21.963 Z-1.052
G1 X1.473 Y21.986 Z-1.05
G1 X1.52 Y22.014 Z-1.049
G1 X1.498 Y22.057 Z-1
G1 X1.52 Y22.014 Z-1.049
G1 X1.531 Y22.018
G1 X1.545 Y22.025 Z-1.048
G1 X1.56 Y22.031 Z-1.047
G1 X1.575 Y22.036 Z-1.046
G1 X1.591 Y22.042
G1 X1.607 Y22.047 Z-1.045
G1 X1.623 Y22.051 Z-1.044
G1 X1.64 Y22.055
G1 X1.657 Y22.059 Z-1.043
G1 X1.675 Y22.061
G1 X1.692 Y22.064 Z-1.042
G1 X1.71 Y22.066
G1 X1.728 Y22.067
G1 X1.746 Y22.068
G1 X1.764 Y22.069
G1 X1.782 Y22.068
G1 X1.8
G1 X1.817 Y22.067
G1 X1.835 Y22.065 Z-1.043
G1 X1.852 Y22.063
G1 X1.869 Y22.061
G1 X1.886 Y22.058 Z-1.044
G1 X1.902 Y22.055 Z-1.045
G1 X1.913 Y22.053
G1 X1.924 Y22.096 Z-1
G1 X1.913 Y22.053 Z-1.045
G1 X1.925 Y22.049 Z-1.044
G1 X1.995 Y22.024 Z-1.045
G1 X2.002 Y22.021
G1 X2.011 Y22.018
G1 X2.018 Y22.014
G1 X2.025 Y22.011
G1 X2.026
G1 X2.034 Y22.007 Z-1.044
G1 X2.041 Y22.003
G1 X2.048 Y22 Z-1.043
G1 X2.056 Y21.996 Z-1.042
G1 X2.062 Y21.992
G1 X2.068 Y21.989 Z-1.041
G1 X2.075 Y21.985 Z-1.04
G1 X2.081 Y21.981 Z-1.039
G1 X2.086 Y21.978 Z-1.038
G1 X2.092 Y21.974 Z-1.036
G1 X2.097 Y21.971 Z-1.035
G1 X2.098 Y21.97
G1 X2.087 Y21.937 Z-1
G1 X2.098 Y21.97 Z-1.035
G1 X2.102 Y21.968 Z-1.033
G1 X2.107 Y21.965 Z-1.031
G1 X2.112 Y21.962 Z-1.03
G1 X2.116 Y21.959 Z-1.028
G1 X2.12 Y21.956 Z-1.026
G1 X2.124 Y21.953 Z-1.024
G1 X2.127 Y21.951 Z-1.022
G1 X2.132 Y21.953 Z-1.017
G1 X2.149 Y21.957 Z-1
G1 X2.132 Y21.953 Z-1.017
G1 X2.127 Y21.951 Z-1.022
G1 X2.142 Y21.935 Z-1.009
G1 X2.151 Y21.929 Z-1.001
G1 X2.142 Y21.935 Z-1.009
G1 Y21.926 Z-1
G1 Y21.935 Z-1.009
G1 X2.127 Y21.951 Z-1.022
G1 X2.124 Y21.953 Z-1.024
G1 X2.145 Y21.965 Z-1
G1 X2.124 Y21.953 Z-1.024
G1 X2.12 Y21.956 Z-1.026
G1 X2.116 Y21.959 Z-1.028
G1 X2.112 Y21.962 Z-1.03
G1 X2.107 Y21.965 Z-1.031
G1 X2.102 Y21.968 Z-1.033
G1 X2.098 Y21.97 Z-1.035
G1 X2.097 Y21.971
G1 X2.092 Y21.974 Z-1.036
G1 X2.086 Y21.978 Z-1.038
G1 X2.081 Y21.981 Z-1.039
G1 X2.075 Y21.985 Z-1.04
G1 X2.068 Y21.989 Z-1.041
G1 X2.062 Y21.992 Z-1.042
G1 X2.056 Y21.996
G1 X2.048 Y22 Z-1.043
G1 X2.041 Y22.003 Z-1.044
G1 X2.034 Y22.007
G1 X2.026 Y22.011 Z-1.045
G1 X2.025
G1 X2.018 Y22.014
G1 X2.011 Y22.018
G1 X2.002 Y22.021
G1 X1.995 Y22.024
G1 X2.011 Y22.066 Z-1
G1 X1.995 Y22.024 Z-1.045
G1 X1.925 Y22.049 Z-1.044
G1 X1.913 Y22.053 Z-1.045
G1 X1.902 Y22.055
G1 X1.886 Y22.058 Z-1.044
G1 X1.869 Y22.061 Z-1.043
G1 X1.852 Y22.063
G1 X1.835 Y22.065
G1 X1.817 Y22.067 Z-1.042
G1 X1.8 Y22.068
G1 X1.782
G1 X1.764 Y22.069
G1 X1.746 Y22.068
G1 X1.728 Y22.067
G1 X1.71 Y22.066
G1 X1.692 Y22.064
G1 X1.675 Y22.061 Z-1.043
G1 X1.657 Y22.059
G1 X1.64 Y22.055 Z-1.044
G1 X1.623 Y22.051
G1 X1.607 Y22.047 Z-1.045
G1 X1.591 Y22.042 Z-1.046
G1 X1.575 Y22.036
G1 X1.56 Y22.031 Z-1.047
G1 X1.545 Y22.025 Z-1.048
G1 X1.531 Y22.018 Z-1.049
G1 X1.52 Y22.014
G1 X1.473 Y21.986 Z-1.05
G1 X1.439 Y21.963 Z-1.052
G1 X1.394 Y21.922
G1 X1.358 Y21.885 Z-1.054
G1 X1.348 Y21.874 Z-1.055
G1 X1.322 Y21.835 Z-1.053
G1 X1.291 Y21.78 Z-1.054
G1 X1.275 Y21.741 Z-1.051
G1 X1.258 Y21.69
G1 X1.243 Y21.64 Z-1.052
G1 X1.192 Y21.65 Z-1
G1 X1.243 Y21.64 Z-1.052
G1 X1.236 Y21.591 Z-1.05
G1 X1.231 Y21.534
G1 X1.227 Y21.469 Z-1.052
G1 X1.228 Y21.443 Z-1.053
G1 X1.23 Y21.413
G1 X1.234 Y21.384 Z-1.054
G1 X1.238 Y21.355
G1 X1.243 Y21.328
G1 X1.25 Y21.301
G1 X1.257 Y21.275
G1 X1.266 Y21.25 Z-1.055
G1 X1.275 Y21.225
G1 X1.286 Y21.202
G1 X1.297 Y21.179
G1 X1.309 Y21.157
G1 X1.322 Y21.136
G1 X1.335 Y21.115
G1 X1.35 Y21.096 Z-1.056
G1 X1.364 Y21.077 Z-1.055
G1 X1.38 Y21.059
G1 X1.396 Y21.041
G1 X1.413 Y21.025
G1 X1.431 Y21.009 Z-1.054
G1 X1.449 Y20.994
G1 X1.417 Y20.951 Z-1
G1 X1.449 Y20.994 Z-1.054
G1 X1.468 Y20.98 Z-1.053
G1 X1.487 Y20.967 Z-1.052
G1 X1.501 Y20.958
G1 X1.479 Y20.911 Z-1
G1 X1.501 Y20.958 Z-1.052
G1 X1.512 Y20.953 Z-1.051
G1 X1.531 Y20.944 Z-1.048
G1 X1.553 Y20.935 Z-1.045
G1 X1.576 Y20.927 Z-1.042
G1 X1.6 Y20.92 Z-1.039
G1 X1.625 Y20.913 Z-1.036
G1 X1.652 Y20.907 Z-1.033
G1 X1.679 Y20.901 Z-1.031
G1 X1.707 Y20.898 Z-1.029
G1 X1.735 Y20.894 Z-1.028
G1 X1.763 Y20.893
G1 X1.792
G1 X1.82 Y20.894
G1 X1.848 Y20.898 Z-1.03
G1 X1.875 Y20.902 Z-1.032
G1 X1.901 Y20.908 Z-1.036
G1 X1.926 Y20.915 Z-1.04
G1 X1.95 Y20.924 Z-1.044
G1 X1.972 Y20.933 Z-1.049
G1 X1.992 Y20.943 Z-1.055
G1 X2.01 Y20.953 Z-1.059
G1 X2.025 Y20.963 Z-1.064
G1 X2.047 Y20.904 Z-1
G1 X2.025 Y20.963 Z-1.064
G1 X2.039 Y20.974 Z-1.069
G1 X2.066 Y20.911 Z-1
G1 X2.039 Y20.974 Z-1.069
G1 X2.052 Y20.984 Z-1.073
G1 X2.07 Y21.001 Z-1.079
G1 X2.077 Y21.008 Z-1.082
G1 X2.161 Y20.959 Z-1
G1 X2.077 Y21.008 Z-1.082
G1 X2.087 Y21.057 Z-1.071
G1 X2.093 Y21.114 Z-1.062
G1 X2.096 Y21.173 Z-1.058
G1 X2.095 Y21.235 Z-1.057
G1 X2.087 Y21.412 Z-1.059
G1 X2.083 Y21.441 Z-1.061
G1 X2.143 Y21.499 Z-1
G1 X2.083 Y21.441 Z-1.061
G1 X2.05 Y21.462 Z-1.041
G1 X2.017 Y21.475 Z-1.029
G1 X1.983 Y21.481 Z-1.025
G1 X1.882 Y21.486 Z-1.024
G1 X1.854 Y21.487 Z-1.023
G1 X1.829 Y21.488
G1 X1.814 Y21.489
G1 X1.805 Z-1.022
G1 X1.797 Y21.49
G1 X1.784
G1 X1.782
G1 X1.768 Y21.491 Z-1.021
G1 X1.765
G1 X1.755 Y21.492 Z-1.02
G1 X1.749
G1 X1.744
G1 X1.734 Y21.493 Z-1.019
G1 X1.725 Z-1.018
G1 X1.721 Z-1.017
G1 X1.717 Y21.494
G1 X1.711 Z-1.016
G1 X1.71
G1 X1.706 Y21.479 Z-1
G1 X1.71 Y21.494 Z-1.016
G1 X1.705 Y21.495 Z-1.015
G1 X1.701 Y21.481 Z-1
G1 X1.705 Y21.495 Z-1.015
G1 Z-1.014
G1 X1.702 Y21.497 Z-1.012
G1 X1.701 Y21.498 Z-1.01
G1 X1.694 Y21.504 Z-1.004
G1 X1.693 Y21.507 Z-1
G1 X1.694 Y21.504 Z-1.004
G1 X1.691 Y21.506 Z-1
G1 X1.694 Y21.504 Z-1.004
G1 X1.701 Y21.498 Z-1.01
G1 X1.702 Y21.497 Z-1.012
G1 X1.705 Y21.495 Z-1.014
G1 X1.703 Y21.494 Z-1.013
G1 X1.691 Y21.493 Z-1
G1 X1.703 Y21.494 Z-1.013
G1 X1.7 Y21.491 Z-1.009
G1 X1.697 Y21.483 Z-1
G1 X1.7 Y21.491 Z-1.009
G1 X1.698 Y21.49 Z-1.008
G1 X1.691 Y21.489 Z-1
G1 X1.698 Y21.49 Z-1.008
G1 X1.695 Y21.488 Z-1.005
G1 X1.694 Y21.484 Z-1.001
G1 X1.695 Y21.488 Z-1.005
G1 Y21.487 Z-1.004
G1 X1.691 Z-1.001
G1 X1.695 Z-1.004
G1 X1.692 Y21.485 Z-1.001
G1 Z-1
; MOVEMENT_RAPID
G0 Z5 F300
G0 X3.148 Y32.716 F2500
G0 Z4 F300
; MOVEMENT_LEAD_IN
G1 Z-1 F3
; MOVEMENT_CUTTING
G1 X4.145 Y31.715 Z-1.997 F15
G1 X3.148 Y30.719 Z-1.001
G1 X4.145 Y31.715 Z-1.997
G1 X6.18 Y31.711 Z-1.992
G1 X6.262 Y31.835 Z-1.867
G1 X6.344 Y31.948 Z-1.754
G1 X6.426 Y32.05 Z-1.652
G1 X6.509 Y32.141 Z-1.561
G1 X7.05 Y32.699 Z-1
G1 X6.509 Y32.141 Z-1.561
G1 X6.426 Y32.05 Z-1.652
G1 X6.344 Y31.948 Z-1.754
G1 X6.262 Y31.835 Z-1.867
G1 X6.18 Y31.711 Z-1.992
G1 X6.222 Y31.685 Z-1.966
G1 X6.294 Y31.569 Z-1.85
G1 X6.366 Y31.462 Z-1.744
G1 X6.438 Y31.366 Z-1.647
G1 X6.511 Y31.279 Z-1.56
G1 X6.583 Y31.202 Z-1.483
G1 X7.066 Y30.719 Z-1
G1 X6.583 Y31.202 Z-1.483
G1 X6.511 Y31.279 Z-1.56
G1 X6.438 Y31.366 Z-1.647
G1 X6.366 Y31.462 Z-1.744
G1 X6.294 Y31.569 Z-1.85
G1 X6.222 Y31.685 Z-1.966
G1 X6.371 Y31.684 Z-1.837
G1 X6.505 Z-1.729
G1 X6.681 Y31.683 Z-1.599
G1 X6.787 Z-1.533
G1 X6.837 Z-1.506
G1 X6.886 Z-1.483
G1 X6.933 Z-1.464
G1 X6.98 Y31.682 Z-1.449
G1 X7.026 Z-1.439
G1 X7.071 Z-1.432
G1 X7.119 Z-1.43
G1 X22.371
G1 X22.451 Y31.679 Z-1.433
G1 X22.532 Y31.668 Z-1.444
G1 X22.612 Y31.652 Z-1.461
G1 X22.693 Y31.628 Z-1.484
G1 X22.774 Y31.597 Z-1.515
G1 X23.288 Y32.112 Z-1.001
G1 X22.774 Y31.597 Z-1.515
G1 X22.802 Y31.519 Z-1.486
G1 X22.825 Y31.44 Z-1.463
G1 X22.841 Y31.362 Z-1.447
G1 X22.851 Y31.283 Z-1.437
G1 X22.854 Y31.204 Z-1.434
G1 X22.855 Y30.295 Z-1.432
G1 Y29.794
G1 X22.852 Y20.88 Z-1.427
G1 Y20.368
G1 X22.85 Y14.419 Z-1.424
G1 Y11.809 Z-1.425
G1 X22.851 Y10.66 Z-1.427
G1 X22.854 Y9.902 Z-1.432
G1 X22.857 Y9.599 Z-1.437
G1 X22.856 Y9.5 Z-1.443
G1 X22.849 Y9.422 Z-1.457
G1 X22.844 Y9.374 Z-1.469
G1 X22.83 Y9.278 Z-1.504
G1 X22.817 Y9.199 Z-1.543
G1 X22.804 Y9.118 Z-1.59
G1 X22.794 Y9.056 Z-1.63
G1 X22.771 Y8.925 Z-1.725
G1 X22.746 Y8.775 Z-1.845
G1 X22.716 Y8.597 Z-2
G3 X22.82 Y8.525 I0.651 J0.824
G1 X23.06 Y8.771 Z-1.668
G1 X23.133 Y8.847 Z-1.568
G1 X23.153 Y8.878 Z-1.532
G1 X23.191 Y8.941 Z-1.46
G1 X23.228 Y9.005 Z-1.386
G1 X23.262 Y9.066 Z-1.318
G1 X23.294 Y9.128 Z-1.249
G1 X23.322 Y9.187 Z-1.185
G1 X23.344 Y9.239 Z-1.13
G1 X23.361 Y9.287 Z-1.08
G1 X23.374 Y9.328 Z-1.038
G1 X23.382 Y9.363 Z-1.003
G1 Y9.366 Z-1.001
G1 Y9.363 Z-1.003
G1 X23.383 Y9.366 Z-1
G1 X23.382 Y9.363 Z-1.003
G1 X23.374 Y9.328 Z-1.038
G1 X23.392 Y9.361 Z-1
G1 X23.374 Y9.328 Z-1.038
G1 X23.361 Y9.287 Z-1.08
G1 X23.344 Y9.239 Z-1.13
G1 X23.322 Y9.187 Z-1.185
G1 X23.294 Y9.128 Z-1.249
G1 X23.262 Y9.066 Z-1.318
G1 X23.228 Y9.005 Z-1.386
G1 X23.191 Y8.941 Z-1.46
G1 X23.153 Y8.878 Z-1.532
G1 X23.133 Y8.847 Z-1.568
G1 X23.157 Y8.864 Z-1.54
G1 X23.207 Y8.9 Z-1.48
G1 X23.256 Y8.934 Z-1.421
G1 X23.311 Y8.97 Z-1.356
G1 X23.365 Y9.004 Z-1.294
G1 X23.417 Y9.035 Z-1.235
G1 X23.465 Y9.061 Z-1.182
G1 X23.508 Y9.083 Z-1.135
G1 X23.55 Y9.103 Z-1.089
G1 X23.585 Y9.117 Z-1.053
G1 X23.612 Y9.126 Z-1.025
G1 X23.633 Y9.132 Z-1.004
G1 X23.636 Y9.134 Z-1.001
G1 X23.633 Y9.132 Z-1.004
G1 X23.636 Y9.133 Z-1
G1 X23.633 Y9.132 Z-1.004
G1 X23.612 Y9.126 Z-1.025
G1 X23.633 Y9.139 Z-1
G1 X23.612 Y9.126 Z-1.025
G1 X23.585 Y9.117 Z-1.053
G1 X23.628 Y9.146 Z-1
G1 X23.585 Y9.117 Z-1.053
G1 X23.55 Y9.103 Z-1.089
G1 X23.508 Y9.083 Z-1.135
G1 X23.465 Y9.061 Z-1.182
G1 X23.417 Y9.035 Z-1.235
G1 X23.365 Y9.004 Z-1.294
G1 X23.311 Y8.97 Z-1.356
G1 X23.256 Y8.934 Z-1.421
G1 X23.207 Y8.9 Z-1.48
G1 X23.157 Y8.864 Z-1.54
G1 X23.133 Y8.847 Z-1.568
G1 X23.06 Y8.771 Z-1.668
G1 X22.82 Y8.525 Z-2
G3 X22.872 Y8.451 I0.884 J0.567
G1 X22.879 Y8.442
G3 X22.912 Y8.401 I0.832 J0.641
G3 X22.905 Y8.388 I0.92 J-0.506
G1 X22.899 Y8.377
G3 X22.891 Y8.361 I0.927 J-0.493
G1 X22.884 Y8.349
G1 Y8.347
G1 X22.932 Y8.316 Z-1.943
G1 X23.007 Y8.27 Z-1.855
G1 X23.069 Y8.234 Z-1.784
G1 X23.083 Y8.226 Z-1.768
G1 X23.15 Y8.187 Z-1.691
G1 X23.083 Y8.226 Z-1.768
G1 X23.069 Y8.234 Z-1.784
G1 X23.007 Y8.27 Z-1.855
G1 X22.932 Y8.316 Z-1.943
G1 X22.884 Y8.347 Z-2
G1 X22.882 Y8.345
G1 X22.874 Y8.336
G1 X22.865 Y8.325
G1 X22.854 Y8.314
G1 X22.842 Y8.301
G1 X22.829 Y8.288
G1 X22.817 Y8.276
G1 X22.804 Y8.265
G1 X22.792 Y8.254
G1 X22.788 Y8.251
G1 X22.819 Y8.197 Z-1.939
G1 X22.854 Y8.13 Z-1.864
G1 X22.893 Y8.054 Z-1.78
G1 X22.932 Y7.975 Z-1.693
G1 X22.967 Y7.901 Z-1.612
G1 X23.001 Y7.827 Z-1.531
G1 X23.029 Y7.758 Z-1.457
G1 X23.043 Y7.724 Z-1.42
G1 X23.054 Y7.697 Z-1.391
G1 X23.193 Y7.331 Z-1
G1 X23.054 Y7.697 Z-1.391
G1 X23.216 Y7.341 Z-1
G1 X23.054 Y7.697 Z-1.391
G1 X23.043 Y7.724 Z-1.42
G1 X23.029 Y7.758 Z-1.457
G1 X23.001 Y7.827 Z-1.531
G1 X22.967 Y7.901 Z-1.612
G1 X22.932 Y7.975 Z-1.693
G1 X22.893 Y8.054 Z-1.78
G1 X22.854 Y8.13 Z-1.864
G1 X22.819 Y8.197 Z-1.939
G1 X22.788 Y8.251 Z-2
G1 X22.78 Y8.248
G1 X22.775 Y8.247
G1 X22.764 Y8.243
G1 X22.759 Y8.241
G1 X22.748 Y8.238
G1 X22.745 Y8.237
G1 X22.735 Y8.233
G1 X22.727 Y8.231
G1 Y8.23
G1 X22.728 Y8.197 Z-1.968
G1 Y7.991 Z-1.775
G1 X22.715 Y7.922 Z-1.706
G1 X22.697 Y7.833 Z-1.618
G1 X22.676 Y7.741 Z-1.526
G1 X22.653 Y7.65 Z-1.435
G1 X22.629 Y7.563 Z-1.347
G1 X22.604 Y7.484 Z-1.266
G1 X22.578 Y7.412 Z-1.193
G1 X22.553 Y7.351 Z-1.13
G1 X22.529 Y7.302 Z-1.078
G1 X22.507 Y7.263 Z-1.037
G1 X22.501 Y7.227 Z-1
G1 X22.507 Y7.263 Z-1.037
G1 X22.488 Y7.235 Z-1.005
G1 X22.487 Y7.23 Z-1
G1 X22.488 Y7.235 Z-1.005
G1 X22.484 Y7.231 Z-1
G1 X22.488 Y7.235 Z-1.005
G1 X22.507 Y7.263 Z-1.037
G1 X22.529 Y7.302 Z-1.078
G1 X22.553 Y7.351 Z-1.13
G1 X22.578 Y7.412 Z-1.193
G1 X22.604 Y7.484 Z-1.266
G1 X22.629 Y7.563 Z-1.347
G1 X22.653 Y7.65 Z-1.435
G1 X22.676 Y7.741 Z-1.526
G1 X22.697 Y7.833 Z-1.618
G1 X22.715 Y7.922 Z-1.706
G1 X22.728 Y7.991 Z-1.775
G1 X22.731 Y7.973 Z-1.757
G1 X22.753 Y7.872 Z-1.655
G1 X22.776 Y7.771 Z-1.552
G1 X22.8 Y7.673 Z-1.453
G1 X22.824 Y7.579 Z-1.357
G1 X22.849 Y7.493 Z-1.268
G1 X22.872 Y7.42 Z-1.192
G1 X22.893 Y7.359 Z-1.128
G1 X22.901 Y7.339 Z-1.106
G1 X22.937 Y7.239 Z-1
G1 X22.901 Y7.339 Z-1.106
G1 X22.945 Y7.242 Z-1
G1 X22.901 Y7.339 Z-1.106
G1 X22.893 Y7.359 Z-1.128
G1 X22.926 Y7.235 Z-1
G1 X22.893 Y7.359 Z-1.128
G1 X22.872 Y7.42 Z-1.192
G1 X22.91 Y7.232 Z-1
G1 X22.872 Y7.42 Z-1.192
G1 X22.849 Y7.493 Z-1.268
G1 X22.824 Y7.579 Z-1.357
G1 X22.8 Y7.673 Z-1.453
G1 X22.776 Y7.771 Z-1.552
G1 X22.753 Y7.872 Z-1.655
G1 X22.731 Y7.973 Z-1.757
G1 X22.728 Y7.991 Z-1.775
G1 Y8.197 Z-1.968
G1 X22.727 Y8.23 Z-2
G3 X22.716 Y8.234 I-0.317 J-1.001
G1 X22.712 Y8.235
G3 X22.675 Y8.246 I-0.306 J-1.004
G1 X22.671 Y8.247
G3 X22.638 Y8.255 I-0.27 J-1.015
G1 X22.634 Y8.256
G3 X22.594 Y8.264 I-0.236 J-1.023
G1 X22.59 Y8.265
G1 X22.58 Y8.267
G1 X22.564 Y8.222 Z-1.953
G1 X22.527 Y8.112 Z-1.838
G1 X22.491 Y7.999 Z-1.721
G1 X22.459 Y7.887 Z-1.606
G1 X22.432 Y7.782 Z-1.499
G1 X22.409 Y7.682 Z-1.398
G1 X22.392 Y7.593 Z-1.308
G1 X22.305 Y7.298 Z-1
G1 X22.392 Y7.593 Z-1.308
G1 X22.382 Y7.525 Z-1.239
G1 X22.381 Y7.52 Z-1.235
G1 X22.331 Y7.291 Z-1
G1 X22.381 Y7.52 Z-1.235
G1 X22.352 Y7.287 Z-1
G1 X22.381 Y7.52 Z-1.235
G1 X22.382 Y7.525 Z-1.239
G1 X22.372 Y7.286 Z-1.001
G1 X22.382 Y7.525 Z-1.239
G1 X22.392 Y7.593 Z-1.308
G1 X22.409 Y7.682 Z-1.398
G1 X22.432 Y7.782 Z-1.499
G1 X22.459 Y7.887 Z-1.606
G1 X22.491 Y7.999 Z-1.721
G1 X22.527 Y8.112 Z-1.838
G1 X22.564 Y8.222 Z-1.953
G1 X22.58 Y8.267 Z-2
G1 X22.57 Y8.273
G1 X22.568 Y8.274
G1 X22.517 Y8.225 Z-1.932
G1 X22.452 Y8.163 Z-1.844
G1 X22.378 Y8.095 Z-1.747
G1 X22.301 Y8.028 Z-1.649
G1 X22.222 Y7.962 Z-1.548
G1 X22.143 Y7.898 Z-1.45
G1 X22.067 Y7.842 Z-1.358
G1 X21.995 Y7.792 Z-1.272
G1 X21.929 Y7.75 Z-1.197
G1 X21.789 Y7.613 Z-1
G1 X21.929 Y7.75 Z-1.197
G1 X21.872 Y7.718 Z-1.133
G1 X21.823 Y7.695 Z-1.081
G1 X21.788 Y7.682 Z-1.044
G1 X21.745 Y7.676 Z-1
G1 X21.788 Y7.682 Z-1.044
G1 X21.787 Z-1.043
G1 X21.749 Y7.662 Z-1
G1 X21.787 Y7.682 Z-1.043
G1 X21.746 Y7.669 Z-1
G1 X21.787 Y7.682 Z-1.043
G1 X21.788 Z-1.044
G1 X21.823 Y7.695 Z-1.081
G1 X21.758 Y7.648 Z-1
G1 X21.823 Y7.695 Z-1.081
G1 X21.872 Y7.718 Z-1.133
G1 X21.771 Y7.632 Z-1
G1 X21.872 Y7.718 Z-1.133
G1 X21.929 Y7.75 Z-1.197
G1 X21.995 Y7.792 Z-1.272
G1 X22.067 Y7.842 Z-1.358
G1 X22.143 Y7.898 Z-1.45
G1 X22.222 Y7.962 Z-1.548
G1 X22.301 Y8.028 Z-1.649
G1 X22.378 Y8.095 Z-1.747
G1 X22.452 Y8.163 Z-1.844
G1 X22.517 Y8.225 Z-1.932
G1 X22.568 Y8.274 Z-2
G1 X22.566 Y8.277
G1 X22.562 Y8.285
G3 X22.554 Y8.298 I-0.911 J-0.522
G1 X22.437 Y8.256 Z-1.878
G1 X22.304 Y8.205 Z-1.738
G1 X22.18 Y8.154 Z-1.606
G1 X22.066 Y8.103 Z-1.482
G1 X21.972 Y8.058 Z-1.378
G1 X21.96 Y8.051 Z-1.365
G1 X21.633 Y7.888 Z-1
G1 X21.96 Y8.051 Z-1.365
G1 X21.648 Y7.861 Z-1
G1 X21.96 Y8.051 Z-1.365
G1 X21.972 Y8.058 Z-1.378
G1 X21.619 Y7.921 Z-1
G1 X21.972 Y8.058 Z-1.378
G1 X22.066 Y8.103 Z-1.482
G1 X21.605 Y7.96 Z-1
G1 X22.066 Y8.103 Z-1.482
G1 X22.18 Y8.154 Z-1.606
G1 X22.304 Y8.205 Z-1.738
G1 X22.437 Y8.256 Z-1.878
G1 X22.554 Y8.298 Z-2
G1 X22.553 Y8.303
G1 X22.549 Y8.335
G1 X22.546 Y8.37
G1 X22.543 Y8.409
G1 X22.541 Y8.446
G1 Y8.465
G1 X22.464 Y8.483 Z-1.924
G1 X22.315 Y8.524 Z-1.775
G1 X22.177 Y8.567 Z-1.636
G1 X22.048 Y8.612 Z-1.505
G1 X21.931 Y8.66 Z-1.385
G1 X21.831 Y8.708 Z-1.28
G1 X21.751 Y8.754 Z-1.193
G1 X21.562 Y8.791 Z-1
G1 X21.751 Y8.754 Z-1.193
G1 X21.688 Y8.797 Z-1.122
G1 X21.57 Y8.828 Z-1
G1 X21.688 Y8.797 Z-1.122
G1 X21.643 Y8.835 Z-1.068
G1 X21.615 Y8.866 Z-1.03
G1 X21.6 Y8.887 Z-1.006
G1 Y8.888 Z-1.005
G1 X21.598 Y8.892 Z-1
G1 X21.6 Y8.888 Z-1.005
G1 X21.597 Y8.891 Z-1.001
G1 X21.6 Y8.888 Z-1.005
G1 Y8.887 Z-1.006
G1 X21.599 Y8.893 Z-1
G1 X21.6 Y8.887 Z-1.006
G1 X21.615 Y8.866 Z-1.03
G1 X21.589 Y8.88 Z-1
G1 X21.615 Y8.866 Z-1.03
G1 X21.643 Y8.835 Z-1.068
G1 X21.58 Y8.858 Z-1
G1 X21.643 Y8.835 Z-1.068
G1 X21.688 Y8.797 Z-1.122
G1 X21.751 Y8.754 Z-1.193
G1 X21.831 Y8.708 Z-1.28
G1 X21.931 Y8.66 Z-1.385
G1 X22.048 Y8.612 Z-1.505
G1 X22.177 Y8.567 Z-1.636
G1 X22.315 Y8.524 Z-1.775
G1 X22.464 Y8.483 Z-1.924
G1 X22.541 Y8.465 Z-2
G1 Y8.466
G1 X22.542 Y8.468
G3 X22.553 Y8.489 I-0.927 J0.493
G1 X22.555 Y8.492
G3 X22.563 Y8.509 I-0.938 J0.472
G1 X22.555 Y8.515 Z-1.99
G1 X22.488 Y8.561 Z-1.91
G1 X22.432 Y8.599 Z-1.843
G1 X22.379 Y8.633 Z-1.782
G1 X22.312 Y8.676 Z-1.703
G1 X22.255 Y8.711 Z-1.637
G1 X22.202 Y8.744 Z-1.575
G1 X22.14 Y8.78 Z-1.504
G1 X22.081 Y8.814 Z-1.438
G1 X22.032 Y8.84 Z-1.383
G1 X21.978 Y8.869 Z-1.323
G1 X21.929 Y8.894 Z-1.269
G1 X21.888 Y8.913 Z-1.225
G1 X21.848 Y8.932 Z-1.182
G1 X21.81 Y8.948 Z-1.141
G1 X21.774 Y8.962 Z-1.103
G1 X21.744 Y8.973 Z-1.072
G1 X21.721 Y8.981 Z-1.048
G1 X21.696 Y8.988 Z-1.023
G1 X21.678 Y8.993 Z-1.004
G1 X21.674 Y8.994 Z-1
G1 X21.678 Y8.993 Z-1.004
G1 X21.675 Y8.994 Z-1.001
G1 X21.678 Y8.993 Z-1.004
G1 X21.696 Y8.988 Z-1.023
G1 X21.721 Y8.981 Z-1.048
G1 X21.744 Y8.973 Z-1.072
G1 X21.774 Y8.962 Z-1.103
G1 X21.81 Y8.948 Z-1.141
G1 X21.848 Y8.932 Z-1.182
G1 X21.888 Y8.913 Z-1.225
G1 X21.929 Y8.894 Z-1.269
G1 X21.978 Y8.869 Z-1.323
G1 X22.032 Y8.84 Z-1.383
G1 X22.081 Y8.814 Z-1.438
G1 X22.14 Y8.78 Z-1.504
G1 X22.202 Y8.744 Z-1.575
G1 X22.255 Y8.711 Z-1.637
G1 X22.312 Y8.676 Z-1.703
G1 X22.379 Y8.633 Z-1.782
G1 X22.432 Y8.599 Z-1.843
G1 X22.488 Y8.561 Z-1.91
G1 X22.555 Y8.515 Z-1.99
G1 X22.563 Y8.509 Z-2
G1 X22.57 Y8.516
G1 X22.577 Y8.524
G1 X22.584 Y8.53
G1 X22.591 Y8.537
G1 X22.585 Y8.544 Z-1.991
G1 X22.541 Y8.609 Z-1.913
G1 X22.501 Y8.668 Z-1.843
G1 X22.466 Y8.722 Z-1.78
G1 X22.425 Y8.785 Z-1.706
G1 X22.389 Y8.842 Z-1.639
G1 X22.354 Y8.9 Z-1.572
G1 X22.317 Y8.964 Z-1.5
G1 X22.285 Y9.02 Z-1.436
G1 X22.257 Y9.07 Z-1.38
G1 X22.231 Y9.12 Z-1.325
G1 X22.208 Y9.166 Z-1.274
G1 X22.185 Y9.213 Z-1.223
G1 X22.166 Y9.255 Z-1.178
G1 X22.151 Y9.29 Z-1.14
G1 X22.138 Y9.325 Z-1.104
G1 X22.127 Y9.354 Z-1.073
G1 X22.118 Y9.38 Z-1.046
G1 X22.112 Y9.403 Z-1.024
G1 X22.107 Y9.422 Z-1.004
G1 X22.105 Y9.425 Z-1.001
G1 X22.107 Y9.422 Z-1.004
G1 X22.106 Y9.426 Z-1.001
G1 X22.107 Y9.422 Z-1.004
G1 X22.112 Y9.403 Z-1.024
G1 X22.101 Y9.423 Z-1
G1 X22.112 Y9.403 Z-1.024
G1 X22.118 Y9.38 Z-1.046
G1 X22.127 Y9.354 Z-1.073
G1 X22.138 Y9.325 Z-1.104
G1 X22.151 Y9.29 Z-1.14
G1 X22.166 Y9.255 Z-1.178
G1 X22.185 Y9.213 Z-1.223
G1 X22.208 Y9.166 Z-1.274
G1 X22.231 Y9.12 Z-1.325
G1 X22.257 Y9.07 Z-1.38
G1 X22.285 Y9.02 Z-1.436
G1 X22.317 Y8.964 Z-1.5
G1 X22.354 Y8.9 Z-1.572
G1 X22.389 Y8.842 Z-1.639
G1 X22.425 Y8.785 Z-1.706
G1 X22.466 Y8.722 Z-1.78
G1 X22.501 Y8.668 Z-1.843
G1 X22.541 Y8.609 Z-1.913
G1 X22.585 Y8.544 Z-1.991
G1 X22.591 Y8.537 Z-2
G1 X22.599 Y8.541
G1 X22.602 Y8.542
G3 X22.632 Y8.558 I-0.464 J0.942
G1 X22.635 Y8.559
G3 X22.681 Y8.585 I-0.494 J0.926
G1 X22.504 Y8.982 Z-1.571
G1 X22.396 Y9.211 Z-1.324
G1 X22.338 Y9.319 Z-1.206
G1 X22.308 Y9.37 Z-1.15
G1 X22.3 Y9.382 Z-1.136
G1 X22.294 Y9.391 Z-1.126
G1 X22.288 Y9.4 Z-1.115
G1 X22.281 Y9.41 Z-1.104
G1 X22.273 Y9.421 Z-1.092
G1 X22.266 Y9.43 Z-1.081
G1 X22.258 Y9.439 Z-1.07
G1 X22.25 Y9.448 Z-1.059
G1 X22.243 Y9.455 Z-1.049
G1 X22.236 Y9.463 Z-1.038
G1 X22.228 Y9.471 Z-1.028
G1 X22.221 Y9.477 Z-1.019
G1 X22.214 Y9.483 Z-1.011
G1 X22.208 Y9.488 Z-1.004
G1 X22.205 Y9.49 Z-1.001
G1 X22.208 Y9.488 Z-1.004
G1 X22.214 Y9.483 Z-1.011
G1 X22.221 Y9.477 Z-1.019
G1 X22.228 Y9.471 Z-1.028
G1 X22.236 Y9.463 Z-1.038
G1 X22.243 Y9.455 Z-1.049
G1 X22.25 Y9.448 Z-1.059
G1 X22.258 Y9.439 Z-1.07
G1 X22.266 Y9.43 Z-1.081
G1 X22.273 Y9.421 Z-1.092
G1 X22.281 Y9.41 Z-1.104
G1 X22.288 Y9.4 Z-1.115
G1 X22.294 Y9.391 Z-1.126
G1 X22.3 Y9.382 Z-1.136
G1 X22.308 Y9.37 Z-1.15
G1 X22.338 Y9.319 Z-1.206
G1 X22.396 Y9.211 Z-1.324
G1 X22.504 Y8.982 Z-1.571
G1 X22.681 Y8.585 Z-2
G3 X22.716 Y8.597 I-0.311 J1.003
G2 X22.681 Y8.585 I-0.346 J0.991
G2 X22.635 Y8.559 I-0.54 J0.9
G1 X22.632 Y8.558
G2 X22.602 Y8.542 I-0.494 J0.926
G1 X22.599 Y8.541
G1 X22.591 Y8.537
G1 X22.584 Y8.53
G1 X22.577 Y8.524
G1 X22.57 Y8.516
G1 X22.563 Y8.509
G2 X22.555 Y8.492 I-0.946 J0.455
G1 X22.553 Y8.489
G2 X22.542 Y8.468 I-0.938 J0.472
G1 X22.541 Y8.466
G1 Y8.465
G1 Y8.446
G1 X22.543 Y8.409
G1 X22.546 Y8.37
G1 X22.549 Y8.335
G1 X22.553 Y8.303
G1 X22.554 Y8.298
G2 X22.562 Y8.285 I-0.903 J-0.535
G1 X22.566 Y8.277
G1 X22.568 Y8.274
G1 X22.57 Y8.273
G1 X22.58 Y8.267
G1 X22.59 Y8.265
G1 X22.594 Y8.264
G2 X22.634 Y8.256 I-0.197 J-1.031
G1 X22.638 Y8.255
G2 X22.671 Y8.247 I-0.236 J-1.023
G1 X22.675 Y8.246
G2 X22.712 Y8.235 I-0.27 J-1.015
G1 X22.716 Y8.234
G2 X22.727 Y8.23 I-0.306 J-1.004
G1 Y8.231
G1 X22.735 Y8.233
G1 X22.745 Y8.237
G1 X22.748 Y8.238
G1 X22.759 Y8.241
G1 X22.764 Y8.243
G1 X22.775 Y8.247
G1 X22.78 Y8.248
G1 X22.788 Y8.251
G1 X22.792 Y8.254
G1 X22.804 Y8.265
G1 X22.817 Y8.276
G1 X22.829 Y8.288
G1 X22.842 Y8.301
G1 X22.854 Y8.314
G1 X22.865 Y8.325
G1 X22.874 Y8.336
G1 X22.882 Y8.345
G1 X22.884 Y8.347
G1 Y8.349
G1 X22.891 Y8.361
G2 X22.899 Y8.377 I0.935 J-0.478
G1 X22.905 Y8.388
G2 X22.912 Y8.401 I0.927 J-0.493
G1 X23.075 Y8.418 Z-1.868
G1 X23.199 Y8.432 Z-1.774
G1 X23.328 Y8.447 Z-1.683
G1 X23.415 Y8.456 Z-1.627
G1 X23.518 Y8.467 Z-1.568
G1 X23.59 Y8.474 Z-1.531
G1 X23.664 Y8.48 Z-1.499
G1 X23.738 Y8.485 Z-1.472
G1 X23.799 Y8.488 Z-1.455
G1 X23.856 Y8.491 Z-1.443
G1 X23.924 Y8.493 Z-1.435
G1 X24.021 Y8.499 Z-1.429
G1 X24.077 Y8.5 Z-1.428
G1 X24.124 Z-1.43
G1 X24.172 Z-1.437
G1 X24.219 Z-1.449
G1 X24.268 Z-1.465
G1 X24.318 Z-1.485
G1 X24.368 Z-1.51
G1 X24.421 Z-1.539
G1 X24.531 Z-1.61
G1 X24.59 Z-1.651
G1 X24.716 Y8.499 Z-1.748
G1 X24.856 Z-1.864
G1 X25.012 Z-2
G3 X25.127 Y8.978 I-0.934 J0.479
G1 Y9.385
G1 X25.077 Y9.435 Z-1.95
G1 X24.992 Y9.52 Z-1.864
G1 X24.908 Y9.602 Z-1.781
G1 X24.826 Y9.683 Z-1.699
G1 X24.746 Y9.761 Z-1.619
G1 X24.671 Y9.834 Z-1.544
G1 X24.6 Y9.903 Z-1.472
G1 X24.533 Y9.967 Z-1.406
G1 X24.473 Y10.024 Z-1.346
G1 X24.42 Y10.075 Z-1.293
G1 X24.373 Y10.119 Z-1.245
G1 X24.128 Y10.344 Z-1
G1 X24.373 Y10.119 Z-1.245
G1 X24.42 Y10.075 Z-1.293
G1 X24.473 Y10.024 Z-1.346
G1 X24.533 Y9.967 Z-1.406
G1 X24.6 Y9.903 Z-1.472
G1 X24.671 Y9.834 Z-1.544
G1 X24.746 Y9.761 Z-1.619
G1 X24.826 Y9.683 Z-1.699
G1 X24.908 Y9.602 Z-1.781
G1 X24.992 Y9.52 Z-1.864
G1 X25.077 Y9.435 Z-1.95
G1 X25.127 Y9.385 Z-2
G1 X25.164
G1 X25.249
G1 X25.267
G1 X25.335 Y9.453 Z-1.932
G1 X25.421 Y9.538 Z-1.847
G1 X25.504 Y9.621 Z-1.763
G1 X25.586 Y9.702 Z-1.681
G1 X25.666 Y9.78 Z-1.602
G1 X25.741 Y9.854 Z-1.526
G1 X25.812 Y9.923 Z-1.455
G1 X25.878 Y9.987 Z-1.389
G1 X25.939 Y10.045 Z-1.329
G1 X25.992 Y10.095 Z-1.276
G1 X26.037 Y10.137 Z-1.23
G1 X26.076 Y10.172 Z-1.192
G1 X26.267 Y10.345 Z-1.001
G1 X26.076 Y10.172 Z-1.192
G1 X26.037 Y10.137 Z-1.23
G1 X25.992 Y10.095 Z-1.276
G1 X25.939 Y10.045 Z-1.329
G1 X25.878 Y9.987 Z-1.389
G1 X25.812 Y9.923 Z-1.455
G1 X25.741 Y9.854 Z-1.526
G1 X25.666 Y9.78 Z-1.602
G1 X25.586 Y9.702 Z-1.681
G1 X25.504 Y9.621 Z-1.763
G1 X25.421 Y9.538 Z-1.847
G1 X25.335 Y9.453 Z-1.932
G1 X25.267 Y9.385 Z-2
G1 Y7.582
G1 X26.267 Y6.574 Z-1
G1 X25.267 Y7.582 Z-2
G1 X25.215 Y7.583
G1 X25.132 Y7.584
G1 X25.126 Y8.036
G3 X25.012 Y8.499 I-1.05 J-0.014
G2 X25.126 Y8.036 I-0.936 J-0.476
G1 X25.132 Y7.584
G1 X24.842 Y7.292 Z-1.706
G1 X24.145 Y6.592 Z-1
; MOVEMENT_RAPID
G0 Z5 F300
G0 X3.077 Y25.99 F2500
G0 Z4 F300
; MOVEMENT_LEAD_IN
G1 Z-1.001 F3
; MOVEMENT_CUTTING
G1 X3.987 Y26.899 Z-1.91 F15
G1 X3.077 Y27.809 Z-1.001
G1 X3.987 Y26.899 Z-1.91
G1 X6.275
G1 X6.343 Y27.011 Z-1.799
G1 X6.412 Y27.113 Z-1.697
G1 X6.481 Y27.205 Z-1.604
G1 X6.549 Y27.288 Z-1.521
G1 X6.618 Y27.362 Z-1.448
G1 X7.065 Y27.809 Z-1.001
G1 X6.618 Y27.362 Z-1.448
G1 X6.549 Y27.288 Z-1.521
G1 X6.481 Y27.205 Z-1.604
G1 X6.412 Y27.113 Z-1.697
G1 X6.343 Y27.011 Z-1.799
G1 X6.275 Y26.899 Z-1.91
G1 X6.305 Y26.882 Z-1.892
G1 X6.375 Y26.765 Z-1.775
G1 X6.445 Y26.658 Z-1.669
G1 X6.514 Y26.562 Z-1.573
G1 X6.584 Y26.477 Z-1.487
G1 X6.654 Y26.402 Z-1.412
G1 X7.066 Y25.99 Z-1
G1 X6.654 Y26.402 Z-1.412
G1 X6.584 Y26.477 Z-1.487
G1 X6.514 Y26.562 Z-1.573
G1 X6.445 Y26.658 Z-1.669
G1 X6.375 Y26.765 Z-1.775
G1 X6.305 Y26.882 Z-1.892
G1 X6.441 Z-1.779
G1 X6.562 Z-1.683
G1 X6.671 Z-1.605
G1 X6.722 Z-1.571
G1 X6.818 Z-1.515
G1 X6.907 Z-1.473
G1 X6.95 Z-1.458
G1 X6.993 Z-1.446
G1 X7.034 Z-1.437
G1 X7.075 Z-1.432
G1 X19.846 Z-1.43
G1 X19.925 Y26.878 Z-1.433
G1 X20.005 Y26.868 Z-1.443
G1 X20.084 Y26.852 Z-1.46
G1 X20.164 Y26.829 Z-1.483
G1 X20.244 Y26.799 Z-1.512
G1 X20.755 Y27.311 Z-1.001
G1 X20.244 Y26.799 Z-1.512
G1 X20.273 Y26.72 Z-1.483
G1 X20.296 Y26.64 Z-1.46
G1 X20.313 Y26.561 Z-1.443
G1 X20.323 Y26.481 Z-1.433
G1 X20.326 Y26.402 Z-1.43
G1 Y16.914
G1 Y15.613
G1 Y14.968
G1 Y14.33
G1 X20.327 Y13.699 Z-1.429
G1 Y13.078
G1 Y12.468
G1 X20.328 Y11.871
G1 X20.329 Y10.723 Z-1.428
G1 X20.33 Y10.175
G1 Y9.648 Z-1.427
G1 X20.331 Y9.142
G1 X20.332 Y8.659
G1 X20.333 Y8.202
G1 X20.334 Y7.771 Z-1.426
G1 X20.335 Y7.369
G1 X20.336 Y6.998
G1 X20.338 Y6.658
G1 X20.339 Y6.353
G1 X20.341 Y6.083
G1 X20.342 Y5.85
G1 X20.344 Y5.657
G1 X20.345 Y5.505
G1 X20.346 Y5.44
G1 X20.354 Y4.879 Z-1.427
G1 X20.36 Y4.664 Z-1.431
G1 X20.365 Y4.564 Z-1.434
G1 X20.374 Y4.466 Z-1.442
G1 X20.388 Y4.376 Z-1.455
G1 X20.403 Y4.309 Z-1.469
G1 X20.424 Y4.242 Z-1.489
G1 X20.459 Y4.147 Z-1.523
G1 X19.943 Y3.624 Z-1.001
G1 X20.459 Y4.147 Z-1.523
G1 X20.537 Y4.118 Z-1.495
G1 X20.615 Y4.095 Z-1.472
G1 X20.693 Y4.079 Z-1.455
G1 X20.771 Y4.068 Z-1.445
G1 X20.849 Y4.064 Z-1.441
G1 X20.979 Y4.063 Z-1.439
G1 X22.654 Y4.058 Z-1.435
G1 X28.453 Y4.054 Z-1.431
G1 X35.802 Z-1.43
G1 X41.07 Y4.056 Z-1.433
G1 X43.802 Y4.059 Z-1.436
G1 X44.736 Y4.062 Z-1.439
G1 X44.882 Y4.064 Z-1.441
G1 X44.967 Y4.069 Z-1.445
G1 X45.075 Y4.08 Z-1.456
G1 X45.149 Y4.09 Z-1.466
G1 X45.223 Y4.105 Z-1.482
G1 X45.296 Y4.126 Z-1.502
G1 X45.37 Y4.152 Z-1.529
G1 X45.894 Y3.624 Z-1.001
G1 X45.37 Y4.152 Z-1.529
G1 X45.402 Y4.233 Z-1.497
G1 X45.427 Y4.313 Z-1.472
G1 X45.446 Y4.394 Z-1.454
G1 X45.458 Y4.475 Z-1.443
G1 X45.463 Y4.556 Z-1.438
G1 X45.477 Y5.21 Z-1.428
G1 X45.479 Y5.556
G1 X45.478 Y5.905 Z-1.432
G1 X45.47 Y6.439 Z-1.443
G1 X45.472 Y6.506 Z-1.447
G1 X45.474 Y6.544 Z-1.452
G1 X45.478 Y6.62 Z-1.469
G1 X45.482 Y6.699 Z-1.499
G1 X45.484 Y6.739 Z-1.517
G1 X45.489 Y6.824 Z-1.563
G1 X45.494 Y6.916 Z-1.622
G1 X45.499 Y7.016 Z-1.693
G1 X45.505 Y7.127 Z-1.779
G1 X45.512 Y7.25 Z-1.882
G1 X45.614 Y7.188 Z-1.779
G1 X45.708 Y7.125 Z-1.685
G1 X45.794 Y7.062 Z-1.599
G1 X45.872 Y7 Z-1.521
G1 X45.942 Y6.937 Z-1.452
G1 X46.192 Y6.697 Z-1.201
G1 X46.393 Y6.505 Z-1.001
G1 X46.192 Y6.697 Z-1.201
G1 X45.942 Y6.937 Z-1.452
G1 X45.872 Y7 Z-1.521
G1 X45.794 Y7.062 Z-1.599
G1 X45.708 Y7.125 Z-1.685
G1 X45.614 Y7.188 Z-1.779
G1 X45.512 Y7.25 Z-1.882
G1 X45.456 Y7.351 Z-1.937
G1 X45.394 Y7.451 Z-1.999
G1 X45.273 Y7.368 Z-1.878
G1 X45.163 Y7.285 Z-1.768
G1 X45.064 Y7.202 Z-1.668
G1 X44.975 Y7.119 Z-1.58
G1 X44.396 Y6.54 Z-1.001
G1 X44.975 Y7.119 Z-1.58
G1 X45.064 Y7.202 Z-1.668
G1 X45.163 Y7.285 Z-1.768
G1 X45.273 Y7.368 Z-1.878
G1 X45.394 Y7.451 Z-1.999
G1 Y9.423
G1 X46.393 Y10.421 Z-1.001
G1 X45.394 Y9.423 Z-1.999
G1 X44.396 Y10.421 Z-1.001
; MOVEMENT_RAPID
G0 Z5 F300
G0 X3.126 Y22.872 F2500
G0 Z4 F300
; MOVEMENT_LEAD_IN
G1 Z-1.001 F3
; MOVEMENT_CUTTING
G1 X3.132 Y22.866 Z-1.008 F15
G1 X3.131 Y22.873 Z-1
G1 X3.132 Y22.866 Z-1.008
G1 X3.141 Y22.858 Z-1.017
G1 X3.157 Y22.843 Z-1.034
G1 X3.165 Y22.836 Z-1.041
G1 X3.188 Y22.815 Z-1.065
G1 X3.192 Y22.811 Z-1.069
G1 X3.222 Y22.782 Z-1.101
G1 X3.225 Y22.78 Z-1.103
G1 X3.256 Y22.75 Z-1.135
G1 X3.268 Y22.738 Z-1.147
G1 X3.292 Y22.715 Z-1.172
G1 X3.318 Y22.69 Z-1.198
G1 X3.332 Y22.676 Z-1.212
G1 X3.374 Y22.635 Z-1.255
G1 X3.375 Y22.634 Z-1.256
G1 X3.419 Y22.591 Z-1.3
G1 X3.44 Y22.571 Z-1.321
G1 X3.466 Y22.545 Z-1.347
G1 X3.512 Y22.5 Z-1.393
G1 X3.516 Y22.496 Z-1.397
G1 X3.568 Y22.445 Z-1.449
G1 X3.592 Y22.421 Z-1.474
G1 X3.622 Y22.392 Z-1.503
G1 X3.677 Y22.337 Z-1.559
G1 X3.681 Y22.334 Z-1.563
G1 X3.735 Y22.281 Z-1.616
G1 X3.779 Y22.238 Z-1.66
G1 X3.794 Y22.222 Z-1.675
G1 X3.855 Y22.163 Z-1.736
G1 X3.885 Y22.133 Z-1.766
G1 X3.916 Y22.102 Z-1.797
G1 X3.979 Y22.04 Z-1.86
G1 X4.001 Y22.018 Z-1.881
G1 X4.043 Y21.977 Z-1.923
G1 X4.076 Y21.945 Z-1.956
G1 X4.044 Y21.912 Z-1.923
G1 X3.13 Y20.993 Z-1
G1 X4.044 Y21.912 Z-1.923
G1 X4.076 Y21.945 Z-1.956
G1 X4.127
G1 X4.262 Z-1.957
G1 X4.408 Y21.944
G1 X4.565 Z-1.958
G1 X4.734
G1 X4.914 Z-1.959
G1 X5.103 Y21.943
G1 X6.195 Y21.941 Z-1.962
G1 X6.276 Y22.062 Z-1.84
G1 X6.358 Y22.172 Z-1.73
G1 X6.44 Y22.271 Z-1.631
G1 X6.522 Y22.358 Z-1.544
G1 X7.065 Y22.902 Z-1.001
G1 X6.522 Y22.358 Z-1.544
G1 X6.44 Y22.271 Z-1.631
G1 X6.358 Y22.172 Z-1.73
G1 X6.276 Y22.062 Z-1.84
G1 X6.195 Y21.941 Z-1.962
G1 X6.255 Y21.903 Z-1.924
G1 X6.316 Y21.867 Z-1.889
G1 X6.386 Y21.747 Z-1.769
G1 X6.456 Y21.638 Z-1.66
G1 X6.526 Y21.539 Z-1.562
G1 X6.597 Y21.452 Z-1.475
G1 X6.667 Y21.376 Z-1.399
G1 X7.066 Y20.976 Z-1
G1 X6.667 Y21.376 Z-1.399
G1 X6.597 Y21.452 Z-1.475
G1 X6.526 Y21.539 Z-1.562
G1 X6.456 Y21.638 Z-1.66
G1 X6.386 Y21.747 Z-1.769
G1 X6.316 Y21.867 Z-1.889
G1 X6.449 Z-1.779
G1 X6.567 Z-1.686
G1 X6.675 Z-1.61
G1 X6.773 Z-1.549
G1 X6.864 Z-1.502
G1 X6.95 Z-1.468
G1 X6.992 Z-1.457
G1 X7.033 Z-1.448
G1 X7.073 Z-1.443
G1 X7.114 Z-1.441
G1 X12.114 Y21.871 Z-1.421
G1 X12.61 Z-1.419
G1 X12.79 Z-1.418
G1 X12.984
G1 X13.353 Z-1.416
G1 X13.714 Z-1.415
G1 X13.754
G1 X14.066 Z-1.414
G1 X14.744 Y21.87 Z-1.411
G1 X15.067 Z-1.41
G1 X15.379 Y21.869 Z-1.409
G1 X15.656 Y21.868 Z-1.408
G1 X15.679
G1 X15.965 Z-1.407
G1 X16.237 Y21.867 Z-1.406
G1 X16.495 Y21.866
G1 X16.736 Y21.864 Z-1.405
G1 X16.962 Y21.863
G1 X17.044 Y21.862
G1 X17.169 Y21.86 Z-1.406
G1 X17.187 Y21.859 Z-1.407
G1 X17.244 Y21.854 Z-1.411
G1 X17.301 Y21.846 Z-1.419
G1 X17.358 Y21.834 Z-1.43
G1 X17.443 Y21.81 Z-1.453
G1 X17.528 Y21.778 Z-1.484
G1 X17.576 Y21.757 Z-1.506
G1 X17.679 Y21.859 Z-1.402
G1 X17.751 Y21.93 Z-1.33
G1 X17.81 Y21.99 Z-1.27
G1 X17.91 Y22.089 Z-1.169
G1 X17.92 Y22.099 Z-1.159
G1 X18.007 Y22.185 Z-1.071
G1 X18.027 Y22.205 Z-1.051
G1 X18.071 Y22.248 Z-1.007
G1 X18.077 Y22.254 Z-1
G1 X18.071 Y22.248 Z-1.007
G1 X18.027 Y22.205 Z-1.051
G1 X18.007 Y22.185 Z-1.071
G1 X17.92 Y22.099 Z-1.159
G1 X17.91 Y22.089 Z-1.169
G1 X17.81 Y21.99 Z-1.27
G1 X17.751 Y21.93 Z-1.33
G1 X17.679 Y21.859 Z-1.402
G1 X17.576 Y21.757 Z-1.506
G1 X17.585 Y21.73 Z-1.497
G1 X17.609 Y21.651 Z-1.473
G1 X17.626 Y21.571 Z-1.457
G1 X17.636 Y21.491 Z-1.447
G1 X17.641 Y21.404 Z-1.442
G1 X17.644 Y21.214 Z-1.44
G1 X17.647 Y20.899 Z-1.438
G1 X17.649 Y20.55 Z-1.437
G1 X17.651 Y20.166 Z-1.436
G1 X17.652 Y19.751 Z-1.435
G1 X17.654 Y19.305
G1 X17.655 Y18.83 Z-1.434
G1 X17.656 Y18.327 Z-1.433
G1 X17.657 Y17.798
G1 X17.658 Y17.245
G1 Y16.669 Z-1.432
G1 X17.659 Y16.072
G1 Y15.455
G1 X17.66 Y14.82 Z-1.431
G1 Y14.168
G1 Y12.821
G1 Y12.541
G1 Y11.974
G1 Y11.409
G1 Y10.849 Z-1.43
G1 Y10.295
G1 Y9.748 Z-1.429
G1 X17.661 Y9.21
G1 Y8.683
G1 Y8.168 Z-1.428
G1 Y7.667 Z-1.427
G1 X17.662 Y7.18
G1 Y6.711 Z-1.426
G1 X17.663 Y6.26
G1 Y5.828 Z-1.425
G1 X17.664 Y5.418 Z-1.424
G1 Y5.031
G1 X17.665 Y4.669 Z-1.423
G1 X17.666 Y4.332 Z-1.422
G1 Y4.023 Z-1.421
G1 X17.667 Y3.744
G1 X17.668 Y3.494 Z-1.42
G1 Y3.278 Z-1.419
G1 X17.669 Y3.095 Z-1.418
G1 X17.67 Y2.948 Z-1.417
G1 X17.676 Y1.973 Z-1.411
G1 X17.68 Y1.891 Z-1.414
G1 X17.69 Y1.815 Z-1.424
G1 X17.707 Y1.74 Z-1.439
G1 X17.73 Y1.664 Z-1.461
G1 X17.759 Y1.588 Z-1.489
G1 X17.276 Y1.099 Z-1
G1 X17.759 Y1.588 Z-1.489
G1 X17.835 Y1.56 Z-1.462
G1 X17.91 Y1.539 Z-1.44
G1 X17.986 Y1.523 Z-1.425
G1 X18.061 Y1.514 Z-1.415
G1 X18.137 Y1.511 Z-1.412
G1 X47.119
G1 X47.201 Y1.514 Z-1.416
G1 X47.282 Y1.525 Z-1.427
G1 X47.364 Y1.543 Z-1.445
G1 X47.445 Y1.568 Z-1.47
G1 X47.527 Y1.601 Z-1.502
G1 X48.028 Y1.099 Z-1.001
G1 X47.527 Y1.601 Z-1.502
G1 X47.553 Y1.675 Z-1.476
G1 X47.573 Y1.75 Z-1.456
G1 X47.587 Y1.824 Z-1.442
G1 X47.596 Y1.899 Z-1.433
G1 X47.599 Y1.973 Z-1.43
G1 Y17.868
G1 X47.595 Y17.952 Z-1.434
G1 X47.584 Y18.037 Z-1.445
G1 X47.566 Y18.121 Z-1.463
G1 X47.539 Y18.206 Z-1.49
G1 X47.506 Y18.29 Z-1.523
G1 X48.028 Y18.813 Z-1.001
G1 X47.506 Y18.29 Z-1.523
G1 X47.429 Y18.317 Z-1.496
G1 X47.351 Y18.338 Z-1.475
G1 X47.274 Y18.353 Z-1.46
G1 X47.196 Y18.362 Z-1.451
G1 X47.119 Y18.365 Z-1.448
G1 X43.907 Z-1.45
G1 X43.86 Z-1.457
G1 X43.813 Z-1.467
G1 X43.765 Z-1.483
G1 X43.715 Z-1.502
G1 X43.665 Z-1.526
G1 X43.613 Z-1.554
G1 X43.503 Z-1.622
G1 X43.445 Z-1.662
G1 X43.321 Z-1.756
G1 X43.183 Z-1.868
G1 X43.03 Z-2
G3 X42.906 Y17.932 I0.925 J-0.498
G1 X42.905 Y17.352 Z-1.999
G1 X43.904 Y16.354 Z-1.001
G1 X42.905 Y17.352 Z-1.999
G1 X41.907 Y16.354 Z-1.001
G1 X42.905 Y17.352 Z-1.999
G1 X42.906 Y17.932 Z-2
G1 Y18.798
G3 X43.03 Y18.365 I1.048 J0.065
G2 X42.906 Y18.798 I0.925 J0.498
G1 X42.905 Y18.863 Z-1.999
G1 Y19.272
G1 X41.907 Y20.271 Z-1.001
G1 X42.905 Y19.272 Z-1.999
G1 X43.904 Y20.271 Z-1.001
; MOVEMENT_RAPID
G0 Z5 F300
G0 X22.35 Y5.718 F2500
G0 Z4 F300
; MOVEMENT_LEAD_IN
G1 Z-1 F3
; MOVEMENT_CUTTING
G1 X22.351 Y5.717 Z-1.001 F15
G1 X22.354 Y5.713 Z-1.004
G1 X22.356 Y5.71 Z-1.006
G1 X22.357 Y5.709 Z-1.007
G1 X22.35 Y5.708 Z-1
G1 X22.357 Y5.709 Z-1.007
G1 X22.37 Y5.693 Z-1.019
G1 X22.352 Y5.689 Z-1
G1 X22.37 Y5.693 Z-1.019
G1 X22.38 Y5.684 Z-1.025
G1 X22.358 Y5.673 Z-1
G1 X22.38 Y5.684 Z-1.025
G1 X22.39 Y5.676 Z-1.029
G1 X22.367 Y5.658 Z-1
G1 X22.39 Y5.676 Z-1.029
G1 X22.404 Y5.668 Z-1.033
G1 X22.382 Y5.643 Z-1
G1 X22.404 Y5.668 Z-1.033
G1 X22.421 Y5.66 Z-1.037
G1 X22.401 Y5.629 Z-1
G1 X22.421 Y5.66 Z-1.037
G1 X22.443 Y5.652 Z-1.041
G1 X22.425 Y5.616 Z-1
G1 X22.443 Y5.652 Z-1.041
G1 X22.468 Y5.644 Z-1.043
G1 X22.454 Y5.604 Z-1
G1 X22.468 Y5.644 Z-1.043
G1 X22.498 Y5.637 Z-1.045
G1 X22.486 Y5.594 Z-1
G1 X22.498 Y5.637 Z-1.045
G1 X22.53 Y5.631 Z-1.046
G1 X22.522 Y5.586 Z-1
G1 X22.53 Y5.631 Z-1.046
G1 X22.566 Y5.627 Z-1.047
G1 X22.56 Y5.58 Z-1
G1 X22.566 Y5.627 Z-1.047
G1 X22.603 Y5.624 Z-1.048
G1 X22.6 Y5.576 Z-1
G1 X22.603 Y5.624 Z-1.048
G1 X22.642 Y5.623
G1 Y5.575 Z-1
G1 Y5.623 Z-1.048
G1 X22.681 Y5.625 Z-1.049
G1 X22.684 Y5.576 Z-1
G1 X22.681 Y5.625 Z-1.049
G1 X22.721 Y5.628
G1 X22.726 Y5.58 Z-1
G1 X22.721 Y5.628 Z-1.049
G1 X22.76 Y5.634 Z-1.05
G1 X22.768 Y5.586 Z-1
G1 X22.76 Y5.634 Z-1.05
G1 X22.798 Y5.643 Z-1.051
G1 X22.809 Y5.594 Z-1
G1 X22.798 Y5.643 Z-1.051
G1 X22.834 Y5.654 Z-1.052
G1 X22.849 Y5.604 Z-1
G1 X22.834 Y5.654 Z-1.052
G1 X22.867 Y5.667 Z-1.054
G1 X22.886 Y5.617 Z-1
G1 X22.867 Y5.667 Z-1.054
G1 X22.897 Y5.681 Z-1.056
G1 X22.921 Y5.631 Z-1
G1 X22.897 Y5.681 Z-1.056
G1 X22.923 Y5.697 Z-1.057
G1 X22.952 Y5.648 Z-1
G1 X22.923 Y5.697 Z-1.057
G1 X22.945 Y5.713 Z-1.059
G1 X22.98 Y5.666 Z-1
G1 X22.945 Y5.713 Z-1.059
G1 X22.962 Y5.728 Z-1.06
G1 X23.003 Y5.686 Z-1
G1 X22.962 Y5.728 Z-1.06
G1 X22.974 Y5.743
G1 X23.022 Y5.707 Z-1
G1 X22.974 Y5.743 Z-1.06
G1 X22.985 Y5.759 Z-1.059
G1 X23.037 Y5.73 Z-1
G1 X22.985 Y5.759 Z-1.059
G1 X22.995 Y5.777
G1 X23.048 Y5.752 Z-1
G1 X22.995 Y5.777 Z-1.059
G1 X23.004 Y5.796 Z-1.058
G1 X23.058 Y5.776 Z-1
G1 X23.004 Y5.796 Z-1.058
G1 X23.011 Y5.816
G1 X23.066 Y5.799 Z-1
G1 X23.011 Y5.816 Z-1.058
G1 X23.016 Y5.835
G1 X23.072 Y5.823 Z-1
G1 X23.016 Y5.835 Z-1.058
G1 X23.019 Y5.854
G1 X23.076 Y5.846 Z-1
G1 X23.019 Y5.854 Z-1.058
G1 X23.021 Y5.873 Z-1.059
G1 X23.079 Y5.868 Z-1
G1 X23.021 Y5.873 Z-1.059
G1 Y5.89
G1 X23.08 Z-1
G1 X23.021 Z-1.059
G1 X23.02 Y5.908
G1 X23.079 Y5.912 Z-1
G1 X23.02 Y5.908 Z-1.059
G1 X23.018 Y5.925 Z-1.06
G1 X23.076 Y5.934 Z-1
G1 X23.018 Y5.925 Z-1.06
G1 X23.014 Y5.942
G1 X23.072 Y5.956 Z-1
G1 X23.014 Y5.942 Z-1.06
G1 X23.009 Y5.959
G1 X23.066 Y5.977 Z-1
G1 X23.009 Y5.959 Z-1.06
G1 X23.003 Y5.975 Z-1.061
G1 X23.059 Y5.998 Z-1
G1 X23.003 Y5.975 Z-1.061
G1 X22.995 Y5.992
G1 X23.05 Y6.019 Z-1
G1 X22.995 Y5.992 Z-1.061
G1 X22.986 Y6.009
G1 X23.039 Y6.039 Z-1
G1 X22.986 Y6.009 Z-1.061
G1 X22.976 Y6.025
G1 X23.026 Y6.059 Z-1
G1 X22.976 Y6.025 Z-1.061
G1 X22.964 Y6.041
G1 X23.012 Y6.079 Z-1
G1 X22.964 Y6.041 Z-1.061
G1 X22.95 Y6.057
G1 X22.996 Y6.098 Z-1
G1 X22.95 Y6.057 Z-1.061
G1 X22.935 Y6.074
G1 X22.978 Y6.117 Z-1
G1 X22.935 Y6.074 Z-1.061
G1 X22.919 Y6.089
G1 X22.959 Y6.135 Z-1
G1 X22.919 Y6.089 Z-1.061
G1 X22.9 Y6.105
G1 X22.938 Y6.153 Z-1
G1 X22.9 Y6.105 Z-1.061
G1 X22.88 Y6.121
G1 X22.915 Y6.17 Z-1
G1 X22.88 Y6.121 Z-1.061
G1 X22.858 Y6.136 Z-1.06
G1 X22.89 Y6.186 Z-1
G1 X22.858 Y6.136 Z-1.06
G1 X22.835 Y6.151 Z-1.059
G1 X22.8 Y6.17 Z-1.058
G1 X22.746 Y6.199 Z-1.059
G1 X22.722 Y6.212 Z-1.061
G1 X22.699 Y6.225 Z-1.062
G1 X22.677 Y6.238 Z-1.063
G1 X22.657 Y6.252 Z-1.064
G1 X22.637 Y6.265 Z-1.066
G1 X22.618 Y6.279 Z-1.067
G1 X22.601 Y6.292 Z-1.068
G1 X22.584 Y6.306 Z-1.069
G1 X22.568 Y6.319 Z-1.07
G1 X22.553 Y6.333 Z-1.071
G1 X22.539 Y6.347 Z-1.072
G1 X22.526 Y6.36 Z-1.073
G1 X22.514 Y6.373 Z-1.074
G1 X22.503 Y6.386
G1 X22.493 Y6.399 Z-1.075
G1 X22.484 Y6.411 Z-1.076
G1 X22.475 Y6.423
G1 X22.468 Y6.435
G1 X22.461 Y6.447 Z-1.077
G1 X22.455 Y6.458
G1 X22.45 Y6.469
G1 X22.38 Y6.437 Z-1
G1 X22.45 Y6.469 Z-1.077
G1 X22.445 Y6.479
G1 X22.441 Y6.489 Z-1.076
G1 X22.369 Y6.465 Z-1
G1 X22.441 Y6.489 Z-1.076
G1 X22.439 Y6.496
G1 X22.43 Y6.494 Z-1.067
G1 X22.365 Y6.477 Z-1
G1 X22.43 Y6.494 Z-1.067
G1 X22.439 Y6.496 Z-1.076
G1 X22.438 Y6.499
G1 X22.437 Y6.503 Z-1.075
G1 X22.436 Y6.508
G1 X22.435 Y6.511 Z-1.074
G1 X22.434 Y6.516
G1 X22.433 Y6.519
G1 Y6.523 Z-1.073
G1 X22.432 Y6.528 Z-1.072
G1 Y6.532
G1 X22.431 Y6.537 Z-1.071
G1 Y6.542 Z-1.07
G1 X22.43 Y6.546 Z-1.069
G1 Y6.551
G1 Y6.555 Z-1.068
G1 Y6.56 Z-1.067
G1 X22.431 Y6.565 Z-1.066
G1 Y6.57 Z-1.065
G1 Y6.576 Z-1.064
G1 Y6.581 Z-1.063
G1 X22.432 Y6.586 Z-1.062
G1 X22.433 Y6.592 Z-1.061
G1 X22.434 Y6.599 Z-1.06
G1 X22.435 Y6.604 Z-1.059
G1 Y6.606
G1 X22.436 Y6.61 Z-1.058
G1 X22.437 Y6.614 Z-1.057
G1 X22.438 Y6.616
G1 Y6.62 Z-1.056
G1 X22.439 Y6.623 Z-1.055
G1 X22.44 Y6.626
G1 X22.441 Y6.63 Z-1.054
G1 X22.443 Y6.633 Z-1.053
G1 X22.444 Y6.636
G1 X22.445 Y6.64 Z-1.052
G1 X22.447 Y6.643 Z-1.051
G1 X22.448 Y6.646 Z-1.05
G1 X22.45 Y6.65
G1 X22.451 Y6.654 Z-1.049
G1 X22.453 Y6.657 Z-1.048
G1 X22.455 Y6.661 Z-1.047
G1 X22.457 Y6.664 Z-1.046
G1 X22.459 Y6.667 Z-1.045
G1 X22.461 Y6.672 Z-1.044
G1 X22.464 Y6.675 Z-1.043
G1 X22.466 Y6.679
G1 X22.468 Y6.682 Z-1.042
G1 X22.471 Y6.685 Z-1.041
G1 X22.473 Y6.688
G1 X22.474 Y6.689 Z-1.04
G1 X22.476 Y6.692
G1 X22.477 Y6.693 Z-1.039
G1 X22.479 Y6.696
G1 X22.484 Y6.701 Z-1.037
G1 X22.476 Y6.711 Z-1.026
G1 X22.484 Y6.701 Z-1.037
G1 X22.487 Y6.706 Z-1.036
G1 X22.488
G1 X22.491 Y6.71
G1 X22.492 Z-1.035
G1 X22.495 Y6.714
G1 X22.496
G1 X22.5 Y6.717 Z-1.034
G1 Y6.718
G1 X22.508 Y6.725 Z-1.033
G1 X22.516 Y6.731 Z-1.032
G1 X22.524 Y6.737 Z-1.031
G1 X22.533 Y6.743 Z-1.03
G1 X22.542 Y6.748 Z-1.029
G1 X22.551 Y6.754
G1 X22.561 Y6.758
G1 X22.571 Y6.763
G1 X22.581 Y6.767 Z-1.028
G1 X22.591 Y6.771
G1 X22.602 Y6.774 Z-1.029
G1 X22.612 Y6.777
G1 X22.623 Y6.78 Z-1.03
G1 X22.634 Y6.782 Z-1.031
G1 X22.645 Y6.783
G1 X22.656 Y6.785 Z-1.032
G1 X22.667 Y6.787 Z-1.033
G1 X22.678 Z-1.034
G1 X22.689 Y6.788 Z-1.035
G1 X22.7 Z-1.036
G1 X22.711 Y6.789 Z-1.037
G1 X22.722 Y6.788 Z-1.038
G1 X22.733 Z-1.039
G1 X22.743 Y6.787 Z-1.04
G1 X22.758 Y6.786 Z-1.041
G1 X22.773 Y6.784 Z-1.042
G1 X22.788 Y6.781 Z-1.043
G1 X22.802 Y6.779 Z-1.044
G1 X22.816 Y6.776
G1 X22.829 Y6.773 Z-1.045
G1 X22.842 Y6.769
G1 X22.854 Y6.765 Z-1.046
G1 X22.866 Y6.762 Z-1.045
G1 X22.877 Y6.758
G1 X22.887 Y6.754
G1 X22.888
G1 X22.906 Y6.794 Z-1
G1 X22.888 Y6.754 Z-1.045
G1 X22.896 Y6.751 Z-1.044
G1 X22.897 Y6.75 Z-1.043
G1 X22.918 Y6.788 Z-1
G1 X22.897 Y6.75 Z-1.043
G1 X22.905 Y6.747 Z-1.042
G1 X22.907 Y6.746
G1 X22.928 Y6.782 Z-1
G1 X22.907 Y6.746 Z-1.042
G1 X22.913 Y6.744 Z-1.041
G1 X22.916 Y6.743 Z-1.04
G1 X22.938 Y6.776 Z-1
G1 X22.916 Y6.743 Z-1.04
G1 X22.921 Y6.74 Z-1.039
G1 X22.924 Y6.739 Z-1.038
G1 X22.947 Y6.769 Z-1
G1 X22.924 Y6.739 Z-1.038
G1 X22.929 Y6.737 Z-1.037
G1 X22.932 Y6.736 Z-1.036
G1 X22.955 Y6.762 Z-1
G1 X22.932 Y6.736 Z-1.036
G1 X22.936 Y6.734 Z-1.034
G1 X22.939 Y6.732 Z-1.033
G1 X22.963 Y6.755 Z-1
G1 X22.939 Y6.732 Z-1.033
G1 X22.943 Y6.73 Z-1.032
G1 X22.946 Y6.729 Z-1.031
G1 X22.969 Y6.748 Z-1
G1 X22.946 Y6.729 Z-1.031
G1 X22.949 Y6.727 Z-1.029
G1 X22.952 Y6.726 Z-1.027
G1 X22.974 Y6.741 Z-1
G1 X22.952 Y6.726 Z-1.027
G1 X22.956 Y6.724 Z-1.025
G1 X22.959 Y6.722 Z-1.024
G1 X22.979 Y6.734 Z-1
G1 X22.959 Y6.722 Z-1.024
G1 X22.962 Y6.72 Z-1.022
G1 X22.965 Y6.718 Z-1.02
G1 X22.983 Y6.726 Z-1
G1 X22.965 Y6.718 Z-1.02
G1 X22.968 Y6.717 Z-1.018
G1 X22.972 Y6.714 Z-1.015
G1 X22.986 Y6.719 Z-1
G1 X22.972 Y6.714 Z-1.015
G1 X22.973 Y6.713 Z-1.014
G1 X22.979 Y6.71 Z-1.01
G1 X22.981 Y6.701 Z-1
G1 X22.979 Y6.71 Z-1.01
G1 X22.98 Y6.709 Z-1.009
G1 X22.988 Y6.711 Z-1
G1 X22.98 Y6.709 Z-1.009
G1 X22.984 Y6.706 Z-1.005
G1 X22.985 Y6.702 Z-1.001
G1 X22.984 Y6.706 Z-1.005
G1 X22.99 Y6.703 Z-1
; MOVEMENT_RAPID
G0 Z5 F300
G0 X3.164 Y9.194 F2500
G0 Z4 F300
; MOVEMENT_LEAD_IN
G1 Z-1 F3
; MOVEMENT_CUTTING
G1 X3.483 Y9.139 Z-1.323 F15
G1 X3.43 Y9.174 Z-1.265
G1 X3.414 Y9.184 Z-1.247
G1 X3.398 Y9.195 Z-1.229
G1 X3.363 Y9.218 Z-1.189
G1 X3.349 Y9.228 Z-1.172
G1 X3.333 Y9.239 Z-1.153
G1 X3.326 Y9.244 Z-1.144
G1 X3.207 Y9.326 Z-1
G1 X3.326 Y9.244 Z-1.144
G1 X3.22 Y9.342 Z-1
G1 X3.326 Y9.244 Z-1.144
G1 X3.333 Y9.239 Z-1.153
G1 X3.196 Y9.307 Z-1
G1 X3.333 Y9.239 Z-1.153
G1 X3.349 Y9.228 Z-1.172
G1 X3.235 Y9.356 Z-1
G1 X3.349 Y9.228 Z-1.172
G1 X3.363 Y9.218 Z-1.189
G1 X3.185 Y9.28 Z-1
G1 X3.363 Y9.218 Z-1.189
G1 X3.398 Y9.195 Z-1.229
G1 X3.414 Y9.184 Z-1.247
G1 X3.174 Y9.243 Z-1
G1 X3.414 Y9.184 Z-1.247
G1 X3.43 Y9.174 Z-1.265
G1 X3.273 Y9.388 Z-1
G1 X3.43 Y9.174 Z-1.265
G1 X3.483 Y9.139 Z-1.323
G1 X3.492 Y9.133 Z-1.334
G1 X3.574 Y9.08 Z-1.422
G1 X3.685 Y9.01 Z-1.54
G1 X3.694 Y9.004 Z-1.549
G1 X3.846 Y8.911 Z-1.707
G1 X3.976 Y8.834 Z-1.841
G1 X4.033 Y8.799 Z-1.9
G1 X4.037 Y8.797 Z-1.904
G1 X3.999 Y8.736 Z-1.868
G1 X3.964 Y8.675 Z-1.835
G1 X3.924 Y8.599 Z-1.797
G1 X3.889 Y8.523 Z-1.764
G1 X3.853 Y8.433 Z-1.73
G1 X3.823 Y8.343 Z-1.701
G1 X3.801 Y8.261 Z-1.68
G1 X3.786 Y8.193 Z-1.666
G1 X3.775 Y8.133 Z-1.656
G1 X3.767 Y8.07 Z-1.649
G1 X3.758 Y7.956 Z-1.64
G1 X3.755 Y7.893 Z-1.638
G1 X3.75 Y7.717 Z-1.634
G1 X3.748 Y7.62 Z-1.632
G1 X3.744 Y7.314 Z-1.63
G1 X3.742 Y6.972 Z-1.628
G1 X3.741 Y6.593 Z-1.627
G1 X3.74 Y6.173 Z-1.626
G1 X3.739 Y5.713
G1 X3.738 Y3.689 Z-1.627
G1 Y3.313
G1 Y3.279
G1 Y2.964
G1 Y2.914
G1 X3.739 Y2.654 Z-1.626
G1 X3.738 Y2.591
G1 X3.739 Y2.38 Z-1.624
G1 Y2.31 Z-1.623
G1 Y2.141 Z-1.62
G1 Y2.067 Z-1.618
G1 X3.74 Y1.935 Z-1.614
G1 Y1.862 Z-1.612
G1 Y1.763 Z-1.607
G1 Y1.693 Z-1.603
G1 Y1.663 Z-1.6
G1 X3.781 Y1.619 Z-1.557
G1 X3.889 Y1.496 Z-1.437
G1 X4.322 Y1.441 Z-1
G1 X3.889 Y1.496 Z-1.437
G1 X3.97 Y1.397 Z-1.341
G1 X4.306 Y1.333 Z-1
G1 X3.97 Y1.397 Z-1.341
G1 X3.991 Y1.369 Z-1.315
G1 X4.03 Y1.321 Z-1.266
G1 X4.04 Y1.306 Z-1.252
G1 X4.071 Y1.265 Z-1.21
G1 X4.075 Y1.258 Z-1.202
G1 X4.096 Y1.23 Z-1.17
G1 X4.237 Y1.133 Z-1
G1 X4.096 Y1.23 Z-1.17
G1 X4.097 Y1.227 Z-1.168
G1 X4.108 Y1.212 Z-1.15
G1 X4.18 Y1.08 Z-1
G1 X4.108 Y1.212 Z-1.15
G1 X4.21 Y1.101 Z-1
G1 X4.108 Y1.212 Z-1.15
G1 X4.097 Y1.227 Z-1.168
G1 X4.144 Y1.066 Z-1
G1 X4.097 Y1.227 Z-1.168
G1 X4.096 Y1.23 Z-1.17
G1 X4.075 Y1.258 Z-1.202
G1 X4.099 Y1.057 Z-1
G1 X4.075 Y1.258 Z-1.202
G1 X4.071 Y1.265 Z-1.21
G1 X4.263 Y1.181 Z-1
G1 X4.071 Y1.265 Z-1.21
G1 X4.04 Y1.306 Z-1.252
G1 X4.046 Y1.054 Z-1
G1 X4.04 Y1.306 Z-1.252
G1 X4.03 Y1.321 Z-1.266
G1 X4.286 Y1.247 Z-1
G1 X4.03 Y1.321 Z-1.266
G1 X3.991 Y1.369 Z-1.315
G1 X3.97 Y1.397 Z-1.341
G1 X3.889 Y1.496 Z-1.437
G1 X3.781 Y1.619 Z-1.557
G1 X3.74 Y1.663 Z-1.6
G1 X3.637 Y1.549 Z-1.488
G1 X3.539 Y1.431 Z-1.376
G1 X3.169 Y1.37 Z-1
G1 X3.539 Y1.431 Z-1.376
G1 X3.478 Y1.351 Z-1.3
G1 X3.468 Y1.339 Z-1.288
G1 X3.189 Y1.27 Z-1
G1 X3.468 Y1.339 Z-1.288
G1 X3.43 Y1.286 Z-1.236
G1 X3.419 Y1.272 Z-1.221
G1 X3.396 Y1.239 Z-1.187
G1 X3.387 Y1.227 Z-1.173
G1 X3.376 Y1.209 Z-1.154
G1 X3.371 Y1.202 Z-1.146
G1 X3.296 Y1.076 Z-1
G1 X3.371 Y1.202 Z-1.146
G1 X3.266 Y1.1 Z-1
G1 X3.371 Y1.202 Z-1.146
G1 X3.376 Y1.209 Z-1.154
G1 X3.331 Y1.061 Z-1
G1 X3.376 Y1.209 Z-1.154
G1 X3.387 Y1.227 Z-1.173
G1 X3.238 Y1.137 Z-1
G1 X3.387 Y1.227 Z-1.173
G1 X3.396 Y1.239 Z-1.187
G1 X3.374 Y1.053 Z-1
G1 X3.396 Y1.239 Z-1.187
G1 X3.419 Y1.272 Z-1.221
G1 X3.212 Y1.193 Z-1
G1 X3.419 Y1.272 Z-1.221
G1 X3.43 Y1.286 Z-1.236
G1 X3.428 Y1.05 Z-1
G1 X3.43 Y1.286 Z-1.236
G1 X3.468 Y1.339 Z-1.288
G1 X3.478 Y1.351 Z-1.3
G1 X3.539 Y1.431 Z-1.376
G1 X3.637 Y1.549 Z-1.488
G1 X3.74 Y1.663 Z-1.6
G1 Y1.693 Z-1.603
G1 Y1.763 Z-1.607
G1 Y1.862 Z-1.612
G1 Y1.935 Z-1.614
G1 X3.739 Y2.067 Z-1.618
G1 Y2.141 Z-1.62
G1 Y2.31 Z-1.623
G1 Y2.38 Z-1.624
G1 X3.738 Y2.591 Z-1.626
G1 X3.739 Y2.654
G1 X3.738 Y2.914 Z-1.627
G1 Y2.964
G1 Y3.279
G1 Y3.313
G1 Y3.689
G1 X3.739 Y5.713 Z-1.626
G1 X3.74 Y6.173
G1 X3.741 Y6.593 Z-1.627
G1 X3.742 Y6.972 Z-1.628
G1 X3.744 Y7.314 Z-1.63
G1 X3.748 Y7.62 Z-1.632
G1 X3.75 Y7.717 Z-1.634
G1 X3.755 Y7.893 Z-1.638
G1 X3.758 Y7.956 Z-1.64
G1 X3.767 Y8.07 Z-1.649
G1 X3.775 Y8.133 Z-1.656
G1 X3.786 Y8.193 Z-1.666
G1 X3.801 Y8.261 Z-1.68
G1 X3.823 Y8.343 Z-1.701
G1 X3.853 Y8.433 Z-1.73
G1 X3.889 Y8.523 Z-1.764
G1 X3.924 Y8.599 Z-1.797
G1 X3.964 Y8.675 Z-1.835
G1 X3.999 Y8.736 Z-1.868
G1 X4.037 Y8.797 Z-1.904
G1 X4.091 Y8.825 Z-1.908
G1 X4.194 Y8.873 Z-1.919
G1 X4.294 Y8.914 Z-1.935
G1 X4.315 Y8.922 Z-1.939
G1 X4.433 Y8.962 Z-1.965
G1 X4.577 Y9.006 Z-2
G1 X4.7 Y9.079
G1 X4.977 Y9.243
G1 X5.277 Y9.419
G1 X5.596 Y9.607
G1 X5.93 Y9.802
G1 X6.272 Y10.003
G1 X6.619 Y10.206
G1 X6.966 Y10.408
G1 X7.308 Y10.608
G1 X7.641 Y10.801
G1 X7.96 Y10.987
G1 X8.26 Y11.161
G1 X8.536 Y11.321
G1 X8.785 Y11.464
G1 X9 Y11.587
G1 X9.084 Y11.636
G1 X9.083 Y11.711 Z-1.934
G1 X9.08 Y11.858 Z-1.804
G1 Y11.871 Z-1.793
G1 X9.076 Y12.009 Z-1.672
G1 X9.072 Y12.124 Z-1.569
G1 X9.068 Y12.193 Z-1.507
G1 X9.067 Y12.222 Z-1.481
G1 X9.062 Y12.302 Z-1.409
G1 X9.056 Y12.365 Z-1.351
G1 X9.16 Y12.7 Z-1
G1 X9.056 Y12.365 Z-1.351
G1 X9.051 Y12.412 Z-1.306
G1 X9.048 Y12.426 Z-1.293
G1 X9.046 Y12.443 Z-1.277
G1 X9.091 Y12.717 Z-1
G1 X9.046 Y12.443 Z-1.277
G1 X9.043 Y12.46 Z-1.261
G1 Y12.461 Z-1.26
G1 X8.992 Y12.716 Z-1
G1 X9.043 Y12.461 Z-1.26
G1 X9.019 Y12.527 Z-1.19
G1 X8.969 Y12.71 Z-1
G1 X9.019 Y12.527 Z-1.19
G1 X8.948 Y12.704 Z-1
G1 X9.019 Y12.527 Z-1.19
G1 X9.043 Y12.461 Z-1.26
G1 Y12.46 Z-1.261
G1 Y12.461 Z-1.26
G1 X9.042 Y12.477 Z-1.244
G1 X9.038 Y12.721 Z-1
G1 X9.042 Y12.477 Z-1.244
G1 X9.014 Y12.719 Z-1
G1 X9.042 Y12.477 Z-1.244
G1 X9.043 Y12.461 Z-1.26
G1 X9.063 Y12.72 Z-1
G1 X9.043 Y12.461 Z-1.26
G1 Y12.46 Z-1.261
G1 X9.046 Y12.443 Z-1.277
G1 X9.048 Y12.426 Z-1.293
G1 X9.051 Y12.412 Z-1.306
G1 X9.123 Y12.71 Z-1
G1 X9.051 Y12.412 Z-1.306
G1 X9.056 Y12.365 Z-1.351
G1 X9.062 Y12.302 Z-1.409
G1 X9.067 Y12.222 Z-1.481
G1 X9.068 Y12.193 Z-1.507
G1 X9.072 Y12.124 Z-1.569
G1 X9.076 Y12.009 Z-1.672
G1 X9.08 Y11.871 Z-1.793
G1 Y11.858 Z-1.804
G1 X9.083 Y11.711 Z-1.934
G1 X9.084 Y11.636 Z-2
G1 X9.13 Y11.611
G1 X9.219 Y11.562
G1 X9.322 Y11.505
G1 X9.437 Y11.44
G1 X9.566 Y11.367
G1 X9.707 Y11.285
G1 X9.863 Y11.194
G1 X10.034 Y11.095
G1 X10.22 Y10.986
G1 X10.422 Y10.868
G1 X10.538 Y10.8
G1 X10.657 Y10.731
G1 X10.778 Y10.66
G1 X10.902 Y10.587
G1 X10.903
G1 X11.029 Y10.513
G1 X11.156 Y10.439
G1 X11.157 Y10.438
G1 X11.285 Y10.363
G1 X11.414 Y10.287
G1 X11.415
G1 X11.544 Y10.211
G1 X11.674 Y10.136
G1 Y10.135
G1 X11.803 Y10.06
G1 X11.931 Y9.985
G1 X12.057 Y9.911
G1 X12.182 Y9.838
G1 X12.304 Y9.767
G1 X12.424 Y9.697
G1 X12.54 Y9.629
G1 X12.541 Y9.628
G1 X12.653 Y9.563
G1 X12.761 Y9.499
G1 X12.762
G1 X12.866 Y9.438
G1 X12.966 Y9.38
G1 X13.06 Y9.325
G1 X13.148 Y9.273
G1 X13.149
G1 X13.231 Y9.225
G1 X13.346 Y9.157
G1 X13.454 Y9.094
G1 X13.554 Y9.035
G1 X13.603 Y9.006
G1 X13.595 Y9.007
G1 X13.522 Y9.009
G1 X13.512 Y9.01
G1 X13.425 Y9.012
G1 X13.418 Y9.013
G1 X13.315 Y9.015
G1 X13.31
G1 X13.191 Y9.017
G1 X13.188 Y9.018
G1 X13.053 Y9.02
G1 X13.05
G1 X12.898 Y9.022
G1 X12.895
G1 X12.726 Y9.023
G1 X12.724
G1 X12.536 Y9.025
G1 X12.534
G1 X12.328 Y9.026
G1 X12.327
G1 X12.101 Y9.028
G1 X12.1
G1 X11.854 Y9.029
G1 X11.853
G1 X11.587 Y9.03
G1 X11.586
G1 X11.298
G1 X11.297
G1 X10.988 Y9.031
G1 X10.987
G1 X10.655 Y9.032
G1 X10.3
G1 X9.921
G1 X9.518
G1 X9.517
G1 X9.09
G1 X9.089
G1 X8.662
G1 X8.661
G1 X8.258
G1 X7.88
G1 X7.879
G1 X7.524
G1 X7.192 Y9.031
G1 X7.191
G1 X6.882 Y9.03
G1 X6.881
G1 X6.593
G1 X6.326 Y9.029
G1 X6.325
G1 X6.079 Y9.028
G1 X6.078
G1 X5.852 Y9.026
G1 X5.851
G1 X5.645 Y9.025
G1 X5.643
G1 X5.455 Y9.023
G1 X5.453
G1 X5.284 Y9.022
G1 X5.281
G1 X5.13 Y9.02
G1 X5.126
G1 X4.992 Y9.018
G1 X4.988 Y9.017
G1 X4.869 Y9.015
G1 X4.864
G1 X4.761 Y9.013
G1 X4.754 Y9.012
G1 X4.667 Y9.01
G1 X4.657 Y9.009
G1 X4.584 Y9.007
G1 X4.577 Y9.006
G1 X4.584 Y9.007
G1 X4.657 Y9.009
G1 X4.667 Y9.01
G1 X4.754 Y9.012
G1 X4.761 Y9.013
G1 X4.864 Y9.015
G1 X4.869
G1 X4.988 Y9.017
G1 X4.992 Y9.018
G1 X5.126 Y9.02
G1 X5.13
G1 X5.281 Y9.022
G1 X5.284
G1 X5.453 Y9.023
G1 X5.455
G1 X5.643 Y9.025
G1 X5.645
G1 X5.851 Y9.026
G1 X5.852
G1 X6.078 Y9.028
G1 X6.079
G1 X6.325 Y9.029
G1 X6.326
G1 X6.593 Y9.03
G1 X6.881
G1 X6.882
G1 X7.191 Y9.031
G1 X7.192
G1 X7.524 Y9.032
G1 X7.879
G1 X7.88
G1 X8.258
G1 X8.661
G1 X8.662
G1 X9.089
G1 X9.09
G1 X9.517
G1 X9.518
G1 X9.921
G1 X10.3
G1 X10.655
G1 X10.987 Y9.031
G1 X10.988
G1 X11.297 Y9.03
G1 X11.298
G1 X11.586
G1 X11.587
G1 X11.853 Y9.029
G1 X11.854
G1 X12.1 Y9.028
G1 X12.101
G1 X12.327 Y9.026
G1 X12.328
G1 X12.534 Y9.025
G1 X12.536
G1 X12.724 Y9.023
G1 X12.726
G1 X12.895 Y9.022
G1 X12.898
G1 X13.05 Y9.02
G1 X13.053
G1 X13.188 Y9.018
G1 X13.191 Y9.017
G1 X13.31 Y9.015
G1 X13.315
G1 X13.418 Y9.013
G1 X13.425 Y9.012
G1 X13.512 Y9.01
G1 X13.522 Y9.009
G1 X13.595 Y9.007
G1 X13.603 Y9.006
G1 X13.652 Y8.991 Z-1.988
G1 X13.75 Y8.961 Z-1.964
G1 X13.838 Y8.931 Z-1.944
G1 X13.918 Y8.901 Z-1.929
G1 X13.989 Y8.871 Z-1.917
G1 X14.052 Y8.842 Z-1.91
G1 X14.106 Y8.814 Z-1.904
G1 X14.148 Y8.791 Z-1.901
G1 X14.161 Y8.798 Z-1.889
G1 X14.249 Y8.846 Z-1.8
G1 X14.328 Y8.888 Z-1.721
G1 X14.397 Y8.925 Z-1.653
G1 X14.456 Y8.956 Z-1.593
G1 X14.508 Y8.982 Z-1.542
G1 X14.548 Y9.002 Z-1.501
G1 X14.581 Y9.018 Z-1.469
G1 X14.601 Y9.027 Z-1.448
G1 X14.61 Y9.035 Z-1.437
G1 X14.656 Y9.074 Z-1.377
G1 X14.687 Y9.099 Z-1.337
G1 X14.688 Y9.1 Z-1.335
G1 X14.72 Y9.126 Z-1.295
G1 X14.955 Y9.303 Z-1
G1 X14.72 Y9.126 Z-1.295
G1 X14.945 Y9.316 Z-1
G1 X14.72 Y9.126 Z-1.295
G1 X14.688 Y9.1 Z-1.335
G1 X14.932 Y9.329 Z-1
G1 X14.688 Y9.1 Z-1.335
G1 X14.687 Y9.099 Z-1.337
G1 X14.656 Y9.074 Z-1.377
G1 X14.61 Y9.035 Z-1.437
G1 X14.601 Y9.027 Z-1.448
G1 X15.049 Y9.164 Z-1
G1 X14.601 Y9.027 Z-1.448
G1 X14.581 Y9.018 Z-1.469
G1 X14.548 Y9.002 Z-1.501
G1 X14.508 Y8.982 Z-1.542
G1 X14.456 Y8.956 Z-1.593
G1 X14.397 Y8.925 Z-1.653
G1 X14.328 Y8.888 Z-1.721
G1 X14.249 Y8.846 Z-1.8
G1 X14.161 Y8.798 Z-1.889
G1 X14.148 Y8.791 Z-1.901
G1 X14.201 Y8.701 Z-1.849
G1 X14.248 Y8.612 Z-1.803
G1 X14.288 Y8.522 Z-1.762
G1 X14.324 Y8.433 Z-1.727
G1 X14.353 Y8.343 Z-1.698
G1 X14.376 Y8.254 Z-1.675
G1 X14.394 Y8.166 Z-1.657
G1 X14.405 Y8.088 Z-1.646
G1 X14.413 Y8.01 Z-1.639
G1 X14.418 Y7.921 Z-1.634
G1 X14.424 Y7.721 Z-1.628
G1 X14.43 Y7.207 Z-1.624
G1 X14.435 Y6.171 Z-1.621
G1 X14.44 Y3.722 Z-1.624
G1 Y3.306 Z-1.625
G1 Y2.935
G1 Y2.608 Z-1.624
G1 X14.438 Y2.323 Z-1.623
G1 X14.436 Y2.077 Z-1.621
G1 X14.432 Y1.869 Z-1.617
G1 X14.428 Y1.699 Z-1.612
G1 X14.427 Y1.681 Z-1.611
G1 X14.409 Y1.664 Z-1.593
G1 X14.147 Y1.409 Z-1.332
G1 X13.816 Y1.282 Z-1
G1 X14.147 Y1.409 Z-1.332
G1 X14.137 Y1.386 Z-1.309
G1 X13.996 Y1.081 Z-1.001
G1 X14.137 Y1.386 Z-1.309
G1 X14.147 Y1.409 Z-1.332
G1 X14.409 Y1.664 Z-1.593
G1 X14.427 Y1.681 Z-1.611
G1 X14.538 Y1.553 Z-1.489
G1 X14.634 Y1.435 Z-1.378
G1 X15.007 Y1.371 Z-1
G1 X14.634 Y1.435 Z-1.378
G1 X14.679 Y1.375 Z-1.322
G1 X14.704 Y1.343 Z-1.291
G1 X14.986 Y1.269 Z-1
G1 X14.704 Y1.343 Z-1.291
G1 X14.73 Y1.305 Z-1.255
G1 X14.727 Y1.051 Z-1
G1 X14.73 Y1.305 Z-1.255
G1 X14.752 Y1.276 Z-1.225
G1 X14.961 Y1.192 Z-1
G1 X14.752 Y1.276 Z-1.225
G1 X14.766 Y1.254 Z-1.202
G1 X14.785 Y1.052 Z-1
G1 X14.766 Y1.254 Z-1.202
G1 X14.782 Y1.232 Z-1.178
G1 X14.933 Y1.136 Z-1
G1 X14.782 Y1.232 Z-1.178
G1 X14.789 Y1.221 Z-1.166
G1 X14.833 Y1.06 Z-1
G1 X14.789 Y1.221 Z-1.166
G1 X14.797 Y1.209 Z-1.152
G1 X14.871 Y1.075 Z-1
G1 X14.797 Y1.209 Z-1.152
G1 X14.904 Y1.098 Z-1
; MOVEMENT_RAPID
G0 Z5 F300
G0 X5.302 Y5.418 F2500
G0 Z4 F300
; MOVEMENT_LEAD_IN
G1 Z-1 F3
; MOVEMENT_CUTTING
G1 X5.693 Y5.431 Z-1.391 F15
G1 X5.307 Y5.37 Z-1
G1 X5.693 Y5.431 Z-1.391
G1 X5.694
G1 X5.304 Y5.466 Z-1
G1 X5.694 Y5.431 Z-1.391
G1 X5.695 Z-1.392
G1 X5.317 Y5.322 Z-1
G1 X5.695 Y5.431 Z-1.392
G1 Z-1.393
G1 X5.311 Y5.513 Z-1
G1 X5.695 Y5.431 Z-1.393
G1 X5.696 Z-1.394
G1 X5.323 Y5.559 Z-1
G1 X5.696 Y5.431 Z-1.394
G1 X5.697 Z-1.395
G1 X5.334 Y5.274 Z-1
G1 X5.697 Y5.431 Z-1.395
G1 X5.698
G1 X5.342 Y5.603 Z-1
G1 X5.698 Y5.431 Z-1.395
G1 X5.699 Z-1.396
G1 X5.365 Y5.645 Z-1
G1 X5.699 Y5.431 Z-1.396
G1 X5.7 Z-1.397
G1 X5.394 Y5.684 Z-1
G1 X5.7 Y5.431 Z-1.397
G1 X5.701 Z-1.398
G1 X5.427 Y5.72 Z-1
G1 X5.701 Y5.431 Z-1.398
G1 X5.358 Y5.228 Z-1
G1 X5.701 Y5.431 Z-1.398
G1 X5.703 Y5.43 Z-1.4
G1 X5.466 Y5.752 Z-1
G1 X5.703 Y5.43 Z-1.4
G1 X5.706 Z-1.402
G1 X5.509 Y5.78 Z-1
G1 X5.706 Y5.43 Z-1.402
G1 X5.708 Y5.429 Z-1.403
G1 X5.388 Y5.183 Z-1
G1 X5.708 Y5.429 Z-1.403
G1 X5.711 Z-1.405
G1 X5.556 Y5.803 Z-1
G1 X5.711 Y5.429 Z-1.405
G1 X5.717 Y5.427 Z-1.408
G1 X5.426 Y5.14 Z-1
G1 X5.717 Y5.427 Z-1.408
G1 X5.718 Z-1.409
G1 X5.609 Y5.821 Z-1
G1 X5.718 Y5.427 Z-1.409
G1 X5.727 Y5.424 Z-1.413
G1 X5.665 Y5.833 Z-1
G1 X5.727 Y5.424 Z-1.413
G1 X5.73 Z-1.414
G1 X5.471 Y5.1 Z-1
G1 X5.73 Y5.424 Z-1.414
G1 X5.741 Y5.42 Z-1.418
G1 X5.726 Y5.839 Z-1
G1 X5.741 Y5.42 Z-1.418
G1 X5.749 Y5.418 Z-1.421
G1 X5.524 Y5.062 Z-1
G1 X5.749 Y5.418 Z-1.421
G1 X5.76 Y5.415 Z-1.424
G1 X5.792 Y5.838 Z-1
G1 X5.76 Y5.415 Z-1.424
G1 X5.786 Y5.406 Z-1.429
G1 X5.797 Y5.403 Z-1.431
G1 X5.867 Y5.379 Z-1.443
G1 X5.933 Y5.354 Z-1.458
G1 X6.036 Y5.426 Z-1.378
G1 X6.095 Y5.471 Z-1.335
G1 X6.14 Y5.509 Z-1.304
G1 X6.183 Y5.55 Z-1.277
G1 X6.23 Y5.603 Z-1.252
G1 X6.262 Y5.645 Z-1.238
G1 X6.303 Y5.716 Z-1.225
G1 X6.331 Y5.781 Z-1.223
G1 X6.441 Y6.049 Z-1.221
G1 X6.478 Y6.137
G1 X6.501 Y6.192 Z-1.222
G1 X6.523 Y6.245 Z-1.221
G1 X6.545 Y6.296
G1 X6.567 Y6.344 Z-1.22
G1 X6.589 Y6.39 Z-1.219
G1 X6.611 Y6.435 Z-1.217
G1 X6.632 Y6.477 Z-1.215
G1 X6.653 Y6.518 Z-1.214
G1 X6.675 Y6.557 Z-1.211
G1 X6.696 Y6.594 Z-1.209
G1 X6.717 Y6.629 Z-1.207
G1 X6.738 Y6.662 Z-1.204
G1 X6.759 Y6.694 Z-1.201
G1 X6.781 Y6.725 Z-1.198
G1 X6.803 Y6.753 Z-1.195
G1 X6.825 Y6.781 Z-1.192
G1 X6.847 Y6.807 Z-1.189
G1 X6.87 Y6.832 Z-1.186
G1 X6.893 Y6.855 Z-1.183
G1 X6.917 Y6.877 Z-1.18
G1 X6.941 Y6.899 Z-1.177
G1 X6.966 Y6.919 Z-1.174
G1 X6.992 Y6.938 Z-1.172
G1 X7.009 Y6.949 Z-1.17
G1 X6.938 Y7.103 Z-1
G1 X7.009 Y6.949 Z-1.17
G1 X7.024 Y6.957 Z-1.167
G1 X7.054 Y6.972 Z-1.162
G1 X7.086 Y6.987 Z-1.157
G1 X7.121 Y7.001 Z-1.152
G1 X7.158 Y7.015 Z-1.147
G1 X7.197 Y7.028 Z-1.142
G1 X7.239 Y7.041 Z-1.137
G1 X7.284 Y7.053 Z-1.133
G1 X7.331 Y7.062 Z-1.131
G1 X7.381 Y7.069
G1 X7.433 Y7.075
G1 X7.488 Y7.079
G1 X7.546 Y7.084 Z-1.132
G1 X7.606 Y7.088 Z-1.133
G1 X7.669 Y7.091
G1 X7.734 Y7.094 Z-1.134
G1 X7.803 Y7.097 Z-1.135
G1 X7.874 Y7.099
G1 X7.948 Y7.101
G1 X8.024 Y7.103 Z-1.136
G1 X8.104 Y7.105
G1 X8.187 Y7.106
G1 X8.273 Y7.107
G1 X8.362 Y7.108 Z-1.137
G1 X8.393
G1 X8.426
G1 X8.459 Z-1.136
G1 X8.492
G1 X8.525 Y7.109
G1 X8.558 Z-1.137
G1 X8.592
G1 X8.626
G1 X8.66
G1 X8.695
G1 X8.729
G1 X8.764
G1 X8.8
G1 X8.835
G1 X8.906
G1 X8.942 Y7.108
G1 X8.978
G1 X9.014
G1 X9.05
G1 X9.087 Z-1.138
G1 X9.123
G1 X9.16 Y7.107
G1 X9.196
G1 X9.759 Y7.101 Z-1.142
G1 X10.314 Y7.092 Z-1.149
G1 X10.611 Y7.084 Z-1.156
G1 X10.829 Y7.075 Z-1.165
G1 X10.889 Y7.07 Z-1.169
G1 X10.928 Y7.239 Z-1.001
G1 X10.889 Y7.07 Z-1.169
G1 X10.93 Y7.057 Z-1.163
G1 X11.002 Y7.027 Z-1.158
G1 X11.08 Y6.988 Z-1.159
G1 X11.121 Y6.965 Z-1.161
G1 X11.157 Y6.942 Z-1.163
G1 X11.192 Y6.919 Z-1.166
G1 X11.223 Y6.896 Z-1.17
G1 X11.252 Y6.873 Z-1.173
G1 X11.279 Y6.849 Z-1.177
G1 X11.305 Y6.824 Z-1.181
G1 X11.328 Y6.8 Z-1.185
G1 X11.351 Y6.775 Z-1.188
G1 X11.372 Y6.75 Z-1.192
G1 X11.393 Y6.723 Z-1.195
G1 X11.413 Y6.696 Z-1.198
G1 X11.433 Y6.667 Z-1.201
G1 X11.453 Y6.636 Z-1.204
G1 X11.473 Y6.604 Z-1.206
G1 X11.493 Y6.569 Z-1.209
G1 X11.513 Y6.532 Z-1.211
G1 X11.534 Y6.492 Z-1.213
G1 X11.556 Y6.45 Z-1.214
G1 X11.577 Y6.404 Z-1.216
G1 X11.6 Y6.356 Z-1.217
G1 X11.623 Y6.304 Z-1.218
G1 X11.647 Y6.249
G1 X11.672 Y6.19 Z-1.219
G1 X11.697 Y6.132
G1 X11.743 Y6.021 Z-1.22
G1 X11.769 Y5.959 Z-1.221
G1 X11.794 Y5.901 Z-1.222
G1 X11.819 Y5.842 Z-1.223
G1 X11.824 Y5.829
G1 X11.833 Y5.808
G1 X11.865 Y5.733 Z-1.226
G1 X11.883 Y5.698 Z-1.229
G1 X11.902 Y5.664 Z-1.234
G1 X11.932 Y5.62 Z-1.247
G1 X11.955 Y5.591 Z-1.258
G1 X11.977 Y5.566 Z-1.27
G1 X11.987 Y5.555 Z-1.275
G1 X12.006 Y5.536 Z-1.286
G1 X12.049 Y5.498 Z-1.313
G1 X12.092 Y5.463 Z-1.342
G1 X12.151 Y5.421 Z-1.384
G1 X12.245 Y5.356 Z-1.456
G1 X12.324 Y5.387 Z-1.437
G1 X12.38 Y5.407 Z-1.426
G1 X12.41 Y5.417 Z-1.42
G1 X12.424 Y5.421 Z-1.417
G1 X12.44 Y5.838 Z-1
G1 X12.424 Y5.421 Z-1.417
G1 X12.435 Y5.423 Z-1.413
G1 X12.497 Y5.832 Z-1
G1 X12.435 Y5.423 Z-1.413
G1 X12.443 Y5.425 Z-1.41
G1 X12.55 Y5.821 Z-1
G1 X12.443 Y5.425 Z-1.41
G1 X12.451 Z-1.407
G1 X12.601 Y5.804 Z-1
G1 X12.451 Y5.425 Z-1.407
G1 X12.458 Y5.426 Z-1.404
G1 X12.466 Y5.425 Z-1.4
G1 X12.468 Z-1.399
G1 X12.473 Z-1.396
G1 X12.73 Y5.726 Z-1
G1 X12.473 Y5.425 Z-1.396
G1 X12.482 Y5.424 Z-1.391
G1 X12.766 Y5.693 Z-1
G1 X12.482 Y5.424 Z-1.391
G1 X12.491 Y5.423 Z-1.385
G1 X12.5 Y5.421 Z-1.378
G1 X12.824 Y5.617 Z-1
G1 X12.5 Y5.421 Z-1.378
G1 X12.505 Y5.419 Z-1.374
G1 X12.509 Z-1.372
G1 X12.846 Y5.575 Z-1
G1 X12.509 Y5.419 Z-1.372
G1 X12.517 Y5.417 Z-1.364
G1 X12.863 Y5.532 Z-1
G1 X12.517 Y5.417 Z-1.364
G1 X12.522 Y5.415 Z-1.36
G1 X12.767 Y5.151 Z-1
G1 X12.522 Y5.415 Z-1.36
G1 X12.525 Y5.414 Z-1.357
G1 X12.533 Y5.412 Z-1.35
G1 Z-1.349
G1 X12.803 Y5.188 Z-1
G1 X12.533 Y5.412 Z-1.349
G1 X12.539 Y5.41 Z-1.344
G1 X12.542 Y5.409 Z-1.341
G1 X12.545 Y5.408 Z-1.338
G1 X12.869 Y5.311 Z-1
G1 X12.545 Y5.408 Z-1.338
G1 X12.853 Y5.269 Z-1
G1 X12.545 Y5.408 Z-1.338
G1 X12.542 Y5.409 Z-1.341
G1 X12.831 Y5.228 Z-1
G1 X12.542 Y5.409 Z-1.341
G1 X12.879 Y5.355 Z-1
G1 X12.542 Y5.409 Z-1.341
G1 X12.539 Y5.41 Z-1.344
G1 X12.883 Y5.399 Z-1
G1 X12.539 Y5.41 Z-1.344
G1 X12.533 Y5.412 Z-1.349
G1 Z-1.35
G1 X12.882 Y5.444 Z-1
G1 X12.533 Y5.412 Z-1.35
G1 X12.525 Y5.414 Z-1.357
G1 X12.875 Y5.488 Z-1
G1 X12.525 Y5.414 Z-1.357
G1 X12.522 Y5.415 Z-1.36
G1 X12.517 Y5.417 Z-1.364
G1 X12.509 Y5.419 Z-1.372
G1 X12.505 Z-1.374
G1 X12.724 Y5.115 Z-1
G1 X12.505 Y5.419 Z-1.374
G1 X12.5 Y5.421 Z-1.378
G1 X12.491 Y5.423 Z-1.385
G1 X12.797 Y5.656 Z-1
G1 X12.491 Y5.423 Z-1.385
G1 X12.482 Y5.424 Z-1.391
G1 X12.473 Y5.425 Z-1.396
G1 X12.468 Z-1.399
G1 X12.672 Y5.083 Z-1
G1 X12.468 Y5.425 Z-1.399
G1 X12.466 Z-1.4
G1 X12.691 Y5.756 Z-1
G1 X12.466 Y5.425 Z-1.4
G1 X12.458 Y5.426 Z-1.404
G1 X12.648 Y5.783 Z-1
G1 X12.458 Y5.426 Z-1.404
G1 X12.451 Y5.425 Z-1.407
G1 X12.443 Z-1.41
G1 X12.435 Y5.423 Z-1.413
G1 X12.424 Y5.421 Z-1.417
G1 X12.41 Y5.417 Z-1.42
G1 X12.38 Y5.837 Z-1
G1 X12.41 Y5.417 Z-1.42
G1 X12.38 Y5.407 Z-1.426
G1 X12.316 Y5.828 Z-1
G1 X12.38 Y5.407 Z-1.426
G1 X12.324 Y5.387 Z-1.437
G1 X12.245 Y5.356 Z-1.456
G1 X12.216 Y5.274 Z-1.411
G1 X12.191 Y5.199 Z-1.377
G1 X12.172 Y5.139 Z-1.355
G1 X12.162 Y5.103 Z-1.346
G1 X12.145 Y5.044 Z-1.335
G1 X12.129 Y4.985 Z-1.333
G1 X12.126 Y4.972
G1 X12.112 Y4.916 Z-1.338
G1 X12.101 Y4.867 Z-1.349
G1 X12.089 Y4.814 Z-1.365
G1 X12.075 Y4.749 Z-1.39
G1 X12.063 Y4.689 Z-1.418
G1 X12.06 Y4.671 Z-1.427
G1 X12.057 Y4.653 Z-1.437
G1 X12.053 Y4.633 Z-1.447
G1 X12.041 Y4.57 Z-1.479
G1 X12.499 Y4.707 Z-1
G1 X12.041 Y4.57 Z-1.479
G1 X12.024 Y4.498 Z-1.513
G1 X11.943 Y4.482 Z-1.467
G1 X11.879 Y4.47 Z-1.437
G1 X11.816 Y4.46 Z-1.413
G1 X11.75 Y4.451 Z-1.395
G1 X11.688 Y4.446 Z-1.384
G1 X11.623 Y4.444 Z-1.378
G1 X11.471 Y4.446 Z-1.375
G1 X11.391 Y4.447 Z-1.374
G1 X11.373 Y4.074 Z-1
G1 X11.391 Y4.447 Z-1.374
G1 X11.325 Y4.45 Z-1.372
G1 X11.122 Y4.455 Z-1.367
G1 X10.926 Y4.456 Z-1.365
G1 X10.782 Y4.454 Z-1.367
G1 X10.681 Y4.45 Z-1.372
G1 X10.596 Y4.443 Z-1.378
G1 X10.507 Y4.432 Z-1.389
G1 X10.424 Y4.415 Z-1.406
G1 X10.403 Y4.41 Z-1.411
G1 X10.576 Y4.037 Z-1
G1 X10.403 Y4.41 Z-1.411
G1 X10.365 Y4.402 Z-1.419
G1 X10.293 Y4.383 Z-1.438
G1 X10.212 Y4.357 Z-1.464
G1 X10.13 Y4.325 Z-1.496
G1 X10.042 Y4.284 Z-1.537
G1 X9.953 Y4.237 Z-1.585
G1 X9.861 Y4.181 Z-1.641
G1 X9.774 Y4.121 Z-1.7
G1 X9.686 Y4.056 Z-1.765
G1 X9.607 Y3.992 Z-1.829
G1 X9.521 Y3.919 Z-1.902
G1 X10.415 Y3.792 Z-1
G1 X9.521 Y3.919 Z-1.902
G1 X9.405 Y3.821 Z-2
G1 X8.765
G1 X8.664 Y3.914 Z-1.907
G1 X8.553 Y4.008 Z-1.813
G1 X8.471 Y4.073 Z-1.748
G1 X8.384 Y4.136 Z-1.685
G1 X8.292 Y4.197 Z-1.625
G1 X8.198 Y4.251 Z-1.57
G1 X8.104 Y4.299 Z-1.523
G1 X8.015 Y4.337 Z-1.484
G1 X7.93 Y4.367 Z-1.454
G1 X7.656 Y4.004 Z-1
G1 X7.93 Y4.367 Z-1.454
G1 X7.873 Y4.385 Z-1.436
G1 X7.791 Y4.407 Z-1.414
G1 X7.737 Y4.418 Z-1.404
G1 X7.66 Y4.429 Z-1.392
G1 X7.578 Y4.437 Z-1.384
G1 X7.49 Y4.442 Z-1.379
G1 X7.362 Y4.445 Z-1.376
G1 X7.045 Y4.448 Z-1.373
G1 X6.687 Y4.449 Z-1.372
G1 X6.593 Y4.447 Z-1.374
G1 X6.562 Z-1.375
G1 X6.507 Y4.45 Z-1.379
G1 X6.446 Y4.456 Z-1.389
G1 X6.386 Y4.464 Z-1.404
G1 X6.323 Y4.475 Z-1.427
G1 X6.25 Y4.487 Z-1.462
G1 X6.149 Y4.504 Z-1.519
G1 X6.141 Y4.532 Z-1.504
G1 X6.13 Y4.579 Z-1.477
G1 X6.12 Y4.624 Z-1.452
G1 X6.104 Y4.714 Z-1.404
G1 X6.091 Y4.785 Z-1.373
G1 X6.082 Y4.831 Z-1.357
G1 X6.07 Y4.888 Z-1.342
G1 X6.057 Y4.946 Z-1.333
G1 X6.043 Y5.003 Z-1.332
G1 X6.034 Y5.04 Z-1.335
G1 X6.017 Y5.101 Z-1.346
G1 X6.003 Y5.148 Z-1.36
G1 X5.981 Y5.219 Z-1.387
G1 X5.958 Y5.285 Z-1.42
G1 X5.933 Y5.354 Z-1.458
G1 X5.958 Y5.285 Z-1.42
G1 X5.981 Y5.219 Z-1.387
G1 X6.003 Y5.148 Z-1.36
G1 X6.017 Y5.101 Z-1.346
G1 X6.034 Y5.04 Z-1.335
G1 X6.043 Y5.003 Z-1.332
G1 X6.057 Y4.946 Z-1.333
G1 X6.07 Y4.888 Z-1.342
G1 X6.082 Y4.831 Z-1.357
G1 X6.091 Y4.785 Z-1.373
G1 X6.104 Y4.714 Z-1.404
G1 X6.12 Y4.624 Z-1.452
G1 X6.13 Y4.579 Z-1.477
G1 X6.141 Y4.532 Z-1.504
G1 X6.149 Y4.504 Z-1.519
G1 X6.135 Y4.488 Z-1.511
G1 X6.104 Y4.449 Z-1.491
G1 X6.091 Y4.432 Z-1.483
G1 X6.072 Y4.405 Z-1.47
G1 X6.039 Y4.356 Z-1.449
G1 X6.008 Y4.302 Z-1.428
G1 X5.978 Y4.244 Z-1.409
G1 X5.95 Y4.18 Z-1.391
G1 X5.926 Y4.112 Z-1.376
G1 X5.905 Y4.039 Z-1.364
G1 X5.889 Y3.96 Z-1.355
G1 X5.877 Y3.878 Z-1.35
G1 X5.87 Y3.807 Z-1.348
G1 X5.869 Y3.79
G1 X5.864 Y3.698 Z-1.349
G1 X5.862 Y3.601 Z-1.351
G1 X5.86 Y3.5 Z-1.353
G1 X5.859 Y3.394 Z-1.355
G1 X5.86 Y3.38 Z-1.356
G1 X5.863 Y3.284 Z-1.361
G1 X5.868 Y3.23 Z-1.366
G1 X5.876 Y3.169 Z-1.375
G1 X5.887 Y3.102 Z-1.387
G1 X5.9 Y3.048 Z-1.399
G1 X5.912 Y3.005 Z-1.412
G1 X5.939 Y2.924 Z-1.438
G1 X5.96 Y2.872 Z-1.459
G1 X5.996 Y2.794 Z-1.494
G1 X6.015 Y2.756 Z-1.513
G1 X6.067 Y2.665 Z-1.564
G1 X6.139 Y2.555 Z-1.635
G1 X6.177 Y2.503 Z-1.672
G1 X6.171 Y2.444 Z-1.665
G1 X6.168 Y2.386 Z-1.661
G1 X6.161 Y2.175 Z-1.652
G1 X6.808 Y2.105 Z-1
G1 X6.161 Y2.175 Z-1.652
G1 X6.16 Y2.159 Z-1.651
G1 X6.159 Y2.158 Z-1.65
G1 X6.156 Y2.153 Z-1.647
G1 X6.502 Y1.605 Z-1
G1 X6.156 Y2.153 Z-1.647
G1 X6.152 Y2.146 Z-1.643
G1 X6.445 Y1.573 Z-1
G1 X6.152 Y2.146 Z-1.643
G1 X6.147 Y2.137 Z-1.638
G1 X6.385 Y1.545 Z-1
G1 X6.147 Y2.137 Z-1.638
G1 X6.14 Y2.128 Z-1.631
G1 X6.132 Y2.118 Z-1.623
G1 X6.259 Y1.508 Z-1
G1 X6.132 Y2.118 Z-1.623
G1 X6.124 Y2.107 Z-1.614
G1 X6.115 Y2.098 Z-1.605
G1 X6.129 Y1.492 Z-1
G1 X6.115 Y2.098 Z-1.605
G1 X6.106 Y2.089 Z-1.596
G1 X6.064 Y1.494 Z-1
G1 X6.106 Y2.089 Z-1.596
G1 X6.097 Y2.081 Z-1.587
G1 X6 Y1.502 Z-1
G1 X6.097 Y2.081 Z-1.587
G1 X6.089 Y2.074 Z-1.579
G1 X5.936 Y1.515 Z-1
G1 X6.089 Y2.074 Z-1.579
G1 X6.081 Y2.068 Z-1.571
G1 X6.073 Y2.063 Z-1.563
G1 X5.814 Y1.563 Z-1
G1 X6.073 Y2.063 Z-1.563
G1 X6.063 Y2.058 Z-1.553
G1 X5.757 Y1.596 Z-1
G1 X6.063 Y2.058 Z-1.553
G1 X6.049 Y2.05 Z-1.539
G1 X6.024 Y2.039 Z-1.513
G1 X5.652 Y1.684 Z-1
G1 X6.024 Y2.039 Z-1.513
G1 X5.931 Y2.004 Z-1.42
G1 X5.513 Y1.86 Z-1.001
G1 X5.931 Y2.004 Z-1.42
G1 X5.604 Y1.74 Z-1
G1 X5.931 Y2.004 Z-1.42
G1 X6.024 Y2.039 Z-1.513
G1 X6.049 Y2.05 Z-1.539
G1 X5.703 Y1.637 Z-1
G1 X6.049 Y2.05 Z-1.539
G1 X6.063 Y2.058 Z-1.553
G1 X6.073 Y2.063 Z-1.563
G1 X6.081 Y2.068 Z-1.571
G1 X5.874 Y1.536 Z-1
G1 X6.081 Y2.068 Z-1.571
G1 X6.089 Y2.074 Z-1.579
G1 X6.097 Y2.081 Z-1.587
G1 X6.106 Y2.089 Z-1.596
G1 X6.115 Y2.098 Z-1.605
G1 X6.124 Y2.107 Z-1.614
G1 X6.194 Y1.497 Z-1
G1 X6.124 Y2.107 Z-1.614
G1 X6.132 Y2.118 Z-1.623
G1 X6.14 Y2.128 Z-1.631
G1 X6.323 Y1.524 Z-1
G1 X6.14 Y2.128 Z-1.631
G1 X6.147 Y2.137 Z-1.638
G1 X6.152 Y2.146 Z-1.643
G1 X6.156 Y2.153 Z-1.647
G1 X6.159 Y2.158 Z-1.65
G1 X6.555 Y1.643 Z-1
G1 X6.159 Y2.158 Z-1.65
G1 X6.16 Y2.159 Z-1.651
G1 X6.167 Y2.155 Z-1.643
G1 X6.174 Y2.152 Z-1.635
G1 X6.177 Y2.151 Z-1.632
G1 X6.798 Y2.032 Z-1
G1 X6.177 Y2.151 Z-1.632
G1 X6.18 Y2.149 Z-1.629
G1 X6.692 Y1.783 Z-1
G1 X6.18 Y2.149 Z-1.629
G1 X6.183 Y2.148 Z-1.626
G1 X6.184 Y2.147 Z-1.624
G1 X6.758 Y1.899 Z-1
G1 X6.184 Y2.147 Z-1.624
G1 X6.728 Y1.839 Z-1
G1 X6.184 Y2.147 Z-1.624
G1 X6.183 Y2.148 Z-1.626
G1 X6.781 Y1.963 Z-1
G1 X6.183 Y2.148 Z-1.626
G1 X6.18 Y2.149 Z-1.629
G1 X6.177 Y2.151 Z-1.632
G1 X6.174 Y2.152 Z-1.635
G1 X6.651 Y1.732 Z-1
G1 X6.174 Y2.152 Z-1.635
G1 X6.167 Y2.155 Z-1.643
G1 X6.606 Y1.685 Z-1
G1 X6.167 Y2.155 Z-1.643
G1 X6.16 Y2.159 Z-1.651
G1 X6.161 Y2.175 Z-1.652
G1 X6.168 Y2.386 Z-1.661
G1 X6.171 Y2.444 Z-1.665
G1 X6.177 Y2.503 Z-1.672
G1 X6.273 Y2.557 Z-1.595
G1 X6.368 Y2.606 Z-1.529
G1 X6.447 Y2.643 Z-1.483
G1 X6.518 Y2.673 Z-1.447
G1 X6.587 Y2.698 Z-1.419
G1 X6.596 Y2.701 Z-1.416
G1 X6.662 Y2.719 Z-1.396
G1 X6.731 Y2.734 Z-1.381
G1 X6.806 Y2.744 Z-1.371
G1 X6.886 Y2.747 Z-1.368
G1 X6.974
G1 X7.332 Z-1.369
G1 X7.472 Y2.75 Z-1.371
G1 X7.563 Y2.754 Z-1.375
G1 X7.647 Y2.761 Z-1.382
G1 X7.728 Y2.772 Z-1.393
G1 X7.784 Y2.783 Z-1.404
G1 X7.87 Y2.805 Z-1.427
G1 X7.925 Y2.823 Z-1.445
G1 X7.658 Y3.179 Z-1
G1 X7.925 Y2.823 Z-1.445
G1 X8.006 Y2.852 Z-1.473
G1 X8.097 Y2.891 Z-1.512
G1 X8.192 Y2.939 Z-1.56
G1 X8.288 Y2.994 Z-1.616
G1 X8.38 Y3.056 Z-1.677
G1 X8.469 Y3.121 Z-1.742
G1 X8.551 Y3.186 Z-1.808
G1 X8.661 Y3.281 Z-1.902
G1 X8.767 Y3.379 Z-2
G1 Y3.383
G3 X8.768 Y3.395 I-1.048 J0.056
G1 Y3.405
G1 X7.77 Y3.468 Z-1.001
G1 X8.768 Y3.405 Z-2
G1 Y3.406
G1 X8.769 Y3.416
G3 X8.77 Y3.427 I-1.047 J0.085
G1 Y3.437
G1 X8.771 Y3.446
G1 X8.772 Y3.456
G1 Y3.464
G1 X8.773 Y3.475
G1 Y3.484
G1 X8.774 Y3.494
G1 Y3.504
G1 Y3.514
G1 X8.775 Y3.523
G1 Y3.533
G1 Y3.542
G1 Y3.552
G1 Y3.56
G1 X8.776 Y3.57
G3 Y3.581 I-1.05 J0.012
G1 Y3.591
G1 Y3.598
G1 Y3.608
G3 X8.775 Y3.618 I-1.05 J-0.005
G1 Y3.629
G1 Y3.637
G1 Y3.647
G1 Y3.657
G1 X8.774 Y3.667
G1 Y3.675
G1 Y3.685
G1 X8.773 Y3.695
G1 Y3.705
G1 X8.772 Y3.714
G1 Y3.724
G1 X8.771 Y3.733
G1 Y3.743
G1 X8.77 Y3.752
G1 X8.769 Y3.762
G3 X8.768 Y3.773 I-1.047 J-0.077
G1 X8.767 Y3.783
G1 Y3.786
G1 X7.77 Y3.718 Z-1.001
G1 X8.767 Y3.786 Z-2
G1 Y3.798
G3 X8.766 Y3.811 I-1.049 J-0.052
G1 X8.765 Y3.821
G1 X8.766 Y3.811
G2 X8.767 Y3.798 I-1.048 J-0.065
G1 Y3.786
G1 Y3.783
G1 X8.768 Y3.773
G2 X8.769 Y3.762 I-1.046 J-0.088
G1 X8.77 Y3.752
G1 X8.771 Y3.743
G1 Y3.733
G1 X8.772 Y3.724
G1 Y3.714
G1 X8.773 Y3.705
G1 Y3.695
G1 X8.774 Y3.685
G1 Y3.675
G1 Y3.667
G1 X8.775 Y3.657
G1 Y3.647
G1 Y3.637
G1 Y3.629
G1 Y3.618
G2 X8.776 Y3.608 I-1.05 J-0.015
G1 Y3.598
G1 Y3.591
G1 Y3.581
G2 Y3.57 I-1.05 J0.002
G1 X8.775 Y3.56
G1 Y3.552
G1 Y3.542
G1 Y3.533
G1 Y3.523
G1 X8.774 Y3.514
G1 Y3.504
G1 Y3.494
G1 X8.773 Y3.484
G1 Y3.475
G1 X8.772 Y3.464
G1 Y3.456
G1 X8.771 Y3.446
G1 X8.77 Y3.437
G1 Y3.427
G2 X8.769 Y3.416 I-1.047 J0.074
G1 X8.768 Y3.406
G1 Y3.405
G1 Y3.395
G2 X8.767 Y3.383 I-1.049 J0.044
G1 Y3.379
G1 X9.401
G2 X9.398 Y3.419 I1.046 J0.087
G1 X9.391 Y3.592
G2 X9.404 Y3.814 I1.049 J0.047
G1 X9.405 Y3.821
G1 X9.404 Y3.814
G3 X9.391 Y3.592 I1.035 J-0.176
G1 X9.398 Y3.419
G3 X9.401 Y3.379 I1.049 J0.047
G1 X9.468 Y3.319 Z-1.941
G1 X9.575 Y3.231 Z-1.853
G1 X10.198 Y3.342 Z-1.22
G1 X10.415 Y3.379 Z-1
G1 X10.198 Y3.342 Z-1.22
G1 X9.575 Y3.231 Z-1.853
G1 X9.671 Y3.151 Z-1.773
G1 X9.761 Y3.082 Z-1.703
G1 X9.847 Y3.021 Z-1.643
G1 X9.937 Y2.964 Z-1.585
G1 X10.031 Y2.912 Z-1.533
G1 X10.119 Y2.87 Z-1.491
G1 X10.205 Y2.835 Z-1.456
G1 X10.283 Y2.808 Z-1.43
G1 X10.356 Y2.788 Z-1.41
G1 X10.442 Y2.77 Z-1.391
G1 X10.448 Y2.769 Z-1.39
G1 X10.492 Y2.761 Z-1.382
G1 X10.594 Y2.747 Z-1.368
G1 X10.693 Y2.739 Z-1.361
G1 X10.822 Y2.734 Z-1.356
G1 X10.971 Y2.733 Z-1.354
G1 X11.162 Y2.735 Z-1.356
G1 X11.356 Y2.739 Z-1.363
G1 X11.418 Y2.736 Z-1.371
G1 X11.398 Y3.106 Z-1
G1 X11.418 Y2.736 Z-1.371
G1 X11.493 Y2.724 Z-1.385
G1 X11.571 Y2.705 Z-1.407
G1 X11.641 Y2.682 Z-1.433
G1 X11.706 Y2.657 Z-1.463
G1 X11.774 Y2.627 Z-1.5
G1 X11.851 Y2.59 Z-1.549
G1 X11.938 Y2.546 Z-1.613
G1 X12.017 Y2.504 Z-1.676
G1 X12.02 Y2.509 Z-1.673
G1 X12.084 Y2.605 Z-1.61
G1 X12.126 Y2.675 Z-1.569
G1 X12.161 Y2.743 Z-1.534
G1 X12.203 Y2.835 Z-1.491
G1 X12.224 Y2.888 Z-1.469
G1 X12.25 Y2.967 Z-1.441
G1 X12.271 Y3.04 Z-1.418
G1 X12.285 Y3.107 Z-1.401
G1 X12.3 Y3.195 Z-1.383
G1 X12.308 Y3.267 Z-1.371
G1 X12.314 Y3.351 Z-1.361
G1 X12.317 Y3.457 Z-1.351
G1 Y3.507 Z-1.348
G1 X12.313 Y3.632 Z-1.342
G1 X12.312 Y3.66
G1 X12.306 Y3.737 Z-1.341
G1 X12.298 Y3.81 Z-1.342
G1 X12.291 Y3.862 Z-1.344
G1 X12.275 Y3.954 Z-1.35
G1 X12.264 Y4.006 Z-1.355
G1 X12.242 Y4.089 Z-1.368
G1 X12.215 Y4.166 Z-1.383
G1 X12.196 Y4.214 Z-1.396
G1 X12.181 Y4.247 Z-1.406
G1 X12.141 Y4.325 Z-1.432
G1 X12.131 Y4.343 Z-1.439
G1 X12.083 Y4.42 Z-1.473
G1 X12.039 Y4.48 Z-1.503
G1 X12.025 Y4.497 Z-1.512
G1 X12.024 Y4.498 Z-1.513
G1 X12.025 Y4.497 Z-1.512
G1 X12.039 Y4.48 Z-1.503
G1 X12.083 Y4.42 Z-1.473
G1 X12.131 Y4.343 Z-1.439
G1 X12.141 Y4.325 Z-1.432
G1 X12.181 Y4.247 Z-1.406
G1 X12.196 Y4.214 Z-1.396
G1 X12.215 Y4.166 Z-1.383
G1 X12.242 Y4.089 Z-1.368
G1 X12.264 Y4.006 Z-1.355
G1 X12.275 Y3.954 Z-1.35
G1 X12.291 Y3.862 Z-1.344
G1 X12.298 Y3.81 Z-1.342
G1 X12.306 Y3.737 Z-1.341
G1 X12.312 Y3.66 Z-1.342
G1 X12.313 Y3.632
G1 X12.317 Y3.507 Z-1.348
G1 Y3.457 Z-1.351
G1 X12.314 Y3.351 Z-1.361
G1 X12.308 Y3.267 Z-1.371
G1 X12.3 Y3.195 Z-1.383
G1 X12.285 Y3.107 Z-1.401
G1 X12.271 Y3.04 Z-1.418
G1 X12.25 Y2.967 Z-1.441
G1 X12.224 Y2.888 Z-1.469
G1 X12.203 Y2.835 Z-1.491
G1 X12.161 Y2.743 Z-1.534
G1 X12.126 Y2.675 Z-1.569
G1 X12.084 Y2.605 Z-1.61
G1 X12.02 Y2.509 Z-1.673
G1 X12.017 Y2.504 Z-1.676
G1 X12.019 Y2.479 Z-1.673
G1 X12.023 Y2.42 Z-1.667
G1 X12.025 Y2.362 Z-1.663
G1 X12.022 Y2.258 Z-1.66
G1 X12.019 Y2.201 Z-1.658
G1 X12.027 Y2.192 Z-1.649
G1 X12.051 Y2.167 Z-1.623
G1 X12.066 Y2.15 Z-1.607
G1 X12.104 Y2.107 Z-1.563
G1 X12.123 Y2.087 Z-1.542
G1 X12.138 Y2.068 Z-1.523
G1 X12.169 Y2.034 Z-1.487
G1 X12.174 Y2.028 Z-1.481
G1 X12.644 Y1.926 Z-1
G1 X12.174 Y2.028 Z-1.481
G1 X12.189 Y2.01 Z-1.462
G1 X12.196 Y2 Z-1.451
G1 X12.213 Y1.974 Z-1.424
G1 X12.22 Y1.963 Z-1.412
G1 X12.234 Y1.941 Z-1.389
G1 X12.241 Y1.931 Z-1.378
G1 X12.253 Y1.912 Z-1.357
G1 X12.259 Y1.904 Z-1.348
G1 X12.269 Y1.888 Z-1.33
G1 X12.274 Y1.881 Z-1.322
G1 X12.354 Y1.569 Z-1
G1 X12.274 Y1.881 Z-1.322
G1 X12.282 Y1.869 Z-1.308
G1 X12.286 Y1.863 Z-1.301
G1 X12.378 Y1.576 Z-1
G1 X12.286 Y1.863 Z-1.301
G1 X12.292 Y1.854 Z-1.291
G1 X12.295 Y1.849 Z-1.285
G1 X12.299 Y1.843 Z-1.278
G1 X12.301 Y1.839 Z-1.274
G1 X12.303 Y1.836 Z-1.27
G1 X12.306 Y1.833 Z-1.266
G1 X12.456 Y1.613 Z-1
G1 X12.306 Y1.833 Z-1.266
G1 X12.438 Y1.602 Z-1
G1 X12.306 Y1.833 Z-1.266
G1 X12.303 Y1.836 Z-1.27
G1 X12.472 Y1.626 Z-1
G1 X12.303 Y1.836 Z-1.27
G1 X12.301 Y1.839 Z-1.274
G1 X12.42 Y1.593 Z-1
G1 X12.301 Y1.839 Z-1.274
G1 X12.299 Y1.843 Z-1.278
G1 X12.488 Y1.639 Z-1
G1 X12.299 Y1.843 Z-1.278
G1 X12.295 Y1.849 Z-1.285
G1 X12.4 Y1.584 Z-1
G1 X12.295 Y1.849 Z-1.285
G1 X12.292 Y1.854 Z-1.291
G1 X12.503 Y1.655 Z-1
G1 X12.292 Y1.854 Z-1.291
G1 X12.286 Y1.863 Z-1.301
G1 X12.282 Y1.869 Z-1.308
G1 X12.519 Y1.672 Z-1
G1 X12.282 Y1.869 Z-1.308
G1 X12.274 Y1.881 Z-1.322
G1 X12.269 Y1.888 Z-1.33
G1 X12.259 Y1.904 Z-1.348
G1 X12.253 Y1.912 Z-1.357
G1 X12.241 Y1.931 Z-1.378
G1 X12.234 Y1.941 Z-1.389
G1 X12.22 Y1.963 Z-1.412
G1 X12.213 Y1.974 Z-1.424
G1 X12.196 Y2 Z-1.451
G1 X12.189 Y2.01 Z-1.462
G1 X12.195 Y2.008 Z-1.456
G1 X12.237 Y1.992 Z-1.412
G1 X12.61 Y1.819 Z-1
G1 X12.237 Y1.992 Z-1.412
G1 X12.628 Y1.863 Z-1
G1 X12.237 Y1.992 Z-1.412
G1 X12.195 Y2.008 Z-1.456
G1 X12.189 Y2.01 Z-1.462
G1 X12.174 Y2.028 Z-1.481
G1 X12.169 Y2.034 Z-1.487
G1 X12.138 Y2.068 Z-1.523
G1 X12.123 Y2.087 Z-1.542
G1 X12.659 Y2.006 Z-1
G1 X12.123 Y2.087 Z-1.542
G1 X12.104 Y2.107 Z-1.563
G1 X12.066 Y2.15 Z-1.607
G1 X12.051 Y2.167 Z-1.623
G1 X12.027 Y2.192 Z-1.649
G1 X12.019 Y2.201 Z-1.658
G1 X11.986 Y2.167 Z-1.624
G1 X11.964 Y2.147 Z-1.602
G1 X11.951 Y2.134 Z-1.588
G1 X11.925 Y2.11 Z-1.563
G1 X11.919 Y2.104 Z-1.556
G1 X11.897 Y2.084 Z-1.532
G1 X11.366 Y2.037 Z-1
G1 X11.897 Y2.084 Z-1.532
G1 X11.89 Y2.077 Z-1.525
G1 X11.805 Y1.559 Z-1
G1 X11.89 Y2.077 Z-1.525
G1 X11.871 Y2.059 Z-1.504
G1 X11.372 Y1.989 Z-1
G1 X11.871 Y2.059 Z-1.504
G1 X11.865 Y2.053 Z-1.497
G1 X11.759 Y1.568 Z-1
G1 X11.865 Y2.053 Z-1.497
G1 X11.847 Y2.037 Z-1.477
G1 X11.379 Y1.945 Z-1
G1 X11.847 Y2.037 Z-1.477
G1 X11.843 Y2.033 Z-1.472
G1 X11.715 Y1.579 Z-1
G1 X11.843 Y2.033 Z-1.472
G1 X11.827 Y2.018 Z-1.453
G1 X11.389 Y1.903 Z-1
G1 X11.827 Y2.018 Z-1.453
G1 X11.823 Y2.014 Z-1.448
G1 X11.674 Y1.592 Z-1
G1 X11.823 Y2.014 Z-1.448
G1 X11.81 Y2.003 Z-1.432
G1 X11.401 Y1.864 Z-1
G1 X11.81 Y2.003 Z-1.432
G1 X11.806 Y1.999 Z-1.427
G1 X11.637 Y1.606 Z-1
G1 X11.806 Y1.999 Z-1.427
G1 X11.796 Y1.989 Z-1.414
G1 X11.414 Y1.828 Z-1
G1 X11.796 Y1.989 Z-1.414
G1 X11.793 Y1.987 Z-1.411
G1 X11.602 Y1.623 Z-1
G1 X11.793 Y1.987 Z-1.411
G1 X11.785 Y1.979 Z-1.4
G1 X11.43 Y1.794 Z-1
G1 X11.785 Y1.979 Z-1.4
G1 X11.784 Y1.978 Z-1.398
G1 X11.57 Y1.641 Z-1
G1 X11.784 Y1.978 Z-1.398
G1 X11.778 Y1.973 Z-1.392
G1 X11.448 Y1.763 Z-1
G1 X11.778 Y1.973 Z-1.392
G1 X11.775 Y1.969 Z-1.387
G1 X11.541 Y1.661 Z-1
G1 X11.775 Y1.969 Z-1.387
G1 X11.771 Y1.965 Z-1.381
G1 X11.468 Y1.734 Z-1
G1 X11.771 Y1.965 Z-1.381
G1 X11.767 Y1.962 Z-1.376
G1 X11.514 Y1.684 Z-1
G1 X11.767 Y1.962 Z-1.376
G1 X11.49 Y1.708 Z-1
; MOVEMENT_RAPID
G0 Z5 F300
G0 X24.163 Y19.056 F2500
G0 Z4 F300
; MOVEMENT_LEAD_IN
G1 Z-1 F3
; MOVEMENT_CUTTING
G1 X25.167 Y20.056 Z-2 F15
G1 X25.171 Y20.93
G1 X25.176 Y21.908
G1 X25.072 Y21.982 Z-1.896
G1 X24.977 Y22.055 Z-1.8
G1 X24.889 Y22.129 Z-1.712
G1 X24.81 Y22.202 Z-1.632
G1 X24.181 Y22.815 Z-1.001
G1 X24.81 Y22.202 Z-1.632
G1 X24.889 Y22.129 Z-1.712
G1 X24.977 Y22.055 Z-1.8
G1 X25.072 Y21.982 Z-1.896
G1 X25.176 Y21.908 Z-2
G3 X25.251 Y21.941 I-0.388 J0.976
G1 X25.254 Y21.94
G1 X25.381 Y22.023 Z-1.873
G1 X25.496 Y22.107 Z-1.757
G1 X25.6 Y22.19 Z-1.653
G1 X25.691 Y22.274 Z-1.561
G1 X26.249 Y22.815 Z-1
G1 X25.691 Y22.274 Z-1.561
G1 X25.6 Y22.19 Z-1.653
G1 X25.496 Y22.107 Z-1.757
G1 X25.381 Y22.023 Z-1.873
G1 X25.254 Y21.94 Z-2
G1 X25.259 Y20.929
G1 X25.263 Y20.056
G1 X26.267 Y19.056 Z-1
G1 X25.263 Y20.056 Z-2
G1 X25.167
G1 X25.263
G1 X25.259 Y20.929
G1 X25.254 Y21.94
G1 X25.251 Y21.941
G1 Y22.1 Z-1.861
G1 Y22.241 Z-1.742
G1 Y22.427 Z-1.6
G1 Y22.539 Z-1.527
G1 Y22.591 Z-1.497
G1 Y22.643 Z-1.471
G1 Y22.692 Z-1.45
G1 Y22.741 Z-1.434
G1 Y22.789 Z-1.422
G1 Y22.837 Z-1.415
G1 Y22.884 Z-1.412
G1 Y29.4 Z-1.415
G1 Y29.448 Z-1.422
G1 Y29.496 Z-1.434
G1 Y29.544 Z-1.45
G1 Y29.594 Z-1.471
G1 Y29.645 Z-1.497
G1 Y29.698 Z-1.527
G1 Y29.81 Z-1.6
G1 Y29.869 Z-1.643
G1 Y29.996 Z-1.742
G1 Y30.137 Z-1.861
G1 Y30.296 Z-2
G3 X25.163 Y30.334 I-0.462 J-0.943
G1 X25.056 Y30.258 Z-1.893
G1 X24.958 Y30.181 Z-1.796
G1 X24.869 Y30.105 Z-1.706
G1 X24.788 Y30.028 Z-1.626
G1 X24.164 Y29.404 Z-1.001
G1 X24.788 Y30.028 Z-1.626
G1 X24.869 Y30.105 Z-1.706
G1 X24.958 Y30.181 Z-1.796
G1 X25.056 Y30.258 Z-1.893
G1 X25.163 Y30.334 Z-2
G1 Y31.681
G1 X24.163 Y32.68 Z-1.001
G1 X25.163 Y31.681 Z-2
G1 X25.267
G1 X26.267 Y32.68 Z-1.001
G1 X25.267 Y31.681 Z-2
G1 Y30.304
G3 X25.251 Y30.296 I0.445 J-0.951
G2 X25.267 Y30.304 I0.462 J-0.943
G1 X25.372 Y30.235 Z-1.895
G1 X25.469 Y30.165 Z-1.798
G1 X25.559 Y30.096 Z-1.709
G1 X25.64 Y30.027 Z-1.628
G1 X25.713 Y29.958 Z-1.555
G1 X26.267 Y29.403 Z-1
; MOVEMENT_RAPID
G0 Z5 F300
G0 X29.191 Y32.655 F2500
G0 Z4 F300
; MOVEMENT_LEAD_IN
G1 Z-1.001 F3
; MOVEMENT_CUTTING
G1 X29.196 Y32.651 Z-1.006 F15
G1 X29.195 Y32.656 Z-1
G1 X29.196 Y32.651 Z-1.006
G1 X29.206 Y32.642 Z-1.016
G1 X29.213 Y32.635 Z-1.024
G1 X29.234 Y32.616 Z-1.045
G1 X29.237 Y32.613 Z-1.049
G1 X29.259 Y32.593 Z-1.071
G1 X29.274 Y32.579 Z-1.086
G1 X29.287 Y32.567 Z-1.099
G1 X29.318 Y32.537 Z-1.131
G1 X29.319 Y32.536 Z-1.132
G1 X29.355 Y32.501 Z-1.168
G1 X29.366 Y32.49 Z-1.18
G1 X29.394 Y32.462 Z-1.209
G1 X29.42 Y32.437 Z-1.235
G1 X29.439 Y32.419 Z-1.254
G1 X29.479 Y32.378 Z-1.294
G1 X29.488 Y32.37 Z-1.303
G1 X29.541 Y32.317 Z-1.357
G1 X29.544 Y32.315 Z-1.359
G1 X29.599 Y32.259 Z-1.415
G1 X29.613 Y32.246 Z-1.429
G1 X29.663 Y32.196 Z-1.479
G1 X29.686 Y32.172 Z-1.503
G1 X29.731 Y32.127 Z-1.548
G1 X29.764 Y32.094 Z-1.581
G1 X29.806 Y32.053 Z-1.623
G1 X29.846 Y32.012 Z-1.663
G1 X29.885 Y31.973 Z-1.702
G1 X29.932 Y31.926 Z-1.749
G1 X29.97 Y31.887 Z-1.788
G1 X30.062 Y31.795 Z-1.879
G1 X30.114 Y31.742 Z-1.931
G1 X30.159 Y31.697 Z-1.977
G1 X30.183 Y31.673 Z-2
G1 X30.264
G1 X30.34 Y31.672
G1 X31.335 Y32.663 Z-1
G1 X30.34 Y31.672 Z-2
G1 X30.348 Y30.345
G1 X30.444 Y30.274 Z-1.904
G1 X30.534 Y30.203 Z-1.815
G1 X30.616 Y30.132 Z-1.733
G1 X30.691 Y30.061 Z-1.658
G1 X31.352 Y29.403 Z-1
G1 X30.691 Y30.061 Z-1.658
G1 X30.616 Y30.132 Z-1.733
G1 X30.534 Y30.203 Z-1.815
G1 X30.444 Y30.274 Z-1.904
G1 X30.348 Y30.345 Z-2
G3 X30.244 Y30.303 I0.344 J-0.992
G3 X30.189 Y30.326 I-0.442 J-0.953
G1 X30.085 Y30.253 Z-1.896
G1 X29.99 Y30.179 Z-1.8
G1 X29.903 Y30.106 Z-1.712
G1 X29.823 Y30.033 Z-1.633
G1 X29.484 Y29.702 Z-1.291
G1 X29.195 Y29.42 Z-1
G1 X29.484 Y29.702 Z-1.291
G1 X29.823 Y30.033 Z-1.633
G1 X29.903 Y30.106 Z-1.712
G1 X29.99 Y30.179 Z-1.8
G1 X30.085 Y30.253 Z-1.896
G1 X30.189 Y30.326 Z-2
G1 X30.185 Y31.012
G1 X30.184 Y31.123
G1 Y31.232
G1 X30.183 Y31.339
G1 Y31.444
G1 Y31.547
G1 Y31.647
G1 Y31.673
G1 Y31.647
G1 Y31.547
G1 Y31.444
G1 Y31.339
G1 X30.184 Y31.232
G1 Y31.123
G1 X30.185 Y31.012
G1 X30.189 Y30.326
G2 X30.244 Y30.303 I-0.387 J-0.976
G1 Y30.142 Z-1.857
G1 X30.245 Y29.999 Z-1.736
G1 Y29.871 Z-1.634
G1 Y29.811 Z-1.589
G1 X30.246 Y29.699 Z-1.514
G1 Y29.646 Z-1.483
G1 Y29.595 Z-1.457
G1 Y29.545 Z-1.435
G1 Y29.496 Z-1.417
G1 Y29.448 Z-1.405
G1 Y29.4 Z-1.397
G1 X30.247 Y23.913 Z-1.395
G1 X30.25 Y23.834 Z-1.398
G1 X30.261 Y23.755 Z-1.408
G1 X30.278 Y23.677 Z-1.426
G1 X30.302 Y23.598 Z-1.45
G1 X30.334 Y23.519 Z-1.481
G1 X29.853 Y23.039 Z-1.001
G1 X30.334 Y23.519 Z-1.481
G1 X30.405 Y23.495 Z-1.457
G1 X30.477 Y23.475 Z-1.437
G1 X30.548 Y23.461 Z-1.423
G1 X30.62 Y23.453 Z-1.415
G1 X30.691 Y23.45 Z-1.412
G1 X31.698 Z-1.415
G1 X31.746 Z-1.422
G1 X31.794 Z-1.434
G1 X31.843 Z-1.45
G1 X31.893 Z-1.472
G1 X31.944 Z-1.497
G1 X31.996 Z-1.527
G1 X32.108 Z-1.6
G1 X32.167 Z-1.643
G1 X32.294 Z-1.742
G1 X32.436 Z-1.861
G1 X32.594 Z-2
G3 X32.701 Y23.913 I-0.943 J0.462
G1 Y24.285
G1 X31.702 Y25.284 Z-1.001
G1 X32.701 Y24.285 Z-2
G1 X32.806
G1 X33.805 Y25.284 Z-1.001
G1 X32.806 Y24.285 Z-2
G1 Y22.509
G1 X33.805 Y21.51 Z-1.001
G1 X32.806 Y22.509 Z-2
G1 X32.701
G1 Y22.988
G3 X32.594 Y23.45 I-1.05
G2 X32.701 Y22.988 I-0.943 J-0.462
G1 Y22.509
G1 X31.702 Y21.51 Z-1.001
; MOVEMENT_RAPID
G0 Z5 F300
G0 X36.845 Y27.955 F2500
G0 Z4 F300
; MOVEMENT_LEAD_IN
G1 Z-1 F3
; MOVEMENT_CUTTING
G1 X36.952 Y27.951 Z-1.107 F15
G1 X36.946 Y27.946 Z-1.101
G1 X36.916 Y27.849 Z-1
G1 X36.946 Y27.946 Z-1.101
G1 X36.938 Y27.94 Z-1.093
G1 X36.846 Y27.927 Z-1
G1 X36.938 Y27.94 Z-1.093
G1 X36.932 Y27.935 Z-1.086
G1 X36.929 Y27.933 Z-1.082
G1 X36.925 Y27.93 Z-1.077
G1 X36.873 Y27.872 Z-1
G1 X36.925 Y27.93 Z-1.077
G1 X36.86 Y27.887 Z-1
G1 X36.925 Y27.93 Z-1.077
G1 X36.929 Y27.933 Z-1.082
G1 X36.852 Y27.905 Z-1
G1 X36.929 Y27.933 Z-1.082
G1 X36.932 Y27.935 Z-1.086
G1 X36.891 Y27.86 Z-1
G1 X36.932 Y27.935 Z-1.086
G1 X36.938 Y27.94 Z-1.093
G1 X36.946 Y27.946 Z-1.101
G1 X36.952 Y27.951 Z-1.107
G1 X36.965 Y27.961 Z-1.119
G1 X36.95 Y27.842 Z-1
G1 X36.965 Y27.961 Z-1.119
G1 X36.972 Y27.966 Z-1.125
G1 X36.849 Y27.988 Z-1
G1 X36.972 Y27.966 Z-1.125
G1 X36.995 Y27.984 Z-1.144
G1 X36.858 Y28.025 Z-1
G1 X36.995 Y27.984 Z-1.144
G1 X36.997 Z-1.145
G1 X36.994 Y27.84 Z-1
G1 X36.997 Y27.984 Z-1.145
G1 X37.014 Y27.997 Z-1.157
G1 X37.024 Y28.004 Z-1.164
G1 X36.872 Y28.066 Z-1
G1 X37.024 Y28.004 Z-1.164
G1 X37.032 Y28.01 Z-1.169
G1 X37.045 Y28.019 Z-1.177
G1 X37.055 Y28.026 Z-1.183
G1 X37.084 Y27.846 Z-1
G1 X37.055 Y28.026 Z-1.183
G1 X37.056 Y28.027 Z-1.184
G1 X36.892 Y28.109 Z-1
G1 X37.056 Y28.027 Z-1.184
G1 X37.061 Y28.031 Z-1.186
G1 X37.103 Y27.849 Z-1
G1 X37.061 Y28.031 Z-1.186
G1 X37.066 Y28.034 Z-1.189
G1 X37.122 Y27.854 Z-1
G1 X37.066 Y28.034 Z-1.189
G1 X37.072 Y28.039 Z-1.191
G1 X37.141 Y27.861 Z-1
G1 X37.072 Y28.039 Z-1.191
G1 X37.078 Y28.045 Z-1.194
G1 X37.161 Y27.87 Z-1
G1 X37.078 Y28.045 Z-1.194
G1 X37.087 Y28.054 Z-1.198
G1 X37.183 Y27.881 Z-1
G1 X37.087 Y28.054 Z-1.198
G1 X37.088 Y28.055
G1 X36.917 Y28.155 Z-1
G1 X37.088 Y28.055 Z-1.198
G1 X37.099 Y28.066 Z-1.202
G1 X37.207 Y27.895 Z-1
G1 X37.099 Y28.066 Z-1.202
G1 X37.114 Y28.081 Z-1.206
G1 X37.12 Y28.087 Z-1.208
G1 X36.948 Y28.203 Z-1
G1 X37.12 Y28.087 Z-1.208
G1 X37.134 Y28.101 Z-1.211
G1 X37.155 Y28.123 Z-1.215
G1 X36.983 Y28.253 Z-1
G1 X37.155 Y28.123 Z-1.215
G1 X37.157 Y28.126 Z-1.216
G1 X37.185 Y28.154 Z-1.22
G1 X37.192 Y28.161 Z-1.221
G1 X37.218 Y28.187 Z-1.223
G1 X37.232 Y28.202 Z-1.224
G1 X37.256 Y28.224 Z-1.225
G1 X37.275 Y28.244 Z-1.226
G1 X37.3 Y28.266
G1 X37.321 Y28.287
G1 X37.349 Y28.312 Z-1.225
G1 X37.37 Y28.331
G1 X37.406 Y28.363 Z-1.222
G1 X37.421 Y28.376 Z-1.221
G1 X37.47 Y28.417 Z-1.217
G1 X37.475 Y28.422 Z-1.216
G1 X37.531 Y28.467 Z-1.209
G1 X37.542 Y28.475 Z-1.208
G1 X37.593 Y28.515 Z-1.2
G1 X37.622 Y28.538 Z-1.195
G1 X37.708 Y28.608 Z-1.184
G1 X37.8 Y28.686 Z-1.175
G1 X37.896 Y28.772 Z-1.169
G1 X37.985 Y28.857 Z-1.166
G1 X38.044 Y28.918 Z-1.167
G1 X38.086 Y28.965 Z-1.171
G1 X38.116 Y29.006 Z-1.179
G1 X38.149 Y29.061 Z-1.194
G1 X38.175 Y29.116 Z-1.215
G1 X38.195 Y29.177 Z-1.244
G1 X38.213 Y29.254 Z-1.286
G1 X38.222 Y29.316 Z-1.324
G1 X38.226 Y29.383 Z-1.368
G1 X38.228 Y29.443 Z-1.41
G1 X38.194 Y29.444 Z-1.388
G1 X38.144 Y29.443 Z-1.355
G1 X38.092 Y29.439 Z-1.323
G1 X38.032 Y29.43 Z-1.287
G1 X37.976 Y29.418 Z-1.255
G1 X37.926 Y29.405 Z-1.227
G1 X37.882 Y29.391 Z-1.202
G1 X37.842 Y29.378 Z-1.18
G1 X37.808 Y29.364 Z-1.161
G1 X37.806 Z-1.16
G1 X37.778 Y29.352 Z-1.143
G1 X37.658 Y29.429 Z-1
G1 X37.778 Y29.352 Z-1.143
G1 X37.775 Y29.351 Z-1.141
G1 X37.745 Y29.213 Z-1
G1 X37.775 Y29.351 Z-1.141
G1 X37.752 Y29.341 Z-1.126
G1 X37.642 Y29.402 Z-1
G1 X37.752 Y29.341 Z-1.126
G1 X37.75 Y29.34 Z-1.125
G1 X37.729 Y29.331 Z-1.11
G1 X37.629 Y29.378 Z-1
G1 X37.729 Y29.331 Z-1.11
G1 X37.727 Z-1.109
G1 X37.709 Y29.323 Z-1.095
G1 X37.62 Y29.356 Z-1
G1 X37.709 Y29.323 Z-1.095
G1 X37.708 Z-1.094
G1 X37.694 Y29.317 Z-1.082
G1 X37.693 Y29.316
G1 X37.651 Y29.247 Z-1
G1 X37.693 Y29.316 Z-1.082
G1 X37.682 Y29.312 Z-1.071
G1 X37.611 Y29.32 Z-1
G1 X37.682 Y29.312 Z-1.071
G1 X37.681 Y29.311
G1 X37.673 Y29.308 Z-1.063
G1 Z-1.062
G1 X37.627 Y29.266 Z-1
G1 X37.673 Y29.308 Z-1.062
G1 X37.668 Y29.306 Z-1.058
G1 X37.612 Y29.294 Z-1
G1 X37.668 Y29.306 Z-1.058
G1 X37.667 Y29.305 Z-1.056
G1 X37.615 Y29.284 Z-1
G1 X37.667 Y29.305 Z-1.056
G1 X37.62 Y29.275 Z-1
G1 X37.667 Y29.305 Z-1.056
G1 X37.668 Y29.306 Z-1.058
G1 X37.673 Y29.308 Z-1.062
G1 Z-1.063
G1 X37.61 Y29.306 Z-1
G1 X37.673 Y29.308 Z-1.063
G1 X37.681 Y29.311 Z-1.071
G1 X37.637 Y29.256 Z-1
G1 X37.681 Y29.311 Z-1.071
G1 X37.682 Y29.312
G1 X37.693 Y29.316 Z-1.082
G1 X37.694 Y29.317
G1 X37.614 Y29.336 Z-1
G1 X37.694 Y29.317 Z-1.082
G1 X37.708 Y29.323 Z-1.094
G1 X37.668 Y29.238 Z-1
G1 X37.708 Y29.323 Z-1.094
G1 X37.709 Z-1.095
G1 X37.727 Y29.331 Z-1.109
G1 X37.69 Y29.229 Z-1
G1 X37.727 Y29.331 Z-1.109
G1 X37.729 Z-1.11
G1 X37.75 Y29.34 Z-1.125
G1 X37.715 Y29.22 Z-1
G1 X37.75 Y29.34 Z-1.125
G1 X37.752 Y29.341 Z-1.126
G1 X37.775 Y29.351 Z-1.141
G1 X37.778 Y29.352 Z-1.143
G1 X37.806 Y29.364 Z-1.16
G1 X37.808 Z-1.161
G1 X37.842 Y29.378 Z-1.18
G1 X37.882 Y29.391 Z-1.202
G1 X37.926 Y29.405 Z-1.227
G1 X37.976 Y29.418 Z-1.255
G1 X38.032 Y29.43 Z-1.287
G1 X38.092 Y29.439 Z-1.323
G1 X38.144 Y29.443 Z-1.355
G1 X38.194 Y29.444 Z-1.388
G1 X38.228 Y29.443 Z-1.41
G1 X38.237 Y29.451 Z-1.409
G1 X38.266 Y29.476 Z-1.406
G1 X38.296 Y29.5 Z-1.403
G1 X38.326 Y29.523 Z-1.4
G1 X38.358 Y29.543 Z-1.398
G1 X38.39 Y29.561
G1 X38.422 Y29.577
G1 X38.454 Y29.59
G1 X38.484 Y29.601 Z-1.399
G1 X38.513 Y29.609 Z-1.401
G1 X38.539 Y29.616 Z-1.403
G1 X38.563 Y29.62 Z-1.404
G1 X38.471 Y30.014 Z-1
G1 X38.563 Y29.62 Z-1.404
G1 X38.57 Y29.621 Z-1.405
G1 X38.576 Y29.654 Z-1.374
G1 X38.587 Y29.703 Z-1.326
G1 X38.549 Y30.028 Z-1
G1 X38.587 Y29.703 Z-1.326
G1 X38.599 Y29.749 Z-1.282
G1 X38.585 Y30.031 Z-1
G1 X38.599 Y29.749 Z-1.282
G1 X38.613 Y29.788 Z-1.243
G1 X38.626 Y29.822 Z-1.209
G1 X38.649 Y30.029 Z-1
G1 X38.626 Y29.822 Z-1.209
G1 X38.64 Y29.851 Z-1.178
G1 X38.677 Y30.025 Z-1
G1 X38.64 Y29.851 Z-1.178
G1 X38.648 Y29.866 Z-1.162
G1 X38.756 Y29.985 Z-1.001
G1 X38.648 Y29.866 Z-1.162
G1 X38.652 Y29.872 Z-1.154
G1 X38.663 Y29.89 Z-1.133
G1 X38.74 Y29.999 Z-1
G1 X38.663 Y29.89 Z-1.133
G1 X38.722 Y30.01 Z-1
G1 X38.663 Y29.89 Z-1.133
G1 X38.652 Y29.872 Z-1.154
G1 X38.701 Y30.018 Z-1
G1 X38.652 Y29.872 Z-1.154
G1 X38.648 Y29.866 Z-1.162
G1 X38.64 Y29.851 Z-1.178
G1 X38.626 Y29.822 Z-1.209
G1 X38.613 Y29.788 Z-1.243
G1 X38.618 Y30.031 Z-1
G1 X38.613 Y29.788 Z-1.243
G1 X38.599 Y29.749 Z-1.282
G1 X38.587 Y29.703 Z-1.326
G1 X38.576 Y29.654 Z-1.374
G1 X38.511 Y30.022 Z-1
G1 X38.576 Y29.654 Z-1.374
G1 X38.57 Y29.621 Z-1.405
G1 X38.623 Y29.609 Z-1.39
G1 X38.683 Y29.599 Z-1.377
G1 X38.745 Y29.592 Z-1.367
G1 X38.821 Y29.59 Z-1.361
G1 X38.885 Y29.592
G1 X38.945 Y29.599 Z-1.364
G1 X39.013 Y29.611 Z-1.373
G1 X39.053 Y29.621 Z-1.381
G1 X39.109 Y29.637 Z-1.395
G1 X39.208 Y29.672 Z-1.426
G1 X39.282 Y29.641 Z-1.394
G1 X39.339 Y29.622 Z-1.374
G1 X39.403 Y29.605 Z-1.357
G1 X39.465 Y29.591 Z-1.345
G1 X39.528 Y29.581 Z-1.339
G1 X39.59 Y29.574
G1 X39.656 Y29.565 Z-1.346
G1 X39.726 Y29.553 Z-1.361
G1 X39.776 Y29.542 Z-1.376
G1 X39.862 Y29.516 Z-1.41
G1 X39.929 Y29.491 Z-1.442
G1 X39.931 Y29.448 Z-1.419
G1 X39.933 Y29.375 Z-1.383
G1 X39.928 Y29.295 Z-1.35
G1 X39.917 Y29.219 Z-1.324
G1 X39.894 Y29.13 Z-1.302
G1 X39.873 Y29.074 Z-1.294
G1 X39.842 Y29 Z-1.289
G1 X39.821 Y28.954 Z-1.288
G1 X39.799 Y28.903 Z-1.287
G1 X39.792 Y28.886
G1 X39.776 Y28.847 Z-1.288
G1 X39.761 Y28.806 Z-1.291
G1 X39.746 Y28.761 Z-1.296
G1 X39.74 Y28.74 Z-1.299
G1 X39.729 Y28.697 Z-1.307
G1 X39.72 Y28.646 Z-1.319
G1 X39.714 Y28.596 Z-1.333
G1 X39.713 Y28.576 Z-1.339
G1 X39.714 Y28.512 Z-1.361
G1 X39.716 Y28.486 Z-1.37
G1 X39.686 Y28.452 Z-1.351
G1 X39.685 Y28.451 Z-1.35
G1 X39.811 Y28.124 Z-1
G1 X39.685 Y28.451 Z-1.35
G1 X39.647 Y28.407 Z-1.321
G1 X39.737 Y28.099 Z-1
G1 X39.647 Y28.407 Z-1.321
G1 X39.646 Y28.406 Z-1.32
G1 X39.614 Y28.37 Z-1.292
G1 X39.611 Y28.367 Z-1.29
G1 X39.322 Y28.38 Z-1
G1 X39.611 Y28.367 Z-1.29
G1 X39.587 Y28.339 Z-1.265
G1 X39.583 Y28.335 Z-1.262
G1 X39.565 Y28.314 Z-1.24
G1 X39.561 Y28.31 Z-1.236
G1 X39.33 Y28.259 Z-1
G1 X39.561 Y28.31 Z-1.236
G1 X39.548 Y28.294 Z-1.219
G1 X39.499 Y28.08 Z-1
G1 X39.548 Y28.294 Z-1.219
G1 X39.545 Y28.291 Z-1.215
G1 X39.344 Y28.212 Z-1
G1 X39.545 Y28.291 Z-1.215
G1 X39.536 Y28.281 Z-1.203
G1 X39.457 Y28.094 Z-1
G1 X39.536 Y28.281 Z-1.203
G1 X39.534 Y28.279 Z-1.2
G1 X39.364 Y28.172 Z-1
G1 X39.534 Y28.279 Z-1.2
G1 X39.53 Y28.274 Z-1.193
G1 X39.39 Y28.139 Z-1
G1 X39.53 Y28.274 Z-1.193
G1 X39.42 Y28.114 Z-1
G1 X39.53 Y28.274 Z-1.193
G1 X39.534 Y28.279 Z-1.2
G1 X39.536 Y28.281 Z-1.203
G1 X39.545 Y28.291 Z-1.215
G1 X39.548 Y28.294 Z-1.219
G1 X39.561 Y28.31 Z-1.236
G1 X39.565 Y28.314 Z-1.24
G1 X39.549 Y28.073 Z-1
G1 X39.565 Y28.314 Z-1.24
G1 X39.583 Y28.335 Z-1.262
G1 X39.322 Y28.316 Z-1
G1 X39.583 Y28.335 Z-1.262
G1 X39.587 Y28.339 Z-1.265
G1 X39.605 Y28.074 Z-1
G1 X39.587 Y28.339 Z-1.265
G1 X39.611 Y28.367 Z-1.29
G1 X39.614 Y28.37 Z-1.292
G1 X39.668 Y28.082 Z-1
G1 X39.614 Y28.37 Z-1.292
G1 X39.646 Y28.406 Z-1.32
G1 X39.329 Y28.453 Z-1
G1 X39.646 Y28.406 Z-1.32
G1 X39.647 Y28.407 Z-1.321
G1 X39.685 Y28.451 Z-1.35
G1 X39.686 Y28.452 Z-1.351
G1 X39.345 Y28.534 Z-1
G1 X39.686 Y28.452 Z-1.351
G1 X39.716 Y28.486 Z-1.37
G1 X39.739 Y28.478 Z-1.354
G1 X39.787 Y28.465 Z-1.32
G1 X39.833 Y28.455 Z-1.29
G1 X39.974 Y28.201 Z-1
G1 X39.833 Y28.455 Z-1.29
G1 X39.898 Y28.447 Z-1.25
G1 X39.941 Y28.444 Z-1.226
G1 X40.062 Y28.253 Z-1
G1 X39.941 Y28.444 Z-1.226
G1 X39.984 Y28.446 Z-1.204
G1 X40.054 Y28.456 Z-1.173
G1 X40.153 Y28.315 Z-1
G1 X40.054 Y28.456 Z-1.173
G1 X40.086 Y28.464 Z-1.16
G1 X40.117 Y28.474 Z-1.15
G1 X40.163 Y28.494 Z-1.138
G1 X40.164
G1 X40.208 Y28.52 Z-1.129
G1 X40.261 Y28.557 Z-1.123
G1 X40.268 Y28.561
G1 X40.301 Y28.587 Z-1.12
