;Fusion 360 CAM 2.0.7046
; Posts processor: DIYCNC_Marlin20.cps
; Gcode generated: Sat Dec 28 10:18:14 2019 GMT
; Document: garagePCB v3
; Setup: Setup1
; 
; Ranges table:
; X: Min=1.05 Max=48.029 Size=46.979
; Y: Min=1.05 Max=32.717 Size=31.667
; Z: Min=-1 Max=10 Size=11
; 
; Tools table:
; T1 D=3.175 CR=0 TAPER=45deg - ZMIN=-1 - chamfer mill 

; *** START begin ***
G90
G21
M84 S0
G92 X0 Y0 Z0
; *** START end ***

; *** SECTION begin ***
;Engrave2 - Milling - Tool: 1 -  chamfer mill
; X Min: 1.05 - X Max: 48.029
; Y Min: 1.05 - Y Max: 32.717
; Z Min: -1 - Z Max: 10
; COMMAND_START_SPINDLE
; COMMAND_SPINDLE_CLOCKWISE
;M0 Turn ON 24000RPM
; COMMAND_COOLANT_ON
;M117  Engrave2
G0 Z10 F300
G0 X6.758 Y1.899 F2500
G0 Z4 F300
; MOVEMENT_LEAD_IN
G1 Z-1 F480
; MOVEMENT_CUTTING
G1 X6.782 Y1.963 F2100
G1 X6.799 Y2.032
G1 X6.809 Y2.105
G1 X6.827 Y2.333
G1 X6.832 Y2.351
G1 X6.843 Y2.365
G1 X6.859 Y2.375
G1 X6.877 Y2.379
G1 X11.312
G1 X11.331 Y2.375
G1 X11.347 Y2.364
G1 X11.358 Y2.348
G1 X11.362 Y2.329
G1 Y2.141
G1 X11.363 Y2.087
G1 X11.366 Y2.037
G1 X11.372 Y1.989
G1 X11.379 Y1.945
G1 X11.389 Y1.903
G1 X11.4 Y1.864
G1 X11.414 Y1.827
G1 X11.43 Y1.794
G1 X11.448 Y1.763
G1 X11.468 Y1.734
G1 X11.49 Y1.708
G1 X11.514 Y1.683
G1 X11.541 Y1.661
G1 X11.57 Y1.641
G1 X11.602 Y1.622
G1 X11.637 Y1.606
G1 X11.674 Y1.591
G1 X11.715 Y1.579
G1 X11.758 Y1.568
G1 X11.805 Y1.559
G1 X11.855 Y1.552
G1 X11.908 Y1.547
G1 X11.964 Y1.544
G1 X12.023 Y1.543
G1 X12.072
G1 X12.118 Y1.544
G1 X12.16 Y1.545
G1 X12.199 Y1.547
G1 X12.236 Y1.55
G1 X12.269 Y1.554
G1 X12.3 Y1.558
G1 X12.328 Y1.563
G1 X12.354 Y1.569
G1 X12.378 Y1.576
G1 X12.4 Y1.584
G1 X12.42 Y1.592
G1 X12.439 Y1.602
G1 X12.456 Y1.613
G1 X12.472 Y1.625
G1 X12.488 Y1.639
G1 X12.504 Y1.654
G1 X12.519 Y1.672
G1 X12.534 Y1.691
G1 X12.549 Y1.712
G1 X12.564 Y1.736
G1 X12.58 Y1.762
G1 X12.596 Y1.79
G1 X12.611 Y1.818
G1 X12.629 Y1.863
G1 X12.645 Y1.926
G1 X12.659 Y2.006
G1 X12.671 Y2.101
G1 X12.68 Y2.21
G1 X12.687 Y2.33
G1 X12.692 Y2.461
G1 X12.695 Y2.6
G1 Y2.746
G1 X12.693 Y2.897
G1 X12.689 Y3.053
G1 X12.682 Y3.212
G1 X12.674 Y3.371
G1 X12.664 Y3.531
G1 X12.652 Y3.688
G1 X12.639 Y3.843
G1 X12.623 Y3.992
G1 X12.606 Y4.136
G1 X12.588 Y4.272
G1 X12.567 Y4.398
G1 X12.546 Y4.514
G1 X12.523 Y4.618
G1 X12.499 Y4.707
G1 X12.474 Y4.782
G1 X12.469 Y4.795
G1 Y4.796
G1 X12.465 Y4.808
G1 X12.464 Y4.81
G1 X12.46 Y4.821
G1 Y4.823
G1 X12.456 Y4.834
G1 Y4.837
G1 X12.453 Y4.847
G1 X12.452 Y4.85
G1 X12.451 Y4.86
G1 X12.45 Y4.864
G1 X12.449 Y4.873
G1 Y4.878
G1 Y4.887
G1 X12.45 Y4.894
G1 X12.451 Y4.902
G1 X12.453 Y4.909
G1 X12.456 Y4.917
G1 X12.458 Y4.923
G1 X12.461 Y4.931
G1 X12.465 Y4.937
G1 X12.47 Y4.945
G1 X12.473 Y4.949
G1 X12.479 Y4.957
G1 X12.482 Y4.96
G1 X12.49 Y4.968
G1 X12.493 Y4.971
G1 X12.502 Y4.979
G1 X12.505 Y4.98
G1 X12.515 Y4.989
G1 X12.517 Y4.99
G1 X12.529 Y4.999
G1 X12.531 Y5
G1 X12.545 Y5.009
G1 X12.546 Y5.01
G1 X12.562 Y5.02
G1 X12.563
G1 X12.581 Y5.031
G1 X12.601 Y5.042
G1 Y5.043
G1 X12.623 Y5.055
G1 X12.647 Y5.068
G1 X12.672 Y5.082
G1 X12.724 Y5.115
G1 X12.767 Y5.15
G1 X12.803 Y5.188
G1 X12.831 Y5.227
G1 X12.854 Y5.269
G1 X12.869 Y5.311
G1 X12.879 Y5.355
G1 X12.883 Y5.399
G1 X12.882 Y5.444
G1 X12.875 Y5.488
G1 X12.863 Y5.532
G1 X12.846 Y5.575
G1 X12.824 Y5.617
G1 X12.797 Y5.656
G1 X12.766 Y5.693
G1 X12.731 Y5.727
G1 X12.691 Y5.757
G1 X12.648 Y5.783
G1 X12.601 Y5.805
G1 X12.551 Y5.821
G1 X12.497 Y5.833
G1 X12.44 Y5.838
G1 X12.38 Y5.837
G1 X12.316 Y5.829
G1 X12.304 Y5.827
G1 X12.292 Y5.824
G1 X12.291
G1 X12.279 Y5.822
G1 X12.267 Y5.82
G1 X12.255 Y5.818
G1 X12.254
G1 X12.243 Y5.817
G1 Y5.816
G1 X12.231 Y5.815
G1 X12.22 Y5.813
G1 X12.21 Y5.812
G1 X12.209
G1 X12.199 Y5.81
G1 X12.189 Y5.809
G1 X12.18 Y5.808
G1 X12.171 Y5.807
G1 X12.162 Y5.806
G1 X12.154 Y5.805
G1 X12.147
G1 X12.146
G1 X12.14 Y5.804
G1 X12.139
G1 X12.133
G1 X12.132
G1 X12.127
G1 X12.126
G1 X12.121
G1 X12.119
G1 X12.115
G1 X12.112 Y5.805
G1 X12.109
G1 X12.102 Y5.806
G1 X12.101 Y5.807
G1 X12.087 Y5.813
G1 X12.086
G1 X12.077 Y5.82
G1 X12.07 Y5.829
G1 X12.069 Y5.831
G1 X12.068 Y5.834
G1 X12.066 Y5.837
G1 X12.065 Y5.839
G1 X12.062 Y5.845
G1 X12.061 Y5.846
G1 X12.058 Y5.853
G1 X12.054 Y5.862
G1 X12.049 Y5.873
G1 X12.043 Y5.885
G1 Y5.886
G1 X12.037 Y5.9
G1 X12.03 Y5.915
G1 X12.022 Y5.932
G1 X12.014 Y5.95
G1 X12.006 Y5.969
G1 X11.997 Y5.99
G1 X11.987 Y6.012
G1 X11.977 Y6.035
G1 X11.967 Y6.058
G1 X11.956 Y6.083
G1 X11.945 Y6.109
G1 X11.934 Y6.135
G1 X11.922 Y6.162
G1 X11.91 Y6.19
G1 X11.898 Y6.218
G1 X11.886 Y6.247
G1 X11.873 Y6.276
G1 X11.847 Y6.337
G1 X11.821 Y6.395
G1 X11.795 Y6.45
G1 X11.77 Y6.501
G1 X11.745 Y6.55
G1 X11.72 Y6.596
G1 X11.694 Y6.64
G1 X11.669 Y6.681
G1 X11.644 Y6.72
G1 X11.618 Y6.757
G1 X11.591 Y6.791
G1 X11.564 Y6.824
G1 X11.537 Y6.856
G1 X11.508 Y6.885
G1 X11.479 Y6.914
G1 X11.449 Y6.941
G1 X11.417 Y6.967
G1 X11.384 Y6.992
G1 X11.35 Y7.016
G1 X11.314 Y7.039
G1 X11.276 Y7.062
G1 X11.236 Y7.085
G1 X11.195 Y7.107
G1 X11.151 Y7.13
G1 X10.928 Y7.239
G1 X9.197 Y7.245
G1 X9.16
G1 X9.123
G1 X9.087
G1 X9.05
G1 X9.014
G1 X8.978
G1 X8.942 Y7.246
G1 X8.906
G1 X8.87
G1 X8.835
G1 X8.799
G1 X8.764
G1 X8.729
G1 X8.695 Y7.245
G1 X8.66
G1 X8.626
G1 X8.592
G1 X8.558
G1 X8.524
G1 X8.505
G1 X8.491
G1 X8.458
G1 X8.425
G1 X8.393
G1 X8.361 Y7.244
G1 X8.306
G1 X8.271 Y7.243
G1 X8.185 Y7.242
G1 X8.101 Y7.241
G1 X8.021 Y7.239
G1 X7.943 Y7.237
G1 X7.869 Y7.234
G1 X7.797 Y7.231
G1 X7.727 Y7.228
G1 X7.661 Y7.224
G1 X7.597 Y7.22
G1 X7.535 Y7.215
G1 X7.476 Y7.21
G1 X7.419 Y7.205
G1 X7.365 Y7.198
G1 X7.331 Y7.194
G1 X7.313 Y7.192
G1 X7.263 Y7.184
G1 X7.215 Y7.176
G1 X7.17 Y7.168
G1 X7.126 Y7.158
G1 X7.084 Y7.149
G1 X7.044 Y7.138
G1 X7.006 Y7.127
G1 X6.97 Y7.115
G1 X6.938 Y7.104
G1 X6.907 Y7.086
G1 X6.873 Y7.066
G1 X6.841 Y7.044
G1 X6.809 Y7.022
G1 X6.778 Y6.997
G1 X6.747 Y6.972
G1 X6.717 Y6.945
G1 X6.688 Y6.916
G1 X6.659 Y6.886
G1 X6.631 Y6.854
G1 X6.603 Y6.82
G1 X6.576 Y6.785
G1 X6.549 Y6.748
G1 X6.522 Y6.71
G1 X6.496 Y6.669
G1 X6.47 Y6.627
G1 X6.444 Y6.583
G1 X6.419 Y6.537
G1 X6.394 Y6.49
G1 X6.37 Y6.44
G1 X6.345 Y6.388
G1 X6.321 Y6.335
G1 X6.297 Y6.279
G1 X6.276 Y6.23
G1 X6.273 Y6.221
G1 X6.262 Y6.196
G1 X6.252 Y6.171
G1 X6.242 Y6.146
G1 X6.236 Y6.132
G1 X6.232 Y6.122
G1 X6.223 Y6.098
G1 X6.213 Y6.075
G1 X6.204 Y6.053
G1 X6.195 Y6.031
G1 X6.186 Y6.011
G1 X6.178 Y5.991
G1 X6.17 Y5.972
G1 X6.163 Y5.954
G1 X6.156 Y5.937
G1 X6.149 Y5.921
G1 X6.143 Y5.906
G1 X6.137 Y5.893
G1 X6.132 Y5.881
G1 Y5.88
G1 X6.127 Y5.87
G1 Y5.869
G1 X6.123 Y5.86
G1 X6.119 Y5.852
G1 Y5.851
G1 X6.116 Y5.845
G1 Y5.844
G1 X6.114 Y5.839
G1 X6.113 Y5.838
G1 X6.111 Y5.835
G1 X6.11 Y5.832
G1 X6.109 Y5.83
G1 X6.102 Y5.821
G1 X6.093 Y5.814
G1 X6.092 Y5.813
G1 X6.078 Y5.807
G1 X6.076 Y5.806
G1 X6.069 Y5.805
G1 X6.067
G1 X6.063 Y5.804
G1 X6.059
G1 X6.057
G1 X6.053
G1 X6.051
G1 X6.046
G1 X6.045
G1 X6.04
G1 X6.039
G1 X6.032 Y5.805
G1 X6.025
G1 X6.024
G1 X6.017 Y5.806
G1 X6.016
G1 X6.008 Y5.807
G1 X5.999 Y5.808
G1 X5.99 Y5.809
G1 X5.989
G1 X5.98 Y5.81
G1 X5.979
G1 X5.969 Y5.812
G1 X5.959 Y5.813
G1 X5.958
G1 X5.948 Y5.815
G1 X5.947
G1 X5.936 Y5.816
G1 Y5.817
G1 X5.924 Y5.818
G1 X5.912 Y5.82
G1 X5.9 Y5.822
G1 X5.888 Y5.824
G1 X5.887
G1 X5.875 Y5.827
G1 X5.863 Y5.829
G1 X5.792 Y5.838
G1 X5.726 Y5.839
G1 X5.665 Y5.834
G1 X5.608 Y5.822
G1 X5.556 Y5.804
G1 X5.509 Y5.781
G1 X5.465 Y5.753
G1 X5.427 Y5.72
G1 X5.393 Y5.685
G1 X5.365 Y5.645
G1 X5.341 Y5.603
G1 X5.323 Y5.559
G1 X5.31 Y5.513
G1 X5.303 Y5.466
G1 X5.302 Y5.418
G1 X5.306 Y5.37
G1 X5.317 Y5.322
G1 X5.334 Y5.274
G1 X5.358 Y5.228
G1 X5.388 Y5.183
G1 X5.426 Y5.14
G1 X5.471 Y5.099
G1 X5.524 Y5.062
G1 X5.586 Y5.027
G1 X5.598 Y5.021
G1 X5.61 Y5.015
G1 X5.611
G1 X5.621 Y5.009
G1 X5.622
G1 X5.632 Y5.003
G1 X5.633 Y5.002
G1 X5.642 Y4.997
G1 X5.644 Y4.996
G1 X5.652 Y4.991
G1 X5.653 Y4.99
G1 X5.661 Y4.985
G1 X5.663 Y4.984
G1 X5.67 Y4.979
G1 X5.671 Y4.978
G1 X5.678 Y4.973
G1 X5.68 Y4.971
G1 X5.686 Y4.966
G1 X5.688 Y4.964
G1 X5.693 Y4.96
G1 X5.695 Y4.957
G1 X5.7 Y4.953
G1 X5.702 Y4.95
G1 X5.706 Y4.945
G1 X5.708 Y4.942
G1 X5.712 Y4.937
G1 X5.714 Y4.933
G1 X5.717 Y4.929
G1 X5.719 Y4.924
G1 X5.721 Y4.919
G1 X5.723 Y4.914
G1 X5.725 Y4.91
G1 X5.726 Y4.904
G1 X5.727 Y4.899
G1 X5.728 Y4.894
G1 Y4.889
G1 X5.729 Y4.883
G1 X5.728 Y4.878
G1 Y4.873
G1 X5.727 Y4.868
G1 Y4.864
G1 X5.726 Y4.858
G1 X5.725 Y4.854
G1 X5.723 Y4.849
G1 X5.722 Y4.845
G1 X5.719 Y4.84
G1 Y4.839
G1 X5.699 Y4.79
G1 X5.68 Y4.739
G1 X5.662 Y4.686
G1 X5.645 Y4.631
G1 X5.629 Y4.572
G1 X5.614 Y4.511
G1 X5.6 Y4.447
G1 X5.587 Y4.379
G1 X5.574 Y4.309
G1 X5.563 Y4.235
G1 X5.553 Y4.158
G1 X5.544 Y4.077
G1 X5.535 Y3.993
G1 X5.528 Y3.905
G1 X5.521 Y3.813
G1 X5.516 Y3.716
G1 X5.511 Y3.616
G1 X5.507 Y3.512
G1 X5.504 Y3.403
G1 X5.502 Y3.289
G1 X5.501 Y3.171
G1 X5.5 Y3.049
G1 X5.501 Y2.921
G1 X5.502 Y2.789
G1 X5.512 Y1.86
G1 X5.604 Y1.74
G1 X5.652 Y1.684
G1 X5.703 Y1.636
G1 X5.757 Y1.596
G1 X5.814 Y1.562
G1 X5.874 Y1.535
G1 X5.936 Y1.515
G1 X5.999 Y1.501
G1 X6.064 Y1.494
G1 X6.129 Y1.492
G1 X6.194 Y1.497
G1 X6.259 Y1.507
G1 X6.323 Y1.523
G1 X6.385 Y1.545
G1 X6.445 Y1.572
G1 X6.502 Y1.605
G1 X6.556 Y1.642
G1 X6.606 Y1.685
G1 X6.652 Y1.732
G1 X6.692 Y1.783
G1 X6.728 Y1.839
G1 X6.758 Y1.899
; MOVEMENT_RAPID
G0 Z5 F300
G0 X6.763 Y3.115 F2500
G0 Z4 F300
; MOVEMENT_LEAD_IN
G1 Z-1 F480
; MOVEMENT_CUTTING
G1 X6.733 F2100
G1 X6.732
G1 X6.666
G1 X6.606 Y3.117
G1 X6.605
G1 X6.552 Y3.119
G1 X6.55
G1 X6.502 Y3.123
G1 X6.5
G1 X6.458 Y3.128
G1 X6.456
G1 X6.419 Y3.134
G1 X6.415 Y3.135
G1 X6.383 Y3.143
G1 X6.378 Y3.144
G1 X6.35 Y3.154
G1 X6.345 Y3.156
G1 X6.321 Y3.168
G1 X6.314 Y3.172
G1 X6.295 Y3.187
G1 X6.288 Y3.192
G1 X6.272 Y3.209
G1 X6.266 Y3.216
G1 X6.253 Y3.235
G1 X6.249 Y3.242
G1 X6.239 Y3.264
G1 X6.236 Y3.271
G1 X6.229 Y3.296
G1 X6.227 Y3.301
G1 X6.222 Y3.33
G1 X6.221 Y3.333
G1 X6.217 Y3.366
G1 Y3.368
G1 X6.215 Y3.404
G1 X6.214 Y3.406
G1 X6.213 Y3.446
G1 Y3.447
G1 Y3.491
G1 Y3.54
G1 Y3.592
G1 Y3.619
G1 Y3.645
G1 Y3.67
G1 Y3.694
G1 X6.214 Y3.717
G1 X6.215 Y3.739
G1 X6.216 Y3.76
G1 Y3.761
G1 X6.218 Y3.78
G1 Y3.782
G1 X6.22 Y3.8
G1 Y3.802
G1 X6.222 Y3.819
G1 Y3.821
G1 X6.225 Y3.838
G1 Y3.84
G1 X6.229 Y3.855
G1 Y3.858
G1 X6.233 Y3.873
G1 Y3.875
G1 X6.238 Y3.889
G1 X6.239 Y3.892
G1 X6.243 Y3.905
G1 X6.245 Y3.908
G1 X6.25 Y3.921
G1 X6.252 Y3.924
G1 X6.258 Y3.936
G1 X6.26 Y3.939
G1 X6.267 Y3.95
G1 X6.269 Y3.954
G1 X6.277 Y3.964
G1 X6.279 Y3.967
G1 X6.288 Y3.977
G1 X6.291 Y3.98
G1 X6.3 Y3.989
G1 X6.303 Y3.992
G1 X6.313 Y4
G1 X6.316 Y4.003
G1 X6.328 Y4.01
G1 X6.331 Y4.012
G1 X6.342 Y4.019
G1 X6.344 Y4.02
G1 X6.345 Y4.021
G1 X6.347 Y4.022
G1 X6.348 Y4.023
G1 X6.35 Y4.024
G1 X6.351
G1 X6.353 Y4.026
G1 X6.354
G1 X6.356 Y4.028
G1 X6.357
G1 X6.36 Y4.03
G1 X6.363 Y4.031
G1 X6.366 Y4.033
G1 X6.367
G1 X6.369 Y4.035
G1 X6.37
G1 X6.373 Y4.036
G1 Y4.037
G1 X6.376 Y4.038
G1 X6.379 Y4.04
G1 X6.38
G1 X6.383 Y4.041
G1 Y4.042
G1 X6.386 Y4.043
G1 X6.39 Y4.045
G1 X6.393 Y4.046
G1 X6.396 Y4.048
G1 X6.397
G1 X6.4 Y4.049
G1 X6.404 Y4.051
G1 X6.407 Y4.052
G1 X6.408
G1 X6.411 Y4.054
G1 X6.414 Y4.055
G1 X6.415
G1 X6.418 Y4.057
G1 X6.422 Y4.058
G1 X6.424 Y4.059
G1 X6.426 Y4.06
G1 X6.43 Y4.061
G1 X6.432 Y4.062
G1 X6.434
G1 X6.437 Y4.063
G1 X6.439
G1 X6.442 Y4.064
G1 X6.444
G1 X6.447
G1 X6.448 Y4.065
G1 X6.453
G1 X6.458 Y4.066
G1 X6.459
G1 X6.464 Y4.067
G1 X6.465
G1 X6.471
G1 X6.477 Y4.068
G1 X6.478
G1 X6.484
G1 X6.485
G1 X6.492 Y4.069
G1 X6.499
G1 X6.5
G1 X6.507 Y4.07
G1 X6.508
G1 X6.516
G1 X6.525 Y4.071
G1 X6.534
G1 X6.544 Y4.072
G1 X6.554
G1 X6.564
G1 X6.574 Y4.073
G1 X6.575
G1 X6.585
G1 X6.597 Y4.074
G1 X6.608
G1 X6.621
G1 Y4.075
G1 X6.635
G1 X6.649 Y4.076
G1 X6.65
G1 X6.664
G1 X6.665
G1 X6.679
G1 X6.68
G1 X6.695 Y4.077
G1 X6.711
G1 X6.727
G1 X6.744
G1 X6.761 Y4.078
G1 X6.778
G1 X6.796
G1 X6.814
G1 X6.832
G1 X6.851
G1 X6.871 Y4.077
G1 X6.89
G1 X6.91
G1 X6.931
G1 X6.952
G1 X6.973 Y4.076
G1 X6.995
G1 X7.017
G1 X7.04 Y4.075
G1 X7.095
G1 X7.145 Y4.074
G1 X7.193 Y4.073
G1 X7.237 Y4.072
G1 X7.278 Y4.071
G1 X7.315 Y4.07
G1 X7.35 Y4.069
G1 X7.382 Y4.068
G1 X7.411 Y4.067
G1 X7.412
G1 X7.438 Y4.065
G1 X7.439
G1 X7.463 Y4.063
G1 X7.464
G1 X7.486 Y4.061
G1 X7.487
G1 X7.507 Y4.059
G1 X7.508
G1 X7.526 Y4.057
G1 X7.528 Y4.056
G1 X7.544 Y4.054
G1 X7.546 Y4.053
G1 X7.56 Y4.05
G1 X7.562
G1 X7.575 Y4.046
G1 X7.578
G1 X7.59 Y4.042
G1 X7.593 Y4.041
G1 X7.603 Y4.037
G1 X7.606 Y4.036
G1 X7.616 Y4.031
G1 X7.619 Y4.029
G1 X7.628 Y4.024
G1 X7.631 Y4.023
G1 X7.639 Y4.017
G1 X7.642 Y4.015
G1 X7.65 Y4.009
G1 X7.652 Y4.007
G1 X7.656 Y4.003
G1 X7.662 Y4
G1 X7.664 Y3.998
G1 X7.672 Y3.993
G1 X7.674 Y3.991
G1 X7.682 Y3.985
G1 X7.684 Y3.983
G1 X7.692 Y3.976
G1 X7.694 Y3.974
G1 X7.7 Y3.967
G1 X7.702 Y3.964
G1 X7.709 Y3.957
G1 X7.71 Y3.955
G1 X7.716 Y3.947
G1 X7.718 Y3.944
G1 X7.723 Y3.936
G1 X7.725 Y3.934
G1 X7.729 Y3.925
G1 X7.731 Y3.923
G1 X7.735 Y3.914
G1 X7.736 Y3.911
G1 X7.74 Y3.902
G1 X7.741 Y3.899
G1 X7.745 Y3.89
G1 Y3.887
G1 X7.749 Y3.877
G1 Y3.875
G1 X7.752 Y3.864
G1 X7.753 Y3.863
G1 X7.755 Y3.851
G1 X7.756 Y3.85
G1 X7.758 Y3.838
G1 Y3.836
G1 X7.76 Y3.824
G1 X7.761 Y3.823
G1 X7.762 Y3.81
G1 X7.763 Y3.809
G1 X7.764 Y3.795
G1 Y3.794
G1 X7.766 Y3.78
G1 Y3.779
G1 X7.767 Y3.765
G1 Y3.764
G1 X7.768 Y3.749
G1 X7.769 Y3.733
G1 Y3.732
G1 Y3.718
G1 X7.77 Y3.71
G1 Y3.709
G1 X7.771 Y3.699
G1 X7.772 Y3.689
G1 Y3.688
G1 X7.773 Y3.678
G1 Y3.668
G1 Y3.667
G1 X7.774 Y3.657
G1 Y3.647
G1 Y3.646
G1 X7.775 Y3.636
G1 Y3.625
G1 Y3.615
G1 Y3.614
G1 X7.776 Y3.604
G1 Y3.603
G1 Y3.593
G1 Y3.582
G1 X7.775 Y3.572
G1 Y3.571
G1 Y3.561
G1 Y3.55
G1 Y3.54
G1 Y3.539
G1 X7.774 Y3.529
G1 Y3.519
G1 Y3.518
G1 X7.773 Y3.508
G1 X7.772 Y3.498
G1 Y3.497
G1 X7.771 Y3.487
G1 X7.77 Y3.477
G1 Y3.476
G1 Y3.468
G1 X7.769 Y3.453
G1 X7.768 Y3.437
G1 Y3.436
G1 Y3.421
G1 Y3.42
G1 X7.767 Y3.406
G1 X7.766 Y3.405
G1 X7.765 Y3.391
G1 Y3.39
G1 X7.764 Y3.376
G1 Y3.375
G1 X7.762 Y3.362
G1 Y3.361
G1 X7.76 Y3.348
G1 X7.759 Y3.347
G1 X7.757 Y3.335
G1 Y3.333
G1 X7.754 Y3.322
G1 Y3.32
G1 X7.751 Y3.309
G1 X7.75 Y3.307
G1 X7.747 Y3.296
G1 Y3.294
G1 X7.743 Y3.284
G1 X7.742 Y3.282
G1 X7.738 Y3.272
G1 X7.737 Y3.27
G1 X7.733 Y3.261
G1 X7.731 Y3.258
G1 X7.727 Y3.25
G1 X7.725 Y3.247
G1 X7.72 Y3.239
G1 X7.718 Y3.236
G1 X7.712 Y3.228
G1 X7.71 Y3.226
G1 X7.704 Y3.218
G1 X7.702 Y3.216
G1 X7.695 Y3.209
G1 X7.693 Y3.207
G1 X7.686 Y3.2
G1 X7.683 Y3.198
G1 X7.676 Y3.192
G1 X7.673 Y3.19
G1 X7.665 Y3.184
G1 X7.662 Y3.182
G1 X7.657 Y3.179
G1 X7.654 Y3.176
G1 X7.651 Y3.174
G1 X7.644 Y3.168
G1 X7.64 Y3.165
G1 X7.632 Y3.16
G1 X7.629 Y3.158
G1 X7.62 Y3.153
G1 X7.616 Y3.151
G1 X7.606 Y3.147
G1 X7.603 Y3.145
G1 X7.592 Y3.141
G1 X7.589 Y3.14
G1 X7.576 Y3.136
G1 X7.574
G1 X7.56 Y3.132
G1 X7.558
G1 X7.542 Y3.129
G1 X7.54
G1 X7.523 Y3.126
G1 X7.521
G1 X7.502 Y3.124
G1 X7.5
G1 X7.479 Y3.122
G1 X7.478
G1 X7.454 Y3.12
G1 X7.453
G1 X7.426 Y3.119
G1 X7.425
G1 X7.396 Y3.118
G1 X7.395
G1 X7.363 Y3.117
G1 X7.327 Y3.116
G1 X7.288 Y3.115
G1 X7.245
G1 X7.199
G1 X7.149
G1 X7.095 Y3.114
G1 X7.037
G1 X6.974
G1 X6.886
G1 X6.806
G1 X6.763 Y3.115
; MOVEMENT_RAPID
G0 Z5 F300
G0 Y4.821 F2500
G0 Z4 F300
; MOVEMENT_LEAD_IN
G1 Z-1 F480
; MOVEMENT_CUTTING
G1 X6.588 F2100
G1 X6.57 Y4.825
G1 X6.554 Y4.835
G1 X6.462 Y4.921
G1 Y4.922
G1 X6.446 Y4.937
G1 X6.444 Y4.939
G1 X6.43 Y4.954
G1 X6.428 Y4.956
G1 X6.416 Y4.971
G1 X6.414 Y4.974
G1 X6.403 Y4.99
G1 X6.4 Y4.993
G1 X6.391 Y5.009
G1 X6.389 Y5.014
G1 X6.381 Y5.03
G1 X6.379 Y5.035
G1 X6.373 Y5.053
G1 X6.372 Y5.058
G1 X6.367 Y5.077
G1 Y5.082
G1 X6.364 Y5.102
G1 Y5.106
G1 X6.363 Y5.128
G1 Y5.132
G1 X6.364 Y5.156
G1 Y5.159
G1 X6.367 Y5.185
G1 Y5.188
G1 X6.372 Y5.216
G1 X6.373 Y5.218
G1 X6.379 Y5.249
G1 X6.38 Y5.251
G1 X6.388 Y5.284
G1 Y5.286
G1 X6.399 Y5.322
G1 Y5.323
G1 X6.412 Y5.362
G1 Y5.363
G1 X6.426 Y5.406
G1 X6.427 Y5.407
G1 X6.443 Y5.453
G1 Y5.454
G1 X6.462 Y5.504
G1 X6.483 Y5.558
G1 Y5.559
G1 X6.506 Y5.617
G1 X6.531 Y5.68
G1 X6.558 Y5.748
G1 X6.603 Y5.86
G1 X6.646 Y5.964
G1 X6.686 Y6.06
G1 Y6.061
G1 X6.723 Y6.149
G1 X6.758 Y6.231
G1 X6.79 Y6.305
G1 X6.791 Y6.306
G1 X6.822 Y6.374
G1 Y6.375
G1 X6.851 Y6.437
G1 X6.879 Y6.494
G1 X6.88 Y6.495
G1 X6.906 Y6.545
G1 X6.907 Y6.547
G1 X6.933 Y6.592
G1 X6.934 Y6.594
G1 X6.959 Y6.635
G1 X6.96 Y6.637
G1 X6.984 Y6.674
G1 X6.986 Y6.676
G1 X7.01 Y6.709
G1 X7.011 Y6.711
G1 X7.036 Y6.741
G1 X7.038 Y6.743
G1 X7.062 Y6.769
G1 X7.064 Y6.771
G1 X7.089 Y6.795
G1 X7.092 Y6.797
G1 X7.118 Y6.818
G1 X7.12 Y6.82
G1 X7.147 Y6.84
G1 X7.149 Y6.841
G1 X7.177 Y6.859
G1 X7.179 Y6.86
G1 X7.208 Y6.876
G1 X7.211 Y6.877
G1 X7.241 Y6.892
G1 X7.243 Y6.893
G1 X7.276 Y6.908
G1 X7.277
G1 X7.311 Y6.922
G1 X7.319 Y6.925
G1 X7.359 Y6.934
G1 X7.365 Y6.935
G1 X7.434 Y6.943
G1 X7.436 Y6.944
G1 X7.531 Y6.951
G1 X7.532
G1 X7.65 Y6.957
G1 X7.651
G1 X7.791 Y6.962
G1 X7.949 Y6.966
G1 X8.122 Y6.969
G1 X8.309 Y6.971
G1 X8.505 Y6.972
G1 X8.506
G1 X8.71
G1 X8.919 Y6.971
G1 X9.131 Y6.97
G1 X9.343 Y6.967
G1 X9.552 Y6.964
G1 X9.756 Y6.96
G1 X9.951 Y6.955
G1 X9.952
G1 X10.137 Y6.949
G1 X10.308 Y6.943
G1 X10.309
G1 X10.464 Y6.936
G1 X10.465
G1 X10.602 Y6.928
G1 X10.603
G1 X10.719 Y6.92
G1 X10.72
G1 X10.813 Y6.911
G1 X10.815 Y6.91
G1 X10.881 Y6.901
G1 X10.887 Y6.899
G1 X10.924 Y6.889
G1 X10.933 Y6.886
G1 X10.96 Y6.873
G1 X10.961 Y6.872
G1 X10.986 Y6.858
G1 X10.988
G1 X11.012 Y6.844
G1 X11.014 Y6.843
G1 X11.037 Y6.828
G1 X11.039 Y6.827
G1 X11.061 Y6.811
G1 X11.063 Y6.809
G1 X11.085 Y6.792
G1 X11.087 Y6.79
G1 X11.108 Y6.772
G1 X11.11 Y6.77
G1 X11.131 Y6.749
G1 X11.132 Y6.747
G1 X11.153 Y6.724
G1 X11.155 Y6.722
G1 X11.175 Y6.697
G1 X11.176 Y6.695
G1 X11.197 Y6.667
G1 X11.198 Y6.665
G1 X11.219 Y6.634
G1 X11.22 Y6.632
G1 X11.241 Y6.597
G1 X11.242 Y6.596
G1 X11.264 Y6.558
G1 Y6.556
G1 X11.287 Y6.514
G1 Y6.513
G1 X11.311 Y6.466
G1 X11.336 Y6.414
G1 X11.362 Y6.357
G1 X11.363
G1 X11.39 Y6.295
G1 X11.419 Y6.228
G1 Y6.227
G1 X11.45 Y6.155
G1 Y6.154
G1 X11.483 Y6.076
G1 X11.518 Y5.99
G1 X11.555 Y5.898
G1 X11.565 Y5.875
G1 X11.574 Y5.853
G1 X11.583 Y5.83
G1 X11.592 Y5.808
G1 X11.601 Y5.787
G1 X11.609 Y5.766
G1 X11.617 Y5.745
G1 X11.625 Y5.725
G1 X11.633 Y5.706
G1 X11.641 Y5.687
G1 X11.649 Y5.668
G1 X11.656 Y5.649
G1 X11.663 Y5.631
G1 X11.67 Y5.614
G1 X11.677 Y5.596
G1 X11.684 Y5.579
G1 X11.69 Y5.563
G1 X11.696 Y5.547
G1 X11.702 Y5.531
G1 X11.708 Y5.516
G1 X11.714 Y5.501
G1 X11.719 Y5.486
G1 X11.725 Y5.472
G1 X11.73 Y5.458
G1 X11.739 Y5.434
G1 X11.747 Y5.412
G1 Y5.411
G1 X11.755 Y5.39
G1 X11.756 Y5.389
G1 X11.763 Y5.369
G1 Y5.368
G1 X11.77 Y5.349
G1 Y5.348
G1 X11.777 Y5.329
G1 X11.783 Y5.311
G1 X11.788 Y5.293
G1 X11.789 Y5.292
G1 X11.794 Y5.276
G1 Y5.275
G1 X11.798 Y5.26
G1 X11.799 Y5.258
G1 X11.802 Y5.244
G1 X11.803 Y5.243
G1 X11.806 Y5.229
G1 Y5.227
G1 X11.809 Y5.214
G1 Y5.212
G1 X11.812 Y5.199
G1 Y5.198
G1 X11.814 Y5.185
G1 Y5.184
G1 X11.816 Y5.172
G1 Y5.17
G1 X11.817 Y5.158
G1 Y5.157
G1 Y5.146
G1 Y5.143
G1 Y5.132
G1 Y5.13
G1 Y5.12
G1 X11.816 Y5.117
G1 X11.815 Y5.107
G1 Y5.105
G1 X11.814 Y5.095
G1 X11.813 Y5.093
G1 X11.811 Y5.084
G1 X11.81 Y5.081
G1 X11.808 Y5.072
G1 X11.807 Y5.067
G1 X11.806 Y5.065
G1 X11.805 Y5.06
G1 X11.804 Y5.058
G1 X11.802 Y5.053
G1 Y5.052
G1 X11.8 Y5.047
G1 Y5.045
G1 X11.798 Y5.04
G1 X11.797 Y5.038
G1 X11.794 Y5.034
G1 Y5.033
G1 X11.792 Y5.028
G1 X11.791 Y5.027
G1 X11.789 Y5.022
G1 X11.788 Y5.021
G1 X11.785 Y5.016
G1 Y5.015
G1 X11.782 Y5.011
G1 Y5.01
G1 X11.779 Y5.005
G1 X11.778 Y5.004
G1 X11.775 Y4.999
G1 X11.774
G1 X11.771 Y4.994
G1 X11.768 Y4.989
G1 X11.767 Y4.988
G1 X11.764 Y4.984
G1 X11.76 Y4.979
G1 X11.759 Y4.978
G1 X11.756 Y4.974
G1 Y4.973
G1 X11.752 Y4.969
G1 Y4.968
G1 X11.748 Y4.964
G1 X11.747 Y4.963
G1 X11.743 Y4.958
G1 X11.739 Y4.954
G1 Y4.953
G1 X11.735 Y4.948
G1 X11.731 Y4.944
G1 X11.73 Y4.943
G1 X11.726 Y4.938
G1 X11.641 Y4.839
G1 X11.63 Y4.829
G1 X11.617 Y4.823
G1 X11.603 Y4.821
G1 X6.796
G1 X6.763
; MOVEMENT_RAPID
G0 Z5 F300
G0 X4.364 Y4.822 F2500
G0 Z4 F300
; MOVEMENT_LEAD_IN
G1 Z-1 F480
; MOVEMENT_CUTTING
G1 Y4.911 F2100
G1 Y5.199
G1 Y5.469
G1 Y5.723
G1 X4.365 Y5.961
G1 X4.366 Y6.182
G1 Y6.389
G1 X4.367 Y6.58
G1 X4.369 Y6.757
G1 X4.37 Y6.919
G1 X4.371 Y7.068
G1 X4.373 Y7.203
G1 Y7.204
G1 X4.374 Y7.326
G1 X4.376 Y7.436
G1 X4.378 Y7.534
G1 X4.381 Y7.621
G1 X4.383 Y7.696
G1 X4.386 Y7.761
G1 X4.389 Y7.815
G1 Y7.816
G1 X4.392 Y7.859
G1 Y7.861
G1 X4.395 Y7.895
G1 X4.396 Y7.897
G1 X4.399 Y7.922
G1 X4.4 Y7.926
G1 X4.404 Y7.943
G1 X4.407 Y7.954
G1 X4.411 Y7.962
G1 X4.422 Y7.976
G1 X4.437 Y7.986
G1 X4.447 Y7.99
G1 X4.457 Y7.993
G1 X4.478 Y7.997
G1 X4.482
G1 X4.515 Y8.001
G1 X4.517
G1 X4.563 Y8.004
G1 X4.564
G1 X4.623 Y8.007
G1 X4.624
G1 X4.697 Y8.01
G1 X4.785 Y8.013
G1 X4.888 Y8.015
G1 X5.007 Y8.018
G1 X5.142 Y8.02
G1 X5.294 Y8.022
G1 X5.464 Y8.023
G1 X5.651 Y8.025
G1 X5.858 Y8.026
G1 X6.084 Y8.028
G1 X6.33 Y8.029
G1 X6.596 Y8.03
G1 X6.884
G1 X7.193 Y8.031
G1 X7.525 Y8.032
G1 X7.88
G1 X8.259
G1 X8.662
G1 X9.09
G1 X9.517
G1 X9.92
G1 X10.299
G1 X10.654
G1 X10.986 Y8.031
G1 X11.295 Y8.03
G1 X11.583
G1 X11.849 Y8.029
G1 X12.095 Y8.028
G1 X12.321 Y8.026
G1 X12.528 Y8.025
G1 X12.715 Y8.023
G1 X12.885 Y8.022
G1 X13.037 Y8.02
G1 X13.172 Y8.018
G1 X13.291 Y8.015
G1 X13.394 Y8.013
G1 X13.482 Y8.01
G1 X13.556 Y8.007
G1 X13.615 Y8.004
G1 X13.616
G1 X13.662 Y8.001
G1 X13.664
G1 X13.697 Y7.997
G1 X13.701
G1 X13.722 Y7.993
G1 X13.732 Y7.99
G1 X13.742 Y7.986
G1 X13.757 Y7.976
G1 X13.768 Y7.961
G1 X13.772 Y7.953
G1 X13.775 Y7.943
G1 X13.779 Y7.926
G1 X13.78 Y7.922
G1 X13.784 Y7.897
G1 Y7.895
G1 X13.787 Y7.86
G1 Y7.859
G1 X13.79 Y7.815
G1 Y7.814
G1 X13.793 Y7.76
G1 Y7.759
G1 X13.796 Y7.695
G1 Y7.694
G1 X13.798 Y7.619
G1 Y7.618
G1 X13.801 Y7.532
G1 Y7.531
G1 X13.803 Y7.433
G1 Y7.432
G1 X13.805 Y7.322
G1 X13.806 Y7.198
G1 X13.808 Y7.062
G1 X13.809 Y6.912
G1 X13.811 Y6.748
G1 X13.812 Y6.57
G1 X13.813 Y6.377
G1 Y6.169
G1 X13.814 Y5.946
G1 X13.815 Y5.706
G1 Y5.45
G1 Y5.178
G1 Y4.888
G1 X13.816 Y4.58
G1 Y1.282
G1 X13.906 Y1.18
G1 X13.996 Y1.08
G1 X14.395 Y1.071
G1 X14.396
G1 X14.492 Y1.067
G1 X14.493 Y1.066
G1 X14.58 Y1.06
G1 X14.581
G1 X14.659 Y1.054
G1 X14.727 Y1.05
G1 X14.785 Y1.052
G1 X14.833 Y1.06
G1 X14.871 Y1.074
G1 X14.904 Y1.098
G1 X14.933 Y1.136
G1 X14.961 Y1.191
G1 X14.986 Y1.269
G1 X15.007 Y1.371
G1 X15.024 Y1.499
G1 X15.038 Y1.655
G1 X15.049 Y1.841
G1 X15.056 Y2.06
G1 X15.061 Y2.314
G1 X15.064 Y2.604
G1 X15.065 Y2.935
G1 Y3.307
G1 X15.064 Y3.724
G1 X15.062 Y4.187
G1 X15.06 Y4.7
G1 X15.058 Y5.265
G1 X15.056 Y5.948
G1 X15.049 Y9.164
G1 X14.964 Y9.29
G1 X14.955 Y9.303
G1 X14.945 Y9.316
G1 X14.933 Y9.33
G1 X14.918 Y9.344
G1 X14.901 Y9.36
G1 X14.881 Y9.377
G1 X14.858 Y9.396
G1 X14.832 Y9.416
G1 X14.802 Y9.438
G1 X14.768 Y9.462
G1 X14.73 Y9.488
G1 X14.687 Y9.516
G1 X14.64 Y9.546
G1 X14.588 Y9.579
G1 X14.53 Y9.615
G1 X14.467 Y9.654
G1 X14.399 Y9.696
G1 X14.324 Y9.741
G1 X14.243 Y9.789
G1 X14.156 Y9.841
G1 X14.062 Y9.897
G1 X13.961 Y9.956
G1 X13.852 Y10.02
G1 X13.736 Y10.088
G1 X13.653 Y10.136
G1 X13.565 Y10.188
G1 X13.471 Y10.243
G1 X13.371 Y10.301
G1 X13.267 Y10.362
G1 X13.158 Y10.426
G1 X13.045 Y10.492
G1 X12.929 Y10.56
G1 X12.809 Y10.63
G1 X12.687 Y10.701
G1 X12.562 Y10.774
G1 X12.436 Y10.848
G1 X12.308 Y10.923
G1 X12.179 Y10.999
G1 X12.049 Y11.074
G1 X11.92 Y11.15
G1 X11.79 Y11.226
G1 X11.661 Y11.301
G1 X11.534 Y11.376
G1 X11.408 Y11.45
G1 X11.284 Y11.523
G1 X11.162 Y11.594
G1 X11.043 Y11.664
G1 X10.927 Y11.731
G1 X10.725 Y11.85
G1 X10.538 Y11.959
G1 X10.366 Y12.059
G1 X10.208 Y12.151
G1 X10.063 Y12.234
G1 X9.931 Y12.309
G1 X9.811 Y12.377
G1 X9.703 Y12.438
G1 X9.605 Y12.491
G1 X9.517 Y12.538
G1 X9.438 Y12.579
G1 X9.368 Y12.614
G1 X9.306 Y12.643
G1 X9.251 Y12.667
G1 X9.202 Y12.686
G1 X9.16 Y12.7
G1 X9.123 Y12.71
G1 X9.091 Y12.717
G1 X9.063 Y12.72
G1 X9.038 Y12.721
G1 X9.014 Y12.72
G1 X8.992 Y12.716
G1 X8.969 Y12.71
G1 X8.948 Y12.704
G1 X8.912 Y12.686
G1 X8.821 Y12.636
G1 X8.683 Y12.558
G1 X8.503 Y12.455
G1 X8.286 Y12.331
G1 X8.036 Y12.187
G1 X7.758 Y12.026
G1 X7.458 Y11.852
G1 X7.138 Y11.666
G1 X6.805 Y11.472
G1 X6.462 Y11.272
G1 X6.114 Y11.069
G1 X5.767 Y10.866
G1 X5.424 Y10.665
G1 X5.09 Y10.469
G1 X4.77 Y10.281
G1 X4.469 Y10.104
G1 X4.191 Y9.94
G1 X3.941 Y9.792
G1 X3.723 Y9.662
G1 X3.543 Y9.554
G1 X3.404 Y9.471
G1 X3.312 Y9.414
G1 X3.273 Y9.388
G1 X3.253 Y9.372
G1 X3.234 Y9.356
G1 X3.219 Y9.342
G1 X3.207 Y9.327
G1 X3.196 Y9.307
G1 X3.184 Y9.28
G1 X3.174 Y9.243
G1 X3.164 Y9.194
G1 X3.155 Y9.13
G1 X3.147 Y9.051
G1 X3.14 Y8.954
G1 X3.134 Y8.838
G1 X3.129 Y8.701
G1 X3.125 Y8.54
G1 X3.122 Y8.353
G1 X3.119 Y8.14
G1 X3.117 Y7.897
G1 X3.116 Y7.623
G1 X3.115 Y7.316
G1 X3.114 Y6.973
G1 Y6.593
G1 X3.113 Y6.174
G1 Y5.713
G1 Y5.209
G1 Y5.2
G1 Y4.652
G1 X3.112 Y4.147
G1 X3.111 Y3.69
G1 Y3.279
G1 Y2.912
G1 X3.113 Y2.587
G1 X3.116 Y2.3
G1 X3.121 Y2.05
G1 X3.128 Y1.834
G1 X3.139 Y1.651
G1 X3.152 Y1.497
G1 X3.168 Y1.37
G1 X3.188 Y1.27
G1 X3.212 Y1.193
G1 X3.238 Y1.137
G1 X3.265 Y1.1
G1 X3.295 Y1.076
G1 X3.331 Y1.061
G1 X3.374 Y1.053
G1 X3.428 Y1.05
G1 X3.491 Y1.052
G1 X3.564 Y1.056
G1 X3.646 Y1.061
G1 X3.647
G1 X3.737 Y1.063
G1 X3.739
G1 X3.828 Y1.061
G1 X3.829
G1 X3.91 Y1.058
G1 X3.982 Y1.055
G1 X4.046 Y1.054
G1 X4.1 Y1.057
G1 X4.144 Y1.065
G1 X4.18 Y1.08
G1 X4.21 Y1.101
G1 X4.238 Y1.133
G1 X4.263 Y1.181
G1 X4.286 Y1.246
G1 X4.306 Y1.333
G1 X4.323 Y1.441
G1 X4.336 Y1.573
G1 X4.346 Y1.73
G1 X4.354 Y1.915
G1 X4.359 Y2.128
G1 X4.363 Y2.373
G1 X4.365 Y2.651
G1 Y2.964
G1 Y3.314
G1 X4.364 Y3.703
G1 Y4.133
G1 Y4.606
G1 Y4.822
; MOVEMENT_RAPID
G0 Z5 F300
G0 X10.42 Y3.832 F2500
G0 Z4 F300
; MOVEMENT_LEAD_IN
G1 Z-1 F480
; MOVEMENT_CUTTING
G1 Y3.833 F2100
G1 X10.422 Y3.845
G1 X10.423 Y3.847
G1 X10.425 Y3.859
G1 X10.426 Y3.86
G1 X10.428 Y3.871
G1 X10.429 Y3.873
G1 X10.432 Y3.884
G1 X10.433 Y3.886
G1 X10.436 Y3.897
G1 X10.437 Y3.898
G1 X10.44 Y3.908
G1 X10.442 Y3.911
G1 X10.446 Y3.92
G1 X10.447 Y3.922
G1 X10.451 Y3.931
G1 X10.453 Y3.934
G1 X10.458 Y3.943
G1 X10.459 Y3.945
G1 X10.464 Y3.953
G1 X10.466 Y3.955
G1 X10.472 Y3.963
G1 X10.474 Y3.965
G1 X10.48 Y3.973
G1 X10.482 Y3.975
G1 X10.489 Y3.982
G1 X10.491 Y3.985
G1 X10.498 Y3.991
G1 X10.5 Y3.993
G1 X10.508 Y3.999
G1 X10.51 Y4.001
G1 X10.519 Y4.007
G1 X10.521 Y4.009
G1 X10.53 Y4.014
G1 X10.532 Y4.016
G1 X10.541 Y4.021
G1 X10.543 Y4.022
G1 X10.553 Y4.027
G1 X10.555 Y4.028
G1 X10.566 Y4.033
G1 X10.568 Y4.034
G1 X10.576 Y4.037
G1 X10.613 Y4.056
G1 X10.62 Y4.059
G1 X10.633 Y4.064
G1 X10.637 Y4.065
G1 X10.652 Y4.069
G1 X10.655
G1 X10.673 Y4.073
G1 X10.675 Y4.074
G1 X10.695 Y4.077
G1 X10.697
G1 X10.719 Y4.08
G1 X10.72
G1 X10.744 Y4.083
G1 X10.745
G1 X10.771 Y4.085
G1 X10.772
G1 X10.8 Y4.087
G1 X10.801
G1 X10.83 Y4.088
G1 X10.861 Y4.09
G1 X10.862
G1 X10.894
G1 X10.927 Y4.091
G1 X10.928
G1 X10.962
G1 X10.997
G1 X10.998
G1 X11.034 Y4.09
G1 X11.071 Y4.089
G1 X11.108 Y4.088
G1 X11.146 Y4.087
G1 X11.184 Y4.085
G1 X11.222 Y4.083
G1 X11.223
G1 X11.261 Y4.081
G1 X11.299 Y4.079
G1 X11.337 Y4.076
G1 X11.373 Y4.073
G1 X11.419
G1 X11.463 Y4.072
G1 X11.503 Y4.071
G1 X11.504
G1 X11.541 Y4.07
G1 Y4.069
G1 X11.575 Y4.068
G1 X11.606 Y4.067
G1 X11.634 Y4.065
G1 X11.635
G1 X11.66 Y4.063
G1 X11.661
G1 X11.684 Y4.061
G1 X11.685
G1 X11.706 Y4.059
G1 X11.707
G1 X11.726 Y4.056
G1 X11.727
G1 X11.744 Y4.053
G1 X11.746 Y4.052
G1 X11.761 Y4.049
G1 X11.763
G1 X11.777 Y4.045
G1 X11.78 Y4.044
G1 X11.792 Y4.04
G1 X11.795 Y4.039
G1 X11.805 Y4.034
G1 X11.809 Y4.033
G1 X11.818 Y4.028
G1 X11.822 Y4.026
G1 X11.831 Y4.02
G1 X11.834 Y4.018
G1 X11.842 Y4.012
G1 X11.845 Y4.01
G1 X11.853 Y4.003
G1 X11.855 Y4.001
G1 X11.862 Y3.994
G1 X11.864 Y3.993
G1 X11.871 Y3.985
G1 X11.872 Y3.983
G1 X11.879 Y3.975
G1 X11.88 Y3.974
G1 X11.887 Y3.966
G1 X11.889 Y3.963
G1 X11.901 Y3.946
G1 X11.904 Y3.941
G1 X11.915 Y3.921
G1 X11.917 Y3.917
G1 X11.926 Y3.894
G1 X11.928 Y3.891
G1 X11.936 Y3.866
G1 X11.937 Y3.863
G1 X11.945 Y3.836
G1 Y3.833
G1 X11.952 Y3.804
G1 X11.953 Y3.802
G1 X11.958 Y3.771
G1 Y3.769
G1 X11.963 Y3.736
G1 Y3.735
G1 X11.967 Y3.701
G1 Y3.699
G1 X11.969 Y3.665
G1 Y3.663
G1 X11.971 Y3.628
G1 Y3.627
G1 Y3.592
G1 Y3.59
G1 Y3.555
G1 Y3.554
G1 X11.969 Y3.519
G1 Y3.517
G1 X11.967 Y3.483
G1 Y3.481
G1 X11.963 Y3.447
G1 Y3.446
G1 X11.958 Y3.413
G1 Y3.412
G1 X11.953 Y3.381
G1 X11.952 Y3.378
G1 X11.945 Y3.349
G1 Y3.346
G1 X11.937 Y3.319
G1 X11.936 Y3.316
G1 X11.928 Y3.291
G1 X11.926 Y3.288
G1 X11.917 Y3.265
G1 X11.915 Y3.261
G1 X11.904 Y3.241
G1 X11.901 Y3.236
G1 X11.889 Y3.22
G1 X11.887 Y3.217
G1 X11.88 Y3.208
G1 X11.879 Y3.207
G1 X11.872 Y3.199
G1 X11.871 Y3.197
G1 X11.864 Y3.19
G1 X11.862 Y3.188
G1 X11.855 Y3.181
G1 X11.853 Y3.179
G1 X11.845 Y3.173
G1 X11.842 Y3.17
G1 X11.834 Y3.164
G1 X11.831 Y3.162
G1 X11.823 Y3.157
G1 X11.819 Y3.155
G1 X11.81 Y3.15
G1 X11.807 Y3.149
G1 X11.797 Y3.144
G1 X11.793 Y3.143
G1 X11.782 Y3.139
G1 X11.779 Y3.138
G1 X11.766 Y3.134
G1 X11.764 Y3.133
G1 X11.75 Y3.13
G1 X11.747
G1 X11.732 Y3.126
G1 X11.73
G1 X11.712 Y3.123
G1 X11.711
G1 X11.691 Y3.121
G1 X11.69
G1 X11.668 Y3.118
G1 X11.667
G1 X11.644 Y3.116
G1 X11.643
G1 X11.616 Y3.114
G1 X11.587 Y3.113
G1 X11.586
G1 X11.555 Y3.111
G1 X11.554
G1 X11.52 Y3.11
G1 X11.482 Y3.108
G1 X11.441 Y3.107
G1 X11.398 Y3.106
G1 X11.364 Y3.103
G1 X11.328 Y3.1
G1 X11.292 Y3.098
G1 X11.256 Y3.096
G1 X11.219 Y3.094
G1 X11.183 Y3.092
G1 X11.147 Y3.09
G1 X11.146
G1 X11.111 Y3.089
G1 X11.11
G1 X11.075 Y3.088
G1 X11.074
G1 X11.039 Y3.087
G1 X11.004
G1 X10.97
G1 X10.937
G1 X10.936
G1 X10.904 Y3.088
G1 X10.903
G1 X10.872
G1 X10.841 Y3.09
G1 X10.812 Y3.091
G1 X10.811
G1 X10.783 Y3.093
G1 X10.782
G1 X10.756 Y3.095
G1 X10.755
G1 X10.73 Y3.098
G1 X10.729
G1 X10.705 Y3.101
G1 X10.704
G1 X10.682 Y3.105
G1 X10.681
G1 X10.661 Y3.109
G1 X10.659
G1 X10.641 Y3.113
G1 X10.633 Y3.115
G1 X10.587 Y3.134
G1 X10.576 Y3.138
G1 X10.575
G1 X10.564 Y3.143
G1 X10.561 Y3.144
G1 X10.551 Y3.149
G1 X10.549 Y3.15
G1 X10.539 Y3.155
G1 X10.537 Y3.156
G1 X10.528 Y3.162
G1 X10.525 Y3.163
G1 X10.516 Y3.169
G1 X10.514 Y3.171
G1 X10.506 Y3.177
G1 X10.504 Y3.179
G1 X10.496 Y3.186
G1 X10.494 Y3.188
G1 X10.487 Y3.195
G1 X10.485 Y3.197
G1 X10.478 Y3.204
G1 X10.476 Y3.207
G1 X10.47 Y3.215
G1 X10.468 Y3.217
G1 X10.462 Y3.225
G1 X10.461 Y3.228
G1 X10.456 Y3.236
G1 X10.454 Y3.239
G1 X10.449 Y3.248
G1 X10.448 Y3.25
G1 X10.444 Y3.26
G1 X10.443 Y3.262
G1 X10.439 Y3.272
G1 X10.438 Y3.274
G1 X10.434 Y3.285
G1 Y3.286
G1 X10.43 Y3.297
G1 Y3.299
G1 X10.427 Y3.31
G1 X10.426 Y3.312
G1 X10.424 Y3.324
G1 X10.423 Y3.326
G1 X10.421 Y3.338
G1 Y3.339
G1 X10.419 Y3.352
G1 Y3.353
G1 X10.417 Y3.367
G1 Y3.368
G1 X10.415 Y3.379
G1 X10.398 Y3.455
G1 X10.397 Y3.464
G1 X10.39 Y3.636
G1 Y3.647
G1 X10.415 Y3.792
G1 X10.416 Y3.804
G1 Y3.805
G1 X10.418 Y3.818
G1 Y3.819
G1 X10.42 Y3.832
; MOVEMENT_RAPID
G0 Z5 F300
G0 X17.246 Y3.869 F2500
G0 Z4 F300
; MOVEMENT_LEAD_IN
G1 Z-1 F480
; MOVEMENT_CUTTING
G1 Y3.741 F2100
G1 X17.248 Y3.492
G1 X17.249 Y3.274
G1 X17.251 Y3.091
G1 X17.253 Y2.943
G1 X17.265 Y1.962
G1 X17.276 Y1.099
G1 X48.029
G1 Y18.813
G1 X43.954
G1 X43.935 Y18.817
G1 X43.919 Y18.828
G1 X43.908 Y18.844
G1 X43.904 Y18.863
G1 Y20.271
G1 X41.906
G1 Y16.353
G1 X43.904
G1 Y17.868
G1 X43.908 Y17.887
G1 X43.919 Y17.903
G1 X43.935 Y17.914
G1 X43.954 Y17.918
G1 X47.119
G1 X47.138 Y17.914
G1 X47.154 Y17.903
G1 X47.165 Y17.887
G1 X47.169 Y17.868
G1 Y1.973
G1 X47.165 Y1.954
G1 X47.154 Y1.938
G1 X47.138 Y1.927
G1 X47.119 Y1.923
G1 X18.137
G1 X18.118 Y1.927
G1 X18.101 Y1.938
G1 X18.091 Y1.954
G1 X18.087 Y1.973
G1 X18.091 Y12.128
G1 Y12.821
G1 Y13.501
G1 Y14.168
G1 Y14.82
G1 Y15.455
G1 Y16.072
G1 Y16.67
G1 X18.09 Y17.246
G1 Y17.799
G1 X18.089 Y18.327
G1 Y18.83
G1 X18.088 Y19.305
G1 X18.087 Y19.752
G1 Y20.167
G1 X18.086 Y20.551
G1 X18.085 Y20.901
G1 X18.084 Y21.215
G1 X18.083 Y21.493
G1 X18.082 Y21.733
G1 X18.081 Y21.932
G1 X18.08 Y22.091
G1 X18.078 Y22.206
G1 X18.077 Y22.255
G1 X18.071
G1 X18.009 Y22.256
G1 X17.923 Y22.258
G1 X17.814 Y22.26
G1 X17.684 Y22.261
G1 X17.533 Y22.263
G1 X17.362 Y22.264
G1 X17.173 Y22.266
G1 X16.966 Y22.268
G1 X16.965
G1 X16.739 Y22.27
G1 X16.497 Y22.271
G1 X16.24 Y22.273
G1 X15.967 Y22.275
G1 X15.681 Y22.276
G1 X15.381 Y22.278
G1 X15.07 Y22.28
G1 X14.746 Y22.281
G1 X14.412 Y22.283
G1 X14.068 Y22.284
G1 X13.715 Y22.286
G1 X13.354 Y22.287
G1 X12.986 Y22.289
G1 X12.611 Y22.29
G1 X7.116 Y22.308
G1 X7.097 Y22.312
G1 X7.081 Y22.323
G1 X7.07 Y22.339
G1 X7.066 Y22.358
G1 Y22.902
G1 X5.106
G1 X4.913
G1 X4.733
G1 X4.564
G1 X4.405
G1 X4.258 Y22.901
G1 X4.121 Y22.9
G1 X3.995
G1 X3.878 Y22.899
G1 X3.771 Y22.898
G1 X3.673 Y22.896
G1 X3.584 Y22.895
G1 X3.503 Y22.893
G1 X3.431 Y22.892
G1 X3.366 Y22.89
G1 X3.309 Y22.887
G1 X3.26 Y22.885
G1 X3.218 Y22.882
G1 X3.182 Y22.88
G1 X3.153 Y22.877
G1 X3.131 Y22.874
G1 X3.125 Y22.873
G1 X3.124 Y22.859
G1 X3.123 Y22.838
G1 Y22.813
G1 X3.122 Y22.784
G1 X3.121 Y22.752
G1 X3.12 Y22.717
G1 Y22.679
G1 X3.119 Y22.638
G1 Y22.594
G1 Y22.547
G1 Y22.498
G1 X3.118 Y22.446
G1 Y22.392
G1 Y22.337
G1 Y22.279
G1 X3.119 Y22.22
G1 Y22.159
G1 Y22.097
G1 X3.12 Y22.033
G1 Y21.969
G1 X3.121 Y21.903
G1 X3.13 Y20.993
G1 X5.098 Y20.984
G1 X7.066 Y20.975
G1 Y21.376
G1 X7.07 Y21.395
G1 X7.081 Y21.411
G1 X7.097 Y21.422
G1 X7.116 Y21.426
G1 X12.116 Y21.449
G1 X12.457 Y21.451
G1 X12.792 Y21.452
G1 X13.12 Y21.454
G1 X13.442 Y21.455
G1 X13.755 Y21.456
G1 X14.059 Y21.457
G1 X14.354 Y21.458
G1 X14.638 Y21.459
G1 X14.911
G1 X15.173 Y21.46
G1 X15.421
G1 X15.656
G1 X15.877 Y21.461
G1 X16.083 Y21.46
G1 X16.273
G1 X16.446
G1 X16.602
G1 X16.603
G1 X16.741 Y21.459
G1 X16.86 Y21.458
G1 X16.96
G1 X17.039 Y21.457
G1 X17.04
G1 X17.098 Y21.456
G1 X17.099
G1 X17.135 Y21.455
G1 X17.138 Y21.454
G1 X17.152 Y21.453
G1 X17.168 Y21.449
G1 X17.182 Y21.439
G1 X17.192 Y21.426
G1 X17.197 Y21.409
G1 X17.199 Y21.39
G1 Y21.386
G1 X17.202 Y21.332
G1 Y21.331
G1 X17.204 Y21.243
G1 X17.206 Y21.121
G1 X17.208 Y20.967
G1 X17.21 Y20.782
G1 X17.212 Y20.566
G1 X17.214 Y20.321
G1 X17.215 Y20.047
G1 X17.217 Y19.745
G1 X17.219 Y19.417
G1 X17.22 Y19.062
G1 X17.221 Y18.683
G1 X17.223 Y18.279
G1 X17.224 Y17.852
G1 X17.225 Y17.403
G1 X17.226 Y16.932
G1 X17.227 Y16.44
G1 Y15.929
G1 X17.228 Y15.399
G1 Y14.851
G1 X17.229 Y14.287
G1 Y13.706
G1 Y13.11
G1 Y12.541
G1 Y11.974
G1 Y11.409
G1 X17.23 Y10.849
G1 Y10.294
G1 X17.231 Y9.748
G1 X17.232 Y9.21
G1 Y8.683
G1 X17.233 Y8.167
G1 X17.234 Y7.666
G1 X17.235 Y7.18
G1 X17.236 Y6.71
G1 X17.237 Y6.259
G1 X17.238 Y5.827
G1 X17.24 Y5.417
G1 X17.241 Y5.03
G1 X17.242 Y4.667
G1 X17.243 Y4.33
G1 X17.245 Y4.021
G1 X17.246 Y3.869
; MOVEMENT_RAPID
G0 Z5 F300
G0 X19.939 Y3.902 F2500
G0 Z4 F300
; MOVEMENT_LEAD_IN
G1 Z-1 F480
; MOVEMENT_CUTTING
G1 X19.942 Y3.623 F2100
G1 X45.895
G1 X45.904 Y5.005
G1 X45.906 Y5.333
G1 X45.913 Y6.436
G1 X45.917 Y6.455
G1 X45.927 Y6.47
G1 X45.943 Y6.481
G1 X45.961 Y6.486
G1 X46.201 Y6.496
G1 X46.393 Y6.505
G1 Y10.422
G1 X44.395
G1 Y6.539
G1 X44.975
G1 X44.994 Y6.535
G1 X45.01 Y6.525
G1 X45.021 Y6.509
G1 X45.025 Y6.491
G1 X45.043 Y5.966
G1 X45.045 Y5.929
G1 X45.046 Y5.891
G1 X45.047 Y5.852
G1 Y5.851
G1 X45.048 Y5.811
G1 X45.049 Y5.77
G1 Y5.728
G1 Y5.727
G1 X45.05 Y5.685
G1 Y5.642
G1 X45.051 Y5.598
G1 Y5.554
G1 Y5.511
G1 Y5.467
G1 Y5.424
G1 Y5.381
G1 Y5.339
G1 X45.05 Y5.297
G1 Y5.256
G1 X45.049 Y5.216
G1 Y5.178
G1 X45.048 Y5.14
G1 X45.047 Y5.104
G1 X45.046 Y5.07
G1 X45.045 Y5.037
G1 X45.044 Y5.006
G1 X45.026 Y4.574
G1 X45.023 Y4.558
G1 X45.014 Y4.543
G1 X45.001 Y4.533
G1 X44.986 Y4.527
G1 X44.879 Y4.506
G1 X44.871 Y4.505
G1 X44.734 Y4.501
G1 X44.733
G1 X44.37 Y4.498
G1 X44.369
G1 X43.801 Y4.495
G1 X43.048 Y4.493
G1 X42.131 Y4.491
G1 X41.07 Y4.489
G1 X39.886 Y4.487
G1 X38.6 Y4.486
G1 X37.231 Y4.485
G1 X35.802 Y4.484
G1 X34.331
G1 X32.841
G1 X31.351
G1 X29.881
G1 X28.453 Y4.485
G1 X27.088 Y4.486
G1 X25.804 Y4.488
G1 X24.624 Y4.489
G1 X23.568 Y4.491
G1 X22.656 Y4.493
G1 X21.909 Y4.496
G1 X21.347 Y4.499
G1 X20.991 Y4.502
G1 X20.99
G1 X20.861 Y4.505
G1 X20.846 Y4.508
G1 X20.833 Y4.515
G1 X20.822 Y4.525
G1 X20.816 Y4.534
G1 X20.808 Y4.551
G1 X20.802 Y4.574
G1 X20.801 Y4.58
G1 X20.796 Y4.62
G1 X20.795 Y4.622
G1 X20.79 Y4.684
G1 Y4.686
G1 X20.786 Y4.772
G1 Y4.773
G1 X20.782 Y4.889
G1 X20.778 Y5.037
G1 X20.775 Y5.221
G1 X20.772 Y5.444
G1 X20.769 Y5.71
G1 X20.767 Y6.023
G1 X20.765 Y6.386
G1 X20.763 Y6.802
G1 X20.762 Y7.277
G1 X20.76 Y7.812
G1 X20.759 Y8.412
G1 X20.758 Y9.08
G1 X20.757 Y9.819
G1 Y10.635
G1 Y11.529
G1 X20.756 Y12.506
G1 Y13.569
G1 Y14.722
G1 Y15.969
G1 Y26.402
G1 Y27.312
G1 X7.116
G1 X7.097 Y27.315
G1 X7.081 Y27.326
G1 X7.07 Y27.342
G1 X7.066 Y27.362
G1 Y27.809
G1 X3.077
G1 Y25.989
G1 X7.066
G1 Y26.402
G1 X7.07 Y26.421
G1 X7.081 Y26.437
G1 X7.097 Y26.448
G1 X7.116 Y26.452
G1 X19.846
G1 X19.865 Y26.448
G1 X19.881 Y26.437
G1 X19.892 Y26.421
G1 X19.896 Y26.402
G1 Y16.914
G1 Y16.262
G1 Y15.613
G1 Y14.968
G1 X19.897 Y14.33
G1 Y13.699
G1 X19.898 Y13.077
G1 Y12.467
G1 X19.899 Y11.87
G1 X19.9 Y11.288
G1 X19.901 Y10.722
G1 X19.902 Y10.174
G1 X19.903 Y9.647
G1 X19.904 Y9.141
G1 X19.905 Y8.658
G1 X19.906 Y8.2
G1 X19.908 Y7.77
G1 X19.909 Y7.368
G1 X19.91 Y6.996
G1 X19.911 Y6.799
G1 X19.912 Y6.656
G1 X19.913 Y6.382
G1 Y6.35
G1 X19.915 Y6.08
G1 X19.916 Y5.847
G1 X19.917 Y5.703
G1 X19.918 Y5.653
G1 X19.919 Y5.5
G1 X19.939 Y3.902
; MOVEMENT_RAPID
G0 Z5 F300
G0 X22.367 Y5.658 F2500
G0 Z4 F300
; MOVEMENT_LEAD_IN
G1 Z-1 F480
; MOVEMENT_CUTTING
G1 X22.381 Y5.643 F2100
G1 X22.401 Y5.629
G1 X22.425 Y5.615
G1 X22.454 Y5.603
G1 X22.486 Y5.593
G1 X22.522 Y5.585
G1 X22.56 Y5.58
G1 X22.6 Y5.576
G1 X22.642 Y5.575
G1 X22.684 Y5.576
G1 X22.726 Y5.579
G1 X22.769 Y5.585
G1 X22.81 Y5.593
G1 X22.849 Y5.604
G1 X22.886 Y5.616
G1 X22.921 Y5.631
G1 X22.952 Y5.648
G1 X22.98 Y5.666
G1 X23.003 Y5.686
G1 X23.022 Y5.707
G1 X23.037 Y5.73
G1 X23.048 Y5.752
G1 X23.058 Y5.776
G1 X23.063 Y5.789
G1 X23.066 Y5.799
G1 X23.072 Y5.823
G1 X23.075 Y5.835
G1 X23.077 Y5.845
G1 X23.079 Y5.868
G1 X23.08 Y5.89
G1 X23.079 Y5.912
G1 X23.077 Y5.934
G1 X23.072 Y5.956
G1 X23.067 Y5.977
G1 X23.059 Y5.998
G1 X23.053 Y6.011
G1 X23.05 Y6.019
G1 X23.039 Y6.039
G1 X23.027 Y6.059
G1 X23.02 Y6.069
G1 X23.012 Y6.079
G1 X22.996 Y6.098
G1 X22.983 Y6.113
G1 X22.979 Y6.117
G1 X22.959 Y6.135
G1 X22.938 Y6.153
G1 X22.915 Y6.17
G1 X22.89 Y6.187
G1 X22.864 Y6.202
G1 X22.835 Y6.218
G1 X22.834
G1 X22.786 Y6.244
G1 X22.783 Y6.245
G1 X22.739 Y6.273
G1 X22.736 Y6.274
G1 X22.696 Y6.303
G1 X22.693 Y6.305
G1 X22.657 Y6.333
G1 X22.654 Y6.336
G1 X22.622 Y6.365
G1 X22.619 Y6.367
G1 X22.591 Y6.397
G1 X22.588 Y6.4
G1 X22.564 Y6.429
G1 X22.562 Y6.432
G1 X22.541 Y6.461
G1 X22.539 Y6.465
G1 X22.523 Y6.493
G1 X22.521 Y6.498
G1 X22.509 Y6.525
G1 X22.507 Y6.531
G1 X22.499 Y6.557
G1 X22.498 Y6.564
G1 X22.494 Y6.589
G1 Y6.597
G1 X22.495 Y6.62
G1 X22.496 Y6.63
G1 X22.501 Y6.65
G1 X22.505 Y6.661
G1 X22.514 Y6.68
G1 X22.521 Y6.69
G1 X22.534 Y6.705
G1 X22.543 Y6.713
G1 X22.561 Y6.726
G1 X22.57 Y6.731
G1 X22.592 Y6.741
G1 X22.601 Y6.744
G1 X22.627 Y6.75
G1 X22.634 Y6.751
G1 X22.665 Y6.754
G1 X22.671
G1 X22.706 Y6.752
G1 X22.711
G1 X22.751 Y6.746
G1 X22.755 Y6.745
G1 X22.799 Y6.735
G1 X22.802 Y6.734
G1 X22.85 Y6.719
G1 X22.851
G1 X22.863 Y6.715
G1 X22.874 Y6.711
G1 X22.885 Y6.708
G1 X22.895 Y6.706
G1 X22.905 Y6.704
G1 X22.915 Y6.702
G1 X22.924 Y6.7
G1 X22.933 Y6.699
G1 X22.941
G1 X22.949 Y6.698
G1 X22.956
G1 X22.963
G1 X22.969 Y6.699
G1 X22.975 Y6.7
G1 X22.981
G1 X22.986 Y6.701
G1 X22.99 Y6.703
G1 X22.989 Y6.711
G1 X22.986 Y6.719
G1 X22.983 Y6.727
G1 X22.979 Y6.734
G1 X22.975 Y6.741
G1 X22.969 Y6.748
G1 X22.963 Y6.756
G1 X22.956 Y6.763
G1 X22.948 Y6.769
G1 X22.938 Y6.776
G1 X22.929 Y6.782
G1 X22.918 Y6.788
G1 X22.907 Y6.794
G1 X22.894 Y6.799
G1 X22.881 Y6.804
G1 X22.868 Y6.809
G1 X22.854 Y6.813
G1 X22.839 Y6.816
G1 X22.824 Y6.82
G1 X22.809 Y6.822
G1 X22.793 Y6.824
G1 X22.776 Y6.826
G1 X22.76
G1 X22.743 Y6.827
G1 X22.732
G1 X22.72 Y6.826
G1 X22.708 Y6.825
G1 X22.696 Y6.824
G1 X22.685 Y6.823
G1 X22.673 Y6.821
G1 X22.661 Y6.819
G1 X22.649 Y6.817
G1 X22.638 Y6.814
G1 X22.626 Y6.811
G1 X22.615 Y6.808
G1 X22.604 Y6.805
G1 X22.592 Y6.801
G1 X22.581 Y6.797
G1 X22.575 Y6.795
G1 X22.57 Y6.793
G1 X22.56 Y6.789
G1 X22.549 Y6.784
G1 X22.539 Y6.78
G1 X22.528 Y6.775
G1 X22.518 Y6.769
G1 X22.509 Y6.764
G1 X22.499 Y6.758
G1 X22.49 Y6.752
G1 X22.481 Y6.746
G1 X22.48 Y6.745
G1 X22.478 Y6.744
G1 X22.477
G1 X22.476 Y6.743
G1 X22.474 Y6.742
G1 X22.471 Y6.739
G1 X22.469 Y6.738
G1 X22.468 Y6.737
G1 X22.467 Y6.736
G1 X22.466 Y6.735
G1 X22.465 Y6.734
G1 X22.463 Y6.733
G1 X22.462 Y6.732
G1 X22.46 Y6.731
G1 Y6.73
G1 X22.459 Y6.729
G1 X22.458 Y6.728
G1 X22.456 Y6.727
G1 X22.455 Y6.726
G1 X22.454 Y6.725
G1 X22.453 Y6.724
G1 X22.451 Y6.723
G1 X22.45 Y6.722
G1 X22.447 Y6.719
G1 X22.446 Y6.718
G1 X22.445 Y6.717
G1 X22.444 Y6.716
G1 X22.443
G1 X22.439 Y6.712
G1 X22.436 Y6.709
G1 X22.433 Y6.706
G1 X22.429 Y6.702
G1 X22.425 Y6.698
G1 X22.422 Y6.695
G1 X22.419 Y6.691
G1 X22.416 Y6.687
G1 X22.413 Y6.684
G1 X22.41 Y6.68
G1 X22.407 Y6.676
G1 X22.405 Y6.673
G1 X22.402 Y6.669
G1 X22.399 Y6.665
G1 X22.397 Y6.661
G1 X22.395 Y6.657
G1 X22.392 Y6.653
G1 X22.39 Y6.649
G1 X22.388 Y6.645
G1 X22.386 Y6.641
G1 X22.385 Y6.638
G1 X22.383 Y6.633
G1 X22.381 Y6.629
G1 X22.379 Y6.625
G1 X22.377 Y6.619
G1 X22.375 Y6.612
G1 X22.372 Y6.605
G1 X22.371 Y6.599
G1 X22.369 Y6.592
G1 X22.367 Y6.586
G1 X22.366 Y6.579
G1 X22.364 Y6.573
G1 X22.363 Y6.566
G1 X22.362 Y6.56
G1 X22.361 Y6.554
G1 Y6.548
G1 X22.36 Y6.541
G1 Y6.535
G1 Y6.529
G1 Y6.523
G1 Y6.517
G1 Y6.511
G1 X22.361 Y6.505
G1 Y6.499
G1 X22.362 Y6.493
G1 X22.363 Y6.487
G1 X22.364 Y6.481
G1 X22.365 Y6.477
G1 X22.369 Y6.464
G1 X22.374 Y6.451
G1 X22.38 Y6.436
G1 X22.384 Y6.428
G1 X22.387 Y6.422
G1 X22.395 Y6.408
G1 X22.404 Y6.394
G1 X22.413 Y6.38
G1 X22.424 Y6.365
G1 X22.435 Y6.351
G1 X22.448 Y6.336
G1 X22.461 Y6.322
G1 X22.476 Y6.307
G1 X22.491 Y6.293
G1 X22.507 Y6.279
G1 X22.524 Y6.265
G1 X22.542 Y6.251
G1 X22.561 Y6.237
G1 X22.581 Y6.223
G1 X22.602 Y6.21
G1 X22.624 Y6.196
G1 X22.647 Y6.183
G1 X22.67 Y6.171
G1 X22.695 Y6.158
G1 X22.72 Y6.146
G1 X22.721 Y6.145
G1 X22.722 Y6.144
G1 X22.772 Y6.119
G1 X22.775 Y6.117
G1 X22.818 Y6.091
G1 X22.822 Y6.088
G1 X22.858 Y6.062
G1 X22.862 Y6.059
G1 X22.891 Y6.032
G1 X22.895 Y6.027
G1 X22.918 Y6.001
G1 X22.923 Y5.995
G1 X22.939 Y5.968
G1 X22.943 Y5.961
G1 X22.954 Y5.935
G1 X22.957 Y5.925
G1 X22.962 Y5.9
G1 X22.963 Y5.889
G1 X22.962 Y5.865
G1 X22.96 Y5.853
G1 X22.954 Y5.83
G1 X22.951 Y5.82
G1 X22.94 Y5.798
G1 X22.934 Y5.79
G1 X22.918 Y5.769
G1 X22.912 Y5.763
G1 X22.892 Y5.745
G1 X22.886 Y5.74
G1 X22.86 Y5.723
G1 X22.855 Y5.72
G1 X22.825 Y5.706
G1 X22.82 Y5.704
G1 X22.786 Y5.692
G1 X22.782 Y5.691
G1 X22.744 Y5.682
G1 X22.74 Y5.681
G1 X22.699 Y5.675
G1 X22.694 Y5.674
G1 X22.65 Y5.671
G1 X22.646
G1 X22.598 Y5.672
G1 X22.595
G1 X22.544 Y5.676
G1 X22.541
G1 X22.487 Y5.684
G1 X22.484 Y5.685
G1 X22.428 Y5.697
G1 X22.425
G1 X22.366 Y5.713
G1 X22.365 Y5.714
G1 X22.358 Y5.716
G1 X22.351 Y5.718
G1 X22.35
G1 X22.349 Y5.713
G1 Y5.708
G1 X22.352 Y5.689
G1 X22.357 Y5.673
G1 X22.367 Y5.658
; MOVEMENT_RAPID
G0 Z5 F300
G0 X22.54 Y7.222 F2500
G0 Z4 F300
; MOVEMENT_LEAD_IN
G1 Z-1 F480
; MOVEMENT_CUTTING
G1 X22.563 Y7.22 F2100
G1 X22.588 Y7.218
G1 X22.615 Y7.217
G1 X22.644 Y7.216
G1 X22.673 Y7.215
G1 X22.702
G1 X22.732 Y7.216
G1 X22.761 Y7.217
G1 X22.79 Y7.218
G1 X22.818 Y7.22
G1 X22.844 Y7.222
G1 X22.868 Y7.225
G1 X22.891 Y7.228
G1 X22.91 Y7.231
G1 X22.926 Y7.235
G1 X22.937 Y7.239
G1 X22.946 Y7.242
G1 X22.949 Y7.244
G1 X22.95
G1 X22.955 Y7.247
G1 X22.956
G1 X22.961 Y7.25
G1 X22.962
G1 X22.969 Y7.253
G1 X22.976 Y7.256
G1 X22.977
G1 X22.984 Y7.259
G1 X22.992 Y7.262
G1 X22.993 Y7.263
G1 X23.001 Y7.266
G1 X23.002
G1 X23.01 Y7.269
G1 X23.011 Y7.27
G1 X23.02 Y7.273
G1 X23.03 Y7.277
G1 X23.04 Y7.28
G1 X23.05 Y7.284
G1 X23.061 Y7.288
G1 X23.071 Y7.291
G1 X23.072
G1 X23.082 Y7.295
G1 X23.083
G1 X23.093 Y7.299
G1 X23.094
G1 X23.105 Y7.303
G1 X23.116 Y7.306
G1 X23.127 Y7.31
G1 X23.128
G1 X23.139 Y7.313
G1 Y7.314
G1 X23.15 Y7.317
G1 X23.161 Y7.32
G1 Y7.321
G1 X23.172 Y7.324
G1 X23.193 Y7.331
G1 X23.216 Y7.341
G1 X23.241 Y7.353
G1 X23.266 Y7.367
G1 X23.293 Y7.383
G1 X23.321 Y7.402
G1 X23.35 Y7.422
G1 X23.379 Y7.443
G1 X23.409 Y7.467
G1 X23.438 Y7.491
G1 X23.468 Y7.517
G1 X23.497 Y7.544
G1 X23.526 Y7.571
G1 X23.555 Y7.599
G1 X23.582 Y7.628
G1 X23.609 Y7.657
G1 X23.634 Y7.686
G1 X23.659 Y7.715
G1 X23.682 Y7.744
G1 X23.703 Y7.773
G1 X23.722 Y7.801
G1 X23.74 Y7.828
G1 X23.755 Y7.855
G1 X23.768 Y7.881
G1 X23.775 Y7.893
G1 Y7.894
G1 X23.781 Y7.906
G1 X23.782 Y7.907
G1 X23.788 Y7.918
G1 Y7.92
G1 X23.795 Y7.931
G1 Y7.932
G1 X23.802 Y7.942
G1 Y7.943
G1 X23.808 Y7.953
G1 X23.809 Y7.954
G1 X23.815 Y7.963
G1 X23.816 Y7.965
G1 X23.822 Y7.973
G1 X23.823 Y7.974
G1 X23.829 Y7.982
G1 X23.831 Y7.984
G1 X23.837 Y7.991
G1 X23.839 Y7.993
G1 X23.845 Y8
G1 X23.847 Y8.001
G1 X23.853 Y8.008
G1 X23.855 Y8.009
G1 X23.861 Y8.015
G1 X23.864 Y8.017
G1 X23.87 Y8.022
G1 X23.872 Y8.024
G1 X23.879 Y8.028
G1 X23.882 Y8.03
G1 X23.888 Y8.034
G1 X23.891 Y8.036
G1 X23.898 Y8.04
G1 X23.901 Y8.041
G1 X23.908 Y8.044
G1 X23.911 Y8.045
G1 X23.919 Y8.048
G1 X23.921 Y8.049
G1 X23.929 Y8.052
G1 X23.931 Y8.053
G1 X23.94 Y8.055
G1 X23.942 Y8.056
G1 X23.95 Y8.057
G1 X23.952 Y8.058
G1 X23.961 Y8.059
G1 X23.963 Y8.06
G1 X23.972 Y8.061
G1 X23.973
G1 X24.07 Y8.072
G1 X24.087 Y8.071
G1 X24.102 Y8.065
G1 X24.115 Y8.054
G1 X24.123 Y8.04
G1 X24.126 Y8.023
G1 X24.135 Y7.283
G1 X24.144 Y6.592
G1 X25.207 Y6.583
G1 X26.267 Y6.574
G1 Y8.978
G1 Y10.345
G1 X26.094 Y10.363
G1 X26.055 Y10.367
G1 X26.009 Y10.37
G1 X25.954 Y10.373
G1 X25.893 Y10.375
G1 X25.826 Y10.378
G1 X25.754 Y10.38
G1 X25.677 Y10.381
G1 X25.597 Y10.383
G1 X25.513 Y10.384
G1 X25.427 Y10.385
G1 X25.339
G1 X25.249
G1 X25.16
G1 X25.071
G1 X24.983 Y10.384
G1 X24.897 Y10.383
G1 X24.813 Y10.381
G1 X24.732 Y10.38
G1 X24.655 Y10.378
G1 X24.583 Y10.375
G1 X24.516 Y10.373
G1 X24.455 Y10.37
G1 X24.4 Y10.367
G1 X24.353 Y10.363
G1 X24.127 Y10.344
G1 Y8.978
G1 X24.123 Y8.959
G1 X24.113 Y8.943
G1 X24.096 Y8.932
G1 X24.077 Y8.928
G1 X23.953
G1 X23.952
G1 X23.936 Y8.929
G1 X23.934
G1 X23.918 Y8.93
G1 X23.915
G1 X23.9 Y8.932
G1 X23.897 Y8.933
G1 X23.882 Y8.936
G1 X23.879
G1 X23.864 Y8.94
G1 X23.862
G1 X23.846 Y8.945
G1 X23.844
G1 X23.829 Y8.95
G1 X23.827 Y8.951
G1 X23.812 Y8.956
G1 X23.81 Y8.957
G1 X23.795 Y8.963
G1 X23.794 Y8.964
G1 X23.779 Y8.971
G1 X23.778 Y8.972
G1 X23.764 Y8.979
G1 X23.762 Y8.98
G1 X23.749 Y8.987
G1 X23.747 Y8.988
G1 X23.734 Y8.996
G1 X23.732 Y8.998
G1 X23.72 Y9.006
G1 X23.718 Y9.008
G1 X23.707 Y9.016
G1 X23.705 Y9.018
G1 X23.695 Y9.027
G1 X23.693 Y9.029
G1 X23.684 Y9.038
G1 X23.681 Y9.04
G1 X23.673 Y9.049
G1 X23.671 Y9.052
G1 X23.664 Y9.061
G1 X23.661 Y9.065
G1 X23.655 Y9.074
G1 X23.653 Y9.078
G1 X23.648 Y9.088
G1 X23.646 Y9.093
G1 X23.642 Y9.103
G1 X23.64 Y9.109
G1 X23.638 Y9.118
G1 X23.637 Y9.126
G1 X23.636 Y9.133
G1 Y9.134
G1 X23.634 Y9.139
G1 X23.629 Y9.147
G1 X23.622 Y9.156
G1 X23.613 Y9.168
G1 X23.603 Y9.18
G1 X23.591 Y9.193
G1 X23.579 Y9.206
G1 X23.565 Y9.22
G1 X23.551 Y9.235
G1 X23.536 Y9.249
G1 X23.521 Y9.263
G1 X23.505 Y9.277
G1 X23.489 Y9.291
G1 X23.474 Y9.304
G1 X23.458 Y9.316
G1 X23.443 Y9.328
G1 X23.429 Y9.338
G1 X23.416 Y9.347
G1 X23.403 Y9.355
G1 X23.392 Y9.362
G1 X23.383 Y9.366
G1 X23.382 Y9.367
G1 X23.379 Y9.366
G1 X23.364 Y9.367
G1 X23.35 Y9.373
G1 X23.343 Y9.377
G1 X23.33 Y9.387
G1 X23.321 Y9.401
G1 X23.315 Y9.416
G1 X23.311 Y9.427
G1 X23.305 Y9.461
G1 X23.304 Y9.465
G1 X23.299 Y9.523
G1 Y9.525
G1 X23.294 Y9.613
G1 Y9.614
G1 X23.289 Y9.739
G1 Y9.74
G1 X23.286 Y9.908
G1 X23.283 Y10.126
G1 Y10.127
G1 X23.28 Y10.4
G1 Y10.401
G1 X23.278 Y10.737
G1 X23.276 Y11.142
G1 X23.275 Y11.622
G1 X23.274 Y12.183
G1 Y12.832
G1 Y13.575
G1 Y14.419
G1 Y15.37
G1 X23.275 Y16.433
G1 X23.276 Y17.617
G1 X23.277 Y18.926
G1 X23.279 Y20.368
G1 X23.28 Y21.948
G1 X23.289 Y32.112
G1 X7.119
G1 X7.1 Y32.116
G1 X7.084 Y32.126
G1 X7.073 Y32.142
G1 X7.069 Y32.16
G1 X7.059 Y32.454
G1 X7.05 Y32.699
G1 X5.098 Y32.708
G1 X3.148 Y32.717
G1 Y30.719
G1 X7.066
G1 Y31.202
G1 X7.07 Y31.221
G1 X7.081 Y31.237
G1 X7.097 Y31.248
G1 X7.116 Y31.252
G1 X7.119
G1 X22.371
G1 X22.39 Y31.248
G1 X22.406 Y31.237
G1 X22.417 Y31.221
G1 X22.42 Y31.202
G1 X22.422 Y30.82
G1 X22.423 Y30.642
G1 Y30.295
G1 X22.424 Y29.794
G1 Y29.155
G1 Y28.393
G1 Y27.523
G1 X22.425 Y26.56
G1 Y25.519
G1 Y24.415
G1 Y23.264
G1 Y22.081
G1 X22.426 Y20.88
G1 Y19.678
G1 Y18.489
G1 Y17.328
G1 Y16.211
G1 Y15.152
G1 X22.425 Y14.168
G1 Y13.576
G1 Y13.272
G1 Y12.481
G1 Y11.809
G1 X22.424 Y11.271
G1 Y10.884
G1 Y10.661
G1 X22.42 Y9.588
G1 X22.418 Y9.572
G1 X22.409 Y9.557
G1 X22.397 Y9.546
G1 X22.381 Y9.539
G1 X22.275 Y9.516
G1 X22.268 Y9.514
G1 X22.262 Y9.513
G1 X22.256 Y9.511
G1 X22.25 Y9.51
G1 X22.244 Y9.508
G1 X22.239 Y9.506
G1 X22.234 Y9.504
G1 X22.229 Y9.502
G1 X22.224 Y9.5
G1 X22.22 Y9.498
G1 X22.215 Y9.496
G1 X22.212 Y9.494
G1 X22.209 Y9.493
G1 X22.206 Y9.491
G1 X22.205 Y9.49
G1 X22.204 Y9.489
G1 Y9.487
G1 X22.203 Y9.484
G1 X22.202 Y9.482
G1 X22.199 Y9.476
G1 X22.198 Y9.474
G1 X22.195 Y9.469
G1 X22.194 Y9.467
G1 X22.192 Y9.465
G1 X22.191 Y9.463
G1 X22.188 Y9.46
G1 X22.186 Y9.458
G1 X22.183 Y9.455
G1 X22.181 Y9.453
G1 X22.179 Y9.452
G1 X22.177 Y9.45
G1 X22.174 Y9.448
G1 X22.172 Y9.446
G1 X22.17 Y9.445
G1 X22.167 Y9.443
G1 X22.164 Y9.441
G1 X22.162 Y9.44
G1 X22.16 Y9.439
G1 X22.157 Y9.438
G1 X22.154 Y9.437
G1 X22.151 Y9.435
G1 X22.15
G1 X22.147 Y9.434
G1 X22.144 Y9.433
G1 X22.141 Y9.432
G1 X22.139 Y9.431
G1 X22.136 Y9.43
G1 X22.134
G1 X22.13 Y9.429
G1 X22.128
G1 X22.125 Y9.428
G1 X22.123
G1 X22.119 Y9.427
G1 X22.117
G1 X22.114
G1 X22.111 Y9.426
G1 X22.108
G1 X22.106
G1 X22.105
G1 X22.101 Y9.424
G1 X22.095 Y9.421
G1 X22.089 Y9.417
G1 X22.081 Y9.412
G1 X22.072 Y9.406
G1 X22.063 Y9.399
G1 X22.053 Y9.392
G1 X22.042 Y9.384
G1 X22.03 Y9.375
G1 X22.019 Y9.365
G1 X22.006 Y9.355
G1 X21.994 Y9.345
G1 X21.981 Y9.334
G1 X21.967 Y9.322
G1 X21.954 Y9.31
G1 X21.94 Y9.297
G1 X21.926 Y9.285
G1 X21.912 Y9.271
G1 X21.898 Y9.258
G1 X21.884 Y9.244
G1 X21.87 Y9.23
G1 X21.856 Y9.216
G1 X21.842 Y9.202
G1 X21.828 Y9.188
G1 X21.815 Y9.174
G1 X21.802 Y9.16
G1 X21.79 Y9.146
G1 X21.778 Y9.132
G1 X21.766 Y9.119
G1 X21.755 Y9.106
G1 X21.744 Y9.093
G1 X21.734 Y9.081
G1 X21.725 Y9.069
G1 X21.716 Y9.058
G1 X21.708 Y9.047
G1 X21.7 Y9.037
G1 X21.694 Y9.028
G1 X21.688 Y9.019
G1 X21.683 Y9.011
G1 X21.679 Y9.004
G1 X21.676 Y8.998
G1 X21.674 Y8.995
G1 Y8.994
G1 Y8.991
G1 X21.673 Y8.987
G1 Y8.983
G1 Y8.981
G1 X21.672 Y8.977
G1 Y8.974
G1 X21.671 Y8.971
G1 Y8.969
G1 X21.67 Y8.966
G1 X21.669 Y8.964
G1 X21.668 Y8.96
G1 Y8.959
G1 X21.667 Y8.955
G1 X21.666 Y8.953
G1 X21.665 Y8.95
G1 X21.664 Y8.948
G1 X21.663 Y8.945
G1 X21.662 Y8.942
G1 X21.66 Y8.939
G1 Y8.938
G1 X21.658 Y8.936
G1 X21.656 Y8.932
G1 X21.654 Y8.929
G1 Y8.928
G1 X21.652 Y8.926
G1 X21.65 Y8.923
G1 X21.648 Y8.921
G1 X21.646 Y8.918
G1 X21.644 Y8.916
G1 X21.641 Y8.913
G1 X21.639 Y8.912
G1 X21.637 Y8.91
G1 X21.635 Y8.908
G1 X21.631 Y8.905
G1 X21.629 Y8.904
G1 X21.625 Y8.901
G1 X21.623 Y8.9
G1 X21.619 Y8.898
G1 X21.617 Y8.897
G1 X21.611 Y8.896
G1 X21.609 Y8.895
G1 X21.604 Y8.894
G1 X21.602 Y8.893
G1 X21.599
G1 X21.597
G1 X21.596 Y8.891
G1 X21.589 Y8.88
G1 X21.579 Y8.858
G1 X21.57 Y8.828
G1 X21.561 Y8.791
G1 X21.554 Y8.748
G1 X21.549 Y8.699
G1 X21.544 Y8.647
G1 X21.541 Y8.591
G1 X21.54 Y8.532
G1 Y8.472
G1 X21.542 Y8.41
G1 X21.545 Y8.348
G1 X21.549 Y8.286
G1 X21.555 Y8.225
G1 X21.562 Y8.166
G1 X21.571 Y8.109
G1 X21.581 Y8.055
G1 X21.592 Y8.005
G1 X21.605 Y7.96
G1 X21.618 Y7.921
G1 X21.633 Y7.888
G1 X21.648 Y7.861
G1 X21.653 Y7.853
G1 X21.659 Y7.843
G1 X21.66
G1 X21.666 Y7.834
G1 X21.672 Y7.824
G1 X21.677 Y7.815
G1 X21.683 Y7.806
G1 X21.688 Y7.797
G1 X21.693 Y7.788
G1 X21.694 Y7.787
G1 X21.699 Y7.779
G1 X21.703 Y7.771
G1 X21.704 Y7.77
G1 X21.708 Y7.763
G1 Y7.762
G1 X21.712 Y7.755
G1 X21.713 Y7.754
G1 X21.717 Y7.747
G1 Y7.746
G1 X21.721 Y7.739
G1 X21.724 Y7.732
G1 X21.727 Y7.726
G1 X21.728 Y7.724
G1 X21.731 Y7.718
G1 X21.733 Y7.713
G1 X21.734 Y7.712
G1 X21.736 Y7.707
G1 X21.737 Y7.705
G1 X21.738 Y7.7
G1 X21.739 Y7.699
G1 X21.74 Y7.695
G1 X21.741 Y7.692
G1 X21.742 Y7.689
G1 X21.743 Y7.685
G1 X21.744 Y7.682
G1 Y7.676
G1 X21.746 Y7.669
G1 X21.749 Y7.661
G1 X21.757 Y7.648
G1 X21.771 Y7.632
G1 X21.788 Y7.612
G1 X21.81 Y7.592
G1 X21.835 Y7.57
G1 X21.862 Y7.547
G1 X21.893 Y7.523
G1 X21.925 Y7.5
G1 X21.959 Y7.476
G1 X21.994 Y7.453
G1 X22.03 Y7.43
G1 X22.067 Y7.408
G1 X22.104 Y7.387
G1 X22.14 Y7.368
G1 X22.176 Y7.35
G1 X22.211 Y7.333
G1 X22.245 Y7.319
G1 X22.276 Y7.307
G1 X22.305 Y7.298
G1 X22.33 Y7.291
G1 X22.352 Y7.287
G1 X22.371 Y7.286
G1 X22.375
G1 X22.377
G1 X22.382 Y7.285
G1 X22.383
G1 X22.388
G1 X22.39
G1 X22.394 Y7.284
G1 X22.396
G1 X22.401 Y7.283
G1 X22.402
G1 X22.407 Y7.282
G1 X22.409
G1 X22.413 Y7.281
G1 X22.414 Y7.28
G1 X22.419 Y7.279
G1 X22.42
G1 X22.424 Y7.277
G1 X22.427
G1 X22.43 Y7.275
G1 X22.432
G1 X22.436 Y7.273
G1 X22.438 Y7.272
G1 X22.441 Y7.271
G1 X22.444 Y7.269
G1 X22.447 Y7.268
G1 X22.449 Y7.267
G1 X22.452 Y7.265
G1 X22.455 Y7.263
G1 X22.457 Y7.261
G1 X22.46 Y7.26
G1 X22.462 Y7.258
G1 X22.465 Y7.256
G1 X22.467 Y7.254
G1 X22.471 Y7.25
G1 X22.473 Y7.248
G1 X22.475 Y7.245
G1 X22.477 Y7.243
G1 X22.48 Y7.238
G1 X22.481 Y7.236
G1 X22.483 Y7.233
G1 X22.484 Y7.231
G1 X22.487 Y7.23
G1 X22.501 Y7.227
G1 X22.519 Y7.224
G1 X22.54 Y7.222
; MOVEMENT_RAPID
G0 Z5 F300
G0 X31.683 F2500
G0 Z4 F300
; MOVEMENT_LEAD_IN
G1 Z-1 F480
; MOVEMENT_CUTTING
G1 Y6.592 F2100
G1 X32.763 Y6.583
G1 X33.841 Y6.574
G1 Y8.018
G1 X33.845 Y8.037
G1 X33.856 Y8.053
G1 X33.872 Y8.064
G1 X33.891 Y8.068
G1 X34.123
G1 X34.15
G1 X34.174
G1 X34.197
G1 X34.218 Y8.067
G1 X34.237
G1 X34.238
G1 X34.255 Y8.066
G1 X34.256
G1 X34.272 Y8.064
G1 X34.273
G1 X34.288 Y8.063
G1 X34.29
G1 X34.302 Y8.061
G1 X34.305
G1 X34.316 Y8.058
G1 X34.319
G1 X34.33 Y8.055
G1 X34.333 Y8.054
G1 X34.343 Y8.051
G1 X34.346 Y8.05
G1 X34.355 Y8.047
G1 X34.359 Y8.045
G1 X34.367 Y8.041
G1 X34.371 Y8.038
G1 X34.378 Y8.034
G1 X34.382 Y8.031
G1 X34.388 Y8.026
G1 X34.392 Y8.022
G1 X34.398 Y8.017
G1 X34.402 Y8.013
G1 X34.407 Y8.007
G1 X34.409 Y8.004
G1 X34.414 Y7.997
G1 X34.417 Y7.993
G1 X34.421 Y7.986
G1 X34.422 Y7.984
G1 X34.427 Y7.975
G1 X34.428 Y7.973
G1 X34.433 Y7.964
G1 X34.434 Y7.963
G1 X34.438 Y7.953
G1 X34.439 Y7.952
G1 X34.444 Y7.941
G1 X34.447 Y7.934
G1 X34.449 Y7.928
G1 X34.452 Y7.923
G1 X34.455 Y7.916
G1 X34.459 Y7.91
G1 X34.462 Y7.905
G1 X34.465 Y7.899
G1 X34.469 Y7.893
G1 X34.472 Y7.887
G1 X34.476 Y7.882
G1 X34.479 Y7.876
G1 X34.483 Y7.871
G1 X34.486 Y7.867
G1 X34.489 Y7.862
G1 X34.493 Y7.858
G1 X34.496 Y7.853
G1 X34.499 Y7.85
G1 X34.502 Y7.846
G1 X34.505 Y7.843
G1 X34.508 Y7.841
G1 X34.51 Y7.839
G1 X34.511 Y7.838
G1 X34.512 Y7.837
G1 X34.514 Y7.835
G1 X34.517 Y7.833
G1 X34.518
G1 X34.521 Y7.83
G1 X34.524 Y7.829
G1 X34.527 Y7.826
G1 X34.528 Y7.825
G1 X34.531 Y7.823
G1 X34.532 Y7.822
G1 X34.535 Y7.819
G1 X34.537 Y7.817
G1 X34.54 Y7.814
G1 X34.543 Y7.811
G1 X34.545 Y7.809
G1 X34.547 Y7.806
G1 X34.548 Y7.805
G1 X34.55 Y7.802
G1 X34.551 Y7.801
G1 X34.554 Y7.798
G1 X34.555 Y7.796
G1 X34.557 Y7.792
G1 X34.558 Y7.791
G1 X34.56 Y7.788
G1 X34.561 Y7.787
G1 X34.563 Y7.783
G1 X34.564 Y7.781
G1 X34.566 Y7.778
G1 X34.568 Y7.774
G1 X34.569 Y7.771
G1 X34.571 Y7.768
G1 Y7.766
G1 X34.573 Y7.763
G1 X34.574 Y7.761
G1 X34.575 Y7.757
G1 Y7.756
G1 X34.576 Y7.753
G1 X34.577 Y7.75
G1 X34.578 Y7.747
G1 X34.579 Y7.744
G1 Y7.741
G1 X34.58 Y7.738
G1 Y7.735
G1 X34.581 Y7.732
G1 Y7.729
G1 Y7.727
G1 Y7.726
G1 X34.584 Y7.72
G1 X34.59 Y7.712
G1 X34.597 Y7.701
G1 X34.606 Y7.689
G1 X34.616 Y7.676
G1 X34.627 Y7.662
G1 X34.64 Y7.647
G1 X34.653 Y7.632
G1 X34.667 Y7.617
G1 X34.681 Y7.602
G1 X34.695 Y7.587
G1 X34.71 Y7.573
G1 X34.724 Y7.559
G1 X34.738 Y7.546
G1 X34.751 Y7.534
G1 X34.764 Y7.524
G1 X34.775 Y7.515
G1 X34.786 Y7.507
G1 X34.794 Y7.502
G1 X34.799 Y7.499
G1 X34.805 Y7.498
G1 X34.807 Y7.497
G1 X34.811 Y7.496
G1 X34.815 Y7.495
G1 X34.817 Y7.494
G1 X34.821 Y7.493
G1 X34.822 Y7.492
G1 X34.826 Y7.49
G1 X34.828
G1 X34.833 Y7.488
G1 X34.834 Y7.487
G1 X34.839 Y7.485
G1 X34.84 Y7.484
G1 X34.845 Y7.482
G1 X34.846 Y7.481
G1 X34.852 Y7.478
G1 X34.859 Y7.475
G1 Y7.474
G1 X34.866 Y7.471
G1 X34.874 Y7.467
G1 Y7.466
G1 X34.882 Y7.462
G1 X34.89 Y7.458
G1 X34.898 Y7.453
G1 X34.907 Y7.448
G1 X34.915 Y7.443
G1 X34.916 Y7.442
G1 X34.924 Y7.437
G1 X34.933 Y7.431
G1 X34.942 Y7.426
G1 X34.943
G1 X34.952 Y7.42
G1 X34.961 Y7.414
G1 X34.962
G1 X34.971 Y7.408
G1 Y7.407
G1 X34.979 Y7.402
G1 X35.006 Y7.387
G1 X35.039 Y7.373
G1 X35.078 Y7.359
G1 X35.123 Y7.347
G1 X35.173 Y7.335
G1 X35.227 Y7.325
G1 X35.284 Y7.316
G1 X35.343 Y7.309
G1 X35.404 Y7.303
G1 X35.466 Y7.299
G1 X35.528 Y7.296
G1 X35.59 Y7.294
G1 X35.65
G1 X35.709 Y7.296
G1 X35.764 Y7.298
G1 X35.817 Y7.303
G1 X35.865 Y7.309
G1 X35.909 Y7.316
G1 X35.946 Y7.324
G1 X35.976 Y7.333
G1 X35.998 Y7.343
G1 X36.009 Y7.35
G1 X36.01 Y7.352
G1 X36.011 Y7.354
G1 Y7.356
G1 X36.012 Y7.358
G1 X36.013 Y7.363
G1 Y7.365
G1 X36.015 Y7.371
G1 X36.016 Y7.373
G1 X36.018 Y7.377
G1 X36.019 Y7.379
G1 X36.022 Y7.383
G1 X36.023 Y7.385
G1 X36.025 Y7.388
G1 X36.027 Y7.39
G1 X36.03 Y7.394
G1 X36.032 Y7.396
G1 X36.034 Y7.398
G1 X36.036 Y7.4
G1 X36.038 Y7.402
G1 X36.04 Y7.404
G1 X36.043 Y7.406
G1 X36.045 Y7.407
G1 X36.048 Y7.409
G1 X36.051 Y7.411
G1 X36.053 Y7.412
G1 X36.055 Y7.413
G1 X36.058 Y7.415
G1 X36.061 Y7.416
G1 X36.063 Y7.417
G1 X36.065 Y7.418
G1 X36.068 Y7.419
G1 X36.071 Y7.42
G1 X36.073 Y7.421
G1 X36.076 Y7.422
G1 X36.079 Y7.423
G1 X36.082 Y7.424
G1 X36.084
G1 X36.087 Y7.425
G1 X36.089
G1 X36.093 Y7.426
G1 X36.095
G1 X36.098 Y7.427
G1 X36.1
G1 X36.104
G1 X36.106 Y7.428
G1 X36.11
G1 X36.111
G1 X36.113
G1 X36.119 Y7.431
G1 X36.132 Y7.438
G1 X36.149 Y7.449
G1 X36.168 Y7.464
G1 X36.191 Y7.481
G1 X36.214 Y7.501
G1 X36.24 Y7.523
G1 X36.266 Y7.547
G1 X36.293 Y7.572
G1 X36.32 Y7.598
G1 X36.347 Y7.625
G1 X36.374 Y7.652
G1 X36.4 Y7.679
G1 X36.425 Y7.706
G1 X36.449 Y7.732
G1 X36.471 Y7.757
G1 X36.491 Y7.781
G1 X36.508 Y7.803
G1 X36.523 Y7.823
G1 X36.534 Y7.84
G1 X36.541 Y7.853
G1 X36.544 Y7.859
G1 Y7.86
G1 Y7.862
G1 Y7.865
G1 Y7.868
G1 X36.545 Y7.872
G1 Y7.875
G1 X36.546 Y7.878
G1 Y7.88
G1 X36.547 Y7.883
G1 Y7.885
G1 X36.548 Y7.888
G1 X36.549 Y7.891
G1 X36.55 Y7.895
G1 Y7.897
G1 X36.551 Y7.9
G1 X36.552 Y7.902
G1 X36.553 Y7.905
G1 X36.554 Y7.907
G1 X36.555 Y7.91
G1 X36.557 Y7.913
G1 X36.559 Y7.916
G1 Y7.917
G1 X36.561 Y7.92
G1 X36.563 Y7.923
G1 X36.565 Y7.926
G1 X36.567 Y7.928
G1 X36.568 Y7.93
G1 X36.57 Y7.932
G1 X36.571 Y7.934
G1 X36.574 Y7.937
G1 X36.576 Y7.939
G1 X36.579 Y7.942
G1 X36.582 Y7.944
G1 X36.584 Y7.946
G1 X36.586 Y7.947
G1 X36.589 Y7.949
G1 X36.591 Y7.951
G1 X36.595 Y7.953
G1 X36.598 Y7.954
G1 X36.602 Y7.956
G1 X36.605 Y7.957
G1 X36.609 Y7.958
G1 X36.611 Y7.959
G1 X36.614 Y7.96
G1 X36.615 Y7.961
G1 Y7.962
G1 Y7.963
G1 Y7.966
G1 Y7.971
G1 X36.616 Y7.976
G1 X36.619 Y7.989
G1 X36.621 Y7.994
G1 X36.629 Y8.006
G1 X36.632 Y8.011
G1 X36.641 Y8.02
G1 X36.647 Y8.024
G1 X36.654 Y8.029
G1 X36.662 Y8.033
G1 X36.668 Y8.036
G1 X36.678 Y8.039
G1 X36.682 Y8.041
G1 X36.695 Y8.044
G1 X36.698 Y8.045
G1 X36.713 Y8.048
G1 X36.716
G1 X36.734 Y8.051
G1 X36.736
G1 X36.757 Y8.054
G1 X36.759
G1 X36.784 Y8.056
G1 X36.785
G1 X36.813 Y8.058
G1 X36.814 Y8.059
G1 X36.847 Y8.06
G1 X36.884 Y8.062
G1 X36.925 Y8.063
G1 X36.926
G1 X36.971 Y8.064
G1 X37.022 Y8.065
G1 X37.077 Y8.066
G1 X37.137 Y8.067
G1 X37.203
G1 X37.274 Y8.068
G1 X37.352
G1 X37.395
G1 X37.435
G1 X37.524
G1 X38.333
G1 X38.309 Y10.918
G1 X38.307 Y11.119
G1 X38.306 Y11.322
G1 X38.304 Y11.526
G1 X38.303 Y11.732
G1 X38.302 Y11.938
G1 X38.301 Y12.143
G1 X38.3 Y12.348
G1 Y12.551
G1 X38.299 Y12.752
G1 Y12.951
G1 Y13.145
G1 Y13.336
G1 Y13.522
G1 Y13.703
G1 Y13.878
G1 X38.3 Y14.046
G1 Y14.207
G1 X38.301 Y14.36
G1 X38.302 Y14.504
G1 X38.303 Y14.64
G1 X38.304 Y14.765
G1 X38.306 Y14.881
G1 X38.307 Y14.985
G1 X38.309 Y15.078
G1 X38.333 Y16.337
G1 X38.337 Y16.355
G1 X38.347 Y16.37
G1 X38.362 Y16.381
G1 X38.381 Y16.386
G1 X38.597 Y16.396
G1 X38.766 Y16.404
G1 X38.775 Y18.339
G1 X38.784 Y20.271
G1 X36.715
G1 Y16.389
G1 X37.412
G1 X37.431 Y16.385
G1 X37.447 Y16.374
G1 X37.458 Y16.358
G1 X37.462 Y16.338
G1 X37.456 Y13.88
G1 X37.453 Y12.667
G1 X37.444 Y8.996
G1 X37.44 Y8.977
G1 X37.429 Y8.961
G1 X37.413 Y8.95
G1 X37.394 Y8.946
G1 X36.62
G1 X36.602 Y8.949
G1 X36.587 Y8.958
G1 X36.576 Y8.972
G1 X36.512 Y9.092
G1 X36.498 Y9.116
G1 X36.485 Y9.139
G1 X36.472 Y9.161
G1 X36.459 Y9.182
G1 X36.446 Y9.201
G1 X36.432 Y9.22
G1 X36.419 Y9.238
G1 X36.405 Y9.255
G1 X36.39 Y9.272
G1 X36.375 Y9.288
G1 X36.359 Y9.303
G1 X36.342 Y9.319
G1 X36.325 Y9.334
G1 X36.306 Y9.349
G1 X36.286 Y9.363
G1 X36.265 Y9.378
G1 X36.242 Y9.394
G1 X36.218 Y9.409
G1 X36.193 Y9.424
G1 X36.165 Y9.44
G1 X36.136 Y9.457
G1 X36.105 Y9.474
G1 X36.072 Y9.491
G1 X36.037 Y9.509
G1 X36.031 Y9.512
G1 X36.03 Y9.513
G1 X36.024 Y9.516
G1 X36.018 Y9.52
G1 X36.017
G1 X36.011 Y9.523
G1 Y9.524
G1 X36.005 Y9.527
G1 X36.004 Y9.528
G1 X35.998 Y9.531
G1 X35.997
G1 X35.992 Y9.535
G1 X35.991
G1 X35.985 Y9.539
G1 X35.979 Y9.543
G1 X35.973 Y9.547
G1 X35.972 Y9.548
G1 X35.967 Y9.551
G1 Y9.552
G1 X35.961 Y9.555
G1 X35.96 Y9.556
G1 X35.955 Y9.56
G1 X35.95 Y9.563
G1 Y9.564
G1 X35.945 Y9.567
G1 X35.944 Y9.568
G1 X35.94 Y9.572
G1 X35.939
G1 X35.935 Y9.576
G1 X35.934
G1 X35.93 Y9.58
G1 X35.929
G1 X35.926 Y9.584
G1 X35.925 Y9.585
G1 X35.922 Y9.588
G1 X35.921 Y9.589
G1 X35.918 Y9.592
G1 X35.917 Y9.593
G1 X35.914 Y9.596
G1 X35.912 Y9.598
G1 X35.91 Y9.6
G1 X35.909 Y9.601
G1 X35.907 Y9.603
G1 X35.901 Y9.606
G1 X35.885 Y9.612
G1 X35.862 Y9.617
G1 X35.833 Y9.621
G1 X35.799 Y9.624
G1 X35.761 Y9.627
G1 X35.72 Y9.629
G1 X35.676
G1 X35.63
G1 X35.582 Y9.627
G1 X35.532 Y9.625
G1 X35.482 Y9.622
G1 X35.432 Y9.618
G1 X35.382 Y9.613
G1 X35.333 Y9.608
G1 X35.285 Y9.601
G1 X35.239 Y9.594
G1 X35.195 Y9.586
G1 X35.154 Y9.578
G1 X35.117 Y9.569
G1 X35.084 Y9.559
G1 X35.056 Y9.55
G1 X35.033 Y9.54
G1 X35.011 Y9.528
G1 X34.986 Y9.514
G1 X34.959 Y9.496
G1 X34.931 Y9.477
G1 X34.901 Y9.455
G1 X34.87 Y9.432
G1 X34.839 Y9.407
G1 X34.807 Y9.381
G1 X34.775 Y9.354
G1 X34.743 Y9.326
G1 X34.712 Y9.298
G1 X34.681 Y9.269
G1 X34.652 Y9.241
G1 X34.623 Y9.213
G1 X34.596 Y9.185
G1 X34.572 Y9.159
G1 X34.549 Y9.133
G1 X34.528 Y9.109
G1 X34.511 Y9.087
G1 X34.496 Y9.067
G1 X34.485 Y9.05
G1 X34.478 Y9.037
G1 X34.475 Y9.03
G1 Y9.025
G1 X34.474 Y9.023
G1 X34.473 Y9.015
G1 X34.472 Y9.01
G1 X34.471 Y9.005
G1 X34.469 Y9
G1 X34.466 Y8.992
G1 X34.463 Y8.988
G1 X34.459 Y8.981
G1 X34.456 Y8.977
G1 X34.451 Y8.972
G1 X34.447 Y8.968
G1 X34.442 Y8.964
G1 X34.437 Y8.961
G1 X34.432 Y8.958
G1 X34.427 Y8.955
G1 X34.422 Y8.953
G1 X34.416 Y8.95
G1 X34.412 Y8.948
G1 X34.405 Y8.946
G1 X34.402 Y8.945
G1 X34.394 Y8.943
G1 X34.391 Y8.942
G1 X34.381 Y8.94
G1 X34.38
G1 X34.369 Y8.938
G1 X34.367 Y8.937
G1 X34.355 Y8.936
G1 X34.354
G1 X34.341 Y8.934
G1 X34.34
G1 X34.326 Y8.933
G1 X34.325
G1 X34.309 Y8.931
G1 X34.292 Y8.93
G1 X34.291
G1 X34.273
G1 X34.253 Y8.929
G1 X34.232
G1 X34.231
G1 X34.209 Y8.928
G1 X34.185
G1 X34.184
G1 X34.159
G1 X33.893
G1 X33.874 Y8.932
G1 X33.858 Y8.942
G1 X33.847 Y8.958
G1 X33.843 Y8.977
G1 X33.833 Y9.697
G1 X33.824 Y10.368
G1 X31.683
G1 Y8.018
G1 Y7.222
; MOVEMENT_RAPID
G0 Z5 F300
G0 X39.239 F2500
G0 Z4 F300
; MOVEMENT_LEAD_IN
G1 Z-1 F480
; MOVEMENT_CUTTING
G1 Y6.575 F2100
G1 X41.273
G1 Y10.352
G1 X41.224 Y10.353
G1 X41.217 Y10.354
G1 X41.209
G1 X41.201
G1 X41.193
G1 X41.184 Y10.355
G1 X41.183
G1 X41.174
G1 X41.165
G1 X41.164
G1 X41.155 Y10.356
G1 X41.145
G1 X41.144
G1 X41.134
G1 X41.123 Y10.357
G1 X41.113
G1 X41.091 Y10.358
G1 X41.09
G1 X41.079
G1 X41.057 Y10.359
G1 X41.046 Y10.36
G1 X41.035
G1 X41.025 Y10.361
G1 X41.024
G1 X41.014
G1 X41.003
G1 X40.993 Y10.362
G1 X40.983
G1 X40.841 Y10.368
G1 X40.822 Y10.373
G1 X40.807 Y10.384
G1 X40.797 Y10.4
G1 X40.793 Y10.418
G1 X40.784 Y13.338
G1 Y13.378
G1 X40.775 Y16.338
G1 X40.778 Y16.358
G1 X40.789 Y16.374
G1 X40.806 Y16.385
G1 X40.825 Y16.389
G1 X41.273
G1 Y20.271
G1 X39.382
G1 Y16.389
G1 X39.854
G1 X39.873 Y16.385
G1 X39.889 Y16.374
G1 X39.9 Y16.358
G1 X39.904 Y16.34
G1 X39.927 Y15.16
G1 X39.931 Y14.977
G1 X39.934 Y14.797
G1 X39.937 Y14.622
G1 X39.939 Y14.451
G1 X39.942 Y14.283
G1 X39.944 Y14.119
G1 X39.945 Y13.957
G1 X39.947 Y13.798
G1 X39.948 Y13.642
G1 X39.949 Y13.488
G1 Y13.335
G1 Y13.184
G1 Y13.034
G1 Y12.886
G1 X39.948 Y12.737
G1 X39.947 Y12.59
G1 X39.945 Y12.442
G1 X39.944 Y12.294
G1 X39.942 Y12.145
G1 X39.939 Y11.996
G1 X39.937 Y11.845
G1 X39.934 Y11.693
G1 X39.931 Y11.54
G1 X39.927 Y11.384
G1 X39.904 Y10.395
G1 X39.899 Y10.376
G1 X39.888 Y10.36
G1 X39.871 Y10.349
G1 X39.851 Y10.347
G1 X39.688 Y10.355
G1 X39.676 Y10.356
G1 X39.665 Y10.357
G1 X39.653
G1 X39.64
G1 X39.626 Y10.358
G1 X39.613
G1 X39.599 Y10.359
G1 X39.584
G1 X39.57
G1 X39.555
G1 X39.54
G1 X39.525 Y10.36
G1 X39.51
G1 X39.496
G1 X39.481
G1 X39.466
G1 X39.452 Y10.359
G1 X39.438
G1 X39.424
G1 X39.41
G1 X39.397
G1 X39.384 Y10.358
G1 X39.372
G1 X39.36 Y10.357
G1 X39.239 Y10.352
G1 Y7.222
; MOVEMENT_RAPID
G0 Z5 F300
G0 X41.556 Y8.461 F2500
G0 Z4 F300
; MOVEMENT_LEAD_IN
G1 Z-1 F480
; MOVEMENT_CUTTING
G1 X41.559 Y8.457 F2100
G1 X41.563 Y8.453
G1 X41.57 Y8.449
G1 X41.579 Y8.446
G1 X41.59 Y8.443
G1 X41.603 Y8.442
G1 X41.618 Y8.441
G1 X41.635 Y8.442
G1 X41.652 Y8.445
G1 X41.663 Y8.447
G1 X41.67 Y8.449
G1 X41.682 Y8.452
G1 X41.688 Y8.454
G1 X41.701 Y8.458
G1 X41.707 Y8.461
G1 X41.718 Y8.465
G1 X41.725 Y8.469
G1 X41.743 Y8.478
G1 X41.761 Y8.488
G1 X41.777 Y8.5
G1 X41.792 Y8.512
G1 X41.806 Y8.526
G1 X41.818 Y8.54
G1 X41.824 Y8.548
G1 X41.828 Y8.554
G1 X41.838 Y8.572
G1 X41.845 Y8.586
G1 X41.847 Y8.589
G1 X41.848 Y8.591
G1 X41.858 Y8.608
G1 X41.859 Y8.61
G1 X41.869 Y8.624
G1 X41.871 Y8.627
G1 X41.88 Y8.639
G1 X41.883 Y8.643
G1 X41.892 Y8.653
G1 X41.896 Y8.656
G1 X41.905 Y8.665
G1 X41.91 Y8.668
G1 X41.918 Y8.674
G1 X41.925 Y8.678
G1 X41.934 Y8.683
G1 X41.943 Y8.686
G1 X41.951 Y8.688
G1 X41.962 Y8.69
G1 X41.97
G1 X41.982 Y8.689
G1 X41.99 Y8.688
G1 X42.001 Y8.684
G1 X42.009 Y8.681
G1 X42.018 Y8.675
G1 X42.025 Y8.669
G1 X42.031 Y8.664
G1 X42.037 Y8.656
G1 X42.042 Y8.65
G1 X42.048 Y8.641
G1 X42.051 Y8.636
G1 X42.056 Y8.626
G1 X42.058 Y8.621
G1 X42.063 Y8.609
G1 X42.065 Y8.605
G1 X42.069 Y8.59
G1 X42.07 Y8.587
G1 X42.074 Y8.571
G1 Y8.568
G1 X42.077 Y8.551
G1 X42.078 Y8.548
G1 X42.08 Y8.528
G1 X42.081 Y8.527
G1 X42.082 Y8.505
G1 X42.083 Y8.503
G1 X42.084 Y8.48
G1 Y8.479
G1 Y8.454
G1 Y8.448
G1 Y8.442
G1 X42.085 Y8.436
G1 X42.086 Y8.43
G1 Y8.424
G1 X42.087 Y8.417
G1 X42.089 Y8.41
G1 X42.09 Y8.404
G1 X42.091 Y8.397
G1 X42.093 Y8.39
G1 X42.095 Y8.383
G1 X42.097 Y8.376
G1 X42.099 Y8.369
G1 X42.101 Y8.363
G1 X42.103 Y8.356
G1 X42.106 Y8.35
G1 X42.108 Y8.344
G1 X42.111 Y8.338
G1 X42.113 Y8.332
G1 X42.116 Y8.327
G1 X42.118 Y8.323
G1 X42.121 Y8.318
G1 X42.123 Y8.314
G1 X42.126 Y8.31
G1 X42.13 Y8.305
G1 X42.131 Y8.303
G1 X42.134 Y8.297
G1 X42.135 Y8.296
G1 X42.138 Y8.29
G1 X42.139 Y8.288
G1 X42.143 Y8.282
G1 Y8.281
G1 X42.147 Y8.274
G1 Y8.273
G1 X42.151 Y8.266
G1 X42.152 Y8.264
G1 X42.155 Y8.256
G1 X42.159 Y8.248
G1 Y8.247
G1 X42.163 Y8.238
G1 Y8.237
G1 X42.167 Y8.229
G1 Y8.228
G1 X42.171 Y8.219
G1 X42.174 Y8.21
G1 X42.175 Y8.209
G1 X42.178 Y8.2
G1 Y8.199
G1 X42.181 Y8.189
G1 X42.182
G1 X42.185 Y8.179
G1 X42.188 Y8.169
G1 Y8.168
G1 X42.191 Y8.158
G1 X42.194 Y8.148
G1 Y8.147
G1 X42.197 Y8.138
G1 Y8.137
G1 X42.2 Y8.127
G1 X42.202 Y8.117
G1 X42.203 Y8.116
G1 X42.205 Y8.107
G1 Y8.106
G1 X42.207 Y8.097
G1 Y8.096
G1 X42.209 Y8.086
G1 X42.211 Y8.078
G1 X42.213 Y8.069
G1 X42.215 Y8.061
G1 X42.217 Y8.052
G1 X42.219 Y8.044
G1 X42.222 Y8.035
G1 X42.224 Y8.027
G1 X42.227 Y8.019
G1 X42.23 Y8.01
G1 X42.233 Y8.002
G1 X42.236 Y7.994
G1 X42.239 Y7.986
G1 X42.243 Y7.979
G1 X42.246 Y7.971
G1 X42.249 Y7.965
G1 X42.252 Y7.958
G1 X42.256 Y7.952
G1 X42.259 Y7.946
G1 X42.262 Y7.941
G1 X42.265 Y7.937
G1 X42.267 Y7.933
G1 X42.27 Y7.93
G1 X42.272 Y7.927
G1 X42.274 Y7.925
G1 X42.278 Y7.921
G1 X42.281 Y7.927
G1 X42.288 Y7.94
G1 X42.297 Y7.954
G1 X42.306 Y7.972
G1 X42.316 Y7.991
G1 X42.328 Y8.013
G1 X42.34 Y8.038
G1 X42.354 Y8.065
G1 X42.369 Y8.094
G1 X42.37 Y8.095
G1 X42.372 Y8.099
G1 X42.375 Y8.105
G1 X42.378 Y8.111
G1 X42.381 Y8.117
G1 X42.385 Y8.124
G1 X42.388 Y8.131
G1 X42.392 Y8.138
G1 X42.396 Y8.145
G1 X42.4 Y8.153
G1 X42.404 Y8.161
G1 X42.408 Y8.168
G1 Y8.169
G1 X42.412 Y8.177
G1 X42.416 Y8.185
G1 X42.417
G1 X42.421 Y8.194
G1 X42.425 Y8.202
G1 X42.43 Y8.21
G1 X42.434 Y8.219
G1 X42.436 Y8.223
G1 X42.438 Y8.227
G1 X42.443 Y8.235
G1 X42.447 Y8.243
G1 Y8.244
G1 X42.451 Y8.252
G1 X42.455 Y8.26
G1 X42.459 Y8.268
G1 X42.463 Y8.275
G1 X42.467 Y8.282
G1 X42.47 Y8.29
G1 X42.474 Y8.298
G1 X42.478 Y8.306
G1 X42.481 Y8.315
G1 X42.485 Y8.325
G1 X42.489 Y8.335
G1 X42.493 Y8.345
G1 X42.496 Y8.356
G1 X42.5 Y8.367
G1 X42.504 Y8.377
G1 X42.507 Y8.389
G1 X42.511 Y8.4
G1 X42.514 Y8.411
G1 X42.517 Y8.423
G1 X42.521 Y8.434
G1 X42.524 Y8.445
G1 X42.526 Y8.456
G1 X42.529 Y8.468
G1 X42.531 Y8.478
G1 X42.534 Y8.489
G1 X42.536 Y8.499
G1 X42.538 Y8.509
G1 X42.539 Y8.519
G1 X42.543 Y8.542
G1 Y8.543
G1 X42.547 Y8.564
G1 X42.548 Y8.565
G1 X42.552 Y8.584
G1 Y8.586
G1 X42.557 Y8.603
G1 Y8.604
G1 X42.562 Y8.621
G1 Y8.623
G1 X42.567 Y8.637
G1 Y8.639
G1 X42.572 Y8.652
G1 X42.573 Y8.654
G1 X42.578 Y8.666
G1 X42.579 Y8.668
G1 X42.584 Y8.678
G1 X42.586 Y8.681
G1 X42.59 Y8.689
G1 X42.593 Y8.694
G1 X42.598 Y8.7
G1 X42.603 Y8.706
G1 X42.607 Y8.71
G1 X42.616 Y8.717
G1 X42.621 Y8.72
G1 X42.637 Y8.726
G1 X42.642 Y8.727
G1 X42.653 Y8.728
G1 X42.664 Y8.726
G1 X42.668 Y8.725
G1 X42.677 Y8.721
G1 X42.686 Y8.716
G1 X42.69 Y8.713
G1 X42.7 Y8.702
G1 X42.703 Y8.698
G1 X42.708 Y8.689
G1 X42.711 Y8.682
G1 X42.713 Y8.677
G1 X42.715 Y8.668
G1 X42.717 Y8.664
G1 X42.719 Y8.653
G1 X42.72 Y8.65
G1 X42.721 Y8.637
G1 X42.722 Y8.634
G1 X42.723 Y8.619
G1 Y8.618
G1 X42.724 Y8.601
G1 Y8.599
G1 Y8.58
G1 Y8.572
G1 X42.725 Y8.565
G1 Y8.557
G1 X42.726 Y8.55
G1 Y8.542
G1 X42.727 Y8.534
G1 X42.729 Y8.526
G1 X42.73 Y8.518
G1 X42.731 Y8.51
G1 X42.733 Y8.502
G1 X42.735 Y8.494
G1 X42.736 Y8.487
G1 X42.738 Y8.479
G1 X42.74 Y8.472
G1 X42.743 Y8.465
G1 X42.745 Y8.458
G1 X42.746 Y8.453
G1 X42.747 Y8.451
G1 X42.749 Y8.445
G1 X42.752 Y8.439
G1 X42.754 Y8.434
G1 X42.756 Y8.429
G1 X42.758 Y8.425
G1 X42.761 Y8.421
G1 X42.763 Y8.417
G1 X42.766 Y8.412
G1 X42.767 Y8.41
G1 X42.771 Y8.404
G1 Y8.403
G1 X42.775 Y8.396
G1 X42.776 Y8.394
G1 X42.779 Y8.387
G1 X42.78 Y8.386
G1 X42.784 Y8.378
G1 Y8.377
G1 X42.788 Y8.368
G1 Y8.367
G1 X42.792 Y8.358
G1 X42.793 Y8.357
G1 X42.797 Y8.347
G1 X42.801 Y8.337
G1 Y8.336
G1 X42.806 Y8.325
G1 Y8.324
G1 X42.81 Y8.313
G1 X42.814 Y8.301
G1 Y8.3
G1 X42.819 Y8.288
G1 X42.823 Y8.275
G1 X42.827 Y8.262
G1 X42.828
G1 X42.832 Y8.249
G1 Y8.248
G1 X42.836 Y8.235
G1 X42.84 Y8.222
G1 Y8.221
G1 X42.844 Y8.208
G1 X42.845 Y8.207
G1 X42.848 Y8.194
G1 X42.849 Y8.193
G1 X42.852 Y8.18
G1 Y8.179
G1 X42.856 Y8.166
G1 Y8.165
G1 X42.86 Y8.152
G1 X42.863 Y8.138
G1 X42.873 Y8.1
G1 X42.883 Y8.065
G1 X42.893 Y8.033
G1 X42.903 Y8.004
G1 X42.913 Y7.979
G1 X42.923 Y7.957
G1 X42.933 Y7.939
G1 X42.942 Y7.924
G1 X42.95 Y7.914
G1 X42.956 Y7.906
G1 X42.959 Y7.904
G1 X42.963 Y7.907
G1 X42.969 Y7.915
G1 X42.977 Y7.926
G1 X42.985 Y7.942
G1 X42.994 Y7.962
G1 X43.003 Y7.985
G1 X43.011 Y8.011
G1 X43.02 Y8.042
G1 X43.026 Y8.063
G1 X43.032 Y8.083
G1 Y8.084
G1 X43.037 Y8.103
G1 X43.038 Y8.104
G1 X43.043 Y8.123
G1 Y8.124
G1 X43.049 Y8.143
G1 X43.055 Y8.162
G1 X43.061 Y8.18
G1 X43.067 Y8.198
G1 Y8.199
G1 X43.073 Y8.217
G1 X43.079 Y8.234
G1 Y8.235
G1 X43.085 Y8.252
G1 X43.086
G1 X43.092 Y8.269
G1 Y8.27
G1 X43.098 Y8.287
G1 X43.099
G1 X43.105 Y8.304
G1 X43.112 Y8.321
G1 X43.119 Y8.338
G1 Y8.339
G1 X43.126 Y8.355
G1 X43.127 Y8.356
G1 X43.134 Y8.372
G1 Y8.373
G1 X43.142 Y8.39
G1 X43.15 Y8.407
G1 X43.158 Y8.425
G1 X43.166 Y8.442
G1 Y8.443
G1 X43.175 Y8.46
G1 Y8.461
G1 X43.184 Y8.479
G1 X43.187 Y8.485
G1 X43.19 Y8.491
G1 X43.193 Y8.498
G1 X43.196 Y8.505
G1 X43.199 Y8.513
G1 X43.201 Y8.52
G1 X43.204 Y8.528
G1 X43.207 Y8.536
G1 X43.21 Y8.544
G1 X43.212 Y8.552
G1 X43.215 Y8.561
G1 X43.217 Y8.569
G1 X43.219 Y8.577
G1 X43.221 Y8.585
G1 X43.223 Y8.593
G1 X43.225 Y8.601
G1 X43.227 Y8.609
G1 X43.228 Y8.617
G1 X43.229 Y8.624
G1 X43.23 Y8.63
G1 X43.231 Y8.637
G1 X43.232 Y8.643
G1 X43.233 Y8.649
G1 Y8.655
G1 Y8.663
G1 X43.234 Y8.672
G1 Y8.68
G1 X43.235 Y8.687
G1 Y8.693
G1 Y8.694
G1 X43.236 Y8.699
G1 Y8.701
G1 X43.237 Y8.706
G1 Y8.707
G1 Y8.711
G1 X43.238 Y8.714
G1 X43.239 Y8.717
G1 Y8.718
G1 Y8.72
G1 X43.242 Y8.728
G1 X43.243 Y8.73
G1 X43.247 Y8.738
G1 X43.248 Y8.739
G1 X43.261 Y8.753
G1 Y8.754
G1 X43.278 Y8.761
G1 X43.295 Y8.763
G1 X43.296
G1 X43.31 Y8.759
G1 X43.322 Y8.753
G1 X43.323 Y8.752
G1 X43.333 Y8.741
G1 X43.334 Y8.739
G1 X43.338 Y8.732
G1 X43.339 Y8.73
G1 X43.34 Y8.729
G1 X43.341 Y8.726
G1 X43.343 Y8.723
G1 X43.344 Y8.719
G1 Y8.718
G1 X43.346 Y8.714
G1 Y8.713
G1 X43.347 Y8.708
G1 X43.348 Y8.706
G1 X43.349 Y8.701
G1 X43.351 Y8.695
G1 Y8.694
G1 X43.353 Y8.688
G1 X43.354 Y8.684
G1 X43.355 Y8.678
G1 X43.356 Y8.673
G1 X43.358 Y8.668
G1 Y8.667
G1 X43.36 Y8.661
G1 X43.362 Y8.655
G1 X43.364 Y8.648
G1 X43.366 Y8.641
G1 X43.369 Y8.634
G1 X43.371 Y8.627
G1 Y8.626
G1 X43.374 Y8.619
G1 X43.377 Y8.611
G1 X43.38 Y8.603
G1 X43.383 Y8.595
G1 X43.385 Y8.587
G1 X43.388 Y8.579
G1 X43.392 Y8.571
G1 X43.395 Y8.563
G1 X43.398 Y8.556
G1 X43.401 Y8.548
G1 X43.404 Y8.54
G1 X43.407 Y8.532
G1 X43.41 Y8.525
G1 X43.413 Y8.518
G1 Y8.517
G1 X43.417 Y8.51
G1 Y8.509
G1 X43.42 Y8.501
G1 X43.421 Y8.5
G1 X43.424 Y8.491
G1 X43.428 Y8.481
G1 X43.432 Y8.47
G1 X43.436 Y8.459
G1 X43.44 Y8.448
G1 X43.444 Y8.436
G1 X43.448 Y8.424
G1 X43.452 Y8.411
G1 X43.456 Y8.398
G1 X43.46 Y8.385
G1 X43.464 Y8.372
G1 X43.468 Y8.359
G1 X43.472 Y8.346
G1 Y8.345
G1 X43.476 Y8.332
G1 Y8.331
G1 X43.48 Y8.318
G1 X43.484 Y8.305
G1 Y8.304
G1 X43.488 Y8.291
G1 X43.491 Y8.278
G1 Y8.277
G1 X43.495 Y8.264
G1 X43.498 Y8.251
G1 Y8.25
G1 X43.501 Y8.238
G1 X43.504 Y8.226
G1 X43.516 Y8.177
G1 X43.528 Y8.133
G1 X43.539 Y8.094
G1 X43.55 Y8.058
G1 X43.56 Y8.027
G1 X43.57 Y8
G1 X43.58 Y7.977
G1 X43.589 Y7.959
G1 X43.597 Y7.946
G1 X43.603 Y7.939
G1 X43.605 Y7.94
G1 X43.613 Y7.948
G1 X43.623 Y7.961
G1 X43.635 Y7.978
G1 X43.648 Y8
G1 X43.663 Y8.025
G1 X43.678 Y8.055
G1 X43.694 Y8.088
G1 X43.711 Y8.126
G1 X43.813 Y8.355
G1 X43.823 Y8.37
G1 X43.838 Y8.38
G1 X43.856 Y8.384
G1 X44.018 Y8.395
G1 X44.05 Y8.398
G1 X44.078 Y8.401
G1 X44.101 Y8.406
G1 X44.121 Y8.411
G1 X44.138 Y8.416
G1 X44.147 Y8.42
G1 X44.139 Y8.424
G1 X44.124 Y8.429
G1 X44.106 Y8.434
G1 X44.085 Y8.439
G1 X44.061 Y8.443
G1 X44.034 Y8.446
G1 X44.004 Y8.447
G1 X43.972 Y8.448
G1 X43.795
G1 X43.753 Y8.314
G1 X43.745 Y8.289
G1 X43.737 Y8.266
G1 Y8.265
G1 X43.73 Y8.245
G1 X43.729 Y8.244
G1 X43.722 Y8.225
G1 Y8.224
G1 X43.716 Y8.208
G1 X43.715 Y8.206
G1 X43.709 Y8.192
G1 X43.708 Y8.19
G1 X43.702 Y8.178
G1 X43.7 Y8.175
G1 X43.694 Y8.165
G1 X43.692 Y8.161
G1 X43.687 Y8.153
G1 X43.683 Y8.149
G1 X43.678 Y8.143
G1 X43.671 Y8.136
G1 X43.666 Y8.132
G1 X43.654 Y8.125
G1 X43.649 Y8.123
G1 X43.639 Y8.12
G1 X43.629 Y8.119
G1 X43.624
G1 X43.614 Y8.121
G1 X43.604 Y8.124
G1 X43.6 Y8.126
G1 X43.586 Y8.135
G1 X43.582 Y8.14
G1 X43.575 Y8.148
G1 X43.571 Y8.154
G1 X43.568 Y8.159
G1 X43.564 Y8.168
G1 X43.562 Y8.172
G1 X43.558 Y8.182
G1 X43.557 Y8.185
G1 X43.553 Y8.198
G1 X43.552 Y8.2
G1 X43.548 Y8.214
G1 Y8.216
G1 X43.544 Y8.232
G1 X43.543 Y8.234
G1 X43.539 Y8.252
G1 Y8.253
G1 X43.535 Y8.274
G1 X43.531 Y8.297
G1 X43.53 Y8.306
G1 X43.528 Y8.316
G1 X43.526 Y8.326
G1 X43.523 Y8.336
G1 X43.521 Y8.347
G1 X43.518 Y8.357
G1 X43.516 Y8.368
G1 X43.513 Y8.379
G1 X43.51 Y8.389
G1 X43.507 Y8.4
G1 X43.504 Y8.411
G1 X43.501 Y8.421
G1 X43.498 Y8.431
G1 X43.495 Y8.439
G1 X43.494 Y8.442
G1 X43.491 Y8.451
G1 X43.488 Y8.461
G1 X43.484 Y8.47
G1 X43.481 Y8.479
G1 X43.478 Y8.488
G1 X43.474 Y8.496
G1 X43.471 Y8.503
G1 X43.468 Y8.51
G1 X43.465 Y8.517
G1 X43.462 Y8.523
G1 X43.458 Y8.53
G1 X43.455 Y8.537
G1 X43.454 Y8.538
G1 X43.451 Y8.545
G1 Y8.546
G1 X43.448 Y8.553
G1 X43.447 Y8.554
G1 X43.444 Y8.561
G1 Y8.562
G1 X43.441 Y8.569
G1 Y8.57
G1 X43.438 Y8.578
G1 X43.437
G1 X43.435 Y8.586
G1 X43.434 Y8.587
G1 X43.432 Y8.594
G1 X43.431 Y8.595
G1 X43.429 Y8.603
G1 X43.428 Y8.604
G1 X43.426 Y8.611
G1 X43.424 Y8.619
G1 X43.423 Y8.621
G1 X43.421 Y8.628
G1 X43.419 Y8.636
G1 Y8.637
G1 X43.417 Y8.644
G1 Y8.645
G1 X43.415 Y8.652
G1 Y8.653
G1 X43.413 Y8.66
G1 Y8.661
G1 X43.412 Y8.668
G1 X43.411 Y8.669
G1 X43.41 Y8.675
G1 Y8.677
G1 X43.409 Y8.684
G1 X43.408 Y8.69
G1 Y8.692
G1 X43.407 Y8.698
G1 Y8.7
G1 Y8.706
G1 Y8.712
G1 Y8.713
G1 Y8.716
G1 X43.406 Y8.72
G1 Y8.724
G1 X43.405 Y8.728
G1 Y8.732
G1 X43.404 Y8.737
G1 X43.402 Y8.742
G1 X43.401 Y8.747
G1 X43.4 Y8.752
G1 X43.398 Y8.757
G1 X43.396 Y8.763
G1 X43.394 Y8.768
G1 X43.392 Y8.774
G1 X43.39 Y8.779
G1 X43.388 Y8.784
G1 X43.385 Y8.79
G1 X43.383 Y8.795
G1 X43.38 Y8.8
G1 X43.378 Y8.805
G1 X43.375 Y8.81
G1 X43.372 Y8.814
G1 X43.37 Y8.818
G1 X43.367 Y8.822
G1 X43.364 Y8.826
G1 X43.361 Y8.831
G1 X43.36 Y8.832
G1 X43.356 Y8.837
G1 X43.355 Y8.838
G1 X43.352 Y8.844
G1 X43.348 Y8.85
G1 X43.347 Y8.851
G1 X43.344 Y8.856
G1 Y8.857
G1 X43.34 Y8.863
G1 Y8.864
G1 X43.337 Y8.869
G1 X43.336 Y8.87
G1 X43.333 Y8.876
G1 Y8.877
G1 X43.33 Y8.883
G1 X43.329 Y8.884
G1 X43.327 Y8.89
G1 X43.324 Y8.896
G1 X43.323 Y8.898
G1 X43.321 Y8.904
G1 X43.318 Y8.91
G1 Y8.911
G1 X43.316 Y8.917
G1 X43.315 Y8.918
G1 X43.313 Y8.924
G1 Y8.925
G1 X43.311 Y8.931
G1 X43.31 Y8.933
G1 X43.309 Y8.938
G1 Y8.939
G1 X43.307 Y8.944
G1 Y8.946
G1 X43.306 Y8.951
G1 X43.305 Y8.953
G1 X43.304 Y8.958
G1 Y8.959
G1 X43.303 Y8.964
G1 Y8.967
G1 X43.302 Y8.972
G1 Y8.973
G1 X43.301 Y8.977
G1 Y8.98
G1 Y8.984
G1 X43.3 Y8.996
G1 X43.299 Y9.003
G1 X43.298 Y9.007
G1 X43.296 Y9.006
G1 X43.291 Y9.004
G1 X43.286 Y9.001
G1 X43.281 Y8.997
G1 X43.275 Y8.992
G1 X43.269 Y8.986
G1 X43.263 Y8.979
G1 X43.258 Y8.97
G1 X43.252 Y8.961
G1 X43.247 Y8.951
G1 X43.243 Y8.94
G1 X43.239 Y8.928
G1 X43.236 Y8.915
G1 X43.235 Y8.907
G1 Y8.906
G1 X43.233 Y8.897
G1 X43.231 Y8.888
G1 X43.229 Y8.88
G1 X43.228 Y8.879
G1 X43.226 Y8.871
G1 X43.224 Y8.863
G1 Y8.862
G1 X43.222 Y8.855
G1 X43.221 Y8.854
G1 X43.219 Y8.847
G1 Y8.845
G1 X43.216 Y8.839
G1 Y8.838
G1 X43.213 Y8.831
G1 X43.211 Y8.824
G1 X43.21 Y8.823
G1 X43.208 Y8.817
G1 X43.207 Y8.816
G1 X43.205 Y8.811
G1 X43.204 Y8.809
G1 X43.202 Y8.804
G1 X43.201 Y8.803
G1 X43.198 Y8.798
G1 X43.197 Y8.796
G1 X43.194 Y8.791
G1 Y8.79
G1 X43.191 Y8.786
G1 X43.189 Y8.784
G1 X43.187 Y8.78
G1 X43.185 Y8.778
G1 X43.183 Y8.775
G1 X43.179 Y8.771
G1 X43.177 Y8.769
G1 X43.174 Y8.766
G1 X43.171 Y8.764
G1 X43.165 Y8.76
G1 X43.162 Y8.758
G1 X43.156 Y8.755
G1 Y8.753
G1 X43.155 Y8.75
G1 X43.154 Y8.747
G1 X43.153 Y8.744
G1 Y8.74
G1 X43.152 Y8.736
G1 Y8.732
G1 X43.151 Y8.727
G1 Y8.723
G1 Y8.719
G1 Y8.713
G1 X43.15 Y8.694
G1 Y8.692
G1 Y8.677
G1 X43.149 Y8.672
G1 Y8.67
G1 X43.147 Y8.648
G1 Y8.647
G1 X43.144 Y8.624
G1 Y8.623
G1 X43.141 Y8.598
G1 X43.137 Y8.573
G1 Y8.572
G1 X43.133 Y8.546
G1 X43.132 Y8.545
G1 X43.128 Y8.519
G1 X43.127 Y8.518
G1 X43.122 Y8.492
G1 Y8.491
G1 X43.116 Y8.464
G1 X43.11 Y8.437
G1 Y8.436
G1 X43.103 Y8.41
G1 Y8.409
G1 X43.096 Y8.384
G1 Y8.383
G1 X43.089 Y8.358
G1 Y8.357
G1 X43.082 Y8.333
G1 Y8.332
G1 X43.075 Y8.309
G1 X43.074 Y8.308
G1 X43.067 Y8.286
G1 Y8.285
G1 X43.059 Y8.264
G1 Y8.263
G1 X43.052 Y8.244
G1 X43.051 Y8.243
G1 X43.044 Y8.225
G1 X43.043 Y8.223
G1 X43.036 Y8.208
G1 X43.035 Y8.206
G1 X43.028 Y8.193
G1 X43.026 Y8.19
G1 X43.02 Y8.179
G1 X43.016 Y8.174
G1 X43.01 Y8.166
G1 X43.007 Y8.163
G1 X43.002 Y8.158
G1 Y8.157
G1 X42.997 Y8.152
G1 X42.996 Y8.151
G1 X42.992 Y8.147
G1 X42.99 Y8.145
G1 X42.986 Y8.142
G1 X42.983 Y8.14
G1 X42.98 Y8.137
G1 X42.975 Y8.134
G1 X42.972 Y8.132
G1 X42.966 Y8.129
G1 X42.963 Y8.128
G1 X42.954 Y8.125
G1 X42.951 Y8.124
G1 X42.938 Y8.123
G1 X42.935
G1 X42.919 Y8.127
G1 X42.917 Y8.128
G1 X42.904 Y8.135
G1 X42.902 Y8.137
G1 X42.893 Y8.146
G1 X42.891 Y8.149
G1 X42.887 Y8.156
G1 X42.885 Y8.16
G1 X42.883 Y8.165
G1 X42.881 Y8.17
G1 X42.88 Y8.174
G1 X42.879 Y8.179
G1 X42.878 Y8.182
G1 X42.877 Y8.188
G1 Y8.19
G1 X42.876 Y8.197
G1 Y8.199
G1 X42.875 Y8.206
G1 Y8.207
G1 X42.874 Y8.216
G1 Y8.217
G1 Y8.227
G1 Y8.238
G1 Y8.239
G1 X42.873 Y8.25
G1 Y8.251
G1 Y8.263
G1 Y8.277
G1 Y8.286
G1 Y8.293
G1 Y8.301
G1 X42.872 Y8.309
G1 Y8.316
G1 X42.871 Y8.324
G1 X42.87 Y8.33
G1 X42.869 Y8.337
G1 Y8.343
G1 X42.868 Y8.349
G1 X42.867 Y8.354
G1 X42.866 Y8.359
G1 X42.864 Y8.364
G1 X42.863 Y8.368
G1 X42.855 Y8.374
G1 X42.852 Y8.377
G1 X42.848 Y8.381
G1 X42.846 Y8.384
G1 X42.843 Y8.388
G1 X42.84 Y8.392
G1 X42.838 Y8.395
G1 X42.835 Y8.399
G1 X42.834 Y8.402
G1 X42.831 Y8.407
G1 X42.83 Y8.408
G1 X42.827 Y8.415
G1 X42.826 Y8.416
G1 X42.823 Y8.423
G1 Y8.425
G1 X42.819 Y8.432
G1 Y8.433
G1 X42.815 Y8.441
G1 Y8.442
G1 X42.812 Y8.451
G1 X42.811 Y8.452
G1 X42.808 Y8.462
G1 X42.804 Y8.473
G1 X42.8 Y8.483
G1 Y8.484
G1 X42.797 Y8.495
G1 X42.796 Y8.496
G1 X42.793 Y8.507
G1 Y8.508
G1 X42.789 Y8.52
G1 Y8.521
G1 X42.785 Y8.533
G1 X42.782 Y8.546
G1 Y8.547
G1 X42.778 Y8.56
G1 X42.775 Y8.574
G1 X42.774
G1 X42.771 Y8.588
G1 Y8.589
G1 X42.768 Y8.602
G1 X42.764 Y8.616
G1 X42.761 Y8.63
G1 X42.758 Y8.643
G1 X42.754 Y8.657
G1 X42.751 Y8.67
G1 X42.748 Y8.683
G1 X42.744 Y8.695
G1 X42.741 Y8.708
G1 X42.737 Y8.719
G1 X42.734 Y8.731
G1 X42.73 Y8.742
G1 X42.727 Y8.752
G1 X42.724 Y8.763
G1 X42.72 Y8.772
G1 X42.717 Y8.781
G1 X42.714 Y8.789
G1 X42.711 Y8.797
G1 X42.709 Y8.804
G1 X42.706 Y8.809
G1 X42.704 Y8.814
G1 X42.702 Y8.818
G1 X42.701 Y8.82
G1 X42.7 Y8.821
G1 X42.699 Y8.823
G1 X42.697 Y8.825
G1 X42.695 Y8.828
G1 X42.693 Y8.83
G1 X42.691 Y8.833
G1 X42.69 Y8.836
G1 X42.688 Y8.84
G1 X42.687 Y8.841
G1 X42.685 Y8.845
G1 X42.684 Y8.847
G1 X42.682 Y8.851
G1 Y8.853
G1 X42.68 Y8.857
G1 Y8.858
G1 X42.678 Y8.862
G1 X42.677 Y8.864
G1 X42.676 Y8.868
G1 Y8.869
G1 X42.674 Y8.874
G1 X42.673 Y8.876
G1 X42.672 Y8.881
G1 X42.67 Y8.887
G1 Y8.888
G1 X42.669 Y8.893
G1 X42.667 Y8.899
G1 Y8.901
G1 X42.666 Y8.906
G1 Y8.907
G1 X42.665 Y8.913
G1 Y8.914
G1 X42.664 Y8.919
G1 X42.663 Y8.92
G1 Y8.926
G1 Y8.927
G1 X42.662 Y8.933
G1 Y8.934
G1 X42.661 Y8.939
G1 Y8.94
G1 Y8.946
G1 X42.66 Y8.948
G1 Y8.953
G1 Y8.954
G1 Y8.96
G1 Y8.961
G1 Y8.966
G1 X42.659 Y8.982
G1 X42.658 Y8.993
G1 X42.656 Y9.002
G1 X42.654 Y9.007
G1 X42.651 Y9.005
G1 X42.646 Y9.001
G1 X42.64 Y8.996
G1 X42.635 Y8.989
G1 X42.628 Y8.98
G1 X42.622 Y8.97
G1 X42.617 Y8.958
G1 X42.611 Y8.945
G1 X42.607 Y8.931
G1 X42.602 Y8.916
G1 X42.599 Y8.898
G1 X42.597 Y8.889
G1 Y8.888
G1 X42.595 Y8.879
G1 Y8.878
G1 X42.593 Y8.869
G1 Y8.868
G1 X42.591 Y8.858
G1 X42.589 Y8.849
G1 Y8.848
G1 X42.587 Y8.839
G1 X42.584 Y8.83
G1 Y8.829
G1 X42.582 Y8.821
G1 Y8.82
G1 X42.58 Y8.812
G1 X42.579 Y8.811
G1 X42.577 Y8.802
G1 X42.574 Y8.794
G1 X42.572 Y8.786
G1 Y8.785
G1 X42.569 Y8.778
G1 X42.566 Y8.771
G1 Y8.769
G1 X42.563 Y8.763
G1 X42.561 Y8.757
G1 X42.56 Y8.755
G1 X42.558 Y8.75
G1 X42.557 Y8.748
G1 X42.555 Y8.743
G1 X42.554 Y8.742
G1 X42.552 Y8.738
G1 X42.55 Y8.735
G1 X42.548 Y8.732
G1 X42.546 Y8.729
G1 X42.544 Y8.725
G1 X42.543 Y8.723
G1 X42.541 Y8.721
G1 X42.536 Y8.715
G1 X42.534 Y8.713
G1 X42.53 Y8.71
G1 X42.529 Y8.709
G1 X42.528 Y8.706
G1 X42.526 Y8.703
G1 X42.524 Y8.698
G1 X42.522 Y8.693
G1 X42.52 Y8.688
G1 X42.518 Y8.681
G1 X42.516 Y8.674
G1 X42.514 Y8.667
G1 X42.511 Y8.66
G1 X42.509 Y8.652
G1 X42.507 Y8.644
G1 X42.505 Y8.635
G1 X42.503 Y8.626
G1 X42.501 Y8.617
G1 X42.499 Y8.608
G1 X42.497 Y8.599
G1 X42.495 Y8.589
G1 X42.493 Y8.58
G1 X42.491 Y8.57
G1 Y8.569
G1 X42.482 Y8.514
G1 X42.481 Y8.513
G1 X42.471 Y8.463
G1 Y8.462
G1 X42.461 Y8.415
G1 Y8.414
G1 X42.45 Y8.373
G1 Y8.371
G1 X42.439 Y8.334
G1 X42.438 Y8.332
G1 X42.428 Y8.299
G1 X42.427 Y8.297
G1 X42.416 Y8.268
G1 X42.414 Y8.265
G1 X42.403 Y8.242
G1 X42.401 Y8.238
G1 X42.39 Y8.218
G1 X42.386 Y8.213
G1 X42.375 Y8.198
G1 X42.369 Y8.192
G1 X42.357 Y8.181
G1 X42.346 Y8.174
G1 X42.334 Y8.168
G1 X42.318 Y8.163
G1 X42.306 Y8.162
G1 X42.287 Y8.164
G1 X42.276 Y8.167
G1 X42.261 Y8.174
G1 X42.25 Y8.181
G1 X42.241 Y8.189
G1 X42.229 Y8.201
G1 X42.225 Y8.207
G1 X42.213 Y8.224
G1 X42.21 Y8.228
G1 X42.199 Y8.25
G1 X42.197 Y8.253
G1 X42.186 Y8.279
G1 X42.185 Y8.282
G1 X42.173 Y8.313
G1 Y8.315
G1 X42.161 Y8.35
G1 Y8.352
G1 X42.15 Y8.391
G1 X42.149 Y8.393
G1 X42.138 Y8.437
G1 Y8.439
G1 X42.127 Y8.487
G1 Y8.488
G1 X42.124 Y8.502
G1 X42.121 Y8.517
G1 X42.118 Y8.531
G1 X42.114 Y8.545
G1 X42.111 Y8.559
G1 X42.107 Y8.573
G1 X42.103 Y8.587
G1 X42.1 Y8.598
G1 X42.099 Y8.601
G1 X42.095 Y8.615
G1 X42.091 Y8.628
G1 X42.087 Y8.641
G1 X42.083 Y8.654
G1 X42.079 Y8.666
G1 X42.075 Y8.677
G1 X42.071 Y8.689
G1 X42.067 Y8.699
G1 X42.063 Y8.709
G1 X42.06 Y8.718
G1 X42.056 Y8.726
G1 X42.053 Y8.734
G1 X42.05 Y8.74
G1 X42.046 Y8.746
G1 X42.044 Y8.75
G1 X42.042 Y8.754
G1 X42.038 Y8.759
G1 X42.037 Y8.76
G1 X42.034 Y8.766
G1 X42.033 Y8.768
G1 X42.03 Y8.773
G1 X42.029 Y8.774
G1 X42.026 Y8.78
G1 X42.025 Y8.782
G1 X42.022 Y8.789
G1 X42.019 Y8.796
G1 X42.018 Y8.797
G1 X42.015 Y8.804
G1 Y8.805
G1 X42.012 Y8.812
G1 Y8.813
G1 X42.009 Y8.82
G1 X42.008 Y8.822
G1 X42.006 Y8.829
G1 Y8.83
G1 X42.003 Y8.837
G1 Y8.838
G1 X42.001 Y8.846
G1 X41.998 Y8.854
G1 Y8.855
G1 X41.996 Y8.863
G1 Y8.864
G1 X41.994 Y8.871
G1 Y8.873
G1 X41.992 Y8.881
G1 X41.99 Y8.889
G1 Y8.891
G1 X41.989 Y8.898
G1 Y8.899
G1 X41.987 Y8.906
G1 Y8.908
G1 X41.986 Y8.916
G1 X41.985 Y8.924
G1 Y8.926
G1 Y8.933
G1 Y8.934
G1 X41.984 Y8.941
G1 Y8.943
G1 Y8.95
G1 Y8.957
G1 X41.983 Y8.963
G1 Y8.968
G1 X41.982 Y8.973
G1 X41.98 Y8.978
G1 X41.979 Y8.982
G1 X41.977 Y8.985
G1 X41.976 Y8.988
G1 X41.974 Y8.991
G1 X41.972 Y8.993
G1 X41.97 Y8.995
G1 X41.969 Y8.997
G1 X41.967 Y8.998
G1 X41.965 Y9
G1 X41.963 Y9.001
G1 X41.961
G1 X41.96 Y9.002
G1 X41.957 Y9.003
G1 X41.955
G1 X41.953
G1 X41.951
G1 X41.948
G1 X41.946 Y9.001
G1 X41.941 Y8.998
G1 X41.937 Y8.994
G1 X41.932 Y8.99
G1 X41.927 Y8.985
G1 X41.923 Y8.979
G1 X41.918 Y8.974
G1 X41.913 Y8.967
G1 X41.908 Y8.961
G1 X41.903 Y8.954
G1 X41.898 Y8.946
G1 X41.894 Y8.938
G1 X41.889 Y8.93
G1 X41.885 Y8.921
G1 X41.881 Y8.912
G1 X41.877 Y8.902
G1 X41.873 Y8.893
G1 X41.869 Y8.882
G1 X41.866 Y8.872
G1 X41.862 Y8.861
G1 X41.859 Y8.85
G1 X41.857 Y8.838
G1 X41.854 Y8.826
G1 X41.849 Y8.8
G1 Y8.799
G1 X41.843 Y8.775
G1 Y8.774
G1 X41.838 Y8.751
G1 X41.837 Y8.75
G1 X41.832 Y8.729
G1 Y8.728
G1 X41.826 Y8.707
G1 X41.825 Y8.706
G1 X41.819 Y8.687
G1 Y8.685
G1 X41.812 Y8.668
G1 Y8.666
G1 X41.805 Y8.65
G1 X41.804 Y8.647
G1 X41.797 Y8.632
G1 Y8.63
G1 X41.789 Y8.616
G1 X41.788 Y8.614
G1 X41.78 Y8.601
G1 X41.779 Y8.598
G1 X41.771 Y8.587
G1 X41.769 Y8.584
G1 X41.761 Y8.573
G1 X41.759 Y8.57
G1 X41.75 Y8.561
G1 X41.747 Y8.558
G1 X41.738 Y8.549
G1 X41.735 Y8.546
G1 X41.726 Y8.539
G1 X41.722 Y8.536
G1 X41.712 Y8.53
G1 X41.708 Y8.528
G1 X41.698 Y8.522
G1 X41.694 Y8.52
G1 X41.683 Y8.515
G1 X41.679 Y8.514
G1 X41.668 Y8.51
G1 X41.664 Y8.509
G1 X41.652 Y8.506
G1 X41.648
G1 X41.636 Y8.504
G1 X41.632 Y8.503
G1 X41.62 Y8.502
G1 X41.616
G1 X41.603 Y8.501
G1 X41.602
G1 X41.593
G1 X41.585
G1 X41.579
G1 X41.572 Y8.5
G1 X41.567
G1 X41.562 Y8.499
G1 X41.559 Y8.498
G1 X41.556 Y8.497
G1 X41.553 Y8.496
G1 X41.552
G1 Y8.495
G1 Y8.492
G1 X41.551 Y8.489
G1 Y8.485
G1 Y8.482
G1 X41.552 Y8.471
G1 X41.553 Y8.465
G1 X41.556 Y8.461
; MOVEMENT_RAPID
G0 Z5 F300
G0 X33.806 Y21.509 F2500
G0 Z4 F300
; MOVEMENT_LEAD_IN
G1 Z-1 F480
; MOVEMENT_CUTTING
G1 Y22.988 F2100
G1 Y25.285
G1 X31.701
G1 Y23.913
G1 X31.697 Y23.893
G1 X31.686 Y23.877
G1 X31.67 Y23.866
G1 X31.651 Y23.863
G1 X30.691
G1 X30.672 Y23.866
G1 X30.656 Y23.877
G1 X30.645 Y23.893
G1 X30.641 Y23.913
G1 Y29.35
G1 Y29.353
G1 X30.645 Y29.372
G1 X30.656 Y29.388
G1 X30.672 Y29.399
G1 X30.691 Y29.403
G1 X31.353
G1 X31.335 Y32.664
G1 X30.272 Y32.673
G1 X30.166
G1 X30.067 Y32.674
G1 X29.974 Y32.675
G1 X29.887
G1 X29.806
G1 X29.731
G1 X29.661
G1 X29.596
G1 X29.537 Y32.674
G1 X29.482 Y32.673
G1 X29.433 Y32.672
G1 X29.388 Y32.671
G1 X29.348 Y32.669
G1 X29.312 Y32.668
G1 X29.28 Y32.666
G1 X29.253 Y32.664
G1 X29.229 Y32.661
G1 X29.21 Y32.659
G1 X29.195 Y32.656
G1 X29.19
G1 Y32.643
G1 X29.189 Y32.615
G1 X29.188 Y32.581
G1 X29.187 Y32.54
G1 X29.186 Y32.493
G1 Y32.44
G1 X29.185 Y32.381
G1 X29.184 Y32.317
G1 Y32.248
G1 Y32.175
G1 X29.183 Y32.096
G1 Y32.014
G1 Y31.927
G1 Y31.837
G1 Y31.742
G1 Y31.645
G1 Y31.545
G1 Y31.442
G1 X29.184 Y31.336
G1 Y31.228
G1 Y31.118
G1 X29.185 Y31.007
G1 X29.194 Y29.419
G1 X29.475 Y29.41
G1 X29.804 Y29.4
G1 X29.822 Y29.396
G1 X29.838 Y29.385
G1 X29.848 Y29.369
G1 X29.852 Y29.35
G1 Y23.913
G1 Y23.038
G1 X31.651
G1 X31.67 Y23.034
G1 X31.686 Y23.023
G1 X31.697 Y23.007
G1 X31.701 Y22.988
G1 Y21.509
G1 X33.806
; MOVEMENT_RAPID
G0 Z5 F300
G0 X35.755 Y26.665 F2500
G0 Z4 F300
; MOVEMENT_LEAD_IN
G1 Z-1 F480
; MOVEMENT_CUTTING
G1 X47.297 F2100
G1 X47.993
G1 Y32.716
G1 X36.451
G1 X35.755
G1 Y26.665
; MOVEMENT_RAPID
G0 Z5 F300
G0 X36.433 Y27.309 F2500
G0 Z4 F300
; MOVEMENT_LEAD_IN
G1 Z-1 F480
; MOVEMENT_CUTTING
G1 X36.423 Y27.325 F2100
G1 X36.419 Y27.344
G1 X36.41 Y29.682
G1 X36.401 Y32.02
G1 X36.405 Y32.039
G1 X36.416 Y32.055
G1 X36.432 Y32.066
G1 X36.451 Y32.07
G1 X47.297
G1 X47.316 Y32.066
G1 X47.332 Y32.055
G1 X47.343 Y32.039
G1 X47.347 Y32.02
G1 Y27.326
G1 X47.343 Y27.307
G1 X47.332 Y27.29
G1 X47.316 Y27.28
G1 X47.297 Y27.276
G1 X41.883 Y27.285
G1 X36.469 Y27.294
G1 X36.456 Y27.296
G1 X36.444 Y27.301
G1 X36.433 Y27.309
; MOVEMENT_RAPID
G0 Z5 F300
G0 X36.873 Y27.872 F2500
G0 Z4 F300
; MOVEMENT_LEAD_IN
G1 Z-1 F480
; MOVEMENT_CUTTING
G1 X36.891 Y27.859 F2100
G1 X36.916 Y27.849
G1 X36.95 Y27.842
G1 X36.994 Y27.84
G1 X37.018
G1 X37.042 Y27.841
G1 X37.063 Y27.843
G1 X37.084 Y27.845
G1 X37.103 Y27.849
G1 X37.122 Y27.854
G1 X37.141 Y27.861
G1 X37.162 Y27.87
G1 X37.183 Y27.881
G1 X37.207 Y27.895
G1 X37.233 Y27.913
G1 X37.262 Y27.933
G1 X37.293 Y27.958
G1 X37.328 Y27.987
G1 X37.366 Y28.021
G1 X37.408 Y28.059
G1 X37.454 Y28.101
G1 X37.505 Y28.149
G1 X37.56 Y28.203
G1 X37.621 Y28.262
G1 X37.687 Y28.327
G1 X37.76 Y28.399
G1 X37.838 Y28.477
G1 X37.924 Y28.562
G1 X38.568 Y29.203
G1 X38.583 Y29.213
G1 X38.6 Y29.217
G1 X38.877 Y29.231
G1 X39.072 Y29.24
G1 X39.105 Y29.242
G1 X39.138 Y29.243
G1 X39.17 Y29.244
G1 X39.201 Y29.246
G1 X39.202
G1 X39.232
G1 X39.261 Y29.247
G1 X39.289 Y29.248
G1 X39.316
G1 X39.342
G1 X39.367
G1 X39.39
G1 X39.412
G1 X39.432 Y29.247
G1 X39.433
G1 X39.452
G1 X39.453
G1 X39.47 Y29.246
G1 X39.471
G1 X39.486 Y29.245
G1 X39.487
G1 X39.501 Y29.244
G1 X39.503 Y29.243
G1 X39.515 Y29.242
G1 X39.516
G1 X39.527 Y29.241
G1 X39.529 Y29.24
G1 X39.538 Y29.239
G1 X39.541 Y29.238
G1 X39.548 Y29.236
G1 X39.554 Y29.234
G1 X39.559 Y29.232
G1 X39.57 Y29.227
G1 X39.573 Y29.225
G1 X39.582 Y29.216
G1 X39.589 Y29.206
G1 X39.59 Y29.204
G1 X39.594 Y29.19
G1 X39.595 Y29.175
G1 X39.594 Y29.172
G1 Y29.168
G1 X39.593 Y29.164
G1 X39.592 Y29.161
G1 X39.59 Y29.155
G1 Y29.153
G1 X39.588 Y29.147
G1 X39.587 Y29.145
G1 X39.584 Y29.137
G1 X39.581 Y29.128
G1 Y29.127
G1 X39.577 Y29.117
G1 Y29.116
G1 X39.572 Y29.105
G1 X39.567 Y29.092
G1 X39.562 Y29.079
G1 Y29.078
G1 X39.556 Y29.064
G1 X39.55 Y29.049
G1 X39.549
G1 X39.543 Y29.033
G1 X39.537 Y29.019
G1 X39.536 Y29.016
G1 X39.528 Y28.999
G1 X39.52 Y28.981
G1 X39.512 Y28.963
G1 X39.504 Y28.944
G1 Y28.943
G1 X39.495 Y28.924
G1 X39.486 Y28.904
G1 X39.477 Y28.884
G1 X39.468 Y28.863
G1 X39.458 Y28.842
G1 X39.449 Y28.821
G1 X39.404 Y28.718
G1 X39.37 Y28.622
G1 X39.345 Y28.534
G1 X39.329 Y28.453
G1 X39.321 Y28.38
G1 X39.322 Y28.316
G1 X39.33 Y28.259
G1 X39.344 Y28.211
G1 X39.364 Y28.172
G1 X39.39 Y28.139
G1 X39.42 Y28.113
G1 X39.457 Y28.094
G1 X39.499 Y28.08
G1 X39.549 Y28.073
G1 X39.605
G1 X39.668 Y28.082
G1 X39.737 Y28.098
G1 X39.811 Y28.124
G1 X39.89 Y28.158
G1 X39.974 Y28.201
G1 X40.062 Y28.253
G1 X40.154 Y28.315
G1 X40.249 Y28.386
G1 X40.347 Y28.468
G1 X40.38 Y28.497
G1 X40.412 Y28.524
G1 X40.44 Y28.55
G1 X40.467 Y28.574
G1 X40.491 Y28.597
G1 X40.513 Y28.618
G1 X40.532 Y28.638
G1 X40.55 Y28.657
G1 X40.565 Y28.674
G1 X40.578 Y28.69
G1 X40.589 Y28.705
G1 X40.598 Y28.718
G1 X40.605 Y28.73
G1 X40.61 Y28.741
G1 X40.614 Y28.751
G1 X40.616 Y28.759
G1 X40.618 Y28.767
G1 Y28.774
G1 X40.617 Y28.781
G1 X40.616 Y28.788
G1 X40.614 Y28.796
G1 X40.61 Y28.804
G1 X40.606 Y28.814
G1 X40.6 Y28.824
G1 X40.593 Y28.834
G1 X40.586 Y28.843
G1 X40.58 Y28.851
G1 X40.574 Y28.857
G1 X40.568 Y28.861
G1 X40.563 Y28.865
G1 X40.558 Y28.867
G1 X40.553 Y28.869
G1 X40.548 Y28.87
G1 X40.542 Y28.871
G1 X40.535
G1 X40.527 Y28.87
G1 X40.518 Y28.869
G1 X40.508 Y28.866
G1 X40.496 Y28.862
G1 X40.483 Y28.856
G1 X40.469 Y28.85
G1 X40.454 Y28.841
G1 X40.437 Y28.832
G1 X40.42 Y28.821
G1 X40.401 Y28.808
G1 X40.381 Y28.794
G1 X40.36 Y28.779
G1 X40.337 Y28.762
G1 X40.305 Y28.738
G1 Y28.737
G1 X40.275 Y28.715
G1 X40.274
G1 X40.247 Y28.695
G1 X40.246
G1 X40.222 Y28.678
G1 X40.221 Y28.677
G1 X40.199 Y28.663
G1 X40.198 Y28.662
G1 X40.178 Y28.65
G1 X40.176 Y28.649
G1 X40.159 Y28.64
G1 X40.156 Y28.638
G1 X40.141 Y28.632
G1 X40.135 Y28.63
G1 X40.124 Y28.626
G1 X40.113 Y28.624
G1 X40.104 Y28.623
G1 X40.085 Y28.625
G1 X40.078 Y28.627
G1 X40.066 Y28.633
G1 X40.056 Y28.641
G1 X40.052 Y28.646
G1 X40.045 Y28.656
G1 X40.04 Y28.667
G1 X40.038 Y28.675
G1 X40.036 Y28.689
G1 Y28.7
G1 X40.037 Y28.708
G1 X40.039 Y28.722
G1 X40.041 Y28.727
G1 X40.045 Y28.743
G1 X40.046 Y28.746
G1 X40.053 Y28.766
G1 X40.054 Y28.768
G1 X40.064 Y28.792
G1 Y28.793
G1 X40.076 Y28.819
G1 Y28.82
G1 X40.09 Y28.85
G1 X40.091 Y28.851
G1 X40.107 Y28.883
G1 Y28.884
G1 X40.125 Y28.92
G1 X40.146 Y28.96
G1 X40.169 Y29.003
G1 X40.301 Y29.252
G1 X40.31 Y29.264
G1 X40.323 Y29.273
G1 X40.338 Y29.278
G1 X40.553 Y29.31
G1 X40.578 Y29.314
G1 X40.6 Y29.317
G1 X40.62 Y29.32
G1 X40.639 Y29.324
G1 X40.655 Y29.327
G1 X40.671 Y29.33
G1 X40.684 Y29.334
G1 X40.696 Y29.337
G1 X40.707 Y29.341
G1 X40.716 Y29.344
G1 X40.724 Y29.348
G1 X40.731 Y29.352
G1 X40.738 Y29.356
G1 X40.744 Y29.361
G1 X40.75 Y29.366
G1 X40.756 Y29.372
G1 X40.762 Y29.379
G1 X40.769 Y29.387
G1 X40.775 Y29.396
G1 X40.782 Y29.407
G1 X40.79 Y29.419
G1 X40.798 Y29.432
G1 X40.807 Y29.447
G1 X40.816 Y29.463
G1 X40.822 Y29.474
G1 X40.828 Y29.485
G1 X40.829
G1 X40.835 Y29.496
G1 X40.842 Y29.508
G1 X40.843
G1 X40.85 Y29.52
G1 X40.857 Y29.532
G1 X40.858
G1 X40.865 Y29.545
G1 X40.873 Y29.557
G1 X40.882 Y29.57
G1 X40.89 Y29.582
G1 Y29.583
G1 X40.898 Y29.595
G1 X40.907 Y29.608
G1 X40.916 Y29.621
G1 X40.924 Y29.634
G1 X40.933 Y29.646
G1 X40.941 Y29.659
G1 X40.942
G1 X40.95 Y29.671
G1 X40.959 Y29.683
G1 X40.967 Y29.694
G1 Y29.695
G1 X40.976 Y29.706
G1 X40.983 Y29.717
G1 X40.984 Y29.718
G1 X40.992 Y29.728
G1 X40.999 Y29.738
G1 X41
G1 X41.007 Y29.748
G1 X41.023 Y29.769
G1 X41.037 Y29.788
G1 X41.049 Y29.806
G1 X41.06 Y29.823
G1 X41.069 Y29.839
G1 X41.076 Y29.853
G1 X41.081 Y29.865
G1 X41.084 Y29.876
G1 X41.086 Y29.884
G1 X41.087 Y29.892
G1 X41.086 Y29.897
G1 Y29.901
G1 X41.085 Y29.904
G1 X41.083 Y29.907
G1 X41.08 Y29.911
G1 X41.075 Y29.916
G1 X41.068 Y29.921
G1 X41.059 Y29.926
G1 X41.048 Y29.932
G1 X41.034 Y29.938
G1 X41.018 Y29.943
G1 X41 Y29.948
G1 X40.98 Y29.954
G1 X40.957 Y29.958
G1 X40.946 Y29.961
G1 X40.945
G1 X40.935 Y29.963
G1 X40.925 Y29.965
G1 X40.924
G1 X40.914 Y29.967
G1 X40.904 Y29.97
G1 X40.894 Y29.972
G1 X40.893
G1 X40.884 Y29.974
G1 X40.875 Y29.976
G1 X40.874
G1 X40.865 Y29.978
G1 X40.856 Y29.98
G1 X40.848 Y29.982
G1 X40.84 Y29.984
G1 X40.839
G1 X40.831 Y29.986
G1 X40.825 Y29.988
G1 X40.824
G1 X40.817 Y29.99
G1 X40.811 Y29.991
G1 X40.805 Y29.993
G1 X40.8 Y29.994
G1 X40.796 Y29.995
G1 X40.794 Y29.996
G1 X40.79 Y29.997
G1 X40.789 Y29.998
G1 X40.785 Y29.999
G1 X40.782 Y30
G1 X40.78 Y30.001
G1 X40.778 Y30.002
G1 X40.77 Y30.006
G1 X40.769
G1 X40.758 Y30.016
G1 X40.75 Y30.028
G1 X40.746 Y30.042
G1 Y30.044
G1 X40.747 Y30.062
G1 X40.748 Y30.066
G1 X40.75 Y30.072
G1 X40.753 Y30.078
G1 Y30.079
G1 X40.756 Y30.086
G1 X40.757 Y30.088
G1 X40.761 Y30.097
G1 X40.762
