%
O01006
(Using high feed G1 F500. instead of G0.)
(T0 D=0.0625 CR=0. - ZMIN=-0.7 - flat end mill)
(T1 D=2. CR=0. - ZMIN=-0.3 - face mill)
(T3 D=0.25 CR=0. - ZMIN=-0.7 - flat end mill)
N10 G90 G94 G17
N15 G20
N20 G53 G0 Z0.

(Face1 2)
N25 T1 M6
N30 S6500 M3
N35 G54
N40 M8
N45 G0 X3.6457 Y-1.9633
N50 G43 Z0.6 H1
N55 T3
N60 G0 Z0.2
N65 G1 Z0.1 F65.
N70 G18 G3 X3.4457 Z-0.1 I-0.2 K0.
N75 G1 X2.848
N80 X-0.848
N85 G3 X-1.048 Z0.1 I0. K0.2
N90 G0 Z0.2
N95 G1 X4.2201 Y-0.9867 F500.
N100 Z0.1 F65.
N105 G3 X4.0201 Z-0.1 I-0.2 K0.
N110 G1 X2.99
N115 X-0.99
N120 G3 X-1.19 Z0.1 I0. K0.2
N125 G0 Z0.2
N130 G1 X4.2894 Y-0.01 F500.
N135 Z0.1 F65.
N140 G3 X4.0894 Z-0.1 I-0.2 K0.
N145 G1 X2.99
N150 X-0.99
N155 G3 X-1.19 Z0.1 I0. K0.2
N160 G0 Z0.2
N165 G1 X3.6457 Y-1.9633 F500.
N170 Z-0.1 F65.
N175 G3 X3.4457 Z-0.3 I-0.2 K0.
N180 G1 X2.848
N185 X-0.848
N190 G3 X-1.048 Z-0.1 I0. K0.2
N195 G0 Z0.2
N200 G1 X4.2201 Y-0.9867 F500.
N205 Z-0.1 F65.
N210 G3 X4.0201 Z-0.3 I-0.2 K0.
N215 G1 X2.99
N220 X-0.99
N225 G3 X-1.19 Z-0.1 I0. K0.2
N230 G0 Z0.2
N235 G1 X4.2894 Y-0.01 F500.
N240 Z-0.1 F65.
N245 G3 X4.0894 Z-0.3 I-0.2 K0.
N250 G1 X2.99
N255 X-0.99
N260 G3 X-1.19 Z-0.1 I0. K0.2
N265 G0 Z0.6
N270 M5
N275 G53 G0 Z0.

(2D Adaptive1 3)
N280 M9
N285 M1
N290 T3 M6
N295 S2750 M3
N300 G54
N305 M8
N310 G17
N315 G0 X-0.0258 Y-1.2892
N320 G43 Z0.6 H3
N325 T0
N330 G0 Z0.2
N335 Z-0.65
N340 G1 Z-0.675 F14.
N345 X-0.0257 Y-1.2889 Z-0.6789
N350 X-0.0255 Y-1.288 Z-0.6827
N355 X-0.0251 Y-1.2865 Z-0.6863
N360 X-0.0246 Y-1.2845 Z-0.6897
N365 X-0.024 Y-1.2821 Z-0.6927
N370 X-0.0232 Y-1.2792 Z-0.6952
N375 X-0.0224 Y-1.2759 Z-0.6973
N380 X-0.0215 Y-1.2724 Z-0.6988
N385 X-0.0205 Y-1.2687 Z-0.6997
N390 X-0.0196 Y-1.2649 Z-0.7
N395 G3 X0. Y-1.1288 I-0.6183 J0.1584
N400 G1 Y-1.1228
N405 X-0.0072 Y-1.0874
N410 X-0.0124 Y-1.0516
N415 X-0.0161 Y-1.0156
N420 X-0.0187 Y-0.9795
N425 X-0.0206 Y-0.9434
N430 X-0.0219 Y-0.9072
N435 X-0.0228 Y-0.871
N440 X-0.0234 Y-0.8349
N445 X-0.0239 Y-0.7987
N450 X-0.0242 Y-0.7625
N455 X-0.0245 Y-0.7263
N460 X-0.0246 Y-0.6901
N465 X-0.0248 Y-0.6178
N470 Y-0.6074
N475 X-0.026 Y-0.5957
N480 X-0.0296 Y-0.5844
N485 X-0.0353 Y-0.5742
N490 X-0.0429 Y-0.5652
N495 X-0.0522 Y-0.558
N500 X-0.056 Y-0.5557
N505 X-0.0642 Y-0.5504
N510 X-0.0704 Y-0.5452
N515 X-0.0797 Y-0.537
N520 X-0.0869 Y-0.5288
N525 X-0.0889 Y-0.5263
N530 X-0.0971 Y-0.5144
N535 X-0.1026 Y-0.5041
N540 X-0.1053 Y-0.4978
N545 X-0.1061 Y-0.4959
N550 X-0.1091 Y-0.4877
N555 X-0.1113 Y-0.4794
N560 X-0.113 Y-0.4712
N565 X-0.1135 Y-0.4682
N570 X-0.1149 Y-0.4466
N575 X-0.115 Y-0.4383
N580 Y-0.0684
N585 X-0.1149 Y-0.0602
N590 X-0.1145 Y-0.0437
N595 X-0.114 Y-0.0355
N600 X-0.1109 Y-0.0191
N605 X-0.1086 Y-0.0109
N610 X-0.1056 Y-0.0026
N615 X-0.1018 Y0.0056
N620 X-0.0971 Y0.0142
N625 X-0.092 Y0.022
N630 X-0.0889 Y0.0263
N635 X-0.0858 Y0.0302
N640 X-0.0806 Y0.0357
N645 X-0.078 Y0.0385
N650 X-0.0724 Y0.0438
N655 X-0.0689 Y0.0467
N660 X-0.0642 Y0.0505
N665 X-0.0577 Y0.0549
N670 X-0.0429 Y0.0631
N675 X-0.0395 Y0.0646
N680 X-0.0313 Y0.0679
N685 X-0.0198 Y0.0713
N690 X-0.0149 Y0.0723
N695 X-0.0067 Y0.0738
N700 X0.0015 Y0.0746
N705 X0.0098 Y0.0748
N710 X0.0262 Y0.075
N715 X0.0591
N720 X0.5439
N725 X0.5521 Y0.0749
N730 X0.5604 Y0.0745
N735 X0.5686 Y0.0735
N740 X0.5768 Y0.0719
N745 X0.5794 Y0.0713
N750 X0.585 Y0.0699
N755 X0.5932 Y0.0672
N760 X0.6014 Y0.0637
N765 X0.6156 Y0.0583
N770 X0.6466 Y0.0493
N775 X0.6821 Y0.0419
N780 X0.7179 Y0.0369
N785 X0.7539 Y0.0333
N790 X0.79 Y0.0308
N795 X0.8262 Y0.0291
N800 X0.8623 Y0.0279
N805 X0.8985 Y0.027
N810 X0.9347 Y0.0264
N815 X0.9708 Y0.026
N820 X1.007 Y0.0257
N825 X1.0432 Y0.0255
N830 X1.0794 Y0.0254
N835 X1.1517 Y0.0252
N840 X1.2603 Y0.0251
N845 X1.3245 Y0.025
N850 X1.3353 Y0.026
N855 X1.3458 Y0.029
N860 X1.3555 Y0.0339
N865 X1.3641 Y0.0405
N870 X1.3709 Y0.0467
N875 X1.3821 Y0.055
N880 X1.3904 Y0.0596
N885 X1.3972 Y0.0631
N890 X1.4068 Y0.0672
N895 X1.415 Y0.0699
N900 X1.4206 Y0.0713
N905 X1.4232 Y0.0719
N910 X1.4314 Y0.0735
N915 X1.4397 Y0.0745
N920 X1.4479 Y0.0749
N925 X1.4561 Y0.075
N930 X1.9656
N935 X1.9738
N940 X1.9903 Y0.0748
N945 X1.9985 Y0.0746
N950 X2.0067 Y0.0738
N955 X2.0149 Y0.0723
N960 X2.0198 Y0.0713
N965 X2.0313 Y0.0679
N970 X2.0396 Y0.0646
N975 X2.0429 Y0.0631
N980 X2.0577 Y0.0549
N985 X2.0642 Y0.0505
N990 X2.0689 Y0.0467
N995 X2.0724 Y0.0438
N1000 X2.078 Y0.0385
N1005 X2.0807 Y0.0357
N1010 X2.0858 Y0.0302
N1015 X2.0889 Y0.0263
N1020 X2.092 Y0.022
N1025 X2.0971 Y0.0142
N1030 X2.1018 Y0.0056
N1035 X2.1056 Y-0.0026
N1040 X2.1086 Y-0.0109
N1045 X2.1109 Y-0.0191
N1050 X2.114 Y-0.0355
N1055 X2.1145 Y-0.0437
N1060 X2.1149 Y-0.0602
N1065 X2.115 Y-0.0684
N1070 Y-0.4383
N1075 X2.1149 Y-0.4466
N1080 X2.1135 Y-0.4681
N1085 X2.113 Y-0.4712
N1090 X2.1113 Y-0.4794
N1095 X2.1091 Y-0.4877
N1100 X2.1061 Y-0.4959
N1105 X2.1053 Y-0.4978
N1110 X2.1026 Y-0.5041
N1115 X2.0971 Y-0.5144
N1120 X2.0889 Y-0.5262
N1125 X2.0829 Y-0.5349
N1130 X2.0751 Y-0.5483
N1135 X2.0669 Y-0.5657
N1140 X2.0582 Y-0.5886
N1145 X2.0491 Y-0.6198
N1150 X2.0418 Y-0.6552
N1155 X2.0368 Y-0.6911
N1160 X2.0333 Y-0.7271
N1165 X2.0308 Y-0.7632
N1170 X2.0291 Y-0.7993
N1175 X2.0279 Y-0.8355
N1180 X2.027 Y-0.8716
N1185 X2.0267 Y-0.8897
N1190 X2.0216 Y-0.9071
N1195 X2.0032 Y-0.9383
N1200 X1.976 Y-0.9621
N1205 X1.9444 Y-0.9797
N1210 X1.9106 Y-0.9926
N1215 X1.8756 Y-1.0019
N1220 X1.8401 Y-1.0086
N1225 X1.8042 Y-1.0134
N1230 X1.7682 Y-1.0168
N1235 X1.7321 Y-1.0192
N1240 X1.696 Y-1.0209
N1245 X1.6598 Y-1.0221
N1250 X1.6236 Y-1.023
N1255 X1.5874 Y-1.0236
N1260 X1.5513 Y-1.024
N1265 X1.5151 Y-1.0243
N1270 X1.4789 Y-1.0245
N1275 X1.4427 Y-1.0246
N1280 X1.3704 Y-1.0248
N1285 X1.2618 Y-1.0249
N1290 X1.2169 Y-1.025
N1295 X1.206 Y-1.0259
N1300 X1.1954 Y-1.0288
N1305 X1.1856 Y-1.0335
N1310 X1.1767 Y-1.0399
N1315 X1.1685 Y-1.047
N1320 X1.1603 Y-1.0534
N1325 X1.1576 Y-1.0549
N1330 X1.1425 Y-1.0631
N1335 X1.1356 Y-1.0662
N1340 X1.1274 Y-1.0692
N1345 X1.1192 Y-1.0715
N1350 X1.1109 Y-1.0731
N1355 X1.1027 Y-1.0742
N1360 X1.0945 Y-1.0749
N1365 X1.0616 Y-1.075
N1370 X0.9302
N1375 X0.9055 Y-1.0749
N1380 X0.8973 Y-1.0742
N1385 X0.8891 Y-1.0731
N1390 X0.8808 Y-1.0715
N1395 X0.8726 Y-1.0692
N1400 X0.8644 Y-1.0662
N1405 X0.8606 Y-1.0645
N1410 X0.8455 Y-1.0587
N1415 X0.8149 Y-1.0496
N1420 X0.7794 Y-1.0422
N1425 X0.7436 Y-1.037
N1430 X0.7076 Y-1.0334
N1435 X0.6715 Y-1.0309
N1440 X0.6354 Y-1.0292
N1445 X0.5992 Y-1.0279
N1450 X0.5631 Y-1.0271
N1455 X0.5269 Y-1.0265
N1460 X0.4907 Y-1.026
N1465 X0.4545 Y-1.0257
N1470 X0.4183 Y-1.0255
N1475 X0.3822 Y-1.0254
N1480 X0.3098 Y-1.0252
N1485 X0.2193 Y-1.0251
N1490 X0.2018 Y-1.0209
N1495 X0.1696 Y-1.0042
N1500 X0.1446 Y-0.9781
N1505 X0.1257 Y-0.9472
N1510 X0.1117 Y-0.9138
N1515 X0.1015 Y-0.8791
N1520 X0.094 Y-0.8437
N1525 X0.0886 Y-0.8079
N1530 X0.0848 Y-0.772
N1535 X0.082 Y-0.7359
N1540 X0.08 Y-0.6998
N1545 X0.0778 Y-0.6637
N1550 X0.0744 Y-0.6375
N1555 X0.07 Y-0.6166
N1560 X0.0652 Y-0.6052
N1565 X0.0581 Y-0.595
N1570 X0.0491 Y-0.5866
N1575 X0.0385 Y-0.5803
N1580 X0.0268 Y-0.5763
N1585 X0.0145 Y-0.5749
N1590 G3 X-0.0086 Y-0.5923 I0.0007 J-0.025
N1595 G1 X-0.0098 Y-0.596 Z-0.6997
N1600 X-0.011 Y-0.5997 Z-0.6988
N1605 X-0.0121 Y-0.6031 Z-0.6973
N1610 X-0.0131 Y-0.6063 Z-0.6952
N1615 X-0.014 Y-0.6092 Z-0.6927
N1620 X-0.0148 Y-0.6116 Z-0.6897
N1625 X-0.0154 Y-0.6135 Z-0.6863
N1630 X-0.0158 Y-0.615 Z-0.6827
N1635 X-0.0161 Y-0.6159 Z-0.6789
N1640 X-0.0162 Y-0.6161 Z-0.675
N1645 G0 Z0.2
N1650 G1 X0.5633 Y0.104 F500.
N1655 G0 Z-0.65
N1660 G1 Z-0.675 F14.
N1665 X0.5634 Y0.1037 Z-0.6789
N1670 X0.564 Y0.103 Z-0.6827
N1675 X0.5649 Y0.1018 Z-0.6863
N1680 X0.566 Y0.1001 Z-0.6897
N1685 X0.5675 Y0.098 Z-0.6927
N1690 X0.5693 Y0.0956 Z-0.6952
N1695 X0.5712 Y0.0929 Z-0.6973
N1700 X0.5733 Y0.0899 Z-0.6988
N1705 X0.5755 Y0.0868 Z-0.6997
N1710 X0.5778 Y0.0836 Z-0.7
N1715 G3 X0.6014 Y0.0637 I0.0507 J0.0362
N1720 G1 X0.6028 Y0.0631
N1725 X0.6097 Y0.0596
N1730 X0.618 Y0.0549
N1735 X0.6291 Y0.0467
N1740 X0.6381 Y0.0385
N1745 X0.6425 Y0.0342
N1750 X0.663 Y0.0138
N1755 X0.6758 Y0.0022
N1760 X0.6863 Y-0.0059
N1765 X0.6995 Y-0.0144
N1770 X0.7163 Y-0.0235
N1775 X0.7377 Y-0.0329
N1780 X0.7658 Y-0.0426
N1785 X0.8008 Y-0.0517
N1790 X0.8364 Y-0.0582
N1795 X0.8723 Y-0.0629
N1800 X0.9083 Y-0.0662
N1805 X0.9444 Y-0.0687
N1810 X0.9806 Y-0.0704
N1815 X1.0167 Y-0.0717
N1820 X1.0529 Y-0.0726
N1825 X1.0891 Y-0.0733
N1830 X1.1252 Y-0.0738
N1835 X1.1614 Y-0.0741
N1840 X1.1976 Y-0.0744
N1845 X1.2243 Y-0.0745
N1850 X1.2357 Y-0.0734
N1855 X1.2468 Y-0.0701
N1860 X1.2569 Y-0.0647
N1865 X1.2658 Y-0.0574
N1870 X1.3575 Y0.0343
N1875 X1.3619 Y0.0385
N1880 X1.3641 Y0.0405
N1885 G3 X1.3455 Y0.0832 I-0.0176 J0.0178
N1890 G1 X0.6802 Y0.0558
N1895 G3 X0.663 Y0.0138 I0.001 J-0.025
N1900 G1 X0.7576 Y-0.0808
N1905 X0.7697 Y-0.0918
N1910 X0.7813 Y-0.1007
N1915 X0.7959 Y-0.1101
N1920 X0.814 Y-0.1199
N1925 X0.8372 Y-0.1301
N1930 X0.8675 Y-0.1406
N1935 X0.9025 Y-0.1496
N1940 X0.9381 Y-0.1563
N1945 X0.9739 Y-0.1612
N1950 X1.0099 Y-0.1648
N1955 X1.046 Y-0.1675
N1960 X1.0821 Y-0.1695
N1965 X1.1183 Y-0.1709
N1970 X1.1267 Y-0.1711
N1975 X1.1384 Y-0.1702
N1980 X1.1497 Y-0.1669
N1985 X1.1601 Y-0.1615
N1990 X1.1692 Y-0.154
N1995 X1.2658 Y-0.0574
N2000 G3 X1.2463 Y-0.0154 I-0.0183 J0.017
N2005 G1 X0.7746 Y-0.0388
N2010 G3 X0.7576 Y-0.0808 I0.0012 J-0.025
N2015 G1 X0.8562 Y-0.1794
N2020 X0.8674 Y-0.1896
N2025 X0.8794 Y-0.1988
N2030 X0.8942 Y-0.2084
N2035 X0.9128 Y-0.2184
N2040 X0.9366 Y-0.2289
N2045 X0.9676 Y-0.2396
N2050 X1.0026 Y-0.2487
N2055 X1.0328 Y-0.2544
N2060 X1.0441 Y-0.2554
N2065 X1.0554 Y-0.2542
N2070 X1.0662 Y-0.2509
N2075 X1.0762 Y-0.2455
N2080 X1.0849 Y-0.2383
N2085 G3 X1.074 Y-0.1973 I-0.0183 J0.017
N2090 G1 X0.8818 Y-0.1385
N2095 G3 X0.8562 Y-0.1794 I-0.0073 J-0.0239
N2100 G1 X0.9548 Y-0.278
N2105 X0.9636 Y-0.2859
N2110 X0.9647 Y-0.2868
N2115 X0.9749 Y-0.2931
N2120 X0.9861 Y-0.2971
N2125 X0.998 Y-0.2988
N2130 X1.01 Y-0.298
N2135 X1.0215 Y-0.2948
N2140 X1.0321 Y-0.2893
N2145 X1.0414 Y-0.2818
N2150 G3 X1.025 Y-0.2398 I-0.0183 J0.017
N2155 G1 X0.975 Y-0.2361
N2160 G3 X0.9548 Y-0.278 I-0.0019 J-0.0249
N2165 G1 X0.9795 Y-0.3027
N2170 X0.9837 Y-0.3068
N2175 X0.9857 Y-0.3084
N2180 X0.9877 Y-0.3096
N2185 X0.9897 Y-0.3107
N2190 X0.9918 Y-0.3115
N2195 X0.9959 Y-0.3125
N2200 X1. Y-0.3129
N2205 X1.0041 Y-0.3125
N2210 X1.0082 Y-0.3115
N2215 X1.0103 Y-0.3107
N2220 X1.0123 Y-0.3096
N2225 X1.0143 Y-0.3084
N2230 X1.0163 Y-0.3068
N2235 X1.0206 Y-0.3027
N2240 X1.1692 Y-0.154
N2245 G3 X1.173 Y-0.1253 I-0.0183 J0.017
N2250 G1 X1.1712 Y-0.1219 Z-0.6997
N2255 X1.1694 Y-0.1185 Z-0.6988
N2260 X1.1677 Y-0.1153 Z-0.6973
N2265 X1.1661 Y-0.1123 Z-0.6952
N2270 X1.1647 Y-0.1097 Z-0.6927
N2275 X1.1635 Y-0.1074 Z-0.6897
N2280 X1.1626 Y-0.1056 Z-0.6863
N2285 X1.1619 Y-0.1043 Z-0.6827
N2290 X1.1615 Y-0.1035 Z-0.6789
N2295 X1.1613 Y-0.1032 Z-0.675
N2300 G0 Z0.2
N2305 G1 X0.8986 Y-1.1049 F500.
N2310 G0 Z-0.65
N2315 G1 Z-0.675 F14.
N2320 X0.8985 Y-1.1047 Z-0.6789
N2325 X0.8979 Y-1.1039 Z-0.6827
N2330 X0.8971 Y-1.1027 Z-0.6863
N2335 X0.8959 Y-1.101 Z-0.6897
N2340 X0.8944 Y-1.0989 Z-0.6927
N2345 X0.8927 Y-1.0965 Z-0.6952
N2350 X0.8907 Y-1.0938 Z-0.6973
N2355 X0.8887 Y-1.0908 Z-0.6988
N2360 X0.8864 Y-1.0877 Z-0.6997
N2365 X0.8842 Y-1.0845 Z-0.7
N2370 G3 X0.8606 Y-1.0645 I-0.0508 J-0.036
N2375 G1 X0.8575 Y-1.0631
N2380 X0.8424 Y-1.0549
N2385 X0.8398 Y-1.0534
N2390 X0.8312 Y-1.0467
N2395 X0.8233 Y-1.0399
N2400 X0.8135 Y-1.0302
N2405 X0.797 Y-1.0138
N2410 X0.7842 Y-1.0022
N2415 X0.7736 Y-0.9941
N2420 X0.7605 Y-0.9856
N2425 X0.7436 Y-0.9765
N2430 X0.7223 Y-0.9671
N2435 X0.6942 Y-0.9574
N2440 X0.6592 Y-0.9483
N2445 X0.6236 Y-0.9418
N2450 X0.5877 Y-0.9371
N2455 X0.5517 Y-0.9338
N2460 X0.5156 Y-0.9313
N2465 X0.4795 Y-0.9296
N2470 X0.4433 Y-0.9283
N2475 X0.4071 Y-0.9274
N2480 X0.3709 Y-0.9267
N2485 X0.3348 Y-0.9262
N2490 X0.3005 Y-0.9145
N2495 X0.2715 Y-0.8929
N2500 X0.2482 Y-0.8653
N2505 X0.23 Y-0.834
N2510 X0.216 Y-0.8006
N2515 X0.2054 Y-0.766
N2520 X0.1969 Y-0.7309
N2525 X0.1892 Y-0.6955
N2530 X0.1811 Y-0.6602
N2535 X0.1734 Y-0.635
N2540 X0.1658 Y-0.6159
N2545 X0.1617 Y-0.6076
N2550 X0.1547 Y-0.5966
N2555 X0.1455 Y-0.5875
N2560 X0.1345 Y-0.5807
N2565 X0.1223 Y-0.5764
N2570 X0.1094 Y-0.575
N2575 X0.0344
N2580 X0.0262
N2585 X0.0145 Y-0.5749
N2590 G3 X-0.0086 Y-0.5923 I0.0007 J-0.025
N2595 G1 X-0.0098 Y-0.596 Z-0.6997
N2600 X-0.011 Y-0.5997 Z-0.6988
N2605 X-0.0121 Y-0.6031 Z-0.6973
N2610 X-0.0131 Y-0.6063 Z-0.6952
N2615 X-0.014 Y-0.6092 Z-0.6927
N2620 X-0.0148 Y-0.6116 Z-0.6897
N2625 X-0.0154 Y-0.6135 Z-0.6863
N2630 X-0.0158 Y-0.615 Z-0.6827
N2635 X-0.0161 Y-0.6159 Z-0.6789
N2640 X-0.0162 Y-0.6161 Z-0.675
N2645 G0 Z0.2
N2650 G1 X0.818 Y-1.0652 F500.
N2655 G0 Z-0.65
N2660 G1 Z-0.675 F14.
N2665 X0.8179 Y-1.0649 Z-0.6789
N2670 X0.8177 Y-1.064 Z-0.6827
N2675 X0.8173 Y-1.0625 Z-0.6863
N2680 X0.8168 Y-1.0605 Z-0.6897
N2685 X0.8162 Y-1.0581 Z-0.6927
N2690 X0.8155 Y-1.0552 Z-0.6952
N2695 X0.8146 Y-1.0519 Z-0.6973
N2700 X0.8137 Y-1.0484 Z-0.6988
N2705 X0.8128 Y-1.0447 Z-0.6997
N2710 X0.8118 Y-1.0409 Z-0.7
N2715 G3 X0.797 Y-1.0138 I-0.0604 J-0.0154
N2720 G1 X0.7001 Y-0.9168
N2725 X0.6906 Y-0.9082
N2730 X0.679 Y-0.8993
N2735 X0.6644 Y-0.8899
N2740 X0.6463 Y-0.8801
N2745 X0.623 Y-0.8699
N2750 X0.5928 Y-0.8594
N2755 X0.5577 Y-0.8504
N2760 X0.5222 Y-0.8437
N2765 X0.4863 Y-0.8388
N2770 X0.4503 Y-0.8352
N2775 X0.4158 Y-0.8244
N2780 X0.3855 Y-0.8046
N2785 X0.3603 Y-0.7787
N2790 X0.3394 Y-0.7491
N2795 X0.322 Y-0.7174
N2800 X0.3065 Y-0.6847
N2805 X0.2916 Y-0.6517
N2810 X0.2759 Y-0.6191
N2815 X0.267 Y-0.6039
N2820 X0.2598 Y-0.5941
N2825 X0.2507 Y-0.586
N2830 X0.2402 Y-0.58
N2835 X0.2287 Y-0.5763
N2840 X0.2166 Y-0.575
N2845 X0.1094
N2850 G3 X0.0864 Y-0.5926 I0.0009 J-0.025
N2855 G1 X0.0852 Y-0.5964 Z-0.6997
N2860 X0.0841 Y-0.6 Z-0.6988
N2865 X0.083 Y-0.6035 Z-0.6973
N2870 X0.082 Y-0.6067 Z-0.6952
N2875 X0.0812 Y-0.6095 Z-0.6927
N2880 X0.0804 Y-0.6119 Z-0.6897
N2885 X0.0798 Y-0.6139 Z-0.6863
N2890 X0.0794 Y-0.6153 Z-0.6827
N2895 X0.0791 Y-0.6162 Z-0.6789
N2900 X0.079 Y-0.6165 Z-0.675
N2905 G0 Z0.2
N2910 G1 X0.721 Y-0.9682 F500.
N2915 G0 Z-0.65
N2920 G1 Z-0.675 F14.
N2925 Y-0.9679 Z-0.6789
N2930 X0.7207 Y-0.967 Z-0.6827
N2935 X0.7204 Y-0.9656 Z-0.6863
N2940 X0.7199 Y-0.9636 Z-0.6897
N2945 X0.7192 Y-0.9611 Z-0.6927
N2950 X0.7185 Y-0.9582 Z-0.6952
N2955 X0.7177 Y-0.955 Z-0.6973
N2960 X0.7168 Y-0.9515 Z-0.6988
N2965 X0.7158 Y-0.9478 Z-0.6997
N2970 X0.7149 Y-0.944 Z-0.7
N2975 G3 X0.7001 Y-0.9168 I-0.0604 J-0.0154
N2980 G1 X0.6014 Y-0.8182
N2985 X0.5928 Y-0.8104
N2990 X0.5809 Y-0.8013
N2995 X0.5505 Y-0.7816
N3000 X0.5192 Y-0.7635
N3005 X0.4906 Y-0.7413
N3010 X0.4651 Y-0.7156
N3015 X0.4424 Y-0.6875
N3020 X0.4216 Y-0.6579
N3025 X0.4018 Y-0.6276
N3030 X0.3862 Y-0.6045
N3035 X0.384 Y-0.6015
N3040 X0.3816 Y-0.5986
N3045 X0.3791 Y-0.5959
N3050 G3 X0.3503 Y-0.592 I-0.017 J-0.0183
N3055 G1 X0.3469 Y-0.5939 Z-0.6997
N3060 X0.3435 Y-0.5956 Z-0.6988
N3065 X0.3403 Y-0.5973 Z-0.6973
N3070 X0.3373 Y-0.5989 Z-0.6952
N3075 X0.3347 Y-0.6003 Z-0.6927
N3080 X0.3325 Y-0.6015 Z-0.6897
N3085 X0.3306 Y-0.6024 Z-0.6863
N3090 X0.3293 Y-0.6031 Z-0.6827
N3095 X0.3285 Y-0.6036 Z-0.6789
N3100 X0.3282 Y-0.6037 Z-0.675
N3105 G0 Z0.2
N3110 G1 X0.6224 Y-0.8696 F500.
N3115 G0 Z-0.65
N3120 G1 Z-0.675 F14.
N3125 X0.6223 Y-0.8693 Z-0.6789
N3130 X0.6221 Y-0.8684 Z-0.6827
N3135 X0.6217 Y-0.8669 Z-0.6863
N3140 X0.6212 Y-0.865 Z-0.6897
N3145 X0.6206 Y-0.8625 Z-0.6927
N3150 X0.6199 Y-0.8596 Z-0.6952
N3155 X0.6191 Y-0.8564 Z-0.6973
N3160 X0.6182 Y-0.8528 Z-0.6988
N3165 X0.6172 Y-0.8491 Z-0.6997
N3170 X0.6163 Y-0.8454 Z-0.7
N3175 G3 X0.6014 Y-0.8182 I-0.0604 J-0.0154
N3180 G1 X0.3695 Y-0.5863
N3185 X0.3631 Y-0.5802
N3190 X0.3598 Y-0.5781
N3195 X0.3574 Y-0.5769
N3200 X0.3549 Y-0.5761
N3205 X0.3508 Y-0.5752
N3210 X0.3467 Y-0.575
N3215 X0.2166
N3220 G3 X0.1936 Y-0.5926 I0.0009 J-0.025
N3225 G1 X0.1925 Y-0.5964 Z-0.6997
N3230 X0.1913 Y-0.6 Z-0.6988
N3235 X0.1903 Y-0.6035 Z-0.6973
N3240 X0.1893 Y-0.6067 Z-0.6952
N3245 X0.1884 Y-0.6095 Z-0.6927
N3250 X0.1876 Y-0.6119 Z-0.6897
N3255 X0.187 Y-0.6139 Z-0.6863
N3260 X0.1866 Y-0.6153 Z-0.6827
N3265 X0.1863 Y-0.6162 Z-0.6789
N3270 X0.1862 Y-0.6165 Z-0.675
N3275 G0 Z0.2
N3280 G1 X2.1371 Y-0.4987 F500.
N3285 G0 Z-0.65
N3290 G1 Z-0.675 F14.
N3295 X2.1368 Y-0.4988 Z-0.6789
N3300 X2.1359 Y-0.4992 Z-0.6827
N3305 X2.1345 Y-0.4997 Z-0.6863
N3310 X2.1326 Y-0.5005 Z-0.6897
N3315 X2.1303 Y-0.5014 Z-0.6927
N3320 X2.1275 Y-0.5025 Z-0.6952
N3325 X2.1244 Y-0.5038 Z-0.6973
N3330 X2.121 Y-0.5051 Z-0.6988
N3335 X2.1175 Y-0.5065 Z-0.6997
N3340 X2.1138 Y-0.508 Z-0.7
N3345 G3 X2.0889 Y-0.5262 I0.0231 J-0.0579
N3350 G1 X2.0869 Y-0.5288
N3355 X2.0797 Y-0.537
N3360 X2.0704 Y-0.5452
N3365 X2.0642 Y-0.5504
N3370 X2.056 Y-0.5557
N3375 X2.0478 Y-0.5608
N3380 X2.046 Y-0.5617
N3385 X2.0407 Y-0.5644
N3390 X2.034 Y-0.5686
N3395 X2.0266 Y-0.5742
N3400 X2.0191 Y-0.5808
N3405 X2.0107 Y-0.5895
N3410 X2.0019 Y-0.6002
N3415 X1.9927 Y-0.6135
N3420 X1.9831 Y-0.6301
N3425 X1.9731 Y-0.6512
N3430 X1.9629 Y-0.6779
N3435 X1.9527 Y-0.7126
N3440 X1.9453 Y-0.748
N3445 X1.9382 Y-0.7835
N3450 X1.9203 Y-0.815
N3455 X1.8952 Y-0.841
N3460 X1.8654 Y-0.8616
N3465 X1.833 Y-0.8775
N3470 X1.7989 Y-0.8897
N3475 X1.7639 Y-0.8988
N3480 X1.7284 Y-0.9057
N3485 X1.6925 Y-0.9108
N3490 X1.6566 Y-0.9146
N3495 X1.6205 Y-0.9174
N3500 X1.5844 Y-0.9195
N3505 X1.5482 Y-0.921
N3510 X1.512 Y-0.9221
N3515 X1.4759 Y-0.9229
N3520 X1.4397 Y-0.9234
N3525 X1.4035 Y-0.9239
N3530 X1.3673 Y-0.9242
N3535 X1.316 Y-0.9245
N3540 X1.3048 Y-0.9257
N3545 X1.2939 Y-0.929
N3550 X1.2839 Y-0.9344
N3555 X1.2752 Y-0.9416
N3560 X1.1849 Y-1.0318
N3565 X1.1767 Y-1.0399
N3570 G3 X1.1726 Y-1.0686 I0.0181 J-0.0172
N3575 G1 X1.1744 Y-1.0721 Z-0.6997
N3580 X1.1762 Y-1.0755 Z-0.6988
N3585 X1.1778 Y-1.0787 Z-0.6973
N3590 X1.1794 Y-1.0817 Z-0.6952
N3595 X1.1807 Y-1.0843 Z-0.6927
N3600 X1.1819 Y-1.0866 Z-0.6897
N3605 X1.1829 Y-1.0884 Z-0.6863
N3610 X1.1836 Y-1.0897 Z-0.6827
N3615 X1.184 Y-1.0905 Z-0.6789
N3620 X1.1841 Y-1.0908 Z-0.675
N3625 G0 Z0.2
N3630 G1 X2.1015 Y-0.5601 F500.
N3635 G0 Z-0.65
N3640 G1 Z-0.675 F14.
N3645 X2.1012 Y-0.56 Z-0.6789
N3650 X2.1003 Y-0.5599 Z-0.6827
N3655 X2.0988 Y-0.5598 Z-0.6863
N3660 X2.0968 Y-0.5595 Z-0.6897
N3665 X2.0942 Y-0.5593 Z-0.6927
N3670 X2.0913 Y-0.5589 Z-0.6952
N3675 X2.0879 Y-0.5586 Z-0.6973
N3680 X2.0843 Y-0.5582 Z-0.6988
N3685 X2.0805 Y-0.5578 Z-0.6997
N3690 X2.0767 Y-0.5573 Z-0.7
N3695 G3 X2.046 Y-0.5617 I-0.0068 J-0.0619
N3700 G1 X2.0396 Y-0.5646
N3705 X2.0313 Y-0.5679
N3710 X2.0231 Y-0.5704
N3715 X2.0149 Y-0.5723
N3720 X2.0067 Y-0.5738
N3725 X1.9985 Y-0.5746
N3730 X1.9925 Y-0.5752
N3735 X1.986 Y-0.5769
N3740 X1.9787 Y-0.5794
N3745 X1.9712 Y-0.5827
N3750 X1.9625 Y-0.5874
N3755 X1.9537 Y-0.5932
N3760 X1.9442 Y-0.6004
N3765 X1.9336 Y-0.6101
N3770 X1.9234 Y-0.6209
N3775 X1.9122 Y-0.6349
N3780 X1.8919 Y-0.6649
N3785 X1.8718 Y-0.695
N3790 X1.847 Y-0.7214
N3795 X1.8185 Y-0.7437
N3800 X1.7872 Y-0.7618
N3805 X1.7541 Y-0.7763
N3810 X1.7198 Y-0.7878
N3815 X1.6847 Y-0.7967
N3820 X1.6492 Y-0.8035
N3825 X1.6134 Y-0.8088
N3830 X1.5774 Y-0.8128
N3835 X1.5414 Y-0.8159
N3840 X1.5052 Y-0.8182
N3845 X1.4691 Y-0.8199
N3850 X1.4329 Y-0.8212
N3855 X1.4177 Y-0.8216
N3860 X1.4067 Y-0.823
N3865 X1.3963 Y-0.8264
N3870 X1.3866 Y-0.8317
N3875 X1.3781 Y-0.8387
N3880 X1.2752 Y-0.9416
N3885 G3 X1.2714 Y-0.9703 I0.0183 J-0.017
N3890 G1 X1.2732 Y-0.9738 Z-0.6997
N3895 X1.275 Y-0.9772 Z-0.6988
N3900 X1.2767 Y-0.9804 Z-0.6973
N3905 X1.2782 Y-0.9833 Z-0.6952
N3910 X1.2796 Y-0.986 Z-0.6927
N3915 X1.2808 Y-0.9882 Z-0.6897
N3920 X1.2818 Y-0.99 Z-0.6863
N3925 X1.2825 Y-0.9914 Z-0.6827
N3930 X1.2829 Y-0.9922 Z-0.6789
N3935 X1.283 Y-0.9924 Z-0.675
N3940 G0 Z0.2
N3945 G1 X2.0502 Y-0.5947 F500.
N3950 G0 Z-0.65
N3955 G1 Z-0.675 F14.
N3960 X2.0499 Y-0.5946 Z-0.6789
N3965 X2.0491 Y-0.5941 Z-0.6827
N3970 X2.0478 Y-0.5934 Z-0.6863
N3975 X2.046 Y-0.5924 Z-0.6897
N3980 X2.0438 Y-0.5911 Z-0.6927
N3985 X2.0412 Y-0.5897 Z-0.6952
N3990 X2.0383 Y-0.5881 Z-0.6973
N3995 X2.0351 Y-0.5863 Z-0.6988
N4000 X2.0318 Y-0.5844 Z-0.6997
N4005 X2.0284 Y-0.5825 Z-0.7
N4010 G3 X1.9985 Y-0.5746 I-0.0304 J-0.0544
N4015 G1 X1.9903 Y-0.5748
N4020 X1.9738 Y-0.575
N4025 X1.9409
N4030 X1.9322 Y-0.5754
N4035 X1.9251 Y-0.5764
N4040 X1.9166 Y-0.5782
N4045 X1.9066 Y-0.5812
N4050 X1.8948 Y-0.5858
N4055 X1.8646 Y-0.6004
N4060 X1.8334 Y-0.6188
N4065 X1.8019 Y-0.6366
N4070 X1.7695 Y-0.6527
N4075 X1.7361 Y-0.6666
N4080 X1.7019 Y-0.6783
N4085 X1.667 Y-0.688
N4090 X1.6317 Y-0.6959
N4095 X1.5961 Y-0.7023
N4100 X1.5602 Y-0.7073
N4105 X1.5243 Y-0.7113
N4110 X1.5144 Y-0.7131
N4115 X1.505 Y-0.7166
N4120 X1.4963 Y-0.7217
N4125 X1.4886 Y-0.7281
N4130 X1.3781 Y-0.8387
N4135 G3 X1.3743 Y-0.8674 I0.0183 J-0.017
N4140 G1 X1.3761 Y-0.8709 Z-0.6997
N4145 X1.3779 Y-0.8743 Z-0.6988
N4150 X1.3796 Y-0.8775 Z-0.6973
N4155 X1.3811 Y-0.8804 Z-0.6952
N4160 X1.3825 Y-0.8831 Z-0.6927
N4165 X1.3837 Y-0.8853 Z-0.6897
N4170 X1.3847 Y-0.8871 Z-0.6863
N4175 X1.3854 Y-0.8884 Z-0.6827
N4180 X1.3858 Y-0.8893 Z-0.6789
N4185 X1.386 Y-0.8895 Z-0.675
N4190 G0 Z0.2
N4195 G1 X1.9921 Y-0.5965 F500.
N4200 G0 Z-0.65
N4205 G1 Z-0.675 F14.
N4210 X1.9918 Y-0.5963 Z-0.6789
N4215 X1.9911 Y-0.5959 Z-0.6827
N4220 X1.9898 Y-0.5951 Z-0.6863
N4225 X1.988 Y-0.594 Z-0.6897
N4230 X1.9858 Y-0.5927 Z-0.6927
N4235 X1.9832 Y-0.5912 Z-0.6952
N4240 X1.9804 Y-0.5895 Z-0.6973
N4245 X1.9773 Y-0.5877 Z-0.6988
N4250 X1.974 Y-0.5857 Z-0.6997
N4255 X1.9706 Y-0.5837 Z-0.7
N4260 G3 X1.9409 Y-0.575 I-0.0318 J-0.0536
N4265 G1 X1.8095
N4270 X1.7733 Y-0.5768
N4275 X1.7373 Y-0.5802
N4280 X1.7015 Y-0.5851
N4285 X1.6657 Y-0.5905
N4290 X1.6385 Y-0.5945
N4295 X1.6265 Y-0.5977
N4300 X1.6154 Y-0.6032
N4305 X1.6058 Y-0.611
N4310 G3 X1.6278 Y-0.6528 I0.0183 J-0.017
N4315 G1 X1.8123 Y-0.6247
N4320 G3 X1.8095 Y-0.575 I-0.0038 J0.0247
N4325 G1 X1.6533
N4330 X1.6492 Y-0.5752
N4335 X1.6451 Y-0.5761
N4340 X1.6426 Y-0.5769
N4345 X1.6402 Y-0.5781
N4350 X1.6369 Y-0.5802
N4355 X1.6305 Y-0.5863
N4360 X1.4886 Y-0.7281
N4365 G3 X1.4848 Y-0.7569 I0.0183 J-0.017
N4370 G1 X1.4866 Y-0.7603 Z-0.6997
N4375 X1.4884 Y-0.7637 Z-0.6988
N4380 X1.4901 Y-0.7669 Z-0.6973
N4385 X1.4917 Y-0.7699 Z-0.6952
N4390 X1.4931 Y-0.7725 Z-0.6927
N4395 X1.4943 Y-0.7748 Z-0.6897
N4400 X1.4952 Y-0.7766 Z-0.6863
N4405 X1.4959 Y-0.7779 Z-0.6827
N4410 X1.4964 Y-0.7787 Z-0.6789
N4415 X1.4965 Y-0.779 Z-0.675
N4420 G0 Z0.6
N4425 M5
N4430 G53 G0 Z0.

(2D Adaptive1 4)
N4435 M9
N4440 M1
N4445 T0 M6
N4450 S10000 M3
N4455 G54
N4460 M8
N4465 G0 X0.4353 Y-0.5486
N4470 G43 Z0.6 H0
N4475 T1
N4480 G0 Z-0.0875
N4485 G1 Z-0.0937 F12.5
N4490 X0.4352 Y-0.5483 Z-0.0957
N4495 X0.435 Y-0.5475 Z-0.0974
N4500 X0.4346 Y-0.5461 Z-0.0988
N4505 X0.4342 Y-0.5444 Z-0.0997
N4510 X0.4337 Y-0.5426 Z-0.1
N4515 G3 X0.4041 Y-0.4883 I-0.1208 J-0.0307
N4520 G1 X0.3991 Y-0.4833
N4525 X0.3981 Y-0.4824
N4530 X0.3975 Y-0.4821
N4535 X0.3968 Y-0.4817
N4540 X0.3959 Y-0.4814
N4545 X0.3949 Y-0.4813
N4550 X0.3918
N4555 G0 Z0.2
N4560 G1 X0.9485 Y-0.3751 F500.
N4565 G0 Z-0.0875
N4570 G1 Z-0.0937 F12.5
N4575 X0.9486 Y-0.3754 Z-0.0957
N4580 X0.9488 Y-0.3763 Z-0.0974
N4585 X0.9491 Y-0.3776 Z-0.0988
N4590 X0.9495 Y-0.3793 Z-0.0997
N4595 X0.95 Y-0.3812 Z-0.1
N4600 G3 X0.9797 Y-0.4355 I0.1208 J0.0307
N4605 G1 X0.9918 Y-0.4476
N4610 X0.9934 Y-0.4493
N4615 X0.9969 Y-0.4524
N4620 X0.9983 Y-0.4529
N4625 X0.9998 Y-0.4527
N4630 X1.0011 Y-0.452
N4635 X1.002 Y-0.4508
N4640 X1.0023 Y-0.4493
N4645 X1.0021 Y-0.4478
N4650 X1.0012 Y-0.4466
N4655 X0.9986 Y-0.4441
N4660 X0.9974 Y-0.4434
N4665 X0.996 Y-0.4432
N4670 X0.9947 Y-0.4435
N4675 X0.9935 Y-0.4442
N4680 X0.9928 Y-0.4454
N4685 X0.9925 Y-0.4467
N4690 X0.9927 Y-0.4481
N4695 X0.9934 Y-0.4493
N4700 X0.9959 Y-0.4517
N4705 X0.9965 Y-0.4521
N4710 X0.997 Y-0.4524
N4715 X0.9975 Y-0.4527
N4720 X0.998 Y-0.4529
N4725 X0.999 Y-0.4531
N4730 X1. Y-0.4532
N4735 X1.001 Y-0.4531
N4740 X1.002 Y-0.4529
N4745 X1.0025 Y-0.4527
N4750 X1.0031 Y-0.4524
N4755 X1.0036 Y-0.4521
N4760 X1.0041 Y-0.4517
N4765 X1.0167 Y-0.4392
N4770 G3 X1.0058 Y-0.4352 I-0.0046 J0.0043
N4775 G1 X1.0065 Y-0.4367 Z-0.0998
N4780 X1.007 Y-0.438 Z-0.0992
N4785 X1.0075 Y-0.4392 Z-0.0982
N4790 X1.0083 Y-0.4398 Z-0.0969
N4795 X1.0088 Y-0.4402 Z-0.0954
N4800 X1.009 Y-0.4403 Z-0.0938
N4805 G0 Z0.2
N4810 G1 X1.6776 Y-0.5019 F500.
N4815 G0 Z-0.0875
N4820 G1 Z-0.0937 F12.5
N4825 X1.6774 Y-0.5017 Z-0.0957
N4830 X1.6766 Y-0.5013 Z-0.0974
N4835 X1.6754 Y-0.5006 Z-0.0988
N4840 X1.6739 Y-0.4997 Z-0.0997
N4845 X1.6723 Y-0.4987 Z-0.1
N4850 G3 X1.6129 Y-0.4813 I-0.0637 J-0.1071
N4855 G1 X1.6051
N4860 X1.6041 Y-0.4814
N4865 X1.603 Y-0.4818
N4870 X1.6025 Y-0.4821
N4875 X1.602 Y-0.4824
N4880 X1.6009 Y-0.4833
N4885 X1.5989 Y-0.4853
N4890 G3 X1.6097 Y-0.4892 I0.0046 J-0.0043
N4895 G1 X1.6091 Y-0.4878 Z-0.0998
N4900 X1.6085 Y-0.4864 Z-0.0992
N4905 X1.608 Y-0.4853 Z-0.0982
N4910 X1.6072 Y-0.4846 Z-0.0969
N4915 X1.6067 Y-0.4842 Z-0.0954
N4920 X1.6066 Y-0.4841 Z-0.0938
N4925 G0 Z0.2
N4930 G1 X0.4353 Y-0.5486 F500.
N4935 G0 Z-0.1875
N4940 G1 Z-0.1937 F12.5
N4945 X0.4352 Y-0.5483 Z-0.1957
N4950 X0.435 Y-0.5475 Z-0.1974
N4955 X0.4346 Y-0.5461 Z-0.1988
N4960 X0.4342 Y-0.5444 Z-0.1997
N4965 X0.4337 Y-0.5426 Z-0.2
N4970 G3 X0.4041 Y-0.4883 I-0.1208 J-0.0307
N4975 G1 X0.3991 Y-0.4833
N4980 X0.3981 Y-0.4824
N4985 X0.3975 Y-0.4821
N4990 X0.3968 Y-0.4817
N4995 X0.3959 Y-0.4814
N5000 X0.3949 Y-0.4813
N5005 X0.3918
N5010 G0 Z0.2
N5015 G1 X0.9485 Y-0.3751 F500.
N5020 G0 Z-0.1875
N5025 G1 Z-0.1937 F12.5
N5030 X0.9486 Y-0.3754 Z-0.1957
N5035 X0.9488 Y-0.3763 Z-0.1974
N5040 X0.9491 Y-0.3776 Z-0.1988
N5045 X0.9495 Y-0.3793 Z-0.1997
N5050 X0.95 Y-0.3812 Z-0.2
N5055 G3 X0.9797 Y-0.4355 I0.1208 J0.0307
N5060 G1 X0.9918 Y-0.4476
N5065 X0.9934 Y-0.4493
N5070 X0.9969 Y-0.4524
N5075 X0.9983 Y-0.4529
N5080 X0.9998 Y-0.4527
N5085 X1.0011 Y-0.452
N5090 X1.002 Y-0.4508
N5095 X1.0023 Y-0.4493
N5100 X1.0021 Y-0.4478
N5105 X1.0012 Y-0.4466
N5110 X0.9986 Y-0.4441
N5115 X0.9974 Y-0.4434
N5120 X0.996 Y-0.4432
N5125 X0.9947 Y-0.4435
N5130 X0.9935 Y-0.4442
N5135 X0.9928 Y-0.4454
N5140 X0.9925 Y-0.4467
N5145 X0.9927 Y-0.4481
N5150 X0.9934 Y-0.4493
N5155 X0.9959 Y-0.4517
N5160 X0.9965 Y-0.4521
N5165 X0.997 Y-0.4524
N5170 X0.9975 Y-0.4527
N5175 X0.998 Y-0.4529
N5180 X0.999 Y-0.4531
N5185 X1. Y-0.4532
N5190 X1.001 Y-0.4531
N5195 X1.002 Y-0.4529
N5200 X1.0025 Y-0.4527
N5205 X1.0031 Y-0.4524
N5210 X1.0036 Y-0.4521
N5215 X1.0041 Y-0.4517
N5220 X1.0167 Y-0.4392
N5225 G3 X1.0058 Y-0.4352 I-0.0046 J0.0043
N5230 G1 X1.0065 Y-0.4367 Z-0.1998
N5235 X1.007 Y-0.438 Z-0.1992
N5240 X1.0075 Y-0.4392 Z-0.1982
N5245 X1.0083 Y-0.4398 Z-0.1969
N5250 X1.0088 Y-0.4402 Z-0.1954
N5255 X1.009 Y-0.4403 Z-0.1938
N5260 G0 Z0.2
N5265 G1 X1.6776 Y-0.5019 F500.
N5270 G0 Z-0.1875
N5275 G1 Z-0.1937 F12.5
N5280 X1.6774 Y-0.5017 Z-0.1957
N5285 X1.6766 Y-0.5013 Z-0.1974
N5290 X1.6754 Y-0.5006 Z-0.1988
N5295 X1.6739 Y-0.4997 Z-0.1997
N5300 X1.6723 Y-0.4987 Z-0.2
N5305 G3 X1.6129 Y-0.4813 I-0.0637 J-0.1071
N5310 G1 X1.6051
N5315 X1.6041 Y-0.4814
N5320 X1.603 Y-0.4818
N5325 X1.6025 Y-0.4821
N5330 X1.602 Y-0.4824
N5335 X1.6009 Y-0.4833
N5340 X1.5989 Y-0.4853
N5345 G3 X1.6097 Y-0.4892 I0.0046 J-0.0043
N5350 G1 X1.6091 Y-0.4878 Z-0.1998
N5355 X1.6085 Y-0.4864 Z-0.1992
N5360 X1.608 Y-0.4853 Z-0.1982
N5365 X1.6072 Y-0.4846 Z-0.1969
N5370 X1.6067 Y-0.4842 Z-0.1954
N5375 X1.6066 Y-0.4841 Z-0.1938
N5380 G0 Z0.2
N5385 G1 X0.4353 Y-0.5486 F500.
N5390 G0 Z-0.2875
N5395 G1 Z-0.2937 F12.5
N5400 X0.4352 Y-0.5483 Z-0.2957
N5405 X0.435 Y-0.5475 Z-0.2974
N5410 X0.4346 Y-0.5461 Z-0.2988
N5415 X0.4342 Y-0.5444 Z-0.2997
N5420 X0.4337 Y-0.5426 Z-0.3
N5425 G3 X0.4041 Y-0.4883 I-0.1208 J-0.0307
N5430 G1 X0.3991 Y-0.4833
N5435 X0.3981 Y-0.4824
N5440 X0.3975 Y-0.4821
N5445 X0.3968 Y-0.4817
N5450 X0.3959 Y-0.4814
N5455 X0.3949 Y-0.4813
N5460 X0.3918
N5465 G0 Z0.2
N5470 G1 X0.9485 Y-0.3751 F500.
N5475 G0 Z-0.2875
N5480 G1 Z-0.2937 F12.5
N5485 X0.9486 Y-0.3754 Z-0.2957
N5490 X0.9488 Y-0.3763 Z-0.2974
N5495 X0.9491 Y-0.3776 Z-0.2988
N5500 X0.9495 Y-0.3793 Z-0.2997
N5505 X0.95 Y-0.3812 Z-0.3
N5510 G3 X0.9797 Y-0.4355 I0.1208 J0.0307
N5515 G1 X0.9918 Y-0.4476
N5520 X0.9934 Y-0.4493
N5525 X0.9969 Y-0.4524
N5530 X0.9983 Y-0.4529
N5535 X0.9998 Y-0.4527
N5540 X1.0011 Y-0.452
N5545 X1.002 Y-0.4508
N5550 X1.0023 Y-0.4493
N5555 X1.0021 Y-0.4478
N5560 X1.0012 Y-0.4466
N5565 X0.9986 Y-0.4441
N5570 X0.9974 Y-0.4434
N5575 X0.996 Y-0.4432
N5580 X0.9947 Y-0.4435
N5585 X0.9935 Y-0.4442
N5590 X0.9928 Y-0.4454
N5595 X0.9925 Y-0.4467
N5600 X0.9927 Y-0.4481
N5605 X0.9934 Y-0.4493
N5610 X0.9959 Y-0.4517
N5615 X0.9965 Y-0.4521
N5620 X0.997 Y-0.4524
N5625 X0.9975 Y-0.4527
N5630 X0.998 Y-0.4529
N5635 X0.999 Y-0.4531
N5640 X1. Y-0.4532
N5645 X1.001 Y-0.4531
N5650 X1.002 Y-0.4529
N5655 X1.0025 Y-0.4527
N5660 X1.0031 Y-0.4524
N5665 X1.0036 Y-0.4521
N5670 X1.0041 Y-0.4517
N5675 X1.0167 Y-0.4392
N5680 G3 X1.0058 Y-0.4352 I-0.0046 J0.0043
N5685 G1 X1.0065 Y-0.4367 Z-0.2998
N5690 X1.007 Y-0.438 Z-0.2992
N5695 X1.0075 Y-0.4392 Z-0.2982
N5700 X1.0083 Y-0.4398 Z-0.2969
N5705 X1.0088 Y-0.4402 Z-0.2954
N5710 X1.009 Y-0.4403 Z-0.2938
N5715 G0 Z0.2
N5720 G1 X1.6776 Y-0.5019 F500.
N5725 G0 Z-0.2875
N5730 G1 Z-0.2937 F12.5
N5735 X1.6774 Y-0.5017 Z-0.2957
N5740 X1.6766 Y-0.5013 Z-0.2974
N5745 X1.6754 Y-0.5006 Z-0.2988
N5750 X1.6739 Y-0.4997 Z-0.2997
N5755 X1.6723 Y-0.4987 Z-0.3
N5760 G3 X1.6129 Y-0.4813 I-0.0637 J-0.1071
N5765 G1 X1.6051
N5770 X1.6041 Y-0.4814
N5775 X1.603 Y-0.4818
N5780 X1.6025 Y-0.4821
N5785 X1.602 Y-0.4824
N5790 X1.6009 Y-0.4833
N5795 X1.5989 Y-0.4853
N5800 G3 X1.6097 Y-0.4892 I0.0046 J-0.0043
N5805 G1 X1.6091 Y-0.4878 Z-0.2998
N5810 X1.6085 Y-0.4864 Z-0.2992
N5815 X1.608 Y-0.4853 Z-0.2982
N5820 X1.6072 Y-0.4846 Z-0.2969
N5825 X1.6067 Y-0.4842 Z-0.2954
N5830 X1.6066 Y-0.4841 Z-0.2938
N5835 G0 Z0.2
N5840 G1 X0.4353 Y-0.5486 F500.
N5845 G0 Z-0.3875
N5850 G1 Z-0.3938 F12.5
N5855 X0.4352 Y-0.5483 Z-0.3957
N5860 X0.435 Y-0.5475 Z-0.3974
N5865 X0.4346 Y-0.5461 Z-0.3988
N5870 X0.4342 Y-0.5444 Z-0.3997
N5875 X0.4337 Y-0.5426 Z-0.4
N5880 G3 X0.4041 Y-0.4883 I-0.1208 J-0.0307
N5885 G1 X0.3991 Y-0.4833
N5890 X0.3981 Y-0.4824
N5895 X0.3975 Y-0.4821
N5900 X0.3968 Y-0.4817
N5905 X0.3959 Y-0.4814
N5910 X0.3949 Y-0.4813
N5915 X0.3918
N5920 G0 Z0.2
N5925 G1 X0.9485 Y-0.3751 F500.
N5930 G0 Z-0.3875
N5935 G1 Z-0.3938 F12.5
N5940 X0.9486 Y-0.3754 Z-0.3957
N5945 X0.9488 Y-0.3763 Z-0.3974
N5950 X0.9491 Y-0.3776 Z-0.3988
N5955 X0.9495 Y-0.3793 Z-0.3997
N5960 X0.95 Y-0.3812 Z-0.4
N5965 G3 X0.9797 Y-0.4355 I0.1208 J0.0307
N5970 G1 X0.9918 Y-0.4476
N5975 X0.9934 Y-0.4493
N5980 X0.9969 Y-0.4524
N5985 X0.9983 Y-0.4529
N5990 X0.9998 Y-0.4527
N5995 X1.0011 Y-0.452
N6000 X1.002 Y-0.4508
N6005 X1.0023 Y-0.4493
N6010 X1.0021 Y-0.4478
N6015 X1.0012 Y-0.4466
N6020 X0.9986 Y-0.4441
N6025 X0.9974 Y-0.4434
N6030 X0.996 Y-0.4432
N6035 X0.9947 Y-0.4435
N6040 X0.9935 Y-0.4442
N6045 X0.9928 Y-0.4454
N6050 X0.9925 Y-0.4467
N6055 X0.9927 Y-0.4481
N6060 X0.9934 Y-0.4493
N6065 X0.9959 Y-0.4517
N6070 X0.9965 Y-0.4521
N6075 X0.997 Y-0.4524
N6080 X0.9975 Y-0.4527
N6085 X0.998 Y-0.4529
N6090 X0.999 Y-0.4531
N6095 X1. Y-0.4532
N6100 X1.001 Y-0.4531
N6105 X1.002 Y-0.4529
N6110 X1.0025 Y-0.4527
N6115 X1.0031 Y-0.4524
N6120 X1.0036 Y-0.4521
N6125 X1.0041 Y-0.4517
N6130 X1.0167 Y-0.4392
N6135 G3 X1.0058 Y-0.4352 I-0.0046 J0.0043
N6140 G1 X1.0065 Y-0.4367 Z-0.3998
N6145 X1.007 Y-0.438 Z-0.3992
N6150 X1.0075 Y-0.4392 Z-0.3982
N6155 X1.0083 Y-0.4398 Z-0.3969
N6160 X1.0088 Y-0.4402 Z-0.3954
N6165 X1.009 Y-0.4403 Z-0.3938
N6170 G0 Z0.2
N6175 G1 X1.6776 Y-0.5019 F500.
N6180 G0 Z-0.3875
N6185 G1 Z-0.3938 F12.5
N6190 X1.6774 Y-0.5017 Z-0.3957
N6195 X1.6766 Y-0.5013 Z-0.3974
N6200 X1.6754 Y-0.5006 Z-0.3988
N6205 X1.6739 Y-0.4997 Z-0.3997
N6210 X1.6723 Y-0.4987 Z-0.4
N6215 G3 X1.6129 Y-0.4813 I-0.0637 J-0.1071
N6220 G1 X1.6051
N6225 X1.6041 Y-0.4814
N6230 X1.603 Y-0.4818
N6235 X1.6025 Y-0.4821
N6240 X1.602 Y-0.4824
N6245 X1.6009 Y-0.4833
N6250 X1.5989 Y-0.4853
N6255 G3 X1.6097 Y-0.4892 I0.0046 J-0.0043
N6260 G1 X1.6091 Y-0.4878 Z-0.3998
N6265 X1.6085 Y-0.4864 Z-0.3992
N6270 X1.608 Y-0.4853 Z-0.3982
N6275 X1.6072 Y-0.4846 Z-0.3969
N6280 X1.6067 Y-0.4842 Z-0.3954
N6285 X1.6066 Y-0.4841 Z-0.3938
N6290 G0 Z0.2
N6295 G1 X0.4353 Y-0.5486 F500.
N6300 G0 Z-0.4875
N6305 G1 Z-0.4938 F12.5
N6310 X0.4352 Y-0.5483 Z-0.4957
N6315 X0.435 Y-0.5475 Z-0.4974
N6320 X0.4346 Y-0.5461 Z-0.4988
N6325 X0.4342 Y-0.5444 Z-0.4997
N6330 X0.4337 Y-0.5426 Z-0.5
N6335 G3 X0.4041 Y-0.4883 I-0.1208 J-0.0307
N6340 G1 X0.3991 Y-0.4833
N6345 X0.3981 Y-0.4824
N6350 X0.3975 Y-0.4821
N6355 X0.3968 Y-0.4817
N6360 X0.3959 Y-0.4814
N6365 X0.3949 Y-0.4813
N6370 X0.3918
N6375 G0 Z0.2
N6380 G1 X0.9485 Y-0.3751 F500.
N6385 G0 Z-0.4875
N6390 G1 Z-0.4938 F12.5
N6395 X0.9486 Y-0.3754 Z-0.4957
N6400 X0.9488 Y-0.3763 Z-0.4974
N6405 X0.9491 Y-0.3776 Z-0.4988
N6410 X0.9495 Y-0.3793 Z-0.4997
N6415 X0.95 Y-0.3812 Z-0.5
N6420 G3 X0.9797 Y-0.4355 I0.1208 J0.0307
N6425 G1 X0.9918 Y-0.4476
N6430 X0.9934 Y-0.4493
N6435 X0.9969 Y-0.4524
N6440 X0.9983 Y-0.4529
N6445 X0.9998 Y-0.4527
N6450 X1.0011 Y-0.452
N6455 X1.002 Y-0.4508
N6460 X1.0023 Y-0.4493
N6465 X1.0021 Y-0.4478
N6470 X1.0012 Y-0.4466
N6475 X0.9986 Y-0.4441
N6480 X0.9974 Y-0.4434
N6485 X0.996 Y-0.4432
N6490 X0.9947 Y-0.4435
N6495 X0.9935 Y-0.4442
N6500 X0.9928 Y-0.4454
N6505 X0.9925 Y-0.4467
N6510 X0.9927 Y-0.4481
N6515 X0.9934 Y-0.4493
N6520 X0.9959 Y-0.4517
N6525 X0.9965 Y-0.4521
N6530 X0.997 Y-0.4524
N6535 X0.9975 Y-0.4527
N6540 X0.998 Y-0.4529
N6545 X0.999 Y-0.4531
N6550 X1. Y-0.4532
N6555 X1.001 Y-0.4531
N6560 X1.002 Y-0.4529
N6565 X1.0025 Y-0.4527
N6570 X1.0031 Y-0.4524
N6575 X1.0036 Y-0.4521
N6580 X1.0041 Y-0.4517
N6585 X1.0167 Y-0.4392
N6590 G3 X1.0058 Y-0.4352 I-0.0046 J0.0043
N6595 G1 X1.0065 Y-0.4367 Z-0.4998
N6600 X1.007 Y-0.438 Z-0.4992
N6605 X1.0075 Y-0.4392 Z-0.4982
N6610 X1.0083 Y-0.4398 Z-0.4969
N6615 X1.0088 Y-0.4402 Z-0.4954
N6620 X1.009 Y-0.4403 Z-0.4938
N6625 G0 Z0.2
N6630 G1 X1.6776 Y-0.5019 F500.
N6635 G0 Z-0.4875
N6640 G1 Z-0.4938 F12.5
N6645 X1.6774 Y-0.5017 Z-0.4957
N6650 X1.6766 Y-0.5013 Z-0.4974
N6655 X1.6754 Y-0.5006 Z-0.4988
N6660 X1.6739 Y-0.4997 Z-0.4997
N6665 X1.6723 Y-0.4987 Z-0.5
N6670 G3 X1.6129 Y-0.4813 I-0.0637 J-0.1071
N6675 G1 X1.6051
N6680 X1.6041 Y-0.4814
N6685 X1.603 Y-0.4818
N6690 X1.6025 Y-0.4821
N6695 X1.602 Y-0.4824
N6700 X1.6009 Y-0.4833
N6705 X1.5989 Y-0.4853
N6710 G3 X1.6097 Y-0.4892 I0.0046 J-0.0043
N6715 G1 X1.6091 Y-0.4878 Z-0.4998
N6720 X1.6085 Y-0.4864 Z-0.4992
N6725 X1.608 Y-0.4853 Z-0.4982
N6730 X1.6072 Y-0.4846 Z-0.4969
N6735 X1.6067 Y-0.4842 Z-0.4954
N6740 X1.6066 Y-0.4841 Z-0.4938
N6745 G0 Z0.2
N6750 G1 X0.4353 Y-0.5486 F500.
N6755 G0 Z-0.5875
N6760 G1 Z-0.5938 F12.5
N6765 X0.4352 Y-0.5483 Z-0.5957
N6770 X0.435 Y-0.5475 Z-0.5974
N6775 X0.4346 Y-0.5461 Z-0.5988
N6780 X0.4342 Y-0.5444 Z-0.5997
N6785 X0.4337 Y-0.5426 Z-0.6
N6790 G3 X0.4041 Y-0.4883 I-0.1208 J-0.0307
N6795 G1 X0.3991 Y-0.4833
N6800 X0.3981 Y-0.4824
N6805 X0.3975 Y-0.4821
N6810 X0.3968 Y-0.4817
N6815 X0.3959 Y-0.4814
N6820 X0.3949 Y-0.4813
N6825 X0.3918
N6830 G0 Z0.2
N6835 G1 X0.9485 Y-0.3751 F500.
N6840 G0 Z-0.5875
N6845 G1 Z-0.5938 F12.5
N6850 X0.9486 Y-0.3754 Z-0.5957
N6855 X0.9488 Y-0.3763 Z-0.5974
N6860 X0.9491 Y-0.3776 Z-0.5988
N6865 X0.9495 Y-0.3793 Z-0.5997
N6870 X0.95 Y-0.3812 Z-0.6
N6875 G3 X0.9797 Y-0.4355 I0.1208 J0.0307
N6880 G1 X0.9918 Y-0.4476
N6885 X0.9934 Y-0.4493
N6890 X0.9969 Y-0.4524
N6895 X0.9983 Y-0.4529
N6900 X0.9998 Y-0.4527
N6905 X1.0011 Y-0.452
N6910 X1.002 Y-0.4508
N6915 X1.0023 Y-0.4493
N6920 X1.0021 Y-0.4478
N6925 X1.0012 Y-0.4466
N6930 X0.9986 Y-0.4441
N6935 X0.9974 Y-0.4434
N6940 X0.996 Y-0.4432
N6945 X0.9947 Y-0.4435
N6950 X0.9935 Y-0.4442
N6955 X0.9928 Y-0.4454
N6960 X0.9925 Y-0.4467
N6965 X0.9927 Y-0.4481
N6970 X0.9934 Y-0.4493
N6975 X0.9959 Y-0.4517
N6980 X0.9965 Y-0.4521
N6985 X0.997 Y-0.4524
N6990 X0.9975 Y-0.4527
N6995 X0.998 Y-0.4529
N7000 X0.999 Y-0.4531
N7005 X1. Y-0.4532
N7010 X1.001 Y-0.4531
N7015 X1.002 Y-0.4529
N7020 X1.0025 Y-0.4527
N7025 X1.0031 Y-0.4524
N7030 X1.0036 Y-0.4521
N7035 X1.0041 Y-0.4517
N7040 X1.0167 Y-0.4392
N7045 G3 X1.0058 Y-0.4352 I-0.0046 J0.0043
N7050 G1 X1.0065 Y-0.4367 Z-0.5998
N7055 X1.007 Y-0.438 Z-0.5992
N7060 X1.0075 Y-0.4392 Z-0.5982
N7065 X1.0083 Y-0.4398 Z-0.5969
N7070 X1.0088 Y-0.4402 Z-0.5954
N7075 X1.009 Y-0.4403 Z-0.5938
N7080 G0 Z0.2
N7085 G1 X1.6776 Y-0.5019 F500.
N7090 G0 Z-0.5875
N7095 G1 Z-0.5938 F12.5
N7100 X1.6774 Y-0.5017 Z-0.5957
N7105 X1.6766 Y-0.5013 Z-0.5974
N7110 X1.6754 Y-0.5006 Z-0.5988
N7115 X1.6739 Y-0.4997 Z-0.5997
N7120 X1.6723 Y-0.4987 Z-0.6
N7125 G3 X1.6129 Y-0.4813 I-0.0637 J-0.1071
N7130 G1 X1.6051
N7135 X1.6041 Y-0.4814
N7140 X1.603 Y-0.4818
N7145 X1.6025 Y-0.4821
N7150 X1.602 Y-0.4824
N7155 X1.6009 Y-0.4833
N7160 X1.5989 Y-0.4853
N7165 G3 X1.6097 Y-0.4892 I0.0046 J-0.0043
N7170 G1 X1.6091 Y-0.4878 Z-0.5998
N7175 X1.6085 Y-0.4864 Z-0.5992
N7180 X1.608 Y-0.4853 Z-0.5982
N7185 X1.6072 Y-0.4846 Z-0.5969
N7190 X1.6067 Y-0.4842 Z-0.5954
N7195 X1.6066 Y-0.4841 Z-0.5938
N7200 G0 Z0.2
N7205 G1 X0.4353 Y-0.5486 F500.
N7210 G0 Z-0.6875
N7215 G1 Z-0.6938 F12.5
N7220 X0.4352 Y-0.5483 Z-0.6957
N7225 X0.435 Y-0.5475 Z-0.6974
N7230 X0.4346 Y-0.5461 Z-0.6988
N7235 X0.4342 Y-0.5444 Z-0.6997
N7240 X0.4337 Y-0.5426 Z-0.7
N7245 G3 X0.4041 Y-0.4883 I-0.1208 J-0.0307
N7250 G1 X0.3991 Y-0.4833
N7255 X0.3981 Y-0.4824
N7260 X0.3975 Y-0.4821
N7265 X0.3968 Y-0.4817
N7270 X0.3959 Y-0.4814
N7275 X0.3949 Y-0.4813
N7280 X0.3918
N7285 G0 Z0.2
N7290 G1 X0.9485 Y-0.3751 F500.
N7295 G0 Z-0.6875
N7300 G1 Z-0.6938 F12.5
N7305 X0.9486 Y-0.3754 Z-0.6957
N7310 X0.9488 Y-0.3763 Z-0.6974
N7315 X0.9491 Y-0.3776 Z-0.6988
N7320 X0.9495 Y-0.3793 Z-0.6997
N7325 X0.95 Y-0.3812 Z-0.7
N7330 G3 X0.9797 Y-0.4355 I0.1208 J0.0307
N7335 G1 X0.9918 Y-0.4476
N7340 X0.9934 Y-0.4493
N7345 X0.9969 Y-0.4524
N7350 X0.9983 Y-0.4529
N7355 X0.9998 Y-0.4527
N7360 X1.0011 Y-0.452
N7365 X1.002 Y-0.4508
N7370 X1.0023 Y-0.4493
N7375 X1.0021 Y-0.4478
N7380 X1.0012 Y-0.4466
N7385 X0.9986 Y-0.4441
N7390 X0.9974 Y-0.4434
N7395 X0.996 Y-0.4432
N7400 X0.9947 Y-0.4435
N7405 X0.9935 Y-0.4442
N7410 X0.9928 Y-0.4454
N7415 X0.9925 Y-0.4467
N7420 X0.9927 Y-0.4481
N7425 X0.9934 Y-0.4493
N7430 X0.9959 Y-0.4517
N7435 X0.9965 Y-0.4521
N7440 X0.997 Y-0.4524
N7445 X0.9975 Y-0.4527
N7450 X0.998 Y-0.4529
N7455 X0.999 Y-0.4531
N7460 X1. Y-0.4532
N7465 X1.001 Y-0.4531
N7470 X1.002 Y-0.4529
N7475 X1.0025 Y-0.4527
N7480 X1.0031 Y-0.4524
N7485 X1.0036 Y-0.4521
N7490 X1.0041 Y-0.4517
N7495 X1.0167 Y-0.4392
N7500 G3 X1.0058 Y-0.4352 I-0.0046 J0.0043
N7505 G1 X1.0065 Y-0.4367 Z-0.6998
N7510 X1.007 Y-0.438 Z-0.6992
N7515 X1.0075 Y-0.4392 Z-0.6982
N7520 X1.0083 Y-0.4398 Z-0.6969
N7525 X1.0088 Y-0.4402 Z-0.6954
N7530 X1.009 Y-0.4403 Z-0.6938
N7535 G0 Z0.2
N7540 G1 X1.6776 Y-0.5019 F500.
N7545 G0 Z-0.6875
N7550 G1 Z-0.6938 F12.5
N7555 X1.6774 Y-0.5017 Z-0.6957
N7560 X1.6766 Y-0.5013 Z-0.6974
N7565 X1.6754 Y-0.5006 Z-0.6988
N7570 X1.6739 Y-0.4997 Z-0.6997
N7575 X1.6723 Y-0.4987 Z-0.7
N7580 G3 X1.6129 Y-0.4813 I-0.0637 J-0.1071
N7585 G1 X1.6051
N7590 X1.6041 Y-0.4814
N7595 X1.603 Y-0.4818
N7600 X1.6025 Y-0.4821
N7605 X1.602 Y-0.4824
N7610 X1.6009 Y-0.4833
N7615 X1.5989 Y-0.4853
N7620 G3 X1.6066 Y-0.4841 I0.0046 J-0.0043
N7625 G0 Z0.6

N7630 M5
N7635 M9
N7640 G53 G0 Z0.
N7645 X1.
N7650 G53 G0 Y0.
N7655 M30

%
