%
O01007
(Using high feed G1 F500. instead of G0.)
(T2 D=0.5 CR=0. TAPER=118deg - ZMIN=-0.05 - center drill)
(T8 D=0.2656 CR=0. TAPER=118deg - ZMIN=-0.5798 - drill)
N10 G90 G94 G17
N15 G20
N20 G53 G0 Z0.

(Drill4 2)
N25 T2 M6
N30 S2290 M3
N35 G54
N40 M8
N45 G0 X0.19 Y-0.5
N50 G43 Z0.6 H2
N55 T8
N60 G0 Z0.2
N65 G98 G81 X0.19 Y-0.5 Z-0.05 R0.2 F29.
N70 X1.79
N75 G80
N80 G0 Z0.6
N85 M5
N90 G53 G0 Z0.

(Drill5 2)
N95 M9
N100 M1
N105 T8 M6
N110 S650 M3
N115 G54
N120 M8
N125 G0 X0.19 Y-0.5
N130 G43 Z0.6 H8
N135 T2
N140 G0 Z0.2
N145 G98 G73 X0.19 Y-0.5 Z-0.5798 R0.2 Q0.0664 F2.
N150 X1.79
N155 G80
N160 G0 Z0.6

N165 M5
N170 M9
N175 G53 G0 Z0.
N180 X0.99
N185 G53 G0 Y0.
N190 M30

%
