%
O01008
(Using high feed G1 F500. instead of G0.)
(T1 D=2. CR=0. - ZMIN=-0.3 - face mill)
N10 G90 G94 G17
N15 G20
N20 G53 G0 Z0.

(Face1 4)
N25 T1 M6
N30 S6500 M3
N35 G54
N40 M8
N45 G0 X3.6357 Y-1.9133
N50 G43 Z0.6 H1
N55 G0 Z0.2
N60 G1 Z0. F65.
N65 G18 G3 X3.4357 Z-0.2 I-0.2 K0.
N70 G1 X2.838
N75 X-0.858
N80 G3 X-1.058 Z0. I0. K0.2
N85 G0 Z0.2
N90 G1 X4.2101 Y-0.9367 F500.
N95 Z0. F65.
N100 G3 X4.0101 Z-0.2 I-0.2 K0.
N105 G1 X2.98
N110 X-1.
N115 G3 X-1.2 Z0. I0. K0.2
N120 G0 Z0.2
N125 G1 X4.2794 Y0.04 F500.
N130 Z0. F65.
N135 G3 X4.0794 Z-0.2 I-0.2 K0.
N140 G1 X2.98
N145 X-1.
N150 G3 X-1.2 Z0. I0. K0.2
N155 G0 Z0.2
N160 G1 X3.6357 Y-1.9133 F500.
N165 Z-0.1 F65.
N170 G3 X3.4357 Z-0.3 I-0.2 K0.
N175 G1 X2.838
N180 X-0.858
N185 G3 X-1.058 Z-0.1 I0. K0.2
N190 G0 Z0.2
N195 G1 X4.2101 Y-0.9367 F500.
N200 Z-0.1 F65.
N205 G3 X4.0101 Z-0.3 I-0.2 K0.
N210 G1 X2.98
N215 X-1.
N220 G3 X-1.2 Z-0.1 I0. K0.2
N225 G0 Z0.2
N230 G1 X4.2794 Y0.04 F500.
N235 Z-0.1 F65.
N240 G3 X4.0794 Z-0.3 I-0.2 K0.
N245 G1 X2.98
N250 X-1.
N255 G3 X-1.2 Z-0.1 I0. K0.2
N260 G0 Z0.6

N265 M5
N270 M9
N275 G53 G0 Z0.
N280 X0.99
N285 G53 G0 Y0.
N290 M30

%
