%
O01001
(Using high feed G1 F500. instead of G0.)
(T0 D=0.0625 CR=0. - ZMIN=-1.75 - flat end mill)
(T1 D=2. CR=0. - ZMIN=-0.25 - face mill)
(T2 D=0.5 CR=0. TAPER=118deg - ZMIN=-0.4 - center drill)
(T3 D=0.25 CR=0. - ZMIN=-1.75 - flat end mill)
(T5 D=0.4063 CR=0. TAPER=118deg - ZMIN=-1.972 - drill)
(T20 D=0.5 CR=0. TAPER=90deg - ZMIN=-0.5 - countersink)
N10 G90 G94 G17
N15 G20
N20 G53 G0 Z0.

(Face1)
N25 T1 M6
N30 S6500 M3
N35 G54
N40 M8
N45 G0 X4.2642 Y-3.0075
N50 G43 Z0.6 H1
N55 T2
N60 G0 Z0.2
N65 G1 Z0.05 F65.
N70 G18 G3 X4.0642 Z-0.15 I-0.2 K0.
N75 G1 X3.2482
N80 X-0.7482
N85 G3 X-0.9482 Z0.05 I0. K0.2
N90 G0 Z0.2
N95 G1 X4.5462 Y-2.075 F500.
N100 Z0.05 F65.
N105 G3 X4.3462 Z-0.15 I-0.2 K0.
N110 G1 X3.25
N115 X-0.75
N120 G3 X-0.95 Z0.05 I0. K0.2
N125 G0 Z0.2
N130 G1 X4.5099 Y-1.1425 F500.
N135 Z0.05 F65.
N140 G3 X4.3099 Z-0.15 I-0.2 K0.
N145 G1 X3.25
N150 X-0.75
N155 G3 X-0.95 Z0.05 I0. K0.2
N160 G0 Z0.2
N165 G1 X4.5495 Y-0.21 F500.
N170 Z0.05 F65.
N175 G3 X4.3495 Z-0.15 I-0.2 K0.
N180 G1 X3.25
N185 X-0.75
N190 G3 X-0.95 Z0.05 I0. K0.2
N195 G0 Z0.2
N200 G1 X4.2642 Y-3.0075 F500.
N205 Z-0.05 F65.
N210 G3 X4.0642 Z-0.25 I-0.2 K0.
N215 G1 X3.2482
N220 X-0.7482
N225 G3 X-0.9482 Z-0.05 I0. K0.2
N230 G0 Z0.2
N235 G1 X4.5462 Y-2.075 F500.
N240 Z-0.05 F65.
N245 G3 X4.3462 Z-0.25 I-0.2 K0.
N250 G1 X3.25
N255 X-0.75
N260 G3 X-0.95 Z-0.05 I0. K0.2
N265 G0 Z0.2
N270 G1 X4.5099 Y-1.1425 F500.
N275 Z-0.05 F65.
N280 G3 X4.3099 Z-0.25 I-0.2 K0.
N285 G1 X3.25
N290 X-0.75
N295 G3 X-0.95 Z-0.05 I0. K0.2
N300 G0 Z0.2
N305 G1 X4.5495 Y-0.21 F500.
N310 Z-0.05 F65.
N315 G3 X4.3495 Z-0.25 I-0.2 K0.
N320 G1 X3.25
N325 X-0.75
N330 G3 X-0.95 Z-0.05 I0. K0.2
N335 G0 Z0.6
N340 M5
N345 G53 G0 Z0.

(Drill1)
N350 M9
N355 M1
N360 T2 M6
N365 S2290 M3
N370 G54
N375 M8
N380 G17
N385 G0 X1.25 Y-1.45
N390 G43 Z0.6 H2
N395 T5
N400 G0 Z0.2
N405 G98 G81 X1.25 Y-1.45 Z-0.4 R-0.05 F29.
N410 G80
N415 G0 Z0.6
N420 M5
N425 G53 G0 Z0.

(Drill2)
N430 M9
N435 M1
N440 T5 M6
N445 S420 M3
N450 G54
N455 M8
N460 G0 X1.25 Y-1.45
N465 G43 Z0.6 H5
N470 T20
N475 G0 Z0.2
N480 Z-0.05
N485 Z-0.17
N490 G1 Z-0.3516 F2.
N495 G0 Z-0.3434
N500 G1 Z-0.4531 F2.
N505 G0 Z-0.445
N510 G1 Z-0.5547 F2.
N515 G0 Z-0.5466
N520 G1 Z-0.6563 F2.
N525 G0 Z-0.6481
N530 G1 Z-0.7578 F2.
N535 G0 Z-0.7497
N540 G1 Z-0.8594 F2.
N545 G0 Z-0.8513
N550 G1 Z-0.9609 F2.
N555 G0 Z-0.9528
N560 G1 Z-1.0625 F2.
N565 G0 Z-1.0544
N570 G1 Z-1.1641 F2.
N575 G0 Z-1.1559
N580 G1 Z-1.2656 F2.
N585 G0 Z-1.2575
N590 G1 Z-1.3672 F2.
N595 G0 Z0.2
N600 Z-1.2872
N605 G1 Z-1.4688 F2.
N610 G0 Z-1.4606
N615 G1 Z-1.5703 F2.
N620 G0 Z-1.5622
N625 G1 Z-1.6719 F2.
N630 G0 Z-1.6638
N635 G1 Z-1.7734 F2.
N640 G0 Z-1.7653
N645 G1 Z-1.875 F2.
N650 G0 Z-1.8669
N655 G1 Z-1.972 F2.
N660 G0 Z0.2
N665 Z0.6
N670 M5
N675 G53 G0 Z0.

(Drill3)
N680 M9
N685 M1
N690 T20 M6
N695 S5000 M3
N700 G54
N705 M8
N710 G0 X1.25 Y-1.45
N715 G43 Z0.6 H20
N720 T3
N725 G0 Z0.2
N730 G98 G81 X1.25 Y-1.45 Z-0.5 R-0.05 F20.
N735 G80
N740 G0 Z0.6
N745 M5
N750 G53 G0 Z0.

(2D Adaptive1)
N755 M9
N760 M1
N765 T3 M6
N770 S2750 M3
N775 G54
N780 M8
N785 G0 X-0.0258 Y-2.4866
N790 G43 Z0.6 H3
N795 T0
N800 G0 Z0.2
N805 Z-0.7
N810 G1 Z-0.725 F14.
N815 X-0.0257 Y-2.4863 Z-0.7289
N820 X-0.0255 Y-2.4855 Z-0.7327
N825 X-0.0251 Y-2.484 Z-0.7363
N830 X-0.0246 Y-2.482 Z-0.7397
N835 X-0.024 Y-2.4796 Z-0.7427
N840 X-0.0232 Y-2.4767 Z-0.7452
N845 X-0.0224 Y-2.4734 Z-0.7473
N850 X-0.0215 Y-2.4699 Z-0.7488
N855 X-0.0205 Y-2.4662 Z-0.7497
N860 X-0.0196 Y-2.4624 Z-0.75
N865 G3 X0. Y-2.3263 I-0.6183 J0.1584
N870 G1 Y-2.3203
N875 X-0.0072 Y-2.2849
N880 X-0.0124 Y-2.2491
N885 X-0.0161 Y-2.2131
N890 X-0.0187 Y-2.177
N895 X-0.0206 Y-2.1409
N900 X-0.0219 Y-2.1047
N905 X-0.0228 Y-2.0685
N910 X-0.0234 Y-2.0323
N915 X-0.0239 Y-1.9962
N920 X-0.0242 Y-1.96
N925 X-0.0245 Y-1.9238
N930 X-0.0246 Y-1.8876
N935 X-0.0248 Y-1.8153
N940 X-0.0249 Y-1.7067
N945 X-0.025 Y-1.4173
N950 Y-0.3318
N955 Y-0.1147
N960 X-0.0213 Y-0.097
N965 X-0.0045 Y-0.0649
N970 X0.022 Y-0.0403
N975 X0.0532 Y-0.022
N980 X0.0868 Y-0.0087
N985 X0.1217 Y0.001
N990 X0.1572 Y0.008
N995 X0.193 Y0.0129
N1000 X0.2291 Y0.0165
N1005 X0.2651 Y0.019
N1010 X0.3013 Y0.0207
N1015 X0.3374 Y0.022
N1020 X0.3736 Y0.0229
N1025 X0.4098 Y0.0235
N1030 X0.446 Y0.0239
N1035 X0.4822 Y0.0243
N1040 X0.5183 Y0.0245
N1045 X0.5545 Y0.0246
N1050 X0.6269 Y0.0248
N1055 X0.7354 Y0.0249
N1060 X1.0249 Y0.025
N1065 X1.6762
N1070 X2.3817
N1075 X2.3996 Y0.0227
N1080 X2.416 Y0.015
N1085 X2.4452 Y-0.0064
N1090 X2.4673 Y-0.0351
N1095 X2.4835 Y-0.0674
N1100 X2.4954 Y-0.1016
N1105 X2.5039 Y-0.1367
N1110 X2.51 Y-0.1724
N1115 X2.5144 Y-0.2083
N1120 X2.5175 Y-0.2443
N1125 X2.5197 Y-0.2805
N1130 X2.5213 Y-0.3166
N1135 X2.5224 Y-0.3528
N1140 X2.5231 Y-0.389
N1145 X2.5237 Y-0.4251
N1150 X2.5241 Y-0.4613
N1155 X2.5243 Y-0.4975
N1160 X2.5245 Y-0.5337
N1165 X2.5247 Y-0.5699
N1170 X2.5248 Y-0.6422
N1175 X2.5249 Y-0.7508
N1180 X2.525 Y-1.0764
N1185 Y-1.1849
N1190 Y-2.0895
N1195 X2.5199 Y-2.1069
N1200 X2.5017 Y-2.1381
N1205 X2.4745 Y-2.1619
N1210 X2.4429 Y-2.1796
N1215 X2.4091 Y-2.1925
N1220 X2.3741 Y-2.2019
N1225 X2.3386 Y-2.2086
N1230 X2.3027 Y-2.2134
N1235 X2.2667 Y-2.2168
N1240 X2.2306 Y-2.2192
N1245 X2.1944 Y-2.2209
N1250 X2.1583 Y-2.2221
N1255 X2.1221 Y-2.223
N1260 X2.0859 Y-2.2236
N1265 X2.0498 Y-2.224
N1270 X2.0136 Y-2.2243
N1275 X1.9774 Y-2.2245
N1280 X1.9412 Y-2.2246
N1285 X1.8689 Y-2.2248
N1290 X1.7603 Y-2.2249
N1295 X1.507 Y-2.225
N1300 X0.2226
N1305 X0.2048 Y-2.2217
N1310 X0.1721 Y-2.2062
N1315 X0.1465 Y-2.1806
N1320 X0.1272 Y-2.15
N1325 X0.1128 Y-2.1168
N1330 X0.1023 Y-2.0822
N1335 X0.0946 Y-2.0468
N1340 X0.0891 Y-2.0111
N1345 X0.0851 Y-1.9751
N1350 X0.0822 Y-1.9391
N1355 X0.0801 Y-1.9029
N1360 X0.0787 Y-1.8668
N1365 X0.0776 Y-1.8306
N1370 X0.0769 Y-1.7944
N1375 X0.0763 Y-1.7583
N1380 X0.0759 Y-1.7221
N1385 X0.0757 Y-1.6859
N1390 X0.0755 Y-1.6497
N1395 X0.0752 Y-1.5774
N1400 X0.0751 Y-1.4688
N1405 X0.075 Y-1.2517
N1410 Y-0.2386
N1415 X0.0841 Y-0.2036
N1420 X0.1044 Y-0.1737
N1425 X0.1314 Y-0.1496
N1430 X0.1623 Y-0.1308
N1435 X0.1956 Y-0.1165
N1440 X0.2301 Y-0.1056
N1445 X0.2654 Y-0.0976
N1450 X0.301 Y-0.0915
N1455 X0.3369 Y-0.0871
N1460 X0.373 Y-0.0838
N1465 X0.4091 Y-0.0814
N1470 X0.4452 Y-0.0797
N1475 X0.4814 Y-0.0784
N1480 X0.5175 Y-0.0775
N1485 X0.5537 Y-0.0768
N1490 X0.5899 Y-0.0763
N1495 X0.6261 Y-0.0759
N1500 X0.6623 Y-0.0757
N1505 X0.6984 Y-0.0755
N1510 X0.7708 Y-0.0753
N1515 X0.8793 Y-0.0751
N1520 X1.0964 Y-0.075
N1525 X2.2543
N1530 X2.272 Y-0.0783
N1535 X2.3058 Y-0.0913
N1540 X2.3341 Y-0.1139
N1545 X2.3565 Y-0.1423
N1550 X2.3739 Y-0.174
N1555 X2.3871 Y-0.2077
N1560 X2.397 Y-0.2425
N1565 X2.4044 Y-0.2779
N1570 X2.4099 Y-0.3137
N1575 X2.414 Y-0.3496
N1580 X2.417 Y-0.3857
N1585 X2.4192 Y-0.4218
N1590 X2.4208 Y-0.4579
N1595 X2.4219 Y-0.4941
N1600 X2.4228 Y-0.5303
N1605 X2.4234 Y-0.5665
N1610 X2.4238 Y-0.6026
N1615 X2.4242 Y-0.6388
N1620 X2.4244 Y-0.675
N1625 X2.4246 Y-0.7112
N1630 X2.4248 Y-0.7835
N1635 X2.4249 Y-0.8921
N1640 X2.425 Y-1.1092
N1645 Y-1.9414
N1650 X2.4243 Y-1.9594
N1655 X2.4161 Y-1.9947
N1660 X2.3962 Y-2.0249
N1665 X2.3695 Y-2.0493
N1670 X2.3387 Y-2.0684
N1675 X2.3056 Y-2.0829
N1680 X2.2711 Y-2.0939
N1685 X2.2359 Y-2.1021
N1690 X2.2002 Y-2.1082
N1695 X2.1643 Y-2.1127
N1700 X2.1283 Y-2.116
N1705 X2.0922 Y-2.1185
N1710 X2.0561 Y-2.1203
N1715 X2.0199 Y-2.1216
N1720 X1.9837 Y-2.1225
N1725 X1.9476 Y-2.1232
N1730 X1.9114 Y-2.1237
N1735 X1.8752 Y-2.1241
N1740 X1.839 Y-2.1243
N1745 X1.8028 Y-2.1245
N1750 X1.7305 Y-2.1247
N1755 X1.6219 Y-2.1249
N1760 X1.4048 Y-2.125
N1765 X0.3556
N1770 X0.3376 Y-2.1231
N1775 X0.3029 Y-2.1128
N1780 X0.2733 Y-2.0919
N1785 X0.2654 Y-2.085
N1790 X0.2564 Y-2.0796
N1795 X0.2466 Y-2.0759
N1800 X0.2362 Y-2.0741
N1805 X0.2349 Y-2.0739
N1810 X0.2267 Y-2.0727
N1815 X0.2162 Y-2.0703
N1820 X0.2102 Y-2.0683
N1825 X0.202 Y-2.0653
N1830 X0.1952 Y-2.0621
N1835 X0.1856 Y-2.0567
N1840 X0.1806 Y-2.0539
N1845 X0.1773 Y-2.0515
N1850 X0.1697 Y-2.0456
N1855 X0.1691 Y-2.0451
N1860 X0.1607 Y-2.0374
N1865 X0.1527 Y-2.0283
N1870 X0.1473 Y-2.021
N1875 X0.1445 Y-2.0167
N1880 X0.1362 Y-2.0016
N1885 X0.1339 Y-1.9963
N1890 X0.1311 Y-1.9881
N1895 X0.1288 Y-1.9799
N1900 X0.128 Y-1.9766
N1905 X0.1269 Y-1.9716
N1910 X0.1258 Y-1.9634
N1915 X0.1253 Y-1.9552
N1920 X0.125 Y-1.947
N1925 Y-1.5687
N1930 X0.1251 Y-1.5605
N1935 X0.1254 Y-1.544
N1940 X0.126 Y-1.5358
N1945 X0.1271 Y-1.5276
N1950 X0.1289 Y-1.5194
N1955 X0.1317 Y-1.5111
N1960 X0.1362 Y-1.4983
N1965 X0.144 Y-1.4765
N1970 X0.1532 Y-1.4426
N1975 X0.1598 Y-1.407
N1980 X0.1643 Y-1.3711
N1985 X0.1675 Y-1.335
N1990 X0.1697 Y-1.2989
N1995 X0.1713 Y-1.2628
N2000 X0.1724 Y-1.2266
N2005 X0.1732 Y-1.1904
N2010 X0.1737 Y-1.1543
N2015 X0.1741 Y-1.1181
N2020 X0.1744 Y-1.0819
N2025 X0.1746 Y-1.0457
N2030 X0.1748 Y-0.9734
N2035 X0.1749 Y-0.8648
N2040 X0.175 Y-0.6755
N2045 X0.1741 Y-0.6652
N2050 X0.1713 Y-0.6552
N2055 X0.1669 Y-0.6459
N2060 X0.1609 Y-0.6375
N2065 X0.1556 Y-0.6313
N2070 X0.149 Y-0.6231
N2075 X0.1445 Y-0.6162
N2080 X0.1362 Y-0.6015
N2085 X0.1348 Y-0.5984
N2090 X0.1318 Y-0.5902
N2095 X0.1293 Y-0.582
N2100 X0.128 Y-0.5768
N2105 X0.1273 Y-0.5737
N2110 X0.1261 Y-0.5655
N2115 X0.1254 Y-0.5573
N2120 X0.125 Y-0.5491
N2125 Y-0.253
N2130 X0.1253 Y-0.2448
N2135 X0.1258 Y-0.2366
N2140 X0.1269 Y-0.2284
N2145 X0.128 Y-0.2234
N2150 X0.1288 Y-0.2202
N2155 X0.1311 Y-0.2119
N2160 X0.1339 Y-0.2037
N2165 X0.1362 Y-0.1984
N2170 X0.1445 Y-0.1833
N2175 X0.1473 Y-0.179
N2180 X0.1527 Y-0.1717
N2185 X0.1609 Y-0.1624
N2190 X0.1691 Y-0.1549
N2195 X0.1697 Y-0.1544
N2200 X0.1773 Y-0.1485
N2205 X0.1806 Y-0.1461
N2210 X0.1856 Y-0.1433
N2215 X0.1952 Y-0.1379
N2220 X0.202 Y-0.1347
N2225 X0.2102 Y-0.1317
N2230 X0.2162 Y-0.1297
N2235 X0.2267 Y-0.1273
N2240 X0.2349 Y-0.1261
N2245 X0.2431 Y-0.1253
N2250 X0.2513 Y-0.125
N2255 X0.6294
N2260 X0.6376 Y-0.1251
N2265 X0.6541 Y-0.1253
N2270 X0.6623 Y-0.1257
N2275 X0.6705 Y-0.1267
N2280 X0.6787 Y-0.1285
N2285 X0.6832 Y-0.1297
N2290 X0.7034 Y-0.137
N2295 X0.7216 Y-0.1436
N2300 X0.7547 Y-0.1527
N2305 X0.7902 Y-0.1594
N2310 X0.8261 Y-0.1641
N2315 X0.8621 Y-0.1674
N2320 X0.8982 Y-0.1697
N2325 X0.9344 Y-0.1713
N2330 X0.9706 Y-0.1724
N2335 X1.0067 Y-0.1732
N2340 X1.0429 Y-0.1737
N2345 X1.0791 Y-0.1741
N2350 X1.1153 Y-0.1744
N2355 X1.1514 Y-0.1745
N2360 X1.2238 Y-0.1748
N2365 X1.3324 Y-0.1749
N2370 X1.5494 Y-0.175
N2375 X1.7225
N2380 X1.7337 Y-0.174
N2385 X1.7445 Y-0.171
N2390 X1.7546 Y-0.1662
N2395 X1.7637 Y-0.1596
N2400 X1.7719 Y-0.1524
N2405 X1.7808 Y-0.1461
N2410 X1.7884 Y-0.1415
N2415 X1.7948 Y-0.1379
N2420 X1.7966 Y-0.137
N2425 X1.8168 Y-0.1297
N2430 X1.8213 Y-0.1285
N2435 X1.8295 Y-0.1267
N2440 X1.8377 Y-0.1257
N2445 X1.8459 Y-0.1253
N2450 X1.8624 Y-0.1251
N2455 X1.8706 Y-0.125
N2460 X2.2487
N2465 X2.2569 Y-0.1253
N2470 X2.2651 Y-0.1261
N2475 X2.2733 Y-0.1273
N2480 X2.2838 Y-0.1297
N2485 X2.2898 Y-0.1317
N2490 X2.298 Y-0.1347
N2495 X2.3048 Y-0.1379
N2500 X2.3144 Y-0.1433
N2505 X2.3194 Y-0.1461
N2510 X2.3227 Y-0.1485
N2515 X2.3303 Y-0.1544
N2520 X2.3309 Y-0.1549
N2525 X2.3393 Y-0.1626
N2530 X2.3473 Y-0.1717
N2535 X2.3527 Y-0.179
N2540 X2.3555 Y-0.1833
N2545 X2.3638 Y-0.1984
N2550 X2.3661 Y-0.2037
N2555 X2.3689 Y-0.2119
N2560 X2.3712 Y-0.2202
N2565 X2.372 Y-0.2234
N2570 X2.3731 Y-0.2284
N2575 X2.3742 Y-0.2366
N2580 X2.3747 Y-0.2448
N2585 X2.375 Y-0.253
N2590 Y-0.5491
N2595 X2.3746 Y-0.5573
N2600 X2.3739 Y-0.5655
N2605 X2.3727 Y-0.5737
N2610 X2.372 Y-0.5768
N2615 X2.3707 Y-0.582
N2620 X2.3682 Y-0.5902
N2625 X2.3652 Y-0.5984
N2630 X2.3644 Y-0.6001
N2635 X2.3607 Y-0.6092
N2640 X2.3518 Y-0.6369
N2645 X2.3436 Y-0.6721
N2650 X2.338 Y-0.7078
N2655 X2.334 Y-0.7438
N2660 X2.3313 Y-0.7799
N2665 X2.3294 Y-0.816
N2670 X2.3281 Y-0.8522
N2675 X2.3272 Y-0.8883
N2680 X2.3265 Y-0.9245
N2685 X2.3261 Y-0.9607
N2690 X2.3257 Y-0.9969
N2695 X2.3255 Y-1.0331
N2700 X2.3254 Y-1.0692
N2705 X2.3252 Y-1.1416
N2710 X2.3251 Y-1.2502
N2715 X2.325 Y-1.4245
N2720 X2.326 Y-1.4352
N2725 X2.329 Y-1.4456
N2730 X2.3338 Y-1.4552
N2735 X2.3403 Y-1.4638
N2740 X2.346 Y-1.47
N2745 X2.3473 Y-1.4716
N2750 X2.3555 Y-1.4831
N2755 X2.3621 Y-1.4947
N2760 X2.3638 Y-1.4983
N2765 X2.3683 Y-1.5111
N2770 X2.3711 Y-1.5194
N2775 X2.3729 Y-1.5276
N2780 X2.374 Y-1.5358
N2785 X2.3746 Y-1.544
N2790 X2.3749 Y-1.5605
N2795 X2.375 Y-1.5687
N2800 Y-1.947
N2805 X2.3747 Y-1.9552
N2810 X2.3742 Y-1.9634
N2815 X2.3731 Y-1.9716
N2820 X2.372 Y-1.9766
N2825 X2.3712 Y-1.9799
N2830 X2.3689 Y-1.9881
N2835 X2.3661 Y-1.9963
N2840 X2.3638 Y-2.0016
N2845 X2.3555 Y-2.0167
N2850 X2.3527 Y-2.021
N2855 X2.3473 Y-2.0283
N2860 X2.3391 Y-2.0376
N2865 X2.3309 Y-2.0451
N2870 X2.3303 Y-2.0456
N2875 X2.3227 Y-2.0515
N2880 X2.3194 Y-2.0539
N2885 X2.3144 Y-2.0567
N2890 X2.3048 Y-2.0621
N2895 X2.298 Y-2.0653
N2900 X2.2898 Y-2.0683
N2905 X2.2838 Y-2.0703
N2910 X2.2733 Y-2.0727
N2915 X2.2651 Y-2.0739
N2920 X2.2569 Y-2.0747
N2925 X2.2487 Y-2.075
N2930 X0.2513
N2935 X0.2431 Y-2.0747
N2940 X0.2362 Y-2.0741
N2945 X0.2349 Y-2.0739
N2950 X0.2267 Y-2.0727
N2955 X0.2162 Y-2.0703
N2960 X0.2102 Y-2.0683
N2965 X0.2063 Y-2.0669
N2970 X0.202 Y-2.0653
N2975 X0.1952 Y-2.0621
N2980 X0.1856 Y-2.0567
N2985 X0.1806 Y-2.0539
N2990 X0.1773 Y-2.0515
N2995 X0.1697 Y-2.0456
N3000 X0.1691 Y-2.0451
N3005 X0.1609 Y-2.0376
N3010 X0.1607 Y-2.0374
N3015 X0.1535 Y-2.0292
N3020 X0.1527 Y-2.0283
N3025 X0.1473 Y-2.021
N3030 X0.1445 Y-2.0167
N3035 X0.1362 Y-2.0016
N3040 X0.1339 Y-1.9963
N3045 X0.1311 Y-1.9881
N3050 X0.1288 Y-1.9799
N3055 X0.128 Y-1.9766
N3060 X0.1269 Y-1.9716
N3065 X0.1258 Y-1.9634
N3070 X0.1253 Y-1.9552
N3075 X0.125 Y-1.947
N3080 Y-1.5687
N3085 X0.1251 Y-1.5605
N3090 X0.1254 Y-1.544
N3095 X0.126 Y-1.5358
N3100 X0.1271 Y-1.5278
N3105 Y-1.5276
N3110 X0.1289 Y-1.5194
N3115 X0.1317 Y-1.5111
N3120 X0.1362 Y-1.4983
N3125 X0.1379 Y-1.4947
N3130 X0.1445 Y-1.4831
N3135 X0.1527 Y-1.4716
N3140 X0.154 Y-1.47
N3145 X0.1609 Y-1.4625
N3150 X0.1691 Y-1.4548
N3155 X0.1773 Y-1.4483
N3160 X0.1822 Y-1.4445
N3165 X0.1891 Y-1.4381
N3170 X0.1967 Y-1.4298
N3175 X0.2048 Y-1.4195
N3180 X0.2134 Y-1.4064
N3185 X0.2224 Y-1.39
N3190 X0.2318 Y-1.3689
N3195 X0.2416 Y-1.3414
N3200 X0.2509 Y-1.3065
N3205 X0.2576 Y-1.2709
N3210 X0.2625 Y-1.235
N3215 X0.2659 Y-1.199
N3220 X0.2685 Y-1.1629
N3225 X0.2703 Y-1.1268
N3230 X0.2716 Y-1.0906
N3235 X0.2725 Y-1.0545
N3240 X0.2732 Y-1.0183
N3245 X0.2737 Y-0.9821
N3250 X0.2741 Y-0.9459
N3255 X0.2743 Y-0.9097
N3260 X0.2745 Y-0.8736
N3265 X0.2747 Y-0.8012
N3270 X0.2748 Y-0.765
N3275 X0.274 Y-0.7301
N3280 X0.2735 Y-0.7259
N3285 X0.271 Y-0.7136
N3290 X0.2659 Y-0.7021
N3295 X0.2586 Y-0.6918
N3300 X0.2493 Y-0.6833
N3305 X0.2385 Y-0.6768
N3310 X0.2267 Y-0.6727
N3315 G3 X0.1969 Y-0.6953 I-0.0048 J-0.0245
N3320 G1 X0.139 Y-1.4252
N3325 G3 X0.1773 Y-1.4483 I0.0249 J-0.002
N3330 G1 X0.1817 Y-1.4454
N3335 X0.1856 Y-1.4431
N3340 X0.1938 Y-1.4384
N3345 X0.202 Y-1.4347
N3350 X0.2102 Y-1.4317
N3355 X0.2184 Y-1.4292
N3360 X0.2195 Y-1.4289
N3365 X0.2276 Y-1.4266
N3370 X0.2339 Y-1.4242
N3375 X0.2413 Y-1.4208
N3380 X0.2488 Y-1.4165
N3385 X0.2569 Y-1.4109
N3390 X0.2663 Y-1.4033
N3395 X0.2754 Y-1.3947
N3400 X0.2852 Y-1.3836
N3405 X0.2955 Y-1.3701
N3410 X0.3061 Y-1.3534
N3415 X0.317 Y-1.333
N3420 X0.3282 Y-1.3071
N3425 X0.3395 Y-1.2737
N3430 X0.3484 Y-1.2386
N3435 X0.355 Y-1.2031
N3440 X0.36 Y-1.1672
N3445 X0.3638 Y-1.1313
N3450 X0.3666 Y-1.0952
N3455 X0.3688 Y-1.0591
N3460 X0.3704 Y-1.0229
N3465 X0.3716 Y-0.9868
N3470 X0.3724 Y-0.9506
N3475 X0.3731 Y-0.9144
N3480 X0.3736 Y-0.8782
N3485 X0.3739 Y-0.8421
N3490 X0.3738 Y-0.8059
N3495 X0.3722 Y-0.7765
N3500 X0.3691 Y-0.7538
N3505 X0.3647 Y-0.7342
N3510 X0.3598 Y-0.7181
N3515 X0.3574 Y-0.7119
N3520 X0.3521 Y-0.7016
N3525 X0.3448 Y-0.6925
N3530 X0.3359 Y-0.6851
N3535 X0.3257 Y-0.6796
N3540 X0.3147 Y-0.6762
N3545 X0.3031 Y-0.675
N3550 X0.2513
N3555 X0.2431 Y-0.6747
N3560 X0.2349 Y-0.6739
N3565 X0.2267 Y-0.6727
N3570 G3 X0.1989 Y-0.6973 I-0.0027 J-0.0249
N3575 G1 X0.1897 Y-1.4041
N3580 G3 X0.2195 Y-1.4289 I0.025 J-0.0003
N3585 G1 X0.2267 Y-1.4273
N3590 X0.2349 Y-1.4261
N3595 X0.2513 Y-1.425
N3600 X0.2723
N3605 X0.2786 Y-1.4247
N3610 X0.2852 Y-1.4238
N3615 X0.2926 Y-1.4222
N3620 X0.3004 Y-1.4199
N3625 X0.3093 Y-1.4164
N3630 X0.3183 Y-1.4121
N3635 X0.3286 Y-1.406
N3640 X0.3389 Y-1.3988
N3645 X0.35 Y-1.3895
N3650 X0.3619 Y-1.3779
N3655 X0.3737 Y-1.3644
N3660 X0.3862 Y-1.3475
N3665 X0.3988 Y-1.3273
N3670 X0.4114 Y-1.3027
N3675 X0.4244 Y-1.2719
N3680 X0.4356 Y-1.2375
N3685 X0.4444 Y-1.2024
N3690 X0.4513 Y-1.1669
N3695 X0.4567 Y-1.1311
N3700 X0.4609 Y-1.0951
N3705 X0.4642 Y-1.0591
N3710 X0.4667 Y-1.023
N3715 X0.4687 Y-0.9869
N3720 X0.4702 Y-0.9507
N3725 X0.4713 Y-0.9146
N3730 X0.4718 Y-0.8784
N3735 X0.4714 Y-0.8422
N3740 X0.4693 Y-0.8061
N3745 X0.4654 Y-0.7736
N3750 X0.4603 Y-0.7489
N3755 X0.4545 Y-0.7289
N3760 X0.4484 Y-0.7126
N3765 X0.4464 Y-0.7084
N3770 X0.4394 Y-0.6972
N3775 X0.4302 Y-0.6879
N3780 X0.4191 Y-0.6808
N3785 X0.4067 Y-0.6765
N3790 X0.3937 Y-0.675
N3795 X0.3031
N3800 G3 X0.279 Y-0.6989 I0.0009 J-0.025
N3805 G1 X0.2482 Y-1.3989
N3810 G3 X0.2723 Y-1.425 I0.025 J-0.0011
N3815 G1 X0.3463
N3820 X0.3534 Y-1.4246
N3825 X0.3613 Y-1.4236
N3830 X0.3697 Y-1.4218
N3835 X0.3789 Y-1.4191
N3840 X0.389 Y-1.4151
N3845 X0.3995 Y-1.41
N3850 X0.4113 Y-1.4031
N3855 X0.4228 Y-1.395
N3860 X0.4361 Y-1.384
N3865 X0.4487 Y-1.3717
N3870 X0.4628 Y-1.3555
N3875 X0.4636 Y-1.3545
N3880 X0.4698 Y-1.3438
N3885 X0.4737 Y-1.3321
N3890 X0.475 Y-1.3198
N3895 G3 X0.4347 Y-1.3008 I-0.025 J-0.0009
N3900 G1 X0.3319 Y-1.3802
N3905 G3 X0.3221 Y-1.4 I0.0153 J-0.0198
N3910 X0.3463 Y-1.425 I0.025 J0.
N3915 G1 X0.4239
N3920 X0.436 Y-1.4244
N3925 X0.4464 Y-1.4217
N3930 X0.4559 Y-1.4167
N3935 X0.4639 Y-1.4095
N3940 X0.4699 Y-1.4006
N3945 X0.4737 Y-1.3906
N3950 X0.475 Y-1.3799
N3955 G3 X0.4349 Y-1.3609 I-0.025 J-0.0009
N3960 G1 X0.4096 Y-1.3801
N3965 G3 X0.4239 Y-1.425 I0.0152 J-0.0199
N3970 G1 X0.4486
N3975 X0.4527 Y-1.4248
N3980 X0.4568 Y-1.4239
N3985 X0.4602 Y-1.4226
N3990 X0.4635 Y-1.4207
N3995 X0.465 Y-1.4196
N4000 X0.4669 Y-1.418
N4005 X0.4688 Y-1.416
N4010 X0.4703 Y-1.4143
N4015 X0.4714 Y-1.4125
N4020 X0.4732 Y-1.4088
N4025 X0.474 Y-1.4065
N4030 X0.4746 Y-1.4042
N4035 X0.475 Y-1.4001
N4040 Y-0.7053
N4045 X0.4748 Y-0.6971
N4050 X0.4742 Y-0.6942
N4055 X0.4732 Y-0.6913
N4060 X0.4721 Y-0.6889
N4065 X0.4709 Y-0.6868
N4070 X0.4694 Y-0.6847
N4075 X0.4675 Y-0.6827
N4080 X0.4653 Y-0.6806
N4085 X0.463 Y-0.6789
N4090 X0.4609 Y-0.6778
N4095 X0.4589 Y-0.6768
N4100 X0.4568 Y-0.6761
N4105 X0.4527 Y-0.6752
N4110 X0.4486 Y-0.675
N4115 X0.3937
N4120 G3 X0.3706 Y-0.6926 I0.0009 J-0.025
N4125 G1 X0.3695 Y-0.6964 Z-0.7497
N4130 X0.3684 Y-0.7 Z-0.7488
N4135 X0.3673 Y-0.7035 Z-0.7473
N4140 X0.3663 Y-0.7067 Z-0.7452
N4145 X0.3654 Y-0.7095 Z-0.7427
N4150 X0.3647 Y-0.7119 Z-0.7397
N4155 X0.3641 Y-0.7139 Z-0.7363
N4160 X0.3636 Y-0.7153 Z-0.7327
N4165 X0.3634 Y-0.7162 Z-0.7289
N4170 X0.3633 Y-0.7165 Z-0.725
N4175 G0 Z0.2
N4180 G1 X0.6676 Y-0.0946 F500.
N4185 G0 Z-0.7
N4190 G1 Z-0.725 F14.
N4195 X0.6678 Y-0.0949 Z-0.7289
N4200 X0.6682 Y-0.0956 Z-0.7327
N4205 X0.669 Y-0.0969 Z-0.7363
N4210 X0.6701 Y-0.0986 Z-0.7397
N4215 X0.6715 Y-0.1008 Z-0.7427
N4220 X0.6731 Y-0.1033 Z-0.7452
N4225 X0.6749 Y-0.1061 Z-0.7473
N4230 X0.6768 Y-0.1092 Z-0.7488
N4235 X0.6788 Y-0.1124 Z-0.7497
N4240 X0.6809 Y-0.1157 Z-0.75
N4245 G3 X0.7034 Y-0.137 I0.0527 J0.0332
N4250 G1 X0.7052 Y-0.1379
N4255 X0.7116 Y-0.1415
N4260 X0.7192 Y-0.1461
N4265 X0.7281 Y-0.1524
N4270 X0.7363 Y-0.1596
N4275 X0.764 Y-0.1873
N4280 X0.7758 Y-0.1979
N4285 X0.7862 Y-0.2059
N4290 X0.7996 Y-0.2145
N4295 X0.8162 Y-0.2235
N4300 X0.8376 Y-0.2329
N4305 X0.8657 Y-0.2427
N4310 X0.9007 Y-0.2517
N4315 X0.9363 Y-0.2582
N4320 X0.9722 Y-0.2629
N4325 X1.0082 Y-0.2663
N4330 X1.0443 Y-0.2687
N4335 X1.0805 Y-0.2704
N4340 X1.1166 Y-0.2717
N4345 X1.1528 Y-0.2726
N4350 X1.189 Y-0.2733
N4355 X1.2252 Y-0.2738
N4360 X1.2613 Y-0.2741
N4365 X1.2975 Y-0.2744
N4370 X1.3337 Y-0.2745
N4375 X1.4061 Y-0.2748
N4380 X1.5146 Y-0.2749
N4385 X1.6232 Y-0.275
N4390 X1.6249 Y-0.2749
N4395 X1.636 Y-0.2737
N4400 X1.6468 Y-0.2704
N4405 X1.6567 Y-0.265
N4410 X1.6654 Y-0.2579
N4415 X1.7524 Y-0.1708
N4420 X1.7637 Y-0.1596
N4425 G3 X1.7448 Y-0.1175 I-0.0182 J0.0171
N4430 G1 X0.7816 Y-0.1452
N4435 G3 X0.764 Y-0.1873 I0.0007 J-0.025
N4440 G1 X0.8596 Y-0.2828
N4445 X0.8695 Y-0.2918
N4450 X0.8811 Y-0.3007
N4455 X0.8957 Y-0.3101
N4460 X0.9138 Y-0.3199
N4465 X0.9371 Y-0.3301
N4470 X0.9673 Y-0.3406
N4475 X1.0023 Y-0.3497
N4480 X1.0379 Y-0.3563
N4485 X1.0737 Y-0.3612
N4490 X1.1097 Y-0.3649
N4495 X1.1458 Y-0.3675
N4500 X1.1819 Y-0.3695
N4505 X1.2181 Y-0.3709
N4510 X1.2542 Y-0.372
N4515 X1.2904 Y-0.3728
N4520 X1.3266 Y-0.3734
N4525 X1.3628 Y-0.3738
N4530 X1.399 Y-0.3741
N4535 X1.4351 Y-0.3744
N4540 X1.4713 Y-0.3745
N4545 X1.5075 Y-0.3747
N4550 X1.5243
N4555 X1.5357 Y-0.3736
N4560 X1.5467 Y-0.3703
N4565 X1.5568 Y-0.3649
N4570 X1.5656 Y-0.3576
N4575 X1.6654 Y-0.2579
N4580 G3 X1.6463 Y-0.2158 I-0.0183 J0.017
N4585 G1 X0.877 Y-0.2408
N4590 G3 X0.8596 Y-0.2828 I0.0008 J-0.025
N4595 G1 X0.9532 Y-0.3764
N4600 X0.9679 Y-0.3897
N4605 X0.9798 Y-0.3988
N4610 X0.9946 Y-0.4084
N4615 X1.0132 Y-0.4184
N4620 X1.037 Y-0.4289
N4625 X1.0679 Y-0.4396
N4630 X1.1029 Y-0.4487
N4635 X1.1385 Y-0.4554
N4640 X1.1743 Y-0.4604
N4645 X1.2103 Y-0.4641
N4650 X1.2464 Y-0.4669
N4655 X1.2825 Y-0.469
N4660 X1.3187 Y-0.4705
N4665 X1.3548 Y-0.4717
N4670 X1.391 Y-0.4725
N4675 X1.4249 Y-0.4731
N4680 X1.4366 Y-0.4721
N4685 X1.4478 Y-0.4689
N4690 X1.4581 Y-0.4634
N4695 X1.4672 Y-0.456
N4700 X1.5656 Y-0.3576
N4705 G3 X1.5465 Y-0.3156 I-0.0183 J0.017
N4710 G1 X0.9706 Y-0.3344
N4715 G3 X0.9532 Y-0.3764 I0.0008 J-0.025
N4720 G1 X1.0518 Y-0.4751
N4725 X1.0668 Y-0.4886
N4730 X1.0789 Y-0.4979
N4735 X1.0938 Y-0.5076
N4740 X1.1126 Y-0.5177
N4745 X1.1367 Y-0.5283
N4750 X1.1679 Y-0.5391
N4755 X1.203 Y-0.5482
N4760 X1.2385 Y-0.5549
N4765 X1.2743 Y-0.56
N4770 X1.3103 Y-0.5637
N4775 X1.3293 Y-0.5652
N4780 X1.3418 Y-0.5648
N4785 X1.354 Y-0.5617
N4790 X1.3652 Y-0.5561
N4795 X1.375 Y-0.5483
N4800 G3 X1.3629 Y-0.507 I-0.0183 J0.017
N4805 G1 X1.0763 Y-0.4338
N4810 G3 X1.0518 Y-0.4751 I-0.0062 J-0.0242
N4815 G1 X1.1555 Y-0.5787
N4820 X1.1657 Y-0.588
N4825 X1.1779 Y-0.5973
N4830 X1.1929 Y-0.607
N4835 X1.2117 Y-0.6172
N4840 X1.2322 Y-0.6262
N4845 X1.2458 Y-0.6309
N4850 X1.2585 Y-0.6338
N4855 X1.2716 Y-0.6337
N4860 X1.2843 Y-0.6308
N4865 X1.296 Y-0.6252
N4870 X1.3062 Y-0.617
N4875 G3 X1.2959 Y-0.5763 I-0.0183 J0.017
N4880 G1 X1.1817 Y-0.538
N4885 G3 X1.1555 Y-0.5787 I-0.008 J-0.0237
N4890 G1 X1.2295 Y-0.6527
N4895 X1.2328 Y-0.656
N4900 X1.2352 Y-0.658
N4905 X1.2377 Y-0.6596
N4910 X1.2397 Y-0.6607
N4915 X1.2418 Y-0.6615
N4920 X1.2459 Y-0.6625
N4925 X1.25 Y-0.6629
N4930 X1.2541 Y-0.6625
N4935 X1.2582 Y-0.6615
N4940 X1.2603 Y-0.6607
N4945 X1.2623 Y-0.6596
N4950 X1.2648 Y-0.658
N4955 X1.2672 Y-0.656
N4960 X1.4672 Y-0.456
N4965 G3 X1.471 Y-0.4273 I-0.0183 J0.017
N4970 G1 X1.4692 Y-0.4238 Z-0.7497
N4975 X1.4674 Y-0.4205 Z-0.7488
N4980 X1.4657 Y-0.4173 Z-0.7473
N4985 X1.4641 Y-0.4143 Z-0.7452
N4990 X1.4627 Y-0.4117 Z-0.7427
N4995 X1.4615 Y-0.4094 Z-0.7397
N5000 X1.4606 Y-0.4076 Z-0.7363
N5005 X1.4599 Y-0.4063 Z-0.7327
N5010 X1.4595 Y-0.4055 Z-0.7289
N5015 X1.4593 Y-0.4052 Z-0.725
N5020 G0 Z0.2
N5025 G1 X2.4056 Y-0.563 F500.
N5030 G0 Z-0.7
N5035 G1 Z-0.725 F14.
N5040 X2.4054 Y-0.5632 Z-0.7289
N5045 X2.4046 Y-0.5637 Z-0.7327
N5050 X2.4034 Y-0.5645 Z-0.7363
N5055 X2.4017 Y-0.5657 Z-0.7397
N5060 X2.3996 Y-0.5671 Z-0.7427
N5065 X2.3971 Y-0.5688 Z-0.7452
N5070 X2.3943 Y-0.5706 Z-0.7473
N5075 X2.3913 Y-0.5727 Z-0.7488
N5080 X2.3882 Y-0.5748 Z-0.7497
N5085 X2.3849 Y-0.577 Z-0.75
N5090 G3 X2.3644 Y-0.6001 I0.0349 J-0.0516
N5095 G1 X2.3638 Y-0.6015
N5100 X2.3555 Y-0.6162
N5105 X2.351 Y-0.6231
N5110 X2.3444 Y-0.6313
N5115 X2.3391 Y-0.6375
N5120 X2.337 Y-0.6395
N5125 X2.3309 Y-0.6449
N5130 X2.3227 Y-0.6513
N5135 X2.3175 Y-0.6553
N5140 X2.3104 Y-0.6619
N5145 X2.303 Y-0.6701
N5150 X2.2948 Y-0.6806
N5155 X2.2863 Y-0.6936
N5160 X2.2772 Y-0.7103
N5165 X2.2678 Y-0.7313
N5170 X2.2581 Y-0.759
N5175 X2.2488 Y-0.794
N5180 X2.2422 Y-0.8295
N5185 X2.2374 Y-0.8654
N5190 X2.2339 Y-0.9014
N5195 X2.2315 Y-0.9375
N5200 X2.2297 Y-0.9736
N5205 X2.2284 Y-1.0098
N5210 X2.2274 Y-1.046
N5215 X2.2267 Y-1.0822
N5220 X2.2263 Y-1.1183
N5225 X2.2259 Y-1.1545
N5230 X2.2257 Y-1.1907
N5235 X2.2255 Y-1.2269
N5240 X2.2252 Y-1.2992
N5245 Y-1.3354
N5250 X2.226 Y-1.3702
N5255 X2.2264 Y-1.3741
N5260 X2.229 Y-1.3864
N5265 X2.2341 Y-1.398
N5270 X2.2414 Y-1.4082
N5275 X2.2507 Y-1.4167
N5280 X2.2615 Y-1.4232
N5285 X2.2733 Y-1.4273
N5290 G3 X2.3031 Y-1.4047 I0.0048 J0.0245
N5295 G1 X2.3614 Y-0.6741
N5300 G3 X2.3227 Y-0.6513 I-0.0249 J0.002
N5305 G1 X2.3161 Y-0.656
N5310 X2.3144 Y-0.6569
N5315 X2.3062 Y-0.6615
N5320 X2.298 Y-0.6653
N5325 X2.2898 Y-0.6683
N5330 X2.2816 Y-0.6708
N5335 X2.2778 Y-0.6717
N5340 X2.2721 Y-0.6734
N5345 X2.2657 Y-0.6757
N5350 X2.2583 Y-0.6792
N5355 X2.2508 Y-0.6836
N5360 X2.2427 Y-0.6892
N5365 X2.2334 Y-0.6968
N5370 X2.2243 Y-0.7055
N5375 X2.2144 Y-0.7166
N5380 X2.2041 Y-0.7302
N5385 X2.1935 Y-0.7469
N5390 X2.1827 Y-0.7674
N5395 X2.1715 Y-0.7935
N5400 X2.1601 Y-0.8271
N5405 X2.1514 Y-0.8622
N5410 X2.1448 Y-0.8977
N5415 X2.1398 Y-0.9336
N5420 X2.1361 Y-0.9696
N5425 X2.1332 Y-1.0056
N5430 X2.1311 Y-1.0418
N5435 X2.1296 Y-1.0779
N5440 X2.1284 Y-1.1141
N5445 X2.1275 Y-1.1503
N5450 X2.1269 Y-1.1864
N5455 X2.1264 Y-1.2226
N5460 X2.1261 Y-1.2588
N5465 X2.1262 Y-1.295
N5470 X2.1279 Y-1.3241
N5475 X2.131 Y-1.3466
N5480 X2.1353 Y-1.3662
N5485 X2.1403 Y-1.3822
N5490 X2.1427 Y-1.3882
N5495 X2.148 Y-1.3985
N5500 X2.1552 Y-1.4075
N5505 X2.1641 Y-1.4149
N5510 X2.1743 Y-1.4205
N5515 X2.1853 Y-1.4239
N5520 X2.1969 Y-1.425
N5525 X2.2487
N5530 X2.2651 Y-1.4261
N5535 X2.2733 Y-1.4273
N5540 G3 X2.301 Y-1.4026 I0.0027 J0.0249
N5545 G1 X2.3076 Y-0.6965
N5550 G3 X2.2778 Y-0.6717 I-0.025 J0.0002
N5555 G1 X2.2733 Y-0.6727
N5560 X2.2651 Y-0.6739
N5565 X2.2569 Y-0.6747
N5570 X2.2487 Y-0.675
N5575 X2.2277
N5580 X2.2212 Y-0.6753
N5585 X2.2146 Y-0.6762
N5590 X2.2072 Y-0.6778
N5595 X2.1994 Y-0.6801
N5600 X2.1905 Y-0.6836
N5605 X2.1816 Y-0.6879
N5610 X2.1713 Y-0.694
N5615 X2.161 Y-0.7012
N5620 X2.1499 Y-0.7104
N5625 X2.1379 Y-0.7221
N5630 X2.1262 Y-0.7355
N5635 X2.1137 Y-0.7524
N5640 X2.1012 Y-0.7726
N5645 X2.0885 Y-0.7971
N5650 X2.0756 Y-0.828
N5655 X2.0643 Y-0.8624
N5660 X2.0555 Y-0.8975
N5665 X2.0486 Y-0.933
N5670 X2.0432 Y-0.9688
N5675 X2.039 Y-1.0047
N5680 X2.0358 Y-1.0408
N5685 X2.0333 Y-1.0769
N5690 X2.0313 Y-1.113
N5695 X2.0298 Y-1.1491
N5700 X2.0287 Y-1.1853
N5705 X2.0281 Y-1.2215
N5710 X2.0285 Y-1.2577
N5715 X2.0306 Y-1.2938
N5720 X2.0346 Y-1.3264
N5725 X2.0397 Y-1.3511
N5730 X2.0454 Y-1.3711
N5735 X2.0516 Y-1.3874
N5740 X2.0536 Y-1.3916
N5745 X2.0605 Y-1.4028
N5750 X2.0698 Y-1.4121
N5755 X2.0809 Y-1.4192
N5760 X2.0933 Y-1.4235
N5765 X2.1063 Y-1.425
N5770 X2.1969
N5775 G3 X2.221 Y-1.4011 I-0.0009 J0.025
N5780 G1 X2.2518 Y-0.7011
N5785 G3 X2.2277 Y-0.675 I-0.025 J0.0011
N5790 G1 X2.1538
N5795 X2.1465 Y-0.6754
N5800 X2.1386 Y-0.6764
N5805 X2.1302 Y-0.6782
N5810 X2.121 Y-0.681
N5815 X2.1109 Y-0.6849
N5820 X2.1004 Y-0.69
N5825 X2.0886 Y-0.6969
N5830 X2.0771 Y-0.705
N5835 X2.0638 Y-0.716
N5840 X2.0512 Y-0.7283
N5845 X2.0371 Y-0.7445
N5850 X2.0364 Y-0.7454
N5855 X2.0302 Y-0.756
N5860 X2.0263 Y-0.7678
N5865 X2.025 Y-0.7801
N5870 G3 X2.0652 Y-0.799 I0.025 J0.0009
N5875 G1 X2.1681 Y-0.7198
N5880 G3 X2.1538 Y-0.675 I-0.0153 J0.0198
N5885 G1 X2.0761
N5890 X2.0639 Y-0.6756
N5895 X2.0535 Y-0.6783
N5900 X2.0441 Y-0.6833
N5905 X2.0361 Y-0.6905
N5910 X2.0301 Y-0.6993
N5915 X2.0263 Y-0.7093
N5920 X2.025 Y-0.72
N5925 G3 X2.0651 Y-0.739 I0.025 J0.0009
N5930 G1 X2.0903 Y-0.7199
N5935 G3 X2.0761 Y-0.675 I-0.0151 J0.0199
N5940 G1 X2.0514
N5945 X2.0473 Y-0.6752
N5950 X2.0432 Y-0.6761
N5955 X2.0411 Y-0.6768
N5960 X2.0391 Y-0.6778
N5965 X2.037 Y-0.6789
N5970 X2.0347 Y-0.6806
N5975 X2.0325 Y-0.6827
N5980 X2.0306 Y-0.6847
N5985 X2.0291 Y-0.6868
N5990 X2.0279 Y-0.6889
N5995 X2.0268 Y-0.6913
N6000 X2.0258 Y-0.6942
N6005 X2.0252 Y-0.6971
N6010 X2.025 Y-0.7053
N6015 Y-1.396
N6020 Y-1.4001
N6025 X2.0254 Y-1.4042
N6030 X2.026 Y-1.4065
N6035 X2.0268 Y-1.4088
N6040 X2.0286 Y-1.4125
N6045 X2.0297 Y-1.4143
N6050 X2.0312 Y-1.416
N6055 X2.0331 Y-1.418
N6060 X2.035 Y-1.4196
N6065 X2.0365 Y-1.4207
N6070 X2.0398 Y-1.4226
N6075 X2.0432 Y-1.4239
N6080 X2.0473 Y-1.4248
N6085 X2.0514 Y-1.425
N6090 X2.1063
N6095 X2.1093 Y-1.4247
N6100 X2.1122 Y-1.4241
N6105 X2.1149 Y-1.4228 Z-0.7498
N6110 X2.1175 Y-1.4215 Z-0.7493
N6115 X2.1201 Y-1.4203 Z-0.7484
N6120 X2.1223 Y-1.418 Z-0.7469
N6125 X2.1244 Y-1.4159 Z-0.745
N6130 X2.1262 Y-1.414 Z-0.7427
N6135 X2.1273 Y-1.4117 Z-0.7397
N6140 X2.1282 Y-1.4098 Z-0.7364
N6145 X2.1288 Y-1.4085 Z-0.7327
N6150 X2.1292 Y-1.4077 Z-0.7289
N6155 X2.1293 Y-1.4074 Z-0.725
N6160 G0 Z0.2
N6165 G1 X-0.0258 Y-2.4866 F500.
N6170 G0 Z-1.45
N6175 G1 Z-1.475 F14.
N6180 X-0.0257 Y-2.4863 Z-1.4789
N6185 X-0.0255 Y-2.4855 Z-1.4827
N6190 X-0.0251 Y-2.484 Z-1.4863
N6195 X-0.0246 Y-2.482 Z-1.4897
N6200 X-0.024 Y-2.4796 Z-1.4927
N6205 X-0.0232 Y-2.4767 Z-1.4952
N6210 X-0.0224 Y-2.4734 Z-1.4973
N6215 X-0.0215 Y-2.4699 Z-1.4988
N6220 X-0.0205 Y-2.4662 Z-1.4997
N6225 X-0.0196 Y-2.4624 Z-1.5
N6230 G3 X0. Y-2.3263 I-0.6183 J0.1584
N6235 G1 Y-2.3203
N6240 X-0.0072 Y-2.2849
N6245 X-0.0124 Y-2.2491
N6250 X-0.0161 Y-2.2131
N6255 X-0.0187 Y-2.177
N6260 X-0.0206 Y-2.1409
N6265 X-0.0219 Y-2.1047
N6270 X-0.0228 Y-2.0685
N6275 X-0.0234 Y-2.0323
N6280 X-0.0239 Y-1.9962
N6285 X-0.0242 Y-1.96
N6290 X-0.0245 Y-1.9238
N6295 X-0.0246 Y-1.8876
N6300 X-0.0248 Y-1.8153
N6305 X-0.0249 Y-1.7067
N6310 X-0.025 Y-1.4173
N6315 Y-0.3318
N6320 Y-0.1147
N6325 X-0.0213 Y-0.097
N6330 X-0.0045 Y-0.0649
N6335 X0.022 Y-0.0403
N6340 X0.0532 Y-0.022
N6345 X0.0868 Y-0.0087
N6350 X0.1217 Y0.001
N6355 X0.1572 Y0.008
N6360 X0.193 Y0.0129
N6365 X0.2291 Y0.0165
N6370 X0.2651 Y0.019
N6375 X0.3013 Y0.0207
N6380 X0.3374 Y0.022
N6385 X0.3736 Y0.0229
N6390 X0.4098 Y0.0235
N6395 X0.446 Y0.0239
N6400 X0.4822 Y0.0243
N6405 X0.5183 Y0.0245
N6410 X0.5545 Y0.0246
N6415 X0.6269 Y0.0248
N6420 X0.7354 Y0.0249
N6425 X1.0249 Y0.025
N6430 X1.6762
N6435 X2.3817
N6440 X2.3996 Y0.0227
N6445 X2.416 Y0.015
N6450 X2.4452 Y-0.0064
N6455 X2.4673 Y-0.0351
N6460 X2.4835 Y-0.0674
N6465 X2.4954 Y-0.1016
N6470 X2.5039 Y-0.1367
N6475 X2.51 Y-0.1724
N6480 X2.5144 Y-0.2083
N6485 X2.5175 Y-0.2443
N6490 X2.5197 Y-0.2805
N6495 X2.5213 Y-0.3166
N6500 X2.5224 Y-0.3528
N6505 X2.5231 Y-0.389
N6510 X2.5237 Y-0.4251
N6515 X2.5241 Y-0.4613
N6520 X2.5243 Y-0.4975
N6525 X2.5245 Y-0.5337
N6530 X2.5247 Y-0.5699
N6535 X2.5248 Y-0.6422
N6540 X2.5249 Y-0.7508
N6545 X2.525 Y-1.0764
N6550 Y-1.1849
N6555 Y-2.0895
N6560 X2.5199 Y-2.1069
N6565 X2.5017 Y-2.1381
N6570 X2.4745 Y-2.1619
N6575 X2.4429 Y-2.1796
N6580 X2.4091 Y-2.1925
N6585 X2.3741 Y-2.2019
N6590 X2.3386 Y-2.2086
N6595 X2.3027 Y-2.2134
N6600 X2.2667 Y-2.2168
N6605 X2.2306 Y-2.2192
N6610 X2.1944 Y-2.2209
N6615 X2.1583 Y-2.2221
N6620 X2.1221 Y-2.223
N6625 X2.0859 Y-2.2236
N6630 X2.0498 Y-2.224
N6635 X2.0136 Y-2.2243
N6640 X1.9774 Y-2.2245
N6645 X1.9412 Y-2.2246
N6650 X1.8689 Y-2.2248
N6655 X1.7603 Y-2.2249
N6660 X1.507 Y-2.225
N6665 X0.2226
N6670 X0.2048 Y-2.2217
N6675 X0.1721 Y-2.2062
N6680 X0.1465 Y-2.1806
N6685 X0.1272 Y-2.15
N6690 X0.1128 Y-2.1168
N6695 X0.1023 Y-2.0822
N6700 X0.0946 Y-2.0468
N6705 X0.0891 Y-2.0111
N6710 X0.0851 Y-1.9751
N6715 X0.0822 Y-1.9391
N6720 X0.0801 Y-1.9029
N6725 X0.0787 Y-1.8668
N6730 X0.0776 Y-1.8306
N6735 X0.0769 Y-1.7944
N6740 X0.0763 Y-1.7583
N6745 X0.0759 Y-1.7221
N6750 X0.0757 Y-1.6859
N6755 X0.0755 Y-1.6497
N6760 X0.0752 Y-1.5774
N6765 X0.0751 Y-1.4688
N6770 X0.075 Y-1.2517
N6775 Y-0.2386
N6780 X0.0841 Y-0.2036
N6785 X0.1044 Y-0.1737
N6790 X0.1314 Y-0.1496
N6795 X0.1623 Y-0.1308
N6800 X0.1956 Y-0.1165
N6805 X0.2301 Y-0.1056
N6810 X0.2654 Y-0.0976
N6815 X0.301 Y-0.0915
N6820 X0.3369 Y-0.0871
N6825 X0.373 Y-0.0838
N6830 X0.4091 Y-0.0814
N6835 X0.4452 Y-0.0797
N6840 X0.4814 Y-0.0784
N6845 X0.5175 Y-0.0775
N6850 X0.5537 Y-0.0768
N6855 X0.5899 Y-0.0763
N6860 X0.6261 Y-0.0759
N6865 X0.6623 Y-0.0757
N6870 X0.6984 Y-0.0755
N6875 X0.7708 Y-0.0753
N6880 X0.8793 Y-0.0751
N6885 X1.0964 Y-0.075
N6890 X2.2543
N6895 X2.272 Y-0.0783
N6900 X2.3058 Y-0.0913
N6905 X2.3341 Y-0.1139
N6910 X2.3565 Y-0.1423
N6915 X2.3739 Y-0.174
N6920 X2.3871 Y-0.2077
N6925 X2.397 Y-0.2425
N6930 X2.4044 Y-0.2779
N6935 X2.4099 Y-0.3137
N6940 X2.414 Y-0.3496
N6945 X2.417 Y-0.3857
N6950 X2.4192 Y-0.4218
N6955 X2.4208 Y-0.4579
N6960 X2.4219 Y-0.4941
N6965 X2.4228 Y-0.5303
N6970 X2.4234 Y-0.5665
N6975 X2.4238 Y-0.6026
N6980 X2.4242 Y-0.6388
N6985 X2.4244 Y-0.675
N6990 X2.4246 Y-0.7112
N6995 X2.4248 Y-0.7835
N7000 X2.4249 Y-0.8921
N7005 X2.425 Y-1.1092
N7010 Y-1.9414
N7015 X2.4243 Y-1.9594
N7020 X2.4161 Y-1.9947
N7025 X2.3962 Y-2.0249
N7030 X2.3695 Y-2.0493
N7035 X2.3387 Y-2.0684
N7040 X2.3056 Y-2.0829
N7045 X2.2711 Y-2.0939
N7050 X2.2359 Y-2.1021
N7055 X2.2002 Y-2.1082
N7060 X2.1643 Y-2.1127
N7065 X2.1283 Y-2.116
N7070 X2.0922 Y-2.1185
N7075 X2.0561 Y-2.1203
N7080 X2.0199 Y-2.1216
N7085 X1.9837 Y-2.1225
N7090 X1.9476 Y-2.1232
N7095 X1.9114 Y-2.1237
N7100 X1.8752 Y-2.1241
N7105 X1.839 Y-2.1243
N7110 X1.8028 Y-2.1245
N7115 X1.7305 Y-2.1247
N7120 X1.6219 Y-2.1249
N7125 X1.4048 Y-2.125
N7130 X0.3556
N7135 X0.3376 Y-2.1231
N7140 X0.3029 Y-2.1128
N7145 X0.2733 Y-2.0919
N7150 X0.2654 Y-2.085
N7155 X0.2564 Y-2.0796
N7160 X0.2466 Y-2.0759
N7165 X0.2362 Y-2.0741
N7170 X0.2349 Y-2.0739
N7175 X0.2267 Y-2.0727
N7180 X0.2162 Y-2.0703
N7185 X0.2102 Y-2.0683
N7190 X0.202 Y-2.0653
N7195 X0.1952 Y-2.0621
N7200 X0.1856 Y-2.0567
N7205 X0.1806 Y-2.0539
N7210 X0.1773 Y-2.0515
N7215 X0.1697 Y-2.0456
N7220 X0.1691 Y-2.0451
N7225 X0.1607 Y-2.0374
N7230 X0.1527 Y-2.0283
N7235 X0.1473 Y-2.021
N7240 X0.1445 Y-2.0167
N7245 X0.1362 Y-2.0016
N7250 X0.1339 Y-1.9963
N7255 X0.1311 Y-1.9881
N7260 X0.1288 Y-1.9799
N7265 X0.128 Y-1.9766
N7270 X0.1269 Y-1.9716
N7275 X0.1258 Y-1.9634
N7280 X0.1253 Y-1.9552
N7285 X0.125 Y-1.947
N7290 Y-1.5687
N7295 X0.1251 Y-1.5605
N7300 X0.1254 Y-1.544
N7305 X0.126 Y-1.5358
N7310 X0.1271 Y-1.5276
N7315 X0.1289 Y-1.5194
N7320 X0.1317 Y-1.5111
N7325 X0.1362 Y-1.4983
N7330 X0.144 Y-1.4765
N7335 X0.1532 Y-1.4426
N7340 X0.1598 Y-1.407
N7345 X0.1643 Y-1.3711
N7350 X0.1675 Y-1.335
N7355 X0.1697 Y-1.2989
N7360 X0.1713 Y-1.2628
N7365 X0.1724 Y-1.2266
N7370 X0.1732 Y-1.1904
N7375 X0.1737 Y-1.1543
N7380 X0.1741 Y-1.1181
N7385 X0.1744 Y-1.0819
N7390 X0.1746 Y-1.0457
N7395 X0.1748 Y-0.9734
N7400 X0.1749 Y-0.8648
N7405 X0.175 Y-0.6755
N7410 X0.1741 Y-0.6652
N7415 X0.1713 Y-0.6552
N7420 X0.1669 Y-0.6459
N7425 X0.1609 Y-0.6375
N7430 X0.1556 Y-0.6313
N7435 X0.149 Y-0.6231
N7440 X0.1445 Y-0.6162
N7445 X0.1362 Y-0.6015
N7450 X0.1348 Y-0.5984
N7455 X0.1318 Y-0.5902
N7460 X0.1293 Y-0.582
N7465 X0.128 Y-0.5768
N7470 X0.1273 Y-0.5737
N7475 X0.1261 Y-0.5655
N7480 X0.1254 Y-0.5573
N7485 X0.125 Y-0.5491
N7490 Y-0.253
N7495 X0.1253 Y-0.2448
N7500 X0.1258 Y-0.2366
N7505 X0.1269 Y-0.2284
N7510 X0.128 Y-0.2234
N7515 X0.1288 Y-0.2202
N7520 X0.1311 Y-0.2119
N7525 X0.1339 Y-0.2037
N7530 X0.1362 Y-0.1984
N7535 X0.1445 Y-0.1833
N7540 X0.1473 Y-0.179
N7545 X0.1527 Y-0.1717
N7550 X0.1609 Y-0.1624
N7555 X0.1691 Y-0.1549
N7560 X0.1697 Y-0.1544
N7565 X0.1773 Y-0.1485
N7570 X0.1806 Y-0.1461
N7575 X0.1856 Y-0.1433
N7580 X0.1952 Y-0.1379
N7585 X0.202 Y-0.1347
N7590 X0.2102 Y-0.1317
N7595 X0.2162 Y-0.1297
N7600 X0.2267 Y-0.1273
N7605 X0.2349 Y-0.1261
N7610 X0.2431 Y-0.1253
N7615 X0.2513 Y-0.125
N7620 X0.6294
N7625 X0.6376 Y-0.1251
N7630 X0.6541 Y-0.1253
N7635 X0.6623 Y-0.1257
N7640 X0.6705 Y-0.1267
N7645 X0.6787 Y-0.1285
N7650 X0.6832 Y-0.1297
N7655 X0.7034 Y-0.137
N7660 X0.7216 Y-0.1436
N7665 X0.7547 Y-0.1527
N7670 X0.7902 Y-0.1594
N7675 X0.8261 Y-0.1641
N7680 X0.8621 Y-0.1674
N7685 X0.8982 Y-0.1697
N7690 X0.9344 Y-0.1713
N7695 X0.9706 Y-0.1724
N7700 X1.0067 Y-0.1732
N7705 X1.0429 Y-0.1737
N7710 X1.0791 Y-0.1741
N7715 X1.1153 Y-0.1744
N7720 X1.1514 Y-0.1745
N7725 X1.2238 Y-0.1748
N7730 X1.3324 Y-0.1749
N7735 X1.5494 Y-0.175
N7740 X1.7225
N7745 X1.7337 Y-0.174
N7750 X1.7445 Y-0.171
N7755 X1.7546 Y-0.1662
N7760 X1.7637 Y-0.1596
N7765 X1.7719 Y-0.1524
N7770 X1.7808 Y-0.1461
N7775 X1.7884 Y-0.1415
N7780 X1.7948 Y-0.1379
N7785 X1.7966 Y-0.137
N7790 X1.8168 Y-0.1297
N7795 X1.8213 Y-0.1285
N7800 X1.8295 Y-0.1267
N7805 X1.8377 Y-0.1257
N7810 X1.8459 Y-0.1253
N7815 X1.8624 Y-0.1251
N7820 X1.8706 Y-0.125
N7825 X2.2487
N7830 X2.2569 Y-0.1253
N7835 X2.2651 Y-0.1261
N7840 X2.2733 Y-0.1273
N7845 X2.2838 Y-0.1297
N7850 X2.2898 Y-0.1317
N7855 X2.298 Y-0.1347
N7860 X2.3048 Y-0.1379
N7865 X2.3144 Y-0.1433
N7870 X2.3194 Y-0.1461
N7875 X2.3227 Y-0.1485
N7880 X2.3303 Y-0.1544
N7885 X2.3309 Y-0.1549
N7890 X2.3393 Y-0.1626
N7895 X2.3473 Y-0.1717
N7900 X2.3527 Y-0.179
N7905 X2.3555 Y-0.1833
N7910 X2.3638 Y-0.1984
N7915 X2.3661 Y-0.2037
N7920 X2.3689 Y-0.2119
N7925 X2.3712 Y-0.2202
N7930 X2.372 Y-0.2234
N7935 X2.3731 Y-0.2284
N7940 X2.3742 Y-0.2366
N7945 X2.3747 Y-0.2448
N7950 X2.375 Y-0.253
N7955 Y-0.5491
N7960 X2.3746 Y-0.5573
N7965 X2.3739 Y-0.5655
N7970 X2.3727 Y-0.5737
N7975 X2.372 Y-0.5768
N7980 X2.3707 Y-0.582
N7985 X2.3682 Y-0.5902
N7990 X2.3652 Y-0.5984
N7995 X2.3644 Y-0.6001
N8000 X2.3607 Y-0.6092
N8005 X2.3518 Y-0.6369
N8010 X2.3436 Y-0.6721
N8015 X2.338 Y-0.7078
N8020 X2.334 Y-0.7438
N8025 X2.3313 Y-0.7799
N8030 X2.3294 Y-0.816
N8035 X2.3281 Y-0.8522
N8040 X2.3272 Y-0.8883
N8045 X2.3265 Y-0.9245
N8050 X2.3261 Y-0.9607
N8055 X2.3257 Y-0.9969
N8060 X2.3255 Y-1.0331
N8065 X2.3254 Y-1.0692
N8070 X2.3252 Y-1.1416
N8075 X2.3251 Y-1.2502
N8080 X2.325 Y-1.4245
N8085 X2.326 Y-1.4352
N8090 X2.329 Y-1.4456
N8095 X2.3338 Y-1.4552
N8100 X2.3403 Y-1.4638
N8105 X2.346 Y-1.47
N8110 X2.3473 Y-1.4716
N8115 X2.3555 Y-1.4831
N8120 X2.3621 Y-1.4947
N8125 X2.3638 Y-1.4983
N8130 X2.3683 Y-1.5111
N8135 X2.3711 Y-1.5194
N8140 X2.3729 Y-1.5276
N8145 X2.374 Y-1.5358
N8150 X2.3746 Y-1.544
N8155 X2.3749 Y-1.5605
N8160 X2.375 Y-1.5687
N8165 Y-1.947
N8170 X2.3747 Y-1.9552
N8175 X2.3742 Y-1.9634
N8180 X2.3731 Y-1.9716
N8185 X2.372 Y-1.9766
N8190 X2.3712 Y-1.9799
N8195 X2.3689 Y-1.9881
N8200 X2.3661 Y-1.9963
N8205 X2.3638 Y-2.0016
N8210 X2.3555 Y-2.0167
N8215 X2.3527 Y-2.021
N8220 X2.3473 Y-2.0283
N8225 X2.3391 Y-2.0376
N8230 X2.3309 Y-2.0451
N8235 X2.3303 Y-2.0456
N8240 X2.3227 Y-2.0515
N8245 X2.3194 Y-2.0539
N8250 X2.3144 Y-2.0567
N8255 X2.3048 Y-2.0621
N8260 X2.298 Y-2.0653
N8265 X2.2898 Y-2.0683
N8270 X2.2838 Y-2.0703
N8275 X2.2733 Y-2.0727
N8280 X2.2651 Y-2.0739
N8285 X2.2569 Y-2.0747
N8290 X2.2487 Y-2.075
N8295 X0.2513
N8300 X0.2431 Y-2.0747
N8305 X0.2362 Y-2.0741
N8310 X0.2349 Y-2.0739
N8315 X0.2267 Y-2.0727
N8320 X0.2162 Y-2.0703
N8325 X0.2102 Y-2.0683
N8330 X0.2063 Y-2.0669
N8335 X0.202 Y-2.0653
N8340 X0.1952 Y-2.0621
N8345 X0.1856 Y-2.0567
N8350 X0.1806 Y-2.0539
N8355 X0.1773 Y-2.0515
N8360 X0.1697 Y-2.0456
N8365 X0.1691 Y-2.0451
N8370 X0.1609 Y-2.0376
N8375 X0.1607 Y-2.0374
N8380 X0.1535 Y-2.0292
N8385 X0.1527 Y-2.0283
N8390 X0.1473 Y-2.021
N8395 X0.1445 Y-2.0167
N8400 X0.1362 Y-2.0016
N8405 X0.1339 Y-1.9963
N8410 X0.1311 Y-1.9881
N8415 X0.1288 Y-1.9799
N8420 X0.128 Y-1.9766
N8425 X0.1269 Y-1.9716
N8430 X0.1258 Y-1.9634
N8435 X0.1253 Y-1.9552
N8440 X0.125 Y-1.947
N8445 Y-1.5687
N8450 X0.1251 Y-1.5605
N8455 X0.1254 Y-1.544
N8460 X0.126 Y-1.5358
N8465 X0.1271 Y-1.5278
N8470 Y-1.5276
N8475 X0.1289 Y-1.5194
N8480 X0.1317 Y-1.5111
N8485 X0.1362 Y-1.4983
N8490 X0.1379 Y-1.4947
N8495 X0.1445 Y-1.4831
N8500 X0.1527 Y-1.4716
N8505 X0.154 Y-1.47
N8510 X0.1609 Y-1.4625
N8515 X0.1691 Y-1.4548
N8520 X0.1773 Y-1.4483
N8525 X0.1822 Y-1.4445
N8530 X0.1891 Y-1.4381
N8535 X0.1967 Y-1.4298
N8540 X0.2048 Y-1.4195
N8545 X0.2134 Y-1.4064
N8550 X0.2224 Y-1.39
N8555 X0.2318 Y-1.3689
N8560 X0.2416 Y-1.3414
N8565 X0.2509 Y-1.3065
N8570 X0.2576 Y-1.2709
N8575 X0.2625 Y-1.235
N8580 X0.2659 Y-1.199
N8585 X0.2685 Y-1.1629
N8590 X0.2703 Y-1.1268
N8595 X0.2716 Y-1.0906
N8600 X0.2725 Y-1.0545
N8605 X0.2732 Y-1.0183
N8610 X0.2737 Y-0.9821
N8615 X0.2741 Y-0.9459
N8620 X0.2743 Y-0.9097
N8625 X0.2745 Y-0.8736
N8630 X0.2747 Y-0.8012
N8635 X0.2748 Y-0.765
N8640 X0.274 Y-0.7301
N8645 X0.2735 Y-0.7259
N8650 X0.271 Y-0.7136
N8655 X0.2659 Y-0.7021
N8660 X0.2586 Y-0.6918
N8665 X0.2493 Y-0.6833
N8670 X0.2385 Y-0.6768
N8675 X0.2267 Y-0.6727
N8680 G3 X0.1969 Y-0.6953 I-0.0048 J-0.0245
N8685 G1 X0.139 Y-1.4252
N8690 G3 X0.1773 Y-1.4483 I0.0249 J-0.002
N8695 G1 X0.1817 Y-1.4454
N8700 X0.1856 Y-1.4431
N8705 X0.1938 Y-1.4384
N8710 X0.202 Y-1.4347
N8715 X0.2102 Y-1.4317
N8720 X0.2184 Y-1.4292
N8725 X0.2195 Y-1.4289
N8730 X0.2276 Y-1.4266
N8735 X0.2339 Y-1.4242
N8740 X0.2413 Y-1.4208
N8745 X0.2488 Y-1.4165
N8750 X0.2569 Y-1.4109
N8755 X0.2663 Y-1.4033
N8760 X0.2754 Y-1.3947
N8765 X0.2852 Y-1.3836
N8770 X0.2955 Y-1.3701
N8775 X0.3061 Y-1.3534
N8780 X0.317 Y-1.333
N8785 X0.3282 Y-1.3071
N8790 X0.3395 Y-1.2737
N8795 X0.3484 Y-1.2386
N8800 X0.355 Y-1.2031
N8805 X0.36 Y-1.1672
N8810 X0.3638 Y-1.1313
N8815 X0.3666 Y-1.0952
N8820 X0.3688 Y-1.0591
N8825 X0.3704 Y-1.0229
N8830 X0.3716 Y-0.9868
N8835 X0.3724 Y-0.9506
N8840 X0.3731 Y-0.9144
N8845 X0.3736 Y-0.8782
N8850 X0.3739 Y-0.8421
N8855 X0.3738 Y-0.8059
N8860 X0.3722 Y-0.7765
N8865 X0.3691 Y-0.7538
N8870 X0.3647 Y-0.7342
N8875 X0.3598 Y-0.7181
N8880 X0.3574 Y-0.7119
N8885 X0.3521 Y-0.7016
N8890 X0.3448 Y-0.6925
N8895 X0.3359 Y-0.6851
N8900 X0.3257 Y-0.6796
N8905 X0.3147 Y-0.6762
N8910 X0.3031 Y-0.675
N8915 X0.2513
N8920 X0.2431 Y-0.6747
N8925 X0.2349 Y-0.6739
N8930 X0.2267 Y-0.6727
N8935 G3 X0.1989 Y-0.6973 I-0.0027 J-0.0249
N8940 G1 X0.1897 Y-1.4041
N8945 G3 X0.2195 Y-1.4289 I0.025 J-0.0003
N8950 G1 X0.2267 Y-1.4273
N8955 X0.2349 Y-1.4261
N8960 X0.2513 Y-1.425
N8965 X0.2723
N8970 X0.2786 Y-1.4247
N8975 X0.2852 Y-1.4238
N8980 X0.2926 Y-1.4222
N8985 X0.3004 Y-1.4199
N8990 X0.3093 Y-1.4164
N8995 X0.3183 Y-1.4121
N9000 X0.3286 Y-1.406
N9005 X0.3389 Y-1.3988
N9010 X0.35 Y-1.3895
N9015 X0.3619 Y-1.3779
N9020 X0.3737 Y-1.3644
N9025 X0.3862 Y-1.3475
N9030 X0.3988 Y-1.3273
N9035 X0.4114 Y-1.3027
N9040 X0.4244 Y-1.2719
N9045 X0.4356 Y-1.2375
N9050 X0.4444 Y-1.2024
N9055 X0.4513 Y-1.1669
N9060 X0.4567 Y-1.1311
N9065 X0.4609 Y-1.0951
N9070 X0.4642 Y-1.0591
N9075 X0.4667 Y-1.023
N9080 X0.4687 Y-0.9869
N9085 X0.4702 Y-0.9507
N9090 X0.4713 Y-0.9146
N9095 X0.4718 Y-0.8784
N9100 X0.4714 Y-0.8422
N9105 X0.4693 Y-0.8061
N9110 X0.4654 Y-0.7736
N9115 X0.4603 Y-0.7489
N9120 X0.4545 Y-0.7289
N9125 X0.4484 Y-0.7126
N9130 X0.4464 Y-0.7084
N9135 X0.4394 Y-0.6972
N9140 X0.4302 Y-0.6879
N9145 X0.4191 Y-0.6808
N9150 X0.4067 Y-0.6765
N9155 X0.3937 Y-0.675
N9160 X0.3031
N9165 G3 X0.279 Y-0.6989 I0.0009 J-0.025
N9170 G1 X0.2482 Y-1.3989
N9175 G3 X0.2723 Y-1.425 I0.025 J-0.0011
N9180 G1 X0.3463
N9185 X0.3534 Y-1.4246
N9190 X0.3613 Y-1.4236
N9195 X0.3697 Y-1.4218
N9200 X0.3789 Y-1.4191
N9205 X0.389 Y-1.4151
N9210 X0.3995 Y-1.41
N9215 X0.4113 Y-1.4031
N9220 X0.4228 Y-1.395
N9225 X0.4361 Y-1.384
N9230 X0.4487 Y-1.3717
N9235 X0.4628 Y-1.3555
N9240 X0.4636 Y-1.3545
N9245 X0.4698 Y-1.3438
N9250 X0.4737 Y-1.3321
N9255 X0.475 Y-1.3198
N9260 G3 X0.4347 Y-1.3008 I-0.025 J-0.0009
N9265 G1 X0.3319 Y-1.3802
N9270 G3 X0.3221 Y-1.4 I0.0153 J-0.0198
N9275 X0.3463 Y-1.425 I0.025 J0.
N9280 G1 X0.4239
N9285 X0.436 Y-1.4244
N9290 X0.4464 Y-1.4217
N9295 X0.4559 Y-1.4167
N9300 X0.4639 Y-1.4095
N9305 X0.4699 Y-1.4006
N9310 X0.4737 Y-1.3906
N9315 X0.475 Y-1.3799
N9320 G3 X0.4349 Y-1.3609 I-0.025 J-0.0009
N9325 G1 X0.4096 Y-1.3801
N9330 G3 X0.4239 Y-1.425 I0.0152 J-0.0199
N9335 G1 X0.4486
N9340 X0.4527 Y-1.4248
N9345 X0.4568 Y-1.4239
N9350 X0.4602 Y-1.4226
N9355 X0.4635 Y-1.4207
N9360 X0.465 Y-1.4196
N9365 X0.4669 Y-1.418
N9370 X0.4688 Y-1.416
N9375 X0.4703 Y-1.4143
N9380 X0.4714 Y-1.4125
N9385 X0.4732 Y-1.4088
N9390 X0.474 Y-1.4065
N9395 X0.4746 Y-1.4042
N9400 X0.475 Y-1.4001
N9405 Y-0.7053
N9410 X0.4748 Y-0.6971
N9415 X0.4742 Y-0.6942
N9420 X0.4732 Y-0.6913
N9425 X0.4721 Y-0.6889
N9430 X0.4709 Y-0.6868
N9435 X0.4694 Y-0.6847
N9440 X0.4675 Y-0.6827
N9445 X0.4653 Y-0.6806
N9450 X0.463 Y-0.6789
N9455 X0.4609 Y-0.6778
N9460 X0.4589 Y-0.6768
N9465 X0.4568 Y-0.6761
N9470 X0.4527 Y-0.6752
N9475 X0.4486 Y-0.675
N9480 X0.3937
N9485 G3 X0.3706 Y-0.6926 I0.0009 J-0.025
N9490 G1 X0.3695 Y-0.6964 Z-1.4997
N9495 X0.3684 Y-0.7 Z-1.4988
N9500 X0.3673 Y-0.7035 Z-1.4973
N9505 X0.3663 Y-0.7067 Z-1.4952
N9510 X0.3654 Y-0.7095 Z-1.4927
N9515 X0.3647 Y-0.7119 Z-1.4897
N9520 X0.3641 Y-0.7139 Z-1.4863
N9525 X0.3636 Y-0.7153 Z-1.4827
N9530 X0.3634 Y-0.7162 Z-1.4789
N9535 X0.3633 Y-0.7165 Z-1.475
N9540 G0 Z0.2
N9545 G1 X0.6676 Y-0.0946 F500.
N9550 G0 Z-1.45
N9555 G1 Z-1.475 F14.
N9560 X0.6678 Y-0.0949 Z-1.4789
N9565 X0.6682 Y-0.0956 Z-1.4827
N9570 X0.669 Y-0.0969 Z-1.4863
N9575 X0.6701 Y-0.0986 Z-1.4897
N9580 X0.6715 Y-0.1008 Z-1.4927
N9585 X0.6731 Y-0.1033 Z-1.4952
N9590 X0.6749 Y-0.1061 Z-1.4973
N9595 X0.6768 Y-0.1092 Z-1.4988
N9600 X0.6788 Y-0.1124 Z-1.4997
N9605 X0.6809 Y-0.1157 Z-1.5
N9610 G3 X0.7034 Y-0.137 I0.0527 J0.0332
N9615 G1 X0.7052 Y-0.1379
N9620 X0.7116 Y-0.1415
N9625 X0.7192 Y-0.1461
N9630 X0.7281 Y-0.1524
N9635 X0.7363 Y-0.1596
N9640 X0.764 Y-0.1873
N9645 X0.7758 Y-0.1979
N9650 X0.7862 Y-0.2059
N9655 X0.7996 Y-0.2145
N9660 X0.8162 Y-0.2235
N9665 X0.8376 Y-0.2329
N9670 X0.8657 Y-0.2427
N9675 X0.9007 Y-0.2517
N9680 X0.9363 Y-0.2582
N9685 X0.9722 Y-0.2629
N9690 X1.0082 Y-0.2663
N9695 X1.0443 Y-0.2687
N9700 X1.0805 Y-0.2704
N9705 X1.1166 Y-0.2717
N9710 X1.1528 Y-0.2726
N9715 X1.189 Y-0.2733
N9720 X1.2252 Y-0.2738
N9725 X1.2613 Y-0.2741
N9730 X1.2975 Y-0.2744
N9735 X1.3337 Y-0.2745
N9740 X1.4061 Y-0.2748
N9745 X1.5146 Y-0.2749
N9750 X1.6232 Y-0.275
N9755 X1.6249 Y-0.2749
N9760 X1.636 Y-0.2737
N9765 X1.6468 Y-0.2704
N9770 X1.6567 Y-0.265
N9775 X1.6654 Y-0.2579
N9780 X1.7524 Y-0.1708
N9785 X1.7637 Y-0.1596
N9790 G3 X1.7448 Y-0.1175 I-0.0182 J0.0171
N9795 G1 X0.7816 Y-0.1452
N9800 G3 X0.764 Y-0.1873 I0.0007 J-0.025
N9805 G1 X0.8596 Y-0.2828
N9810 X0.8695 Y-0.2918
N9815 X0.8811 Y-0.3007
N9820 X0.8957 Y-0.3101
N9825 X0.9138 Y-0.3199
N9830 X0.9371 Y-0.3301
N9835 X0.9673 Y-0.3406
N9840 X1.0023 Y-0.3497
N9845 X1.0379 Y-0.3563
N9850 X1.0737 Y-0.3612
N9855 X1.1097 Y-0.3649
N9860 X1.1458 Y-0.3675
N9865 X1.1819 Y-0.3695
N9870 X1.2181 Y-0.3709
N9875 X1.2542 Y-0.372
N9880 X1.2904 Y-0.3728
N9885 X1.3266 Y-0.3734
N9890 X1.3628 Y-0.3738
N9895 X1.399 Y-0.3741
N9900 X1.4351 Y-0.3744
N9905 X1.4713 Y-0.3745
N9910 X1.5075 Y-0.3747
N9915 X1.5243
N9920 X1.5357 Y-0.3736
N9925 X1.5467 Y-0.3703
N9930 X1.5568 Y-0.3649
N9935 X1.5656 Y-0.3576
N9940 X1.6654 Y-0.2579
N9945 G3 X1.6463 Y-0.2158 I-0.0183 J0.017
N9950 G1 X0.877 Y-0.2408
N9955 G3 X0.8596 Y-0.2828 I0.0008 J-0.025
N9960 G1 X0.9532 Y-0.3764
N9965 X0.9679 Y-0.3897
N9970 X0.9798 Y-0.3988
N9975 X0.9946 Y-0.4084
N9980 X1.0132 Y-0.4184
N9985 X1.037 Y-0.4289
N9990 X1.0679 Y-0.4396
N9995 X1.1029 Y-0.4487
N10000 X1.1385 Y-0.4554
N10005 X1.1743 Y-0.4604
N10010 X1.2103 Y-0.4641
N10015 X1.2464 Y-0.4669
N10020 X1.2825 Y-0.469
N10025 X1.3187 Y-0.4705
N10030 X1.3548 Y-0.4717
N10035 X1.391 Y-0.4725
N10040 X1.4249 Y-0.4731
N10045 X1.4366 Y-0.4721
N10050 X1.4478 Y-0.4689
N10055 X1.4581 Y-0.4634
N10060 X1.4672 Y-0.456
N10065 X1.5656 Y-0.3576
N10070 G3 X1.5465 Y-0.3156 I-0.0183 J0.017
N10075 G1 X0.9706 Y-0.3344
N10080 G3 X0.9532 Y-0.3764 I0.0008 J-0.025
N10085 G1 X1.0518 Y-0.4751
N10090 X1.0668 Y-0.4886
N10095 X1.0789 Y-0.4979
N10100 X1.0938 Y-0.5076
N10105 X1.1126 Y-0.5177
N10110 X1.1367 Y-0.5283
N10115 X1.1679 Y-0.5391
N10120 X1.203 Y-0.5482
N10125 X1.2385 Y-0.5549
N10130 X1.2743 Y-0.56
N10135 X1.3103 Y-0.5637
N10140 X1.3293 Y-0.5652
N10145 X1.3418 Y-0.5648
N10150 X1.354 Y-0.5617
N10155 X1.3652 Y-0.5561
N10160 X1.375 Y-0.5483
N10165 G3 X1.3629 Y-0.507 I-0.0183 J0.017
N10170 G1 X1.0763 Y-0.4338
N10175 G3 X1.0518 Y-0.4751 I-0.0062 J-0.0242
N10180 G1 X1.1555 Y-0.5787
N10185 X1.1657 Y-0.588
N10190 X1.1779 Y-0.5973
N10195 X1.1929 Y-0.607
N10200 X1.2117 Y-0.6172
N10205 X1.2322 Y-0.6262
N10210 X1.2458 Y-0.6309
N10215 X1.2585 Y-0.6338
N10220 X1.2716 Y-0.6337
N10225 X1.2843 Y-0.6308
N10230 X1.296 Y-0.6252
N10235 X1.3062 Y-0.617
N10240 G3 X1.2959 Y-0.5763 I-0.0183 J0.017
N10245 G1 X1.1817 Y-0.538
N10250 G3 X1.1555 Y-0.5787 I-0.008 J-0.0237
N10255 G1 X1.2295 Y-0.6527
N10260 X1.2328 Y-0.656
N10265 X1.2352 Y-0.658
N10270 X1.2377 Y-0.6596
N10275 X1.2397 Y-0.6607
N10280 X1.2418 Y-0.6615
N10285 X1.2459 Y-0.6625
N10290 X1.25 Y-0.6629
N10295 X1.2541 Y-0.6625
N10300 X1.2582 Y-0.6615
N10305 X1.2603 Y-0.6607
N10310 X1.2623 Y-0.6596
N10315 X1.2648 Y-0.658
N10320 X1.2672 Y-0.656
N10325 X1.4672 Y-0.456
N10330 G3 X1.471 Y-0.4273 I-0.0183 J0.017
N10335 G1 X1.4692 Y-0.4238 Z-1.4997
N10340 X1.4674 Y-0.4205 Z-1.4988
N10345 X1.4657 Y-0.4173 Z-1.4973
N10350 X1.4641 Y-0.4143 Z-1.4952
N10355 X1.4627 Y-0.4117 Z-1.4927
N10360 X1.4615 Y-0.4094 Z-1.4897
N10365 X1.4606 Y-0.4076 Z-1.4863
N10370 X1.4599 Y-0.4063 Z-1.4827
N10375 X1.4595 Y-0.4055 Z-1.4789
N10380 X1.4593 Y-0.4052 Z-1.475
N10385 G0 Z0.2
N10390 G1 X2.4056 Y-0.563 F500.
N10395 G0 Z-1.45
N10400 G1 Z-1.475 F14.
N10405 X2.4054 Y-0.5632 Z-1.4789
N10410 X2.4046 Y-0.5637 Z-1.4827
N10415 X2.4034 Y-0.5645 Z-1.4863
N10420 X2.4017 Y-0.5657 Z-1.4897
N10425 X2.3996 Y-0.5671 Z-1.4927
N10430 X2.3971 Y-0.5688 Z-1.4952
N10435 X2.3943 Y-0.5706 Z-1.4973
N10440 X2.3913 Y-0.5727 Z-1.4988
N10445 X2.3882 Y-0.5748 Z-1.4997
N10450 X2.3849 Y-0.577 Z-1.5
N10455 G3 X2.3644 Y-0.6001 I0.0349 J-0.0516
N10460 G1 X2.3638 Y-0.6015
N10465 X2.3555 Y-0.6162
N10470 X2.351 Y-0.6231
N10475 X2.3444 Y-0.6313
N10480 X2.3391 Y-0.6375
N10485 X2.337 Y-0.6395
N10490 X2.3309 Y-0.6449
N10495 X2.3227 Y-0.6513
N10500 X2.3175 Y-0.6553
N10505 X2.3104 Y-0.6619
N10510 X2.303 Y-0.6701
N10515 X2.2948 Y-0.6806
N10520 X2.2863 Y-0.6936
N10525 X2.2772 Y-0.7103
N10530 X2.2678 Y-0.7313
N10535 X2.2581 Y-0.759
N10540 X2.2488 Y-0.794
N10545 X2.2422 Y-0.8295
N10550 X2.2374 Y-0.8654
N10555 X2.2339 Y-0.9014
N10560 X2.2315 Y-0.9375
N10565 X2.2297 Y-0.9736
N10570 X2.2284 Y-1.0098
N10575 X2.2274 Y-1.046
N10580 X2.2267 Y-1.0822
N10585 X2.2263 Y-1.1183
N10590 X2.2259 Y-1.1545
N10595 X2.2257 Y-1.1907
N10600 X2.2255 Y-1.2269
N10605 X2.2252 Y-1.2992
N10610 Y-1.3354
N10615 X2.226 Y-1.3702
N10620 X2.2264 Y-1.3741
N10625 X2.229 Y-1.3864
N10630 X2.2341 Y-1.398
N10635 X2.2414 Y-1.4082
N10640 X2.2507 Y-1.4167
N10645 X2.2615 Y-1.4232
N10650 X2.2733 Y-1.4273
N10655 G3 X2.3031 Y-1.4047 I0.0048 J0.0245
N10660 G1 X2.3614 Y-0.6741
N10665 G3 X2.3227 Y-0.6513 I-0.0249 J0.002
N10670 G1 X2.3161 Y-0.656
N10675 X2.3144 Y-0.6569
N10680 X2.3062 Y-0.6615
N10685 X2.298 Y-0.6653
N10690 X2.2898 Y-0.6683
N10695 X2.2816 Y-0.6708
N10700 X2.2778 Y-0.6717
N10705 X2.2721 Y-0.6734
N10710 X2.2657 Y-0.6757
N10715 X2.2583 Y-0.6792
N10720 X2.2508 Y-0.6836
N10725 X2.2427 Y-0.6892
N10730 X2.2334 Y-0.6968
N10735 X2.2243 Y-0.7055
N10740 X2.2144 Y-0.7166
N10745 X2.2041 Y-0.7302
N10750 X2.1935 Y-0.7469
N10755 X2.1827 Y-0.7674
N10760 X2.1715 Y-0.7935
N10765 X2.1601 Y-0.8271
N10770 X2.1514 Y-0.8622
N10775 X2.1448 Y-0.8977
N10780 X2.1398 Y-0.9336
N10785 X2.1361 Y-0.9696
N10790 X2.1332 Y-1.0056
N10795 X2.1311 Y-1.0418
N10800 X2.1296 Y-1.0779
N10805 X2.1284 Y-1.1141
N10810 X2.1275 Y-1.1503
N10815 X2.1269 Y-1.1864
N10820 X2.1264 Y-1.2226
N10825 X2.1261 Y-1.2588
N10830 X2.1262 Y-1.295
N10835 X2.1279 Y-1.3241
N10840 X2.131 Y-1.3466
N10845 X2.1353 Y-1.3662
N10850 X2.1403 Y-1.3822
N10855 X2.1427 Y-1.3882
N10860 X2.148 Y-1.3985
N10865 X2.1552 Y-1.4075
N10870 X2.1641 Y-1.4149
N10875 X2.1743 Y-1.4205
N10880 X2.1853 Y-1.4239
N10885 X2.1969 Y-1.425
N10890 X2.2487
N10895 X2.2651 Y-1.4261
N10900 X2.2733 Y-1.4273
N10905 G3 X2.301 Y-1.4026 I0.0027 J0.0249
N10910 G1 X2.3076 Y-0.6965
N10915 G3 X2.2778 Y-0.6717 I-0.025 J0.0002
N10920 G1 X2.2733 Y-0.6727
N10925 X2.2651 Y-0.6739
N10930 X2.2569 Y-0.6747
N10935 X2.2487 Y-0.675
N10940 X2.2277
N10945 X2.2212 Y-0.6753
N10950 X2.2146 Y-0.6762
N10955 X2.2072 Y-0.6778
N10960 X2.1994 Y-0.6801
N10965 X2.1905 Y-0.6836
N10970 X2.1816 Y-0.6879
N10975 X2.1713 Y-0.694
N10980 X2.161 Y-0.7012
N10985 X2.1499 Y-0.7104
N10990 X2.1379 Y-0.7221
N10995 X2.1262 Y-0.7355
N11000 X2.1137 Y-0.7524
N11005 X2.1012 Y-0.7726
N11010 X2.0885 Y-0.7971
N11015 X2.0756 Y-0.828
N11020 X2.0643 Y-0.8624
N11025 X2.0555 Y-0.8975
N11030 X2.0486 Y-0.933
N11035 X2.0432 Y-0.9688
N11040 X2.039 Y-1.0047
N11045 X2.0358 Y-1.0408
N11050 X2.0333 Y-1.0769
N11055 X2.0313 Y-1.113
N11060 X2.0298 Y-1.1491
N11065 X2.0287 Y-1.1853
N11070 X2.0281 Y-1.2215
N11075 X2.0285 Y-1.2577
N11080 X2.0306 Y-1.2938
N11085 X2.0346 Y-1.3264
N11090 X2.0397 Y-1.3511
N11095 X2.0454 Y-1.3711
N11100 X2.0516 Y-1.3874
N11105 X2.0536 Y-1.3916
N11110 X2.0605 Y-1.4028
N11115 X2.0698 Y-1.4121
N11120 X2.0809 Y-1.4192
N11125 X2.0933 Y-1.4235
N11130 X2.1063 Y-1.425
N11135 X2.1969
N11140 G3 X2.221 Y-1.4011 I-0.0009 J0.025
N11145 G1 X2.2518 Y-0.7011
N11150 G3 X2.2277 Y-0.675 I-0.025 J0.0011
N11155 G1 X2.1538
N11160 X2.1465 Y-0.6754
N11165 X2.1386 Y-0.6764
N11170 X2.1302 Y-0.6782
N11175 X2.121 Y-0.681
N11180 X2.1109 Y-0.6849
N11185 X2.1004 Y-0.69
N11190 X2.0886 Y-0.6969
N11195 X2.0771 Y-0.705
N11200 X2.0638 Y-0.716
N11205 X2.0512 Y-0.7283
N11210 X2.0371 Y-0.7445
N11215 X2.0364 Y-0.7454
N11220 X2.0302 Y-0.756
N11225 X2.0263 Y-0.7678
N11230 X2.025 Y-0.7801
N11235 G3 X2.0652 Y-0.799 I0.025 J0.0009
N11240 G1 X2.1681 Y-0.7198
N11245 G3 X2.1538 Y-0.675 I-0.0153 J0.0198
N11250 G1 X2.0761
N11255 X2.0639 Y-0.6756
N11260 X2.0535 Y-0.6783
N11265 X2.0441 Y-0.6833
N11270 X2.0361 Y-0.6905
N11275 X2.0301 Y-0.6993
N11280 X2.0263 Y-0.7093
N11285 X2.025 Y-0.72
N11290 G3 X2.0651 Y-0.739 I0.025 J0.0009
N11295 G1 X2.0903 Y-0.7199
N11300 G3 X2.0761 Y-0.675 I-0.0151 J0.0199
N11305 G1 X2.0514
N11310 X2.0473 Y-0.6752
N11315 X2.0432 Y-0.6761
N11320 X2.0411 Y-0.6768
N11325 X2.0391 Y-0.6778
N11330 X2.037 Y-0.6789
N11335 X2.0347 Y-0.6806
N11340 X2.0325 Y-0.6827
N11345 X2.0306 Y-0.6847
N11350 X2.0291 Y-0.6868
N11355 X2.0279 Y-0.6889
N11360 X2.0268 Y-0.6913
N11365 X2.0258 Y-0.6942
N11370 X2.0252 Y-0.6971
N11375 X2.025 Y-0.7053
N11380 Y-1.396
N11385 Y-1.4001
N11390 X2.0254 Y-1.4042
N11395 X2.026 Y-1.4065
N11400 X2.0268 Y-1.4088
N11405 X2.0286 Y-1.4125
N11410 X2.0297 Y-1.4143
N11415 X2.0312 Y-1.416
N11420 X2.0331 Y-1.418
N11425 X2.035 Y-1.4196
N11430 X2.0365 Y-1.4207
N11435 X2.0398 Y-1.4226
N11440 X2.0432 Y-1.4239
N11445 X2.0473 Y-1.4248
N11450 X2.0514 Y-1.425
N11455 X2.1063
N11460 X2.1093 Y-1.4247
N11465 X2.1122 Y-1.4241
N11470 X2.1149 Y-1.4228 Z-1.4998
N11475 X2.1175 Y-1.4215 Z-1.4993
N11480 X2.1201 Y-1.4203 Z-1.4984
N11485 X2.1223 Y-1.418 Z-1.4969
N11490 X2.1244 Y-1.4159 Z-1.495
N11495 X2.1262 Y-1.414 Z-1.4927
N11500 X2.1273 Y-1.4117 Z-1.4897
N11505 X2.1282 Y-1.4098 Z-1.4864
N11510 X2.1288 Y-1.4085 Z-1.4827
N11515 X2.1292 Y-1.4077 Z-1.4789
N11520 X2.1293 Y-1.4074 Z-1.475
N11525 G0 Z0.2
N11530 G1 X-0.0258 Y-2.4866 F500.
N11535 G0 Z-1.7
N11540 G1 Z-1.725 F14.
N11545 X-0.0257 Y-2.4863 Z-1.7289
N11550 X-0.0255 Y-2.4855 Z-1.7327
N11555 X-0.0251 Y-2.484 Z-1.7363
N11560 X-0.0246 Y-2.482 Z-1.7397
N11565 X-0.024 Y-2.4796 Z-1.7427
N11570 X-0.0232 Y-2.4767 Z-1.7452
N11575 X-0.0224 Y-2.4734 Z-1.7473
N11580 X-0.0215 Y-2.4699 Z-1.7488
N11585 X-0.0205 Y-2.4662 Z-1.7497
N11590 X-0.0196 Y-2.4624 Z-1.75
N11595 G3 X0. Y-2.3263 I-0.6183 J0.1584
N11600 G1 Y-2.3203
N11605 X-0.0072 Y-2.2849
N11610 X-0.0124 Y-2.2491
N11615 X-0.0161 Y-2.2131
N11620 X-0.0187 Y-2.177
N11625 X-0.0206 Y-2.1409
N11630 X-0.0219 Y-2.1047
N11635 X-0.0228 Y-2.0685
N11640 X-0.0234 Y-2.0323
N11645 X-0.0239 Y-1.9962
N11650 X-0.0242 Y-1.96
N11655 X-0.0245 Y-1.9238
N11660 X-0.0246 Y-1.8876
N11665 X-0.0248 Y-1.8153
N11670 X-0.0249 Y-1.7067
N11675 X-0.025 Y-1.4173
N11680 Y-0.3318
N11685 Y-0.1147
N11690 X-0.0213 Y-0.097
N11695 X-0.0045 Y-0.0649
N11700 X0.022 Y-0.0403
N11705 X0.0532 Y-0.022
N11710 X0.0868 Y-0.0087
N11715 X0.1217 Y0.001
N11720 X0.1572 Y0.008
N11725 X0.193 Y0.0129
N11730 X0.2291 Y0.0165
N11735 X0.2651 Y0.019
N11740 X0.3013 Y0.0207
N11745 X0.3374 Y0.022
N11750 X0.3736 Y0.0229
N11755 X0.4098 Y0.0235
N11760 X0.446 Y0.0239
N11765 X0.4822 Y0.0243
N11770 X0.5183 Y0.0245
N11775 X0.5545 Y0.0246
N11780 X0.6269 Y0.0248
N11785 X0.7354 Y0.0249
N11790 X1.0249 Y0.025
N11795 X1.6762
N11800 X2.3817
N11805 X2.3996 Y0.0227
N11810 X2.416 Y0.015
N11815 X2.4452 Y-0.0064
N11820 X2.4673 Y-0.0351
N11825 X2.4835 Y-0.0674
N11830 X2.4954 Y-0.1016
N11835 X2.5039 Y-0.1367
N11840 X2.51 Y-0.1724
N11845 X2.5144 Y-0.2083
N11850 X2.5175 Y-0.2443
N11855 X2.5197 Y-0.2805
N11860 X2.5213 Y-0.3166
N11865 X2.5224 Y-0.3528
N11870 X2.5231 Y-0.389
N11875 X2.5237 Y-0.4251
N11880 X2.5241 Y-0.4613
N11885 X2.5243 Y-0.4975
N11890 X2.5245 Y-0.5337
N11895 X2.5247 Y-0.5699
N11900 X2.5248 Y-0.6422
N11905 X2.5249 Y-0.7508
N11910 X2.525 Y-1.0764
N11915 Y-1.1849
N11920 Y-2.0895
N11925 X2.5199 Y-2.1069
N11930 X2.5017 Y-2.1381
N11935 X2.4745 Y-2.1619
N11940 X2.4429 Y-2.1796
N11945 X2.4091 Y-2.1925
N11950 X2.3741 Y-2.2019
N11955 X2.3386 Y-2.2086
N11960 X2.3027 Y-2.2134
N11965 X2.2667 Y-2.2168
N11970 X2.2306 Y-2.2192
N11975 X2.1944 Y-2.2209
N11980 X2.1583 Y-2.2221
N11985 X2.1221 Y-2.223
N11990 X2.0859 Y-2.2236
N11995 X2.0498 Y-2.224
N12000 X2.0136 Y-2.2243
N12005 X1.9774 Y-2.2245
N12010 X1.9412 Y-2.2246
N12015 X1.8689 Y-2.2248
N12020 X1.7603 Y-2.2249
N12025 X1.507 Y-2.225
N12030 X0.2226
N12035 X0.2048 Y-2.2217
N12040 X0.1721 Y-2.2062
N12045 X0.1465 Y-2.1806
N12050 X0.1272 Y-2.15
N12055 X0.1128 Y-2.1168
N12060 X0.1023 Y-2.0822
N12065 X0.0946 Y-2.0468
N12070 X0.0891 Y-2.0111
N12075 X0.0851 Y-1.9751
N12080 X0.0822 Y-1.9391
N12085 X0.0801 Y-1.9029
N12090 X0.0787 Y-1.8668
N12095 X0.0776 Y-1.8306
N12100 X0.0769 Y-1.7944
N12105 X0.0763 Y-1.7583
N12110 X0.0759 Y-1.7221
N12115 X0.0757 Y-1.6859
N12120 X0.0755 Y-1.6497
N12125 X0.0752 Y-1.5774
N12130 X0.0751 Y-1.4688
N12135 X0.075 Y-1.2517
N12140 Y-0.2386
N12145 X0.0841 Y-0.2036
N12150 X0.1044 Y-0.1737
N12155 X0.1314 Y-0.1496
N12160 X0.1623 Y-0.1308
N12165 X0.1956 Y-0.1165
N12170 X0.2301 Y-0.1056
N12175 X0.2654 Y-0.0976
N12180 X0.301 Y-0.0915
N12185 X0.3369 Y-0.0871
N12190 X0.373 Y-0.0838
N12195 X0.4091 Y-0.0814
N12200 X0.4452 Y-0.0797
N12205 X0.4814 Y-0.0784
N12210 X0.5175 Y-0.0775
N12215 X0.5537 Y-0.0768
N12220 X0.5899 Y-0.0763
N12225 X0.6261 Y-0.0759
N12230 X0.6623 Y-0.0757
N12235 X0.6984 Y-0.0755
N12240 X0.7708 Y-0.0753
N12245 X0.8793 Y-0.0751
N12250 X1.0964 Y-0.075
N12255 X2.2543
N12260 X2.272 Y-0.0783
N12265 X2.3058 Y-0.0913
N12270 X2.3341 Y-0.1139
N12275 X2.3565 Y-0.1423
N12280 X2.3739 Y-0.174
N12285 X2.3871 Y-0.2077
N12290 X2.397 Y-0.2425
N12295 X2.4044 Y-0.2779
N12300 X2.4099 Y-0.3137
N12305 X2.414 Y-0.3496
N12310 X2.417 Y-0.3857
N12315 X2.4192 Y-0.4218
N12320 X2.4208 Y-0.4579
N12325 X2.4219 Y-0.4941
N12330 X2.4228 Y-0.5303
N12335 X2.4234 Y-0.5665
N12340 X2.4238 Y-0.6026
N12345 X2.4242 Y-0.6388
N12350 X2.4244 Y-0.675
N12355 X2.4246 Y-0.7112
N12360 X2.4248 Y-0.7835
N12365 X2.4249 Y-0.8921
N12370 X2.425 Y-1.1092
N12375 Y-1.9414
N12380 X2.4243 Y-1.9594
N12385 X2.4161 Y-1.9947
N12390 X2.3962 Y-2.0249
N12395 X2.3695 Y-2.0493
N12400 X2.3387 Y-2.0684
N12405 X2.3056 Y-2.0829
N12410 X2.2711 Y-2.0939
N12415 X2.2359 Y-2.1021
N12420 X2.2002 Y-2.1082
N12425 X2.1643 Y-2.1127
N12430 X2.1283 Y-2.116
N12435 X2.0922 Y-2.1185
N12440 X2.0561 Y-2.1203
N12445 X2.0199 Y-2.1216
N12450 X1.9837 Y-2.1225
N12455 X1.9476 Y-2.1232
N12460 X1.9114 Y-2.1237
N12465 X1.8752 Y-2.1241
N12470 X1.839 Y-2.1243
N12475 X1.8028 Y-2.1245
N12480 X1.7305 Y-2.1247
N12485 X1.6219 Y-2.1249
N12490 X1.4048 Y-2.125
N12495 X0.3556
N12500 X0.3376 Y-2.1231
N12505 X0.3029 Y-2.1128
N12510 X0.2733 Y-2.0919
N12515 X0.2654 Y-2.085
N12520 X0.2564 Y-2.0796
N12525 X0.2466 Y-2.0759
N12530 X0.2362 Y-2.0741
N12535 X0.2349 Y-2.0739
N12540 X0.2267 Y-2.0727
N12545 X0.2162 Y-2.0703
N12550 X0.2102 Y-2.0683
N12555 X0.202 Y-2.0653
N12560 X0.1952 Y-2.0621
N12565 X0.1856 Y-2.0567
N12570 X0.1806 Y-2.0539
N12575 X0.1773 Y-2.0515
N12580 X0.1697 Y-2.0456
N12585 X0.1691 Y-2.0451
N12590 X0.1607 Y-2.0374
N12595 X0.1527 Y-2.0283
N12600 X0.1473 Y-2.021
N12605 X0.1445 Y-2.0167
N12610 X0.1362 Y-2.0016
N12615 X0.1339 Y-1.9963
N12620 X0.1311 Y-1.9881
N12625 X0.1288 Y-1.9799
N12630 X0.128 Y-1.9766
N12635 X0.1269 Y-1.9716
N12640 X0.1258 Y-1.9634
N12645 X0.1253 Y-1.9552
N12650 X0.125 Y-1.947
N12655 Y-1.5687
N12660 X0.1251 Y-1.5605
N12665 X0.1254 Y-1.544
N12670 X0.126 Y-1.5358
N12675 X0.1271 Y-1.5276
N12680 X0.1289 Y-1.5194
N12685 X0.1317 Y-1.5111
N12690 X0.1362 Y-1.4983
N12695 X0.144 Y-1.4765
N12700 X0.1532 Y-1.4426
N12705 X0.1598 Y-1.407
N12710 X0.1643 Y-1.3711
N12715 X0.1675 Y-1.335
N12720 X0.1697 Y-1.2989
N12725 X0.1713 Y-1.2628
N12730 X0.1724 Y-1.2266
N12735 X0.1732 Y-1.1904
N12740 X0.1737 Y-1.1543
N12745 X0.1741 Y-1.1181
N12750 X0.1744 Y-1.0819
N12755 X0.1746 Y-1.0457
N12760 X0.1748 Y-0.9734
N12765 X0.1749 Y-0.8648
N12770 X0.175 Y-0.6755
N12775 X0.1741 Y-0.6652
N12780 X0.1713 Y-0.6552
N12785 X0.1669 Y-0.6459
N12790 X0.1609 Y-0.6375
N12795 X0.1556 Y-0.6313
N12800 X0.149 Y-0.6231
N12805 X0.1445 Y-0.6162
N12810 X0.1362 Y-0.6015
N12815 X0.1348 Y-0.5984
N12820 X0.1318 Y-0.5902
N12825 X0.1293 Y-0.582
N12830 X0.128 Y-0.5768
N12835 X0.1273 Y-0.5737
N12840 X0.1261 Y-0.5655
N12845 X0.1254 Y-0.5573
N12850 X0.125 Y-0.5491
N12855 Y-0.253
N12860 X0.1253 Y-0.2448
N12865 X0.1258 Y-0.2366
N12870 X0.1269 Y-0.2284
N12875 X0.128 Y-0.2234
N12880 X0.1288 Y-0.2202
N12885 X0.1311 Y-0.2119
N12890 X0.1339 Y-0.2037
N12895 X0.1362 Y-0.1984
N12900 X0.1445 Y-0.1833
N12905 X0.1473 Y-0.179
N12910 X0.1527 Y-0.1717
N12915 X0.1609 Y-0.1624
N12920 X0.1691 Y-0.1549
N12925 X0.1697 Y-0.1544
N12930 X0.1773 Y-0.1485
N12935 X0.1806 Y-0.1461
N12940 X0.1856 Y-0.1433
N12945 X0.1952 Y-0.1379
N12950 X0.202 Y-0.1347
N12955 X0.2102 Y-0.1317
N12960 X0.2162 Y-0.1297
N12965 X0.2267 Y-0.1273
N12970 X0.2349 Y-0.1261
N12975 X0.2431 Y-0.1253
N12980 X0.2513 Y-0.125
N12985 X0.6294
N12990 X0.6376 Y-0.1251
N12995 X0.6541 Y-0.1253
N13000 X0.6623 Y-0.1257
N13005 X0.6705 Y-0.1267
N13010 X0.6787 Y-0.1285
N13015 X0.6832 Y-0.1297
N13020 X0.7034 Y-0.137
N13025 X0.7216 Y-0.1436
N13030 X0.7547 Y-0.1527
N13035 X0.7902 Y-0.1594
N13040 X0.8261 Y-0.1641
N13045 X0.8621 Y-0.1674
N13050 X0.8982 Y-0.1697
N13055 X0.9344 Y-0.1713
N13060 X0.9706 Y-0.1724
N13065 X1.0067 Y-0.1732
N13070 X1.0429 Y-0.1737
N13075 X1.0791 Y-0.1741
N13080 X1.1153 Y-0.1744
N13085 X1.1514 Y-0.1745
N13090 X1.2238 Y-0.1748
N13095 X1.3324 Y-0.1749
N13100 X1.5494 Y-0.175
N13105 X1.7225
N13110 X1.7337 Y-0.174
N13115 X1.7445 Y-0.171
N13120 X1.7546 Y-0.1662
N13125 X1.7637 Y-0.1596
N13130 X1.7719 Y-0.1524
N13135 X1.7808 Y-0.1461
N13140 X1.7884 Y-0.1415
N13145 X1.7948 Y-0.1379
N13150 X1.7966 Y-0.137
N13155 X1.8168 Y-0.1297
N13160 X1.8213 Y-0.1285
N13165 X1.8295 Y-0.1267
N13170 X1.8377 Y-0.1257
N13175 X1.8459 Y-0.1253
N13180 X1.8624 Y-0.1251
N13185 X1.8706 Y-0.125
N13190 X2.2487
N13195 X2.2569 Y-0.1253
N13200 X2.2651 Y-0.1261
N13205 X2.2733 Y-0.1273
N13210 X2.2838 Y-0.1297
N13215 X2.2898 Y-0.1317
N13220 X2.298 Y-0.1347
N13225 X2.3048 Y-0.1379
N13230 X2.3144 Y-0.1433
N13235 X2.3194 Y-0.1461
N13240 X2.3227 Y-0.1485
N13245 X2.3303 Y-0.1544
N13250 X2.3309 Y-0.1549
N13255 X2.3393 Y-0.1626
N13260 X2.3473 Y-0.1717
N13265 X2.3527 Y-0.179
N13270 X2.3555 Y-0.1833
N13275 X2.3638 Y-0.1984
N13280 X2.3661 Y-0.2037
N13285 X2.3689 Y-0.2119
N13290 X2.3712 Y-0.2202
N13295 X2.372 Y-0.2234
N13300 X2.3731 Y-0.2284
N13305 X2.3742 Y-0.2366
N13310 X2.3747 Y-0.2448
N13315 X2.375 Y-0.253
N13320 Y-0.5491
N13325 X2.3746 Y-0.5573
N13330 X2.3739 Y-0.5655
N13335 X2.3727 Y-0.5737
N13340 X2.372 Y-0.5768
N13345 X2.3707 Y-0.582
N13350 X2.3682 Y-0.5902
N13355 X2.3652 Y-0.5984
N13360 X2.3644 Y-0.6001
N13365 X2.3607 Y-0.6092
N13370 X2.3518 Y-0.6369
N13375 X2.3436 Y-0.6721
N13380 X2.338 Y-0.7078
N13385 X2.334 Y-0.7438
N13390 X2.3313 Y-0.7799
N13395 X2.3294 Y-0.816
N13400 X2.3281 Y-0.8522
N13405 X2.3272 Y-0.8883
N13410 X2.3265 Y-0.9245
N13415 X2.3261 Y-0.9607
N13420 X2.3257 Y-0.9969
N13425 X2.3255 Y-1.0331
N13430 X2.3254 Y-1.0692
N13435 X2.3252 Y-1.1416
N13440 X2.3251 Y-1.2502
N13445 X2.325 Y-1.4245
N13450 X2.326 Y-1.4352
N13455 X2.329 Y-1.4456
N13460 X2.3338 Y-1.4552
N13465 X2.3403 Y-1.4638
N13470 X2.346 Y-1.47
N13475 X2.3473 Y-1.4716
N13480 X2.3555 Y-1.4831
N13485 X2.3621 Y-1.4947
N13490 X2.3638 Y-1.4983
N13495 X2.3683 Y-1.5111
N13500 X2.3711 Y-1.5194
N13505 X2.3729 Y-1.5276
N13510 X2.374 Y-1.5358
N13515 X2.3746 Y-1.544
N13520 X2.3749 Y-1.5605
N13525 X2.375 Y-1.5687
N13530 Y-1.947
N13535 X2.3747 Y-1.9552
N13540 X2.3742 Y-1.9634
N13545 X2.3731 Y-1.9716
N13550 X2.372 Y-1.9766
N13555 X2.3712 Y-1.9799
N13560 X2.3689 Y-1.9881
N13565 X2.3661 Y-1.9963
N13570 X2.3638 Y-2.0016
N13575 X2.3555 Y-2.0167
N13580 X2.3527 Y-2.021
N13585 X2.3473 Y-2.0283
N13590 X2.3391 Y-2.0376
N13595 X2.3309 Y-2.0451
N13600 X2.3303 Y-2.0456
N13605 X2.3227 Y-2.0515
N13610 X2.3194 Y-2.0539
N13615 X2.3144 Y-2.0567
N13620 X2.3048 Y-2.0621
N13625 X2.298 Y-2.0653
N13630 X2.2898 Y-2.0683
N13635 X2.2838 Y-2.0703
N13640 X2.2733 Y-2.0727
N13645 X2.2651 Y-2.0739
N13650 X2.2569 Y-2.0747
N13655 X2.2487 Y-2.075
N13660 X0.2513
N13665 X0.2431 Y-2.0747
N13670 X0.2362 Y-2.0741
N13675 X0.2349 Y-2.0739
N13680 X0.2267 Y-2.0727
N13685 X0.2162 Y-2.0703
N13690 X0.2102 Y-2.0683
N13695 X0.2063 Y-2.0669
N13700 X0.202 Y-2.0653
N13705 X0.1952 Y-2.0621
N13710 X0.1856 Y-2.0567
N13715 X0.1806 Y-2.0539
N13720 X0.1773 Y-2.0515
N13725 X0.1697 Y-2.0456
N13730 X0.1691 Y-2.0451
N13735 X0.1609 Y-2.0376
N13740 X0.1607 Y-2.0374
N13745 X0.1535 Y-2.0292
N13750 X0.1527 Y-2.0283
N13755 X0.1473 Y-2.021
N13760 X0.1445 Y-2.0167
N13765 X0.1362 Y-2.0016
N13770 X0.1339 Y-1.9963
N13775 X0.1311 Y-1.9881
N13780 X0.1288 Y-1.9799
N13785 X0.128 Y-1.9766
N13790 X0.1269 Y-1.9716
N13795 X0.1258 Y-1.9634
N13800 X0.1253 Y-1.9552
N13805 X0.125 Y-1.947
N13810 Y-1.5687
N13815 X0.1251 Y-1.5605
N13820 X0.1254 Y-1.544
N13825 X0.126 Y-1.5358
N13830 X0.1271 Y-1.5278
N13835 Y-1.5276
N13840 X0.1289 Y-1.5194
N13845 X0.1317 Y-1.5111
N13850 X0.1362 Y-1.4983
N13855 X0.1379 Y-1.4947
N13860 X0.1445 Y-1.4831
N13865 X0.1527 Y-1.4716
N13870 X0.154 Y-1.47
N13875 X0.1609 Y-1.4625
N13880 X0.1691 Y-1.4548
N13885 X0.1773 Y-1.4483
N13890 X0.1822 Y-1.4445
N13895 X0.1891 Y-1.4381
N13900 X0.1967 Y-1.4298
N13905 X0.2048 Y-1.4195
N13910 X0.2134 Y-1.4064
N13915 X0.2224 Y-1.39
N13920 X0.2318 Y-1.3689
N13925 X0.2416 Y-1.3414
N13930 X0.2509 Y-1.3065
N13935 X0.2576 Y-1.2709
N13940 X0.2625 Y-1.235
N13945 X0.2659 Y-1.199
N13950 X0.2685 Y-1.1629
N13955 X0.2703 Y-1.1268
N13960 X0.2716 Y-1.0906
N13965 X0.2725 Y-1.0545
N13970 X0.2732 Y-1.0183
N13975 X0.2737 Y-0.9821
N13980 X0.2741 Y-0.9459
N13985 X0.2743 Y-0.9097
N13990 X0.2745 Y-0.8736
N13995 X0.2747 Y-0.8012
N14000 X0.2748 Y-0.765
N14005 X0.274 Y-0.7301
N14010 X0.2735 Y-0.7259
N14015 X0.271 Y-0.7136
N14020 X0.2659 Y-0.7021
N14025 X0.2586 Y-0.6918
N14030 X0.2493 Y-0.6833
N14035 X0.2385 Y-0.6768
N14040 X0.2267 Y-0.6727
N14045 G3 X0.1969 Y-0.6953 I-0.0048 J-0.0245
N14050 G1 X0.139 Y-1.4252
N14055 G3 X0.1773 Y-1.4483 I0.0249 J-0.002
N14060 G1 X0.1817 Y-1.4454
N14065 X0.1856 Y-1.4431
N14070 X0.1938 Y-1.4384
N14075 X0.202 Y-1.4347
N14080 X0.2102 Y-1.4317
N14085 X0.2184 Y-1.4292
N14090 X0.2195 Y-1.4289
N14095 X0.2276 Y-1.4266
N14100 X0.2339 Y-1.4242
N14105 X0.2413 Y-1.4208
N14110 X0.2488 Y-1.4165
N14115 X0.2569 Y-1.4109
N14120 X0.2663 Y-1.4033
N14125 X0.2754 Y-1.3947
N14130 X0.2852 Y-1.3836
N14135 X0.2955 Y-1.3701
N14140 X0.3061 Y-1.3534
N14145 X0.317 Y-1.333
N14150 X0.3282 Y-1.3071
N14155 X0.3395 Y-1.2737
N14160 X0.3484 Y-1.2386
N14165 X0.355 Y-1.2031
N14170 X0.36 Y-1.1672
N14175 X0.3638 Y-1.1313
N14180 X0.3666 Y-1.0952
N14185 X0.3688 Y-1.0591
N14190 X0.3704 Y-1.0229
N14195 X0.3716 Y-0.9868
N14200 X0.3724 Y-0.9506
N14205 X0.3731 Y-0.9144
N14210 X0.3736 Y-0.8782
N14215 X0.3739 Y-0.8421
N14220 X0.3738 Y-0.8059
N14225 X0.3722 Y-0.7765
N14230 X0.3691 Y-0.7538
N14235 X0.3647 Y-0.7342
N14240 X0.3598 Y-0.7181
N14245 X0.3574 Y-0.7119
N14250 X0.3521 Y-0.7016
N14255 X0.3448 Y-0.6925
N14260 X0.3359 Y-0.6851
N14265 X0.3257 Y-0.6796
N14270 X0.3147 Y-0.6762
N14275 X0.3031 Y-0.675
N14280 X0.2513
N14285 X0.2431 Y-0.6747
N14290 X0.2349 Y-0.6739
N14295 X0.2267 Y-0.6727
N14300 G3 X0.1989 Y-0.6973 I-0.0027 J-0.0249
N14305 G1 X0.1897 Y-1.4041
N14310 G3 X0.2195 Y-1.4289 I0.025 J-0.0003
N14315 G1 X0.2267 Y-1.4273
N14320 X0.2349 Y-1.4261
N14325 X0.2513 Y-1.425
N14330 X0.2723
N14335 X0.2786 Y-1.4247
N14340 X0.2852 Y-1.4238
N14345 X0.2926 Y-1.4222
N14350 X0.3004 Y-1.4199
N14355 X0.3093 Y-1.4164
N14360 X0.3183 Y-1.4121
N14365 X0.3286 Y-1.406
N14370 X0.3389 Y-1.3988
N14375 X0.35 Y-1.3895
N14380 X0.3619 Y-1.3779
N14385 X0.3737 Y-1.3644
N14390 X0.3862 Y-1.3475
N14395 X0.3988 Y-1.3273
N14400 X0.4114 Y-1.3027
N14405 X0.4244 Y-1.2719
N14410 X0.4356 Y-1.2375
N14415 X0.4444 Y-1.2024
N14420 X0.4513 Y-1.1669
N14425 X0.4567 Y-1.1311
N14430 X0.4609 Y-1.0951
N14435 X0.4642 Y-1.0591
N14440 X0.4667 Y-1.023
N14445 X0.4687 Y-0.9869
N14450 X0.4702 Y-0.9507
N14455 X0.4713 Y-0.9146
N14460 X0.4718 Y-0.8784
N14465 X0.4714 Y-0.8422
N14470 X0.4693 Y-0.8061
N14475 X0.4654 Y-0.7736
N14480 X0.4603 Y-0.7489
N14485 X0.4545 Y-0.7289
N14490 X0.4484 Y-0.7126
N14495 X0.4464 Y-0.7084
N14500 X0.4394 Y-0.6972
N14505 X0.4302 Y-0.6879
N14510 X0.4191 Y-0.6808
N14515 X0.4067 Y-0.6765
N14520 X0.3937 Y-0.675
N14525 X0.3031
N14530 G3 X0.279 Y-0.6989 I0.0009 J-0.025
N14535 G1 X0.2482 Y-1.3989
N14540 G3 X0.2723 Y-1.425 I0.025 J-0.0011
N14545 G1 X0.3463
N14550 X0.3534 Y-1.4246
N14555 X0.3613 Y-1.4236
N14560 X0.3697 Y-1.4218
N14565 X0.3789 Y-1.4191
N14570 X0.389 Y-1.4151
N14575 X0.3995 Y-1.41
N14580 X0.4113 Y-1.4031
N14585 X0.4228 Y-1.395
N14590 X0.4361 Y-1.384
N14595 X0.4487 Y-1.3717
N14600 X0.4628 Y-1.3555
N14605 X0.4636 Y-1.3545
N14610 X0.4698 Y-1.3438
N14615 X0.4737 Y-1.3321
N14620 X0.475 Y-1.3198
N14625 G3 X0.4347 Y-1.3008 I-0.025 J-0.0009
N14630 G1 X0.3319 Y-1.3802
N14635 G3 X0.3221 Y-1.4 I0.0153 J-0.0198
N14640 X0.3463 Y-1.425 I0.025 J0.
N14645 G1 X0.4239
N14650 X0.436 Y-1.4244
N14655 X0.4464 Y-1.4217
N14660 X0.4559 Y-1.4167
N14665 X0.4639 Y-1.4095
N14670 X0.4699 Y-1.4006
N14675 X0.4737 Y-1.3906
N14680 X0.475 Y-1.3799
N14685 G3 X0.4349 Y-1.3609 I-0.025 J-0.0009
N14690 G1 X0.4096 Y-1.3801
N14695 G3 X0.4239 Y-1.425 I0.0152 J-0.0199
N14700 G1 X0.4486
N14705 X0.4527 Y-1.4248
N14710 X0.4568 Y-1.4239
N14715 X0.4602 Y-1.4226
N14720 X0.4635 Y-1.4207
N14725 X0.465 Y-1.4196
N14730 X0.4669 Y-1.418
N14735 X0.4688 Y-1.416
N14740 X0.4703 Y-1.4143
N14745 X0.4714 Y-1.4125
N14750 X0.4732 Y-1.4088
N14755 X0.474 Y-1.4065
N14760 X0.4746 Y-1.4042
N14765 X0.475 Y-1.4001
N14770 Y-0.7053
N14775 X0.4748 Y-0.6971
N14780 X0.4742 Y-0.6942
N14785 X0.4732 Y-0.6913
N14790 X0.4721 Y-0.6889
N14795 X0.4709 Y-0.6868
N14800 X0.4694 Y-0.6847
N14805 X0.4675 Y-0.6827
N14810 X0.4653 Y-0.6806
N14815 X0.463 Y-0.6789
N14820 X0.4609 Y-0.6778
N14825 X0.4589 Y-0.6768
N14830 X0.4568 Y-0.6761
N14835 X0.4527 Y-0.6752
N14840 X0.4486 Y-0.675
N14845 X0.3937
N14850 G3 X0.3706 Y-0.6926 I0.0009 J-0.025
N14855 G1 X0.3695 Y-0.6964 Z-1.7497
N14860 X0.3684 Y-0.7 Z-1.7488
N14865 X0.3673 Y-0.7035 Z-1.7473
N14870 X0.3663 Y-0.7067 Z-1.7452
N14875 X0.3654 Y-0.7095 Z-1.7427
N14880 X0.3647 Y-0.7119 Z-1.7397
N14885 X0.3641 Y-0.7139 Z-1.7363
N14890 X0.3636 Y-0.7153 Z-1.7327
N14895 X0.3634 Y-0.7162 Z-1.7289
N14900 X0.3633 Y-0.7165 Z-1.725
N14905 G0 Z0.2
N14910 G1 X0.6676 Y-0.0946 F500.
N14915 G0 Z-1.7
N14920 G1 Z-1.725 F14.
N14925 X0.6678 Y-0.0949 Z-1.7289
N14930 X0.6682 Y-0.0956 Z-1.7327
N14935 X0.669 Y-0.0969 Z-1.7363
N14940 X0.6701 Y-0.0986 Z-1.7397
N14945 X0.6715 Y-0.1008 Z-1.7427
N14950 X0.6731 Y-0.1033 Z-1.7452
N14955 X0.6749 Y-0.1061 Z-1.7473
N14960 X0.6768 Y-0.1092 Z-1.7488
N14965 X0.6788 Y-0.1124 Z-1.7497
N14970 X0.6809 Y-0.1157 Z-1.75
N14975 G3 X0.7034 Y-0.137 I0.0527 J0.0332
N14980 G1 X0.7052 Y-0.1379
N14985 X0.7116 Y-0.1415
N14990 X0.7192 Y-0.1461
N14995 X0.7281 Y-0.1524
N15000 X0.7363 Y-0.1596
N15005 X0.764 Y-0.1873
N15010 X0.7758 Y-0.1979
N15015 X0.7862 Y-0.2059
N15020 X0.7996 Y-0.2145
N15025 X0.8162 Y-0.2235
N15030 X0.8376 Y-0.2329
N15035 X0.8657 Y-0.2427
N15040 X0.9007 Y-0.2517
N15045 X0.9363 Y-0.2582
N15050 X0.9722 Y-0.2629
N15055 X1.0082 Y-0.2663
N15060 X1.0443 Y-0.2687
N15065 X1.0805 Y-0.2704
N15070 X1.1166 Y-0.2717
N15075 X1.1528 Y-0.2726
N15080 X1.189 Y-0.2733
N15085 X1.2252 Y-0.2738
N15090 X1.2613 Y-0.2741
N15095 X1.2975 Y-0.2744
N15100 X1.3337 Y-0.2745
N15105 X1.4061 Y-0.2748
N15110 X1.5146 Y-0.2749
N15115 X1.6232 Y-0.275
N15120 X1.6249 Y-0.2749
N15125 X1.636 Y-0.2737
N15130 X1.6468 Y-0.2704
N15135 X1.6567 Y-0.265
N15140 X1.6654 Y-0.2579
N15145 X1.7524 Y-0.1708
N15150 X1.7637 Y-0.1596
N15155 G3 X1.7448 Y-0.1175 I-0.0182 J0.0171
N15160 G1 X0.7816 Y-0.1452
N15165 G3 X0.764 Y-0.1873 I0.0007 J-0.025
N15170 G1 X0.8596 Y-0.2828
N15175 X0.8695 Y-0.2918
N15180 X0.8811 Y-0.3007
N15185 X0.8957 Y-0.3101
N15190 X0.9138 Y-0.3199
N15195 X0.9371 Y-0.3301
N15200 X0.9673 Y-0.3406
N15205 X1.0023 Y-0.3497
N15210 X1.0379 Y-0.3563
N15215 X1.0737 Y-0.3612
N15220 X1.1097 Y-0.3649
N15225 X1.1458 Y-0.3675
N15230 X1.1819 Y-0.3695
N15235 X1.2181 Y-0.3709
N15240 X1.2542 Y-0.372
N15245 X1.2904 Y-0.3728
N15250 X1.3266 Y-0.3734
N15255 X1.3628 Y-0.3738
N15260 X1.399 Y-0.3741
N15265 X1.4351 Y-0.3744
N15270 X1.4713 Y-0.3745
N15275 X1.5075 Y-0.3747
N15280 X1.5243
N15285 X1.5357 Y-0.3736
N15290 X1.5467 Y-0.3703
N15295 X1.5568 Y-0.3649
N15300 X1.5656 Y-0.3576
N15305 X1.6654 Y-0.2579
N15310 G3 X1.6463 Y-0.2158 I-0.0183 J0.017
N15315 G1 X0.877 Y-0.2408
N15320 G3 X0.8596 Y-0.2828 I0.0008 J-0.025
N15325 G1 X0.9532 Y-0.3764
N15330 X0.9679 Y-0.3897
N15335 X0.9798 Y-0.3988
N15340 X0.9946 Y-0.4084
N15345 X1.0132 Y-0.4184
N15350 X1.037 Y-0.4289
N15355 X1.0679 Y-0.4396
N15360 X1.1029 Y-0.4487
N15365 X1.1385 Y-0.4554
N15370 X1.1743 Y-0.4604
N15375 X1.2103 Y-0.4641
N15380 X1.2464 Y-0.4669
N15385 X1.2825 Y-0.469
N15390 X1.3187 Y-0.4705
N15395 X1.3548 Y-0.4717
N15400 X1.391 Y-0.4725
N15405 X1.4249 Y-0.4731
N15410 X1.4366 Y-0.4721
N15415 X1.4478 Y-0.4689
N15420 X1.4581 Y-0.4634
N15425 X1.4672 Y-0.456
N15430 X1.5656 Y-0.3576
N15435 G3 X1.5465 Y-0.3156 I-0.0183 J0.017
N15440 G1 X0.9706 Y-0.3344
N15445 G3 X0.9532 Y-0.3764 I0.0008 J-0.025
N15450 G1 X1.0518 Y-0.4751
N15455 X1.0668 Y-0.4886
N15460 X1.0789 Y-0.4979
N15465 X1.0938 Y-0.5076
N15470 X1.1126 Y-0.5177
N15475 X1.1367 Y-0.5283
N15480 X1.1679 Y-0.5391
N15485 X1.203 Y-0.5482
N15490 X1.2385 Y-0.5549
N15495 X1.2743 Y-0.56
N15500 X1.3103 Y-0.5637
N15505 X1.3293 Y-0.5652
N15510 X1.3418 Y-0.5648
N15515 X1.354 Y-0.5617
N15520 X1.3652 Y-0.5561
N15525 X1.375 Y-0.5483
N15530 G3 X1.3629 Y-0.507 I-0.0183 J0.017
N15535 G1 X1.0763 Y-0.4338
N15540 G3 X1.0518 Y-0.4751 I-0.0062 J-0.0242
N15545 G1 X1.1555 Y-0.5787
N15550 X1.1657 Y-0.588
N15555 X1.1779 Y-0.5973
N15560 X1.1929 Y-0.607
N15565 X1.2117 Y-0.6172
N15570 X1.2322 Y-0.6262
N15575 X1.2458 Y-0.6309
N15580 X1.2585 Y-0.6338
N15585 X1.2716 Y-0.6337
N15590 X1.2843 Y-0.6308
N15595 X1.296 Y-0.6252
N15600 X1.3062 Y-0.617
N15605 G3 X1.2959 Y-0.5763 I-0.0183 J0.017
N15610 G1 X1.1817 Y-0.538
N15615 G3 X1.1555 Y-0.5787 I-0.008 J-0.0237
N15620 G1 X1.2295 Y-0.6527
N15625 X1.2328 Y-0.656
N15630 X1.2352 Y-0.658
N15635 X1.2377 Y-0.6596
N15640 X1.2397 Y-0.6607
N15645 X1.2418 Y-0.6615
N15650 X1.2459 Y-0.6625
N15655 X1.25 Y-0.6629
N15660 X1.2541 Y-0.6625
N15665 X1.2582 Y-0.6615
N15670 X1.2603 Y-0.6607
N15675 X1.2623 Y-0.6596
N15680 X1.2648 Y-0.658
N15685 X1.2672 Y-0.656
N15690 X1.4672 Y-0.456
N15695 G3 X1.471 Y-0.4273 I-0.0183 J0.017
N15700 G1 X1.4692 Y-0.4238 Z-1.7497
N15705 X1.4674 Y-0.4205 Z-1.7488
N15710 X1.4657 Y-0.4173 Z-1.7473
N15715 X1.4641 Y-0.4143 Z-1.7452
N15720 X1.4627 Y-0.4117 Z-1.7427
N15725 X1.4615 Y-0.4094 Z-1.7397
N15730 X1.4606 Y-0.4076 Z-1.7363
N15735 X1.4599 Y-0.4063 Z-1.7327
N15740 X1.4595 Y-0.4055 Z-1.7289
N15745 X1.4593 Y-0.4052 Z-1.725
N15750 G0 Z0.2
N15755 G1 X2.4056 Y-0.563 F500.
N15760 G0 Z-1.7
N15765 G1 Z-1.725 F14.
N15770 X2.4054 Y-0.5632 Z-1.7289
N15775 X2.4046 Y-0.5637 Z-1.7327
N15780 X2.4034 Y-0.5645 Z-1.7363
N15785 X2.4017 Y-0.5657 Z-1.7397
N15790 X2.3996 Y-0.5671 Z-1.7427
N15795 X2.3971 Y-0.5688 Z-1.7452
N15800 X2.3943 Y-0.5706 Z-1.7473
N15805 X2.3913 Y-0.5727 Z-1.7488
N15810 X2.3882 Y-0.5748 Z-1.7497
N15815 X2.3849 Y-0.577 Z-1.75
N15820 G3 X2.3644 Y-0.6001 I0.0349 J-0.0516
N15825 G1 X2.3638 Y-0.6015
N15830 X2.3555 Y-0.6162
N15835 X2.351 Y-0.6231
N15840 X2.3444 Y-0.6313
N15845 X2.3391 Y-0.6375
N15850 X2.337 Y-0.6395
N15855 X2.3309 Y-0.6449
N15860 X2.3227 Y-0.6513
N15865 X2.3175 Y-0.6553
N15870 X2.3104 Y-0.6619
N15875 X2.303 Y-0.6701
N15880 X2.2948 Y-0.6806
N15885 X2.2863 Y-0.6936
N15890 X2.2772 Y-0.7103
N15895 X2.2678 Y-0.7313
N15900 X2.2581 Y-0.759
N15905 X2.2488 Y-0.794
N15910 X2.2422 Y-0.8295
N15915 X2.2374 Y-0.8654
N15920 X2.2339 Y-0.9014
N15925 X2.2315 Y-0.9375
N15930 X2.2297 Y-0.9736
N15935 X2.2284 Y-1.0098
N15940 X2.2274 Y-1.046
N15945 X2.2267 Y-1.0822
N15950 X2.2263 Y-1.1183
N15955 X2.2259 Y-1.1545
N15960 X2.2257 Y-1.1907
N15965 X2.2255 Y-1.2269
N15970 X2.2252 Y-1.2992
N15975 Y-1.3354
N15980 X2.226 Y-1.3702
N15985 X2.2264 Y-1.3741
N15990 X2.229 Y-1.3864
N15995 X2.2341 Y-1.398
N16000 X2.2414 Y-1.4082
N16005 X2.2507 Y-1.4167
N16010 X2.2615 Y-1.4232
N16015 X2.2733 Y-1.4273
N16020 G3 X2.3031 Y-1.4047 I0.0048 J0.0245
N16025 G1 X2.3614 Y-0.6741
N16030 G3 X2.3227 Y-0.6513 I-0.0249 J0.002
N16035 G1 X2.3161 Y-0.656
N16040 X2.3144 Y-0.6569
N16045 X2.3062 Y-0.6615
N16050 X2.298 Y-0.6653
N16055 X2.2898 Y-0.6683
N16060 X2.2816 Y-0.6708
N16065 X2.2778 Y-0.6717
N16070 X2.2721 Y-0.6734
N16075 X2.2657 Y-0.6757
N16080 X2.2583 Y-0.6792
N16085 X2.2508 Y-0.6836
N16090 X2.2427 Y-0.6892
N16095 X2.2334 Y-0.6968
N16100 X2.2243 Y-0.7055
N16105 X2.2144 Y-0.7166
N16110 X2.2041 Y-0.7302
N16115 X2.1935 Y-0.7469
N16120 X2.1827 Y-0.7674
N16125 X2.1715 Y-0.7935
N16130 X2.1601 Y-0.8271
N16135 X2.1514 Y-0.8622
N16140 X2.1448 Y-0.8977
N16145 X2.1398 Y-0.9336
N16150 X2.1361 Y-0.9696
N16155 X2.1332 Y-1.0056
N16160 X2.1311 Y-1.0418
N16165 X2.1296 Y-1.0779
N16170 X2.1284 Y-1.1141
N16175 X2.1275 Y-1.1503
N16180 X2.1269 Y-1.1864
N16185 X2.1264 Y-1.2226
N16190 X2.1261 Y-1.2588
N16195 X2.1262 Y-1.295
N16200 X2.1279 Y-1.3241
N16205 X2.131 Y-1.3466
N16210 X2.1353 Y-1.3662
N16215 X2.1403 Y-1.3822
N16220 X2.1427 Y-1.3882
N16225 X2.148 Y-1.3985
N16230 X2.1552 Y-1.4075
N16235 X2.1641 Y-1.4149
N16240 X2.1743 Y-1.4205
N16245 X2.1853 Y-1.4239
N16250 X2.1969 Y-1.425
N16255 X2.2487
N16260 X2.2651 Y-1.4261
N16265 X2.2733 Y-1.4273
N16270 G3 X2.301 Y-1.4026 I0.0027 J0.0249
N16275 G1 X2.3076 Y-0.6965
N16280 G3 X2.2778 Y-0.6717 I-0.025 J0.0002
N16285 G1 X2.2733 Y-0.6727
N16290 X2.2651 Y-0.6739
N16295 X2.2569 Y-0.6747
N16300 X2.2487 Y-0.675
N16305 X2.2277
N16310 X2.2212 Y-0.6753
N16315 X2.2146 Y-0.6762
N16320 X2.2072 Y-0.6778
N16325 X2.1994 Y-0.6801
N16330 X2.1905 Y-0.6836
N16335 X2.1816 Y-0.6879
N16340 X2.1713 Y-0.694
N16345 X2.161 Y-0.7012
N16350 X2.1499 Y-0.7104
N16355 X2.1379 Y-0.7221
N16360 X2.1262 Y-0.7355
N16365 X2.1137 Y-0.7524
N16370 X2.1012 Y-0.7726
N16375 X2.0885 Y-0.7971
N16380 X2.0756 Y-0.828
N16385 X2.0643 Y-0.8624
N16390 X2.0555 Y-0.8975
N16395 X2.0486 Y-0.933
N16400 X2.0432 Y-0.9688
N16405 X2.039 Y-1.0047
N16410 X2.0358 Y-1.0408
N16415 X2.0333 Y-1.0769
N16420 X2.0313 Y-1.113
N16425 X2.0298 Y-1.1491
N16430 X2.0287 Y-1.1853
N16435 X2.0281 Y-1.2215
N16440 X2.0285 Y-1.2577
N16445 X2.0306 Y-1.2938
N16450 X2.0346 Y-1.3264
N16455 X2.0397 Y-1.3511
N16460 X2.0454 Y-1.3711
N16465 X2.0516 Y-1.3874
N16470 X2.0536 Y-1.3916
N16475 X2.0605 Y-1.4028
N16480 X2.0698 Y-1.4121
N16485 X2.0809 Y-1.4192
N16490 X2.0933 Y-1.4235
N16495 X2.1063 Y-1.425
N16500 X2.1969
N16505 G3 X2.221 Y-1.4011 I-0.0009 J0.025
N16510 G1 X2.2518 Y-0.7011
N16515 G3 X2.2277 Y-0.675 I-0.025 J0.0011
N16520 G1 X2.1538
N16525 X2.1465 Y-0.6754
N16530 X2.1386 Y-0.6764
N16535 X2.1302 Y-0.6782
N16540 X2.121 Y-0.681
N16545 X2.1109 Y-0.6849
N16550 X2.1004 Y-0.69
N16555 X2.0886 Y-0.6969
N16560 X2.0771 Y-0.705
N16565 X2.0638 Y-0.716
N16570 X2.0512 Y-0.7283
N16575 X2.0371 Y-0.7445
N16580 X2.0364 Y-0.7454
N16585 X2.0302 Y-0.756
N16590 X2.0263 Y-0.7678
N16595 X2.025 Y-0.7801
N16600 G3 X2.0652 Y-0.799 I0.025 J0.0009
N16605 G1 X2.1681 Y-0.7198
N16610 G3 X2.1538 Y-0.675 I-0.0153 J0.0198
N16615 G1 X2.0761
N16620 X2.0639 Y-0.6756
N16625 X2.0535 Y-0.6783
N16630 X2.0441 Y-0.6833
N16635 X2.0361 Y-0.6905
N16640 X2.0301 Y-0.6993
N16645 X2.0263 Y-0.7093
N16650 X2.025 Y-0.72
N16655 G3 X2.0651 Y-0.739 I0.025 J0.0009
N16660 G1 X2.0903 Y-0.7199
N16665 G3 X2.0761 Y-0.675 I-0.0151 J0.0199
N16670 G1 X2.0514
N16675 X2.0473 Y-0.6752
N16680 X2.0432 Y-0.6761
N16685 X2.0411 Y-0.6768
N16690 X2.0391 Y-0.6778
N16695 X2.037 Y-0.6789
N16700 X2.0347 Y-0.6806
N16705 X2.0325 Y-0.6827
N16710 X2.0306 Y-0.6847
N16715 X2.0291 Y-0.6868
N16720 X2.0279 Y-0.6889
N16725 X2.0268 Y-0.6913
N16730 X2.0258 Y-0.6942
N16735 X2.0252 Y-0.6971
N16740 X2.025 Y-0.7053
N16745 Y-1.396
N16750 Y-1.4001
N16755 X2.0254 Y-1.4042
N16760 X2.026 Y-1.4065
N16765 X2.0268 Y-1.4088
N16770 X2.0286 Y-1.4125
N16775 X2.0297 Y-1.4143
N16780 X2.0312 Y-1.416
N16785 X2.0331 Y-1.418
N16790 X2.035 Y-1.4196
N16795 X2.0365 Y-1.4207
N16800 X2.0398 Y-1.4226
N16805 X2.0432 Y-1.4239
N16810 X2.0473 Y-1.4248
N16815 X2.0514 Y-1.425
N16820 X2.1063
N16825 G3 X2.1293 Y-1.4074 I-0.0009 J0.025
N16830 G1 X2.1305 Y-1.4036 Z-1.7497
N16835 X2.1316 Y-1.4 Z-1.7488
N16840 X2.1327 Y-1.3965 Z-1.7473
N16845 X2.1337 Y-1.3933 Z-1.7452
N16850 X2.1346 Y-1.3905 Z-1.7427
N16855 X2.1353 Y-1.3881 Z-1.7397
N16860 X2.1359 Y-1.3861 Z-1.7363
N16865 X2.1364 Y-1.3847 Z-1.7327
N16870 X2.1366 Y-1.3838 Z-1.7289
N16875 X2.1367 Y-1.3835 Z-1.725
N16880 G0 Z0.6
N16885 M5
N16890 G53 G0 Z0.

(2D Adaptive1 2)
N16895 M9
N16900 M1
N16905 T0 M6
N16910 S10000 M3
N16915 G54
N16920 M8
N16925 G0 X0.4748 Y-1.4981
N16930 G43 Z0.6 H0
N16935 T1
N16940 G0 Z-0.0875
N16945 G1 Z-0.0937 F12.5
N16950 X0.4751 Y-1.4983 Z-0.0957
N16955 X0.4758 Y-1.4987 Z-0.0974
N16960 X0.477 Y-1.4994 Z-0.0988
N16965 X0.4785 Y-1.5003 Z-0.0997
N16970 X0.4802 Y-1.5013 Z-0.1
N16975 G3 X0.5395 Y-1.5187 I0.0637 J0.1071
N16980 G1 X0.5576
N16985 X0.5604
N16990 X0.5613
N16995 X0.5631 Y-1.5184
N17000 X0.5648 Y-1.5179
N17005 X0.5664 Y-1.5169
N17010 G3 X0.5579 Y-1.5078 I-0.0044 J0.0044
N17015 G1 X0.5498 Y-1.5148
N17020 X0.5459 Y-1.5181
N17025 X0.5449 Y-1.5186
N17030 X0.5438
N17035 X0.5428 Y-1.5181
N17040 X0.5422 Y-1.5171
N17045 X0.5421 Y-1.516
N17050 X0.5425 Y-1.515
N17055 X0.5434 Y-1.5143
N17060 X0.5445 Y-1.5141
N17065 X0.5455 Y-1.5144
N17070 G3 X0.5604 Y-1.5187 I0.0159 J0.0268
N17075 G1 X0.5617
N17080 X0.5627
N17085 X0.5637 Y-1.5185
N17090 X0.5642 Y-1.5183
N17095 X0.5647 Y-1.5181
N17100 X0.5657 Y-1.5174
N17105 X0.5664 Y-1.5169
N17110 X0.5671 Y-1.5163
N17115 X0.5675 Y-1.5158
N17120 X0.5679 Y-1.5153
N17125 X0.5681 Y-1.5148
N17130 X0.5684 Y-1.5142
N17135 X0.5686 Y-1.5132
N17140 X0.5687 Y-1.5122
N17145 Y-1.4947
N17150 G0 Z0.2
N17155 G1 X0.5481 Y-0.6753 F500.
N17160 G0 Z-0.0875
N17165 G1 Z-0.0937 F12.5
N17170 X0.5483 Y-0.6751 Z-0.0957
N17175 X0.5487 Y-0.6743 Z-0.0974
N17180 X0.5494 Y-0.6731 Z-0.0988
N17185 X0.5503 Y-0.6716 Z-0.0997
N17190 X0.5513 Y-0.67 Z-0.1
N17195 G3 X0.5687 Y-0.6106 I-0.1071 J0.0637
N17200 G1 Y-0.5921
N17205 Y-0.5892
N17210 X0.5686 Y-0.5875
N17215 X0.5684 Y-0.5863
N17220 X0.5675 Y-0.5848
N17225 X0.5662 Y-0.5836
N17230 X0.5647 Y-0.5827
N17235 X0.563 Y-0.5822
N17240 X0.5612
N17245 G3 X0.5687 Y-0.5892 I0.0007 J-0.0067
N17250 G1 Y-0.5883
N17255 Y-0.5873
N17260 X0.5684 Y-0.5863
N17265 X0.568 Y-0.5853
N17270 X0.5674 Y-0.5844
N17275 X0.5662 Y-0.583
N17280 X0.5657 Y-0.5826
N17285 X0.5651 Y-0.5822
N17290 X0.5643 Y-0.5817
N17295 X0.5634 Y-0.5814
N17300 X0.5625 Y-0.5813
N17305 X0.5617
N17310 X0.5442
N17315 G0 Z0.2
N17320 G1 X0.5743 Y-0.1975 F500.
N17325 G0 Z-0.0875
N17330 G1 Z-0.0937 F12.5
N17335 X0.5746 Y-0.1977 Z-0.0957
N17340 X0.5753 Y-0.1981 Z-0.0974
N17345 X0.5765 Y-0.1988 Z-0.0988
N17350 X0.578 Y-0.1997 Z-0.0997
N17355 X0.5797 Y-0.2008 Z-0.1
N17360 G3 X0.6388 Y-0.2188 I0.0647 J0.1065
N17365 G1 X0.6429
N17370 X0.651 Y-0.219
N17375 G3 X0.6463 Y-0.2084 I-0.0001 J0.0062
N17380 G1 X0.6457 Y-0.2099 Z-0.0998
N17385 X0.6452 Y-0.2112 Z-0.0992
N17390 X0.6447 Y-0.2124 Z-0.0982
N17395 Y-0.2127 Z-0.0979
N17400 X0.6448 Y-0.2135 Z-0.0966
N17405 Y-0.2141 Z-0.0952
N17410 X0.6449 Y-0.2143 Z-0.0938
N17415 G0 Z0.2
N17420 G1 X1.2158 Y-0.7145 F500.
N17425 G0 Z-0.0875
N17430 G1 Z-0.0937 F12.5
N17435 Y-0.7148 Z-0.0957
N17440 Y-0.7157 Z-0.0974
N17445 X1.2157 Y-0.7171 Z-0.0988
N17450 Y-0.7188 Z-0.0997
N17455 X1.2156 Y-0.7208 Z-0.1
N17460 G3 X1.2202 Y-0.7824 I0.2869 J-0.0095
N17465 G1 X1.2209 Y-0.7853
N17470 X1.2212 Y-0.7893
N17475 G3 X1.2376 Y-0.8174 I0.0248 J-0.0044
N17480 X1.2745 Y-0.8146 I0.0159 J0.0349
N17485 G1 X1.2776 Y-0.8097
N17490 X1.2788 Y-0.804
N17495 Y-0.7921
N17500 X1.2785 Y-0.7905
N17505 X1.2778 Y-0.789
N17510 X1.2767 Y-0.7877
N17515 X1.2754 Y-0.7868
N17520 X1.2738 Y-0.7862
N17525 X1.2722 Y-0.7861
N17530 X1.2512 Y-0.7873
N17535 X1.2488 Y-0.7874
N17540 X1.2271 Y-0.7886
N17545 X1.2253 Y-0.7889
N17550 X1.2237 Y-0.7898
N17555 X1.2224 Y-0.7912
N17560 X1.2216 Y-0.7928
N17565 X1.2212 Y-0.7946
N17570 X1.2213 Y-0.8109
N17575 G3 X1.2322 Y-0.8309 I0.0227 J-0.0007
N17580 X1.2682 Y-0.8371 I0.0249 J0.0371
N17585 G1 X1.2737 Y-0.8342
N17590 X1.2774 Y-0.8292
N17595 X1.2788 Y-0.8231
N17600 Y-0.804
N17605 X1.2784 Y-0.8023
N17610 X1.2777 Y-0.8007
N17615 X1.2765 Y-0.7994
N17620 X1.275 Y-0.7985
N17625 X1.2733 Y-0.798
N17630 X1.2716 Y-0.7981
N17635 X1.2514 Y-0.8011
N17640 X1.2486 Y-0.8015
N17645 X1.2266 Y-0.8049
N17650 X1.2249 Y-0.8054
N17655 X1.2234 Y-0.8063
N17660 X1.2223 Y-0.8076
N17665 X1.2215 Y-0.8092
N17670 X1.2213 Y-0.8109
N17675 Y-0.8271
N17680 G3 X1.2318 Y-0.8475 I0.0237 J-0.0007
N17685 X1.2677 Y-0.8558 I0.027 J0.0354
N17690 G1 X1.2734 Y-0.8528
N17695 X1.2773 Y-0.8478
N17700 X1.2788 Y-0.8415
N17705 Y-0.8231
N17710 X1.2785 Y-0.8214
N17715 X1.2777 Y-0.8199
N17720 X1.2766 Y-0.8186
N17725 X1.2752 Y-0.8177
N17730 X1.2736 Y-0.8172
N17735 X1.272 Y-0.8171
N17740 X1.2513 Y-0.8189
N17745 X1.2487 Y-0.8192
N17750 X1.2269 Y-0.8211
N17755 X1.2252 Y-0.8215
N17760 X1.2236 Y-0.8224
N17765 X1.2224 Y-0.8237
N17770 X1.2216 Y-0.8253
N17775 X1.2213 Y-0.8271
N17780 Y-0.8443
N17785 G3 X1.2417 Y-0.869 I0.0241 J-0.0008
N17790 G1 X1.2434 Y-0.8686
N17795 X1.245 Y-0.8679
N17800 X1.2463 Y-0.8667
N17805 X1.2472 Y-0.8652
N17810 X1.2477 Y-0.8635
N17815 X1.2478 Y-0.8618
N17820 X1.2473 Y-0.8601
N17825 X1.2464 Y-0.8587
N17830 X1.2421 Y-0.8531
N17835 X1.2324 Y-0.8407
N17840 G3 X1.2213 Y-0.8443 I-0.0049 J-0.0038
N17845 G1 Y-0.8606
N17850 Y-0.8624
N17855 X1.2215 Y-0.8634
N17860 X1.2219 Y-0.8644
N17865 X1.2221 Y-0.865
N17870 X1.2225 Y-0.8655
N17875 X1.2232 Y-0.8665
N17880 X1.2236 Y-0.8669
N17885 X1.2241 Y-0.8673
N17890 X1.2246 Y-0.8677
N17895 X1.2251 Y-0.868
N17900 X1.2256 Y-0.8683
N17905 X1.2267 Y-0.8686
N17910 G3 X1.2738 Y-0.8685 I0.0222 J0.4594
N17915 X1.2718 Y-0.8563 I-0.0021 J0.0059
N17920 G1 X1.2687
N17925 G3 X1.2683 Y-0.8687 I-0.0002 J-0.0062
N17930 G1 X1.2723
N17935 X1.2734 Y-0.8686
N17940 X1.2744 Y-0.8683
N17945 X1.2749 Y-0.868
N17950 X1.2754 Y-0.8677
N17955 X1.2759 Y-0.8673
N17960 X1.2764 Y-0.8669
N17965 X1.2768 Y-0.8665
N17970 X1.2775 Y-0.8655
N17975 X1.2779 Y-0.865
N17980 X1.2781 Y-0.8644
N17985 X1.2785 Y-0.8634
N17990 X1.2787 Y-0.8624
N17995 X1.2788 Y-0.8543
N18000 Y-0.8415
N18005 G0 Z0.2
N18010 G1 X2.0252 Y-0.6019 F500.
N18015 G0 Z-0.0875
N18020 G1 Z-0.0937 F12.5
N18025 X2.0249 Y-0.6017 Z-0.0957
N18030 X2.0242 Y-0.6013 Z-0.0974
N18035 X2.023 Y-0.6006 Z-0.0988
N18040 X2.0215 Y-0.5997 Z-0.0997
N18045 X2.0198 Y-0.5987 Z-0.1
N18050 G3 X1.9605 Y-0.5813 I-0.0637 J-0.1071
N18055 G1 X1.9424
N18060 X1.9396
N18065 X1.939
N18070 X1.9366 Y-0.5817
N18075 X1.9344 Y-0.5828
N18080 X1.9326 Y-0.5844
N18085 G3 X1.9419 Y-0.5925 I0.0052 J-0.0034
N18090 G1 X1.9503 Y-0.5853
N18095 X1.9541 Y-0.5819
N18100 X1.9551 Y-0.5814
N18105 X1.9562
N18110 X1.9572 Y-0.5819
N18115 X1.9578 Y-0.5829
N18120 X1.9579 Y-0.584
N18125 X1.9575 Y-0.585
N18130 X1.9566 Y-0.5857
N18135 X1.9555 Y-0.5859
N18140 X1.9545 Y-0.5856
N18145 G3 X1.9396 Y-0.5813 I-0.0159 J-0.0268
N18150 G1 X1.9383
N18155 X1.9375
N18160 X1.9366 Y-0.5814
N18165 X1.9357 Y-0.5817
N18170 X1.9349 Y-0.5822
N18175 X1.9343 Y-0.5826
N18180 X1.9338 Y-0.583
N18185 X1.9326 Y-0.5844
N18190 X1.9322 Y-0.5849
N18195 X1.932 Y-0.5853
N18200 X1.9316 Y-0.5863
N18205 X1.9313 Y-0.5873
N18210 X1.9312 Y-0.5883
N18215 Y-0.6066
N18220 G0 Z0.2
N18225 G1 X1.9519 Y-1.4254 F500.
N18230 G0 Z-0.0875
N18235 G1 Z-0.0937 F12.5
N18240 X1.9517 Y-1.4256 Z-0.0957
N18245 X1.9513 Y-1.4264 Z-0.0974
N18250 X1.9506 Y-1.4276 Z-0.0988
N18255 X1.9497 Y-1.4291 Z-0.0997
N18260 X1.9487 Y-1.4307 Z-0.1
N18265 G3 X1.9312 Y-1.4901 I0.1071 J-0.0637
N18270 G1 Y-1.5082
N18275 X1.9313 Y-1.5109
N18280 X1.9314 Y-1.5129
N18285 X1.9315 Y-1.5136
N18290 X1.9316 Y-1.5142
N18295 G3 X1.9419 Y-1.5074 I0.0057 J0.0026
N18300 G1 X1.9356 Y-1.5005
N18305 X1.9353 Y-1.5002
N18310 X1.9319 Y-1.4965
N18315 X1.9314 Y-1.4955
N18320 Y-1.4944
N18325 X1.9319 Y-1.4934
N18330 X1.9328 Y-1.4928
N18335 X1.9339 Y-1.4926
N18340 X1.935 Y-1.4931
N18345 X1.9357 Y-1.4939
N18350 X1.9359 Y-1.495
N18355 X1.9356 Y-1.4961
N18360 G3 X1.9313 Y-1.5109 I0.0268 J-0.0159
N18365 G1 Y-1.5122
N18370 X1.9314 Y-1.5132
N18375 X1.9316 Y-1.5142
N18380 X1.9319 Y-1.5148
N18385 X1.9321 Y-1.5153
N18390 X1.9325 Y-1.5158
N18395 X1.9329 Y-1.5163
N18400 X1.9336 Y-1.517
N18405 X1.9343 Y-1.5174
N18410 X1.9353 Y-1.5181
N18415 X1.9358 Y-1.5183
N18420 X1.9363 Y-1.5185
N18425 X1.9373 Y-1.5187
N18430 X1.9383
N18435 X1.9546
N18440 G3 X1.9544 Y-1.5063 I-0.0002 J0.0062
N18445 G1 X1.9526 Y-1.5065
N18450 X1.9511 Y-1.5072
N18455 X1.9497 Y-1.5083
N18460 X1.9491 Y-1.5098 Z-0.0998
N18465 X1.9486 Y-1.5111 Z-0.0992
N18470 X1.9481 Y-1.5123 Z-0.0982
N18475 Y-1.5125 Z-0.098
N18480 X1.9482 Y-1.5134 Z-0.0968
N18485 X1.9483 Y-1.514 Z-0.0953
N18490 X1.9484 Y-1.5142 Z-0.0938
N18495 G0 Z0.2
N18500 G1 X0.4748 Y-1.4981 F500.
N18505 G0 Z-0.1875
N18510 G1 Z-0.1937 F12.5
N18515 X0.4751 Y-1.4983 Z-0.1957
N18520 X0.4758 Y-1.4987 Z-0.1974
N18525 X0.477 Y-1.4994 Z-0.1988
N18530 X0.4785 Y-1.5003 Z-0.1997
N18535 X0.4802 Y-1.5013 Z-0.2
N18540 G3 X0.5395 Y-1.5187 I0.0637 J0.1071
N18545 G1 X0.5576
N18550 X0.5604
N18555 X0.5613
N18560 X0.5631 Y-1.5184
N18565 X0.5648 Y-1.5179
N18570 X0.5664 Y-1.5169
N18575 G3 X0.5579 Y-1.5078 I-0.0044 J0.0044
N18580 G1 X0.5498 Y-1.5148
N18585 X0.5459 Y-1.5181
N18590 X0.5449 Y-1.5186
N18595 X0.5438
N18600 X0.5428 Y-1.5181
N18605 X0.5422 Y-1.5171
N18610 X0.5421 Y-1.516
N18615 X0.5425 Y-1.515
N18620 X0.5434 Y-1.5143
N18625 X0.5445 Y-1.5141
N18630 X0.5455 Y-1.5144
N18635 G3 X0.5604 Y-1.5187 I0.0159 J0.0268
N18640 G1 X0.5617
N18645 X0.5627
N18650 X0.5637 Y-1.5185
N18655 X0.5642 Y-1.5183
N18660 X0.5647 Y-1.5181
N18665 X0.5657 Y-1.5174
N18670 X0.5664 Y-1.5169
N18675 X0.5671 Y-1.5163
N18680 X0.5675 Y-1.5158
N18685 X0.5679 Y-1.5153
N18690 X0.5681 Y-1.5148
N18695 X0.5684 Y-1.5142
N18700 X0.5686 Y-1.5132
N18705 X0.5687 Y-1.5122
N18710 Y-1.4947
N18715 G0 Z0.2
N18720 G1 X0.5481 Y-0.6753 F500.
N18725 G0 Z-0.1875
N18730 G1 Z-0.1937 F12.5
N18735 X0.5483 Y-0.6751 Z-0.1957
N18740 X0.5487 Y-0.6743 Z-0.1974
N18745 X0.5494 Y-0.6731 Z-0.1988
N18750 X0.5503 Y-0.6716 Z-0.1997
N18755 X0.5513 Y-0.67 Z-0.2
N18760 G3 X0.5687 Y-0.6106 I-0.1071 J0.0637
N18765 G1 Y-0.5921
N18770 Y-0.5892
N18775 X0.5686 Y-0.5875
N18780 X0.5684 Y-0.5863
N18785 X0.5675 Y-0.5848
N18790 X0.5662 Y-0.5836
N18795 X0.5647 Y-0.5827
N18800 X0.563 Y-0.5822
N18805 X0.5612
N18810 G3 X0.5687 Y-0.5892 I0.0007 J-0.0067
N18815 G1 Y-0.5883
N18820 Y-0.5873
N18825 X0.5684 Y-0.5863
N18830 X0.568 Y-0.5853
N18835 X0.5674 Y-0.5844
N18840 X0.5662 Y-0.583
N18845 X0.5657 Y-0.5826
N18850 X0.5651 Y-0.5822
N18855 X0.5643 Y-0.5817
N18860 X0.5634 Y-0.5814
N18865 X0.5625 Y-0.5813
N18870 X0.5617
N18875 X0.5442
N18880 G0 Z0.2
N18885 G1 X0.5743 Y-0.1975 F500.
N18890 G0 Z-0.1875
N18895 G1 Z-0.1937 F12.5
N18900 X0.5746 Y-0.1977 Z-0.1957
N18905 X0.5753 Y-0.1981 Z-0.1974
N18910 X0.5765 Y-0.1988 Z-0.1988
N18915 X0.578 Y-0.1997 Z-0.1997
N18920 X0.5797 Y-0.2008 Z-0.2
N18925 G3 X0.6388 Y-0.2188 I0.0647 J0.1065
N18930 G1 X0.6429
N18935 X0.651 Y-0.219
N18940 G3 X0.6463 Y-0.2084 I-0.0001 J0.0062
N18945 G1 X0.6457 Y-0.2099 Z-0.1998
N18950 X0.6452 Y-0.2112 Z-0.1992
N18955 X0.6447 Y-0.2124 Z-0.1982
N18960 Y-0.2127 Z-0.1979
N18965 X0.6448 Y-0.2135 Z-0.1966
N18970 Y-0.2141 Z-0.1952
N18975 X0.6449 Y-0.2143 Z-0.1938
N18980 G0 Z0.2
N18985 G1 X1.2158 Y-0.7145 F500.
N18990 G0 Z-0.1875
N18995 G1 Z-0.1937 F12.5
N19000 Y-0.7148 Z-0.1957
N19005 Y-0.7157 Z-0.1974
N19010 X1.2157 Y-0.7171 Z-0.1988
N19015 Y-0.7188 Z-0.1997
N19020 X1.2156 Y-0.7208 Z-0.2
N19025 G3 X1.2202 Y-0.7824 I0.2869 J-0.0095
N19030 G1 X1.2209 Y-0.7853
N19035 X1.2212 Y-0.7893
N19040 G3 X1.2376 Y-0.8174 I0.0248 J-0.0044
N19045 X1.2745 Y-0.8146 I0.0159 J0.0349
N19050 G1 X1.2776 Y-0.8097
N19055 X1.2788 Y-0.804
N19060 Y-0.7921
N19065 X1.2785 Y-0.7905
N19070 X1.2778 Y-0.789
N19075 X1.2767 Y-0.7877
N19080 X1.2754 Y-0.7868
N19085 X1.2738 Y-0.7862
N19090 X1.2722 Y-0.7861
N19095 X1.2512 Y-0.7873
N19100 X1.2488 Y-0.7874
N19105 X1.2271 Y-0.7886
N19110 X1.2253 Y-0.7889
N19115 X1.2237 Y-0.7898
N19120 X1.2224 Y-0.7912
N19125 X1.2216 Y-0.7928
N19130 X1.2212 Y-0.7946
N19135 X1.2213 Y-0.8109
N19140 G3 X1.2322 Y-0.8309 I0.0227 J-0.0007
N19145 X1.2682 Y-0.8371 I0.0249 J0.0371
N19150 G1 X1.2737 Y-0.8342
N19155 X1.2774 Y-0.8292
N19160 X1.2788 Y-0.8231
N19165 Y-0.804
N19170 X1.2784 Y-0.8023
N19175 X1.2777 Y-0.8007
N19180 X1.2765 Y-0.7994
N19185 X1.275 Y-0.7985
N19190 X1.2733 Y-0.798
N19195 X1.2716 Y-0.7981
N19200 X1.2514 Y-0.8011
N19205 X1.2486 Y-0.8015
N19210 X1.2266 Y-0.8049
N19215 X1.2249 Y-0.8054
N19220 X1.2234 Y-0.8063
N19225 X1.2223 Y-0.8076
N19230 X1.2215 Y-0.8092
N19235 X1.2213 Y-0.8109
N19240 Y-0.8271
N19245 G3 X1.2318 Y-0.8475 I0.0237 J-0.0007
N19250 X1.2677 Y-0.8558 I0.027 J0.0354
N19255 G1 X1.2734 Y-0.8528
N19260 X1.2773 Y-0.8478
N19265 X1.2788 Y-0.8415
N19270 Y-0.8231
N19275 X1.2785 Y-0.8214
N19280 X1.2777 Y-0.8199
N19285 X1.2766 Y-0.8186
N19290 X1.2752 Y-0.8177
N19295 X1.2736 Y-0.8172
N19300 X1.272 Y-0.8171
N19305 X1.2513 Y-0.8189
N19310 X1.2487 Y-0.8192
N19315 X1.2269 Y-0.8211
N19320 X1.2252 Y-0.8215
N19325 X1.2236 Y-0.8224
N19330 X1.2224 Y-0.8237
N19335 X1.2216 Y-0.8253
N19340 X1.2213 Y-0.8271
N19345 Y-0.8443
N19350 G3 X1.2417 Y-0.869 I0.0241 J-0.0008
N19355 G1 X1.2434 Y-0.8686
N19360 X1.245 Y-0.8679
N19365 X1.2463 Y-0.8667
N19370 X1.2472 Y-0.8652
N19375 X1.2477 Y-0.8635
N19380 X1.2478 Y-0.8618
N19385 X1.2473 Y-0.8601
N19390 X1.2464 Y-0.8587
N19395 X1.2421 Y-0.8531
N19400 X1.2324 Y-0.8407
N19405 G3 X1.2213 Y-0.8443 I-0.0049 J-0.0038
N19410 G1 Y-0.8606
N19415 Y-0.8624
N19420 X1.2215 Y-0.8634
N19425 X1.2219 Y-0.8644
N19430 X1.2221 Y-0.865
N19435 X1.2225 Y-0.8655
N19440 X1.2232 Y-0.8665
N19445 X1.2236 Y-0.8669
N19450 X1.2241 Y-0.8673
N19455 X1.2246 Y-0.8677
N19460 X1.2251 Y-0.868
N19465 X1.2256 Y-0.8683
N19470 X1.2267 Y-0.8686
N19475 G3 X1.2738 Y-0.8685 I0.0222 J0.4594
N19480 X1.2718 Y-0.8563 I-0.0021 J0.0059
N19485 G1 X1.2687
N19490 G3 X1.2683 Y-0.8687 I-0.0002 J-0.0062
N19495 G1 X1.2723
N19500 X1.2734 Y-0.8686
N19505 X1.2744 Y-0.8683
N19510 X1.2749 Y-0.868
N19515 X1.2754 Y-0.8677
N19520 X1.2759 Y-0.8673
N19525 X1.2764 Y-0.8669
N19530 X1.2768 Y-0.8665
N19535 X1.2775 Y-0.8655
N19540 X1.2779 Y-0.865
N19545 X1.2781 Y-0.8644
N19550 X1.2785 Y-0.8634
N19555 X1.2787 Y-0.8624
N19560 X1.2788 Y-0.8543
N19565 Y-0.8415
N19570 G0 Z0.2
N19575 G1 X2.0252 Y-0.6019 F500.
N19580 G0 Z-0.1875
N19585 G1 Z-0.1937 F12.5
N19590 X2.0249 Y-0.6017 Z-0.1957
N19595 X2.0242 Y-0.6013 Z-0.1974
N19600 X2.023 Y-0.6006 Z-0.1988
N19605 X2.0215 Y-0.5997 Z-0.1997
N19610 X2.0198 Y-0.5987 Z-0.2
N19615 G3 X1.9605 Y-0.5813 I-0.0637 J-0.1071
N19620 G1 X1.9424
N19625 X1.9396
N19630 X1.939
N19635 X1.9366 Y-0.5817
N19640 X1.9344 Y-0.5828
N19645 X1.9326 Y-0.5844
N19650 G3 X1.9419 Y-0.5925 I0.0052 J-0.0034
N19655 G1 X1.9503 Y-0.5853
N19660 X1.9541 Y-0.5819
N19665 X1.9551 Y-0.5814
N19670 X1.9562
N19675 X1.9572 Y-0.5819
N19680 X1.9578 Y-0.5829
N19685 X1.9579 Y-0.584
N19690 X1.9575 Y-0.585
N19695 X1.9566 Y-0.5857
N19700 X1.9555 Y-0.5859
N19705 X1.9545 Y-0.5856
N19710 G3 X1.9396 Y-0.5813 I-0.0159 J-0.0268
N19715 G1 X1.9383
N19720 X1.9375
N19725 X1.9366 Y-0.5814
N19730 X1.9357 Y-0.5817
N19735 X1.9349 Y-0.5822
N19740 X1.9343 Y-0.5826
N19745 X1.9338 Y-0.583
N19750 X1.9326 Y-0.5844
N19755 X1.9322 Y-0.5849
N19760 X1.932 Y-0.5853
N19765 X1.9316 Y-0.5863
N19770 X1.9313 Y-0.5873
N19775 X1.9312 Y-0.5883
N19780 Y-0.6066
N19785 G0 Z0.2
N19790 G1 X1.9519 Y-1.4254 F500.
N19795 G0 Z-0.1875
N19800 G1 Z-0.1937 F12.5
N19805 X1.9517 Y-1.4256 Z-0.1957
N19810 X1.9513 Y-1.4264 Z-0.1974
N19815 X1.9506 Y-1.4276 Z-0.1988
N19820 X1.9497 Y-1.4291 Z-0.1997
N19825 X1.9487 Y-1.4307 Z-0.2
N19830 G3 X1.9312 Y-1.4901 I0.1071 J-0.0637
N19835 G1 Y-1.5082
N19840 X1.9313 Y-1.5109
N19845 X1.9314 Y-1.5129
N19850 X1.9315 Y-1.5136
N19855 X1.9316 Y-1.5142
N19860 G3 X1.9419 Y-1.5074 I0.0057 J0.0026
N19865 G1 X1.9356 Y-1.5005
N19870 X1.9353 Y-1.5002
N19875 X1.9319 Y-1.4965
N19880 X1.9314 Y-1.4955
N19885 Y-1.4944
N19890 X1.9319 Y-1.4934
N19895 X1.9328 Y-1.4928
N19900 X1.9339 Y-1.4926
